; generated by PrusaSlicer 2.7.1+MacOS-arm64 on 2024-02-11 at 03:10:32 UTC


;
;

;
;

;
;

;
;

;
;
; 

; external perimeters extrusion width = 0.45mm
; perimeters extrusion width = 0.45mm
; infill extrusion width = 0.45mm
; solid infill extrusion width = 0.45mm
; top infill extrusion width = 0.40mm

M73 P0 R9

EXCLUDE_OBJECT_DEFINE NAME=0_40mm_nozzle_0_80mm_walls_stl CENTER=87.500,110.000 POLYGON=[[97.500,120.000],[77.500,120.000],[77.500,100.000],[97.500,100.000]]

;TYPE:Custom
CALCULATE_PA MATERIAL=PLA BOWDEN_LENGTH=5.5 LAYER_HEIGHT=0.2 NOZZLE_SIZE=0.4 PRINT_SPEED=90


START_PRINT EXTRUDER=210 BED=65
G21 ; set units to millimeters
G90 ; use absolute coordinates
M83 ; use relative distances for extrusion
; Filament gcode
M107
;LAYER_CHANGE
;Z:0.2
;HEIGHT:0.2
;BEFORE_LAYER_CHANGE
G92 E0.0
;0.2
;M201 X4000 Y4000
;M74 W0

G1 Z.2 F60000
;AFTER_LAYER_CHANGE
;0.2
CALCULATE_PA MATERIAL=PLA BOWDEN_LENGTH=6.0 LAYER_HEIGHT=0.24 NOZZLE_SIZE=0.4 PRINT_SPEED=90
G1 E-2 F3000
G1 X74.507 Y96.258 F60000
G1 Z.2
G1 E2 F3000
;TYPE:Skirt/Brim
;WIDTH:0.45
G1 F1800
G1 X75.29 Y95.743 E.03172
G1 X76.225 Y95.376 E.034
G1 X77.165 Y95.219 E.03226
G1 X97.887 Y95.223 E.70142
G1 X98.801 Y95.384 E.03141
G1 X99.714 Y95.745 E.03323
G1 X100.436 Y96.212 E.02911
G1 X101.105 Y96.841 E.03108
G1 X101.831 Y97.934 E.04441
G1 X102.114 Y98.688 E.02726
G1 X102.265 Y99.485 E.02746
G1 X102.281 Y120.327 E.70548
G1 X102.139 Y121.219 E.03057
G1 X101.835 Y122.058 E.03021
G1 X101.164 Y123.089 E.04164
G1 X100.493 Y123.742 E.03169
G1 X99.71 Y124.257 E.03172
G1 X98.775 Y124.624 E.034
G1 X97.836 Y124.781 E.03223
G1 X77.173 Y124.781 E.69942
G1 X76.281 Y124.639 E.03057
G1 X75.442 Y124.335 E.03021
G1 X74.411 Y123.664 E.04164
G1 X73.758 Y122.993 E.03169
G1 X73.243 Y122.21 E.03172
G1 X72.876 Y121.275 E.034
G1 X72.719 Y120.336 E.03223
G1 X72.719 Y99.673 E.69942
G1 X72.861 Y98.781 E.03057
G1 X73.165 Y97.942 E.03021
G1 X73.836 Y96.911 E.04164
G1 X74.464 Y96.299 E.02968
G1 X74.746 Y96.592 F60000
G1 F1800
G1 X74.775 Y96.564 E.00136
G1 X75.46 Y96.113 E.02776
G1 X76.316 Y95.774 E.03116
G1 X77.182 Y95.626 E.02974
G1 X97.869 Y95.63 E.70023
G1 X98.708 Y95.781 E.02886
G1 X99.543 Y96.115 E.03044
G1 X100.197 Y96.542 E.02644
G1 X100.808 Y97.121 E.02849
G1 X101.458 Y98.099 E.03975
G1 X101.726 Y98.814 E.02585
G1 X101.861 Y99.541 E.02503
G1 X101.874 Y120.311 E.70304
G1 X101.749 Y121.098 E.02697
M73 P1 R9
G1 X101.46 Y121.896 E.02873
G1 X100.836 Y122.846 E.03847
G1 X100.225 Y123.436 E.02875
G1 X99.54 Y123.887 E.02776
G1 X98.684 Y124.226 E.03116
G1 X97.818 Y124.374 E.02974
G1 X77.189 Y124.374 E.69827
G1 X76.402 Y124.249 E.02697
G1 X75.604 Y123.96 E.02873
G1 X74.654 Y123.336 E.03847
G1 X74.064 Y122.725 E.02875
G1 X73.613 Y122.04 E.02776
G1 X73.274 Y121.184 E.03116
G1 X73.126 Y120.318 E.02974
G1 X73.126 Y99.688 E.6983
G1 X73.251 Y98.902 E.02694
G1 X73.54 Y98.104 E.02873
G1 X74.164 Y97.154 E.03847
G1 X74.703 Y96.634 E.02535
G1 X74.984 Y96.928 F60000
G1 F1800
G1 X75.043 Y96.871 E.00278
G1 X75.631 Y96.483 E.02385
G1 X76.407 Y96.171 E.02831
G1 X77.2 Y96.033 E.02725
G1 X97.85 Y96.037 E.69898
G1 X98.613 Y96.177 E.02626
G1 X99.371 Y96.484 E.02768
G1 X99.957 Y96.871 E.02377
G1 X100.511 Y97.399 E.0259
G1 X101.086 Y98.265 E.03519
G1 X101.329 Y98.907 E.02324
G1 X101.458 Y99.597 E.02376
G1 X101.467 Y120.295 E.7006
G1 X101.351 Y121.013 E.02462
G1 X101.087 Y121.733 E.02596
G1 X100.511 Y122.601 E.03526
G1 X99.957 Y123.129 E.0259
G1 X99.369 Y123.517 E.02385
G1 X98.593 Y123.829 E.02831
G1 X97.8 Y123.967 E.02725
G1 X77.205 Y123.967 E.69712
G1 X76.487 Y123.851 E.02462
G1 X75.767 Y123.587 E.02596
G1 X74.899 Y123.011 E.03526
G1 X74.371 Y122.457 E.0259
G1 X73.983 Y121.869 E.02385
G1 X73.671 Y121.093 E.02831
G1 X73.533 Y120.3 E.02725
G1 X73.533 Y99.705 E.69712
G1 X73.649 Y98.987 E.02462
M73 P2 R9
G1 X73.913 Y98.267 E.02596
G1 X74.489 Y97.399 E.03526
G1 X74.94 Y96.969 E.02109
G1 X75.221 Y97.261 F60000
G1 F1800
G1 X75.285 Y97.199 E.00302
G1 X75.805 Y96.852 E.02116
G1 X76.501 Y96.568 E.02544
G1 X77.218 Y96.44 E.02465
G1 X97.83 Y96.444 E.69769
G1 X98.517 Y96.573 E.02366
G1 X99.197 Y96.852 E.02488
G1 X99.715 Y97.199 E.0211
G1 X100.212 Y97.677 E.02334
G1 X100.713 Y98.431 E.03064
G1 X100.942 Y99.033 E.0218
G1 X101.054 Y99.651 E.02126
G1 X101.06 Y120.278 E.6982
G1 X100.953 Y120.927 E.02226
M73 P2 R8
G1 X100.714 Y121.568 E.02316
G1 X100.212 Y122.323 E.03069
G1 X99.715 Y122.801 E.02334
G1 X99.195 Y123.148 E.02116
G1 X98.499 Y123.432 E.02544
G1 X97.782 Y123.56 E.02465
G1 X77.222 Y123.56 E.69593
G1 X76.573 Y123.453 E.02226
G1 X75.932 Y123.214 E.02316
G1 X75.177 Y122.712 E.03069
G1 X74.699 Y122.215 E.02334
G1 X74.352 Y121.695 E.02116
G1 X74.068 Y120.999 E.02544
G1 X73.94 Y120.282 E.02465
G1 X73.94 Y99.722 E.69593
G1 X74.047 Y99.073 E.02226
G1 X74.286 Y98.432 E.02316
G1 X74.788 Y97.677 E.03069
G1 X75.177 Y97.302 E.01829
G1 X75.459 Y97.593 F60000
G1 F1800
G1 X75.529 Y97.525 E.0033
G1 X75.981 Y97.219 E.01848
G1 X76.596 Y96.964 E.02254
G1 X77.237 Y96.847 E.02206
G1 X97.81 Y96.851 E.69637
G1 X98.418 Y96.969 E.02096
G1 X99.02 Y97.22 E.02208
G1 X99.471 Y97.525 E.01843
G1 X99.913 Y97.954 E.02085
G1 X100.342 Y98.598 E.02619
G1 X100.545 Y99.125 E.01912
G1 X100.65 Y99.706 E.01998
G1 X100.653 Y120.26 E.69573
G1 X100.555 Y120.838 E.01984
M73 P3 R8
G1 X100.341 Y121.402 E.02042
G1 X99.913 Y122.046 E.02617
G1 X99.471 Y122.475 E.02085
G1 X99.019 Y122.781 E.01848
G1 X98.404 Y123.036 E.02254
G1 X97.763 Y123.153 E.02206
G1 X77.24 Y123.153 E.69468
G1 X76.662 Y123.055 E.01984
G1 X76.098 Y122.841 E.02042
G1 X75.454 Y122.413 E.02617
G1 X75.025 Y121.971 E.02085
G1 X74.719 Y121.519 E.01848
G1 X74.464 Y120.904 E.02254
G1 X74.347 Y120.263 E.02206
G1 X74.347 Y99.74 E.69468
G1 X74.445 Y99.162 E.01984
G1 X74.659 Y98.598 E.02042
G1 X75.087 Y97.954 E.02617
G1 X75.416 Y97.634 E.01554
G1 X75.7 Y97.924 F60000
G1 F1800
G1 X75.775 Y97.85 E.00357
G1 X76.159 Y97.586 E.01577
G1 X76.694 Y97.36 E.01966
G1 X77.257 Y97.254 E.01939
G1 X97.789 Y97.258 E.69498
G1 X98.317 Y97.363 E.01822
G1 X98.841 Y97.586 E.01928
G1 X99.225 Y97.85 E.01577
G1 X99.613 Y98.229 E.01836
G1 X99.97 Y98.766 E.02183
G1 X100.158 Y99.253 E.01767
G1 X100.246 Y99.758 E.01735
G1 X100.246 Y120.242 E.69336
G1 X100.158 Y120.747 E.01735
G1 X99.97 Y121.234 E.01767
G1 X99.613 Y121.771 E.02183
G1 X99.225 Y122.15 E.01836
G1 X98.841 Y122.414 E.01577
G1 X98.306 Y122.64 E.01966
G1 X97.744 Y122.746 E.01936
G1 X77.258 Y122.746 E.69343
G1 X76.753 Y122.658 E.01735
G1 X76.266 Y122.47 E.01767
G1 X75.729 Y122.113 E.02183
G1 X75.35 Y121.725 E.01836
G1 X75.086 Y121.341 E.01577
G1 X74.86 Y120.806 E.01966
G1 X74.754 Y120.244 E.01936
G1 X74.754 Y99.758 E.69343
G1 X74.842 Y99.253 E.01735
G1 X75.03 Y98.766 E.01767
G1 X75.387 Y98.229 E.02183
G1 X75.657 Y97.966 E.01276
G1 X75.942 Y98.254 F60000
G1 F1800
G1 X76.023 Y98.173 E.00388
G1 X76.341 Y97.95 E.01315
G1 X76.795 Y97.755 E.01672
G1 X77.277 Y97.661 E.01662
G1 X97.768 Y97.665 E.6936
G1 X98.212 Y97.757 E.01535
M73 P4 R8
G1 X98.659 Y97.95 E.01648
G1 X98.977 Y98.173 E.01315
G1 X99.311 Y98.504 E.01592
G1 X99.599 Y98.936 E.01757
G1 X99.761 Y99.346 E.01492
G1 X99.839 Y99.777 E.01483
G1 X99.839 Y120.223 E.69207
G1 X99.761 Y120.654 E.01483
G1 X99.599 Y121.064 E.01492
G1 X99.311 Y121.496 E.01757
G1 X98.977 Y121.827 E.01592
G1 X98.659 Y122.05 E.01315
G1 X98.205 Y122.245 E.01672
G1 X97.723 Y122.339 E.01662
G1 X77.277 Y122.339 E.69207
G1 X76.846 Y122.261 E.01483
G1 X76.436 Y122.099 E.01492
G1 X76.004 Y121.811 E.01757
G1 X75.673 Y121.477 E.01592
G1 X75.45 Y121.159 E.01315
G1 X75.255 Y120.705 E.01672
G1 X75.161 Y120.223 E.01662
G1 X75.161 Y99.777 E.69207
G1 X75.239 Y99.346 E.01483
G1 X75.401 Y98.936 E.01492
G1 X75.689 Y98.504 E.01757
G1 X75.899 Y98.296 E.01
G1 X76.186 Y98.582 F60000
G1 F1800
G1 X76.275 Y98.493 E.00426
G1 X76.526 Y98.313 E.01045
G1 X76.899 Y98.149 E.01379
G1 X77.298 Y98.068 E.01378
G1 X97.745 Y98.072 E.69211
G1 X98.104 Y98.15 E.01244
G1 X98.474 Y98.314 E.0137
G1 X99.009 Y98.777 E.02395
G1 X99.23 Y99.108 E.01347
G1 X99.365 Y99.443 E.01223
G1 X99.432 Y99.797 E.0122
G1 X99.432 Y120.203 E.69072
G1 X99.365 Y120.557 E.0122
G1 X99.23 Y120.892 E.01223
G1 X99.009 Y121.223 E.01347
G1 X98.725 Y121.507 E.01359
G1 X98.474 Y121.687 E.01045
G1 X98.101 Y121.851 E.01379
G1 X97.702 Y121.932 E.01378
G1 X77.297 Y121.932 E.69068
G1 X76.943 Y121.865 E.0122
G1 X76.608 Y121.73 E.01223
G1 X76.277 Y121.509 E.01347
G1 X75.993 Y121.225 E.01359
G1 X75.813 Y120.974 E.01045
G1 X75.649 Y120.601 E.01379
G1 X75.568 Y120.202 E.01378
G1 X75.568 Y99.797 E.69068
G1 X75.635 Y99.443 E.0122
M73 P5 R8
G1 X75.77 Y99.108 E.01223
G1 X75.991 Y98.777 E.01347
G1 X76.143 Y98.625 E.00728
G1 X76.421 Y98.936 F60000
G1 F1800
G1 X76.711 Y98.677 E.01316
G1 X77.043 Y98.53 E.01229
G1 X77.318 Y98.475 E.00949
G1 X97.723 Y98.479 E.69068
G1 X98.289 Y98.677 E.0203
G1 X98.707 Y99.051 E.01899
G1 X98.862 Y99.283 E.00944
G1 X99.025 Y99.818 E.01893
G1 X99.025 Y120.182 E.6893
G1 X98.862 Y120.717 E.01893
G1 X98.707 Y120.949 E.00944
G1 X98.289 Y121.323 E.01899
G1 X97.957 Y121.47 E.01229
G1 X97.682 Y121.525 E.00949
G1 X77.318 Y121.525 E.6893
G1 X76.783 Y121.362 E.01893
G1 X76.551 Y121.207 E.00944
G1 X76.177 Y120.789 E.01899
G1 X76.03 Y120.457 E.01229
G1 X75.975 Y120.182 E.00949
G1 X75.975 Y99.818 E.6893
G1 X76.138 Y99.283 E.01893
G1 X76.293 Y99.051 E.00944
G1 X76.377 Y98.976 E.00381
G1 X76.649 Y99.275 F60000
G1 F1800
G1 X76.925 Y99.023 E.01265
G1 X77.338 Y98.882 E.01477
G1 X97.7 Y98.886 E.68923
G1 X98.075 Y99.023 E.01351
G1 X98.405 Y99.325 E.01514
G1 X98.618 Y99.838 E.0188
G1 X98.618 Y120.162 E.68794
G1 X98.494 Y120.543 E.01356
G1 X98.174 Y120.907 E.01641
G1 X97.662 Y121.118 E.01874
G1 X77.338 Y121.118 E.68794
G1 X76.957 Y120.994 E.01356
M73 P6 R8
G1 X76.593 Y120.674 E.01641
G1 X76.382 Y120.162 E.01874
G1 X76.382 Y99.838 E.68794
G1 X76.595 Y99.325 E.0188
G1 X76.605 Y99.315 E.00048
G1 X76.897 Y99.598 F60000
G1 F1800
G1 X77.098 Y99.397 E.00962
G1 X77.358 Y99.289 E.00953
G1 X97.682 Y99.297 E.68794
G1 X97.902 Y99.397 E.00818
G1 X98.103 Y99.598 E.00962
G1 X98.211 Y99.858 E.00953
G1 X98.211 Y120.142 E.68659
G1 X98.103 Y120.402 E.00953
G1 X97.902 Y120.603 E.00962
G1 X97.642 Y120.711 E.00953
G1 X77.358 Y120.711 E.68659
G1 X77.098 Y120.603 E.00953
G1 X76.897 Y120.402 E.00962
G1 X76.789 Y120.142 E.00953
G1 X76.789 Y99.858 E.68659
G1 X76.874 Y99.654 E.00748
G1 X77.227 Y99.843 F60000
G1 F1800
G1 X77.418 Y99.696 E.00816
G1 X97.582 Y99.696 E.68253
G1 X97.804 Y99.918 E.01063
G1 X97.773 Y120.157 E.68507
G1 X97.582 Y120.304 E.00816
G1 X77.343 Y120.273 E.68507
G1 X77.196 Y120.082 E.00816
M73 P7 R8
G1 X77.227 Y99.903 E.68304
EXCLUDE_OBJECT_START NAME=0_40mm_nozzle_0_80mm_walls_stl
G1 E-2 F3000
G1 X77.227 Y99.903 F60000
G1 X97.275 Y100.225
G1 E2 F3000
;TYPE:External perimeter
G1 F1800
G1 X97.275 Y119.775 E.66174
G1 X77.725 Y119.775 E.66174
G1 X77.725 Y100.225 E.66174
G1 X97.215 Y100.225 E.65971
G1 X97.274 Y100.621 F60000
G1 X96.868 Y100.632
;TYPE:Perimeter
G1 F1800
G1 X96.868 Y119.368 E.63419
G1 X78.132 Y119.368 E.63419
G1 X78.132 Y100.632 E.63419
G1 X96.808 Y100.632 E.63216
M73 P8 R8
G1 X96.461 Y101.039 F60000
G1 F1800
G1 X96.461 Y118.961 E.60664
G1 X78.539 Y118.961 E.60664
G1 X78.539 Y101.039 E.60664
G1 X96.401 Y101.039 E.60461
G1 X95.508 Y101.161 F60000
;TYPE:Solid infill
;WIDTH:0.453694
G1 F1800
G1 X96.156 Y101.809 E.0313
G1 X96.156 Y102.39 E.01984
G1 X95.11 Y101.344 E.05053
G1 X94.529 Y101.344 E.01984
G1 X96.156 Y102.971 E.07859
G1 X96.156 Y103.552 E.01984
G1 X93.948 Y101.344 E.10665
G1 X93.367 Y101.344 E.01984
G1 X96.156 Y104.133 E.13472
G1 X96.156 Y104.713 E.01981
G1 X92.787 Y101.344 E.16274
G1 X92.206 Y101.344 E.01984
G1 X96.156 Y105.294 E.1908
G1 X96.156 Y105.875 E.01984
G1 X91.625 Y101.344 E.21886
G1 X91.044 Y101.344 E.01984
G1 X96.156 Y106.456 E.24693
G1 X96.156 Y107.037 E.01984
G1 X90.463 Y101.344 E.27499
G1 X89.882 Y101.344 E.01984
G1 X96.156 Y107.618 E.30306
G1 X96.156 Y108.199 E.01984
M73 P9 R8
G1 X89.301 Y101.344 E.33112
G1 X88.72 Y101.344 E.01984
G1 X96.156 Y108.78 E.35919
G1 X96.156 Y109.361 E.01984
G1 X88.139 Y101.344 E.38725
G1 X87.558 Y101.344 E.01984
G1 X96.156 Y109.942 E.41532
G1 X96.156 Y110.523 E.01984
G1 X86.977 Y101.344 E.44338
G1 X86.396 Y101.344 E.01984
G1 X96.156 Y111.104 E.47145
G1 X96.156 Y111.685 E.01984
G1 X85.815 Y101.344 E.49951
G1 X85.235 Y101.344 E.01981
G1 X96.156 Y112.265 E.52753
G1 X96.156 Y112.846 E.01984
G1 X84.654 Y101.344 E.55559
G1 X84.073 Y101.344 E.01984
G1 X96.156 Y113.427 E.58366
G1 X96.156 Y114.008 E.01984
G1 X83.492 Y101.344 E.61172
G1 X82.911 Y101.344 E.01984
G1 X96.156 Y114.589 E.63978
G1 X96.156 Y115.17 E.01984
M73 P10 R8
G1 X82.33 Y101.344 E.66785
G1 X81.749 Y101.344 E.01984
G1 X96.156 Y115.751 E.69591
G1 X96.156 Y116.332 E.01984
G1 X81.168 Y101.344 E.72398
G1 X80.587 Y101.344 E.01984
G1 X96.156 Y116.913 E.75204
G1 X96.156 Y117.494 E.01984
G1 X80.006 Y101.344 E.78011
G1 X79.425 Y101.344 E.01984
G1 X96.156 Y118.075 E.80817
G1 X96.156 Y118.656 E.01984
G1 X78.844 Y101.345 E.83621
G1 X78.844 Y101.925 E.01981
M73 P11 R8
G1 X95.575 Y118.656 E.80817
G1 X94.994 Y118.656 E.01984
G1 X78.844 Y102.506 E.78011
G1 X78.844 Y103.087 E.01984
G1 X94.413 Y118.656 E.75204
G1 X93.832 Y118.656 E.01984
G1 X78.844 Y103.668 E.72398
G1 X78.844 Y104.249 E.01984
G1 X93.251 Y118.656 E.69591
G1 X92.67 Y118.656 E.01984
G1 X78.844 Y104.83 E.66785
G1 X78.844 Y105.411 E.01984
G1 X92.089 Y118.656 E.63978
G1 X91.508 Y118.656 E.01984
M73 P12 R8
G1 X78.844 Y105.992 E.61172
G1 X78.844 Y106.573 E.01984
G1 X90.927 Y118.656 E.58366
G1 X90.346 Y118.656 E.01984
G1 X78.844 Y107.154 E.55559
G1 X78.844 Y107.735 E.01984
G1 X89.765 Y118.656 E.52753
G1 X89.184 Y118.656 E.01984
G1 X78.844 Y108.316 E.49946
G1 X78.844 Y108.897 E.01984
G1 X88.603 Y118.656 E.4714
G1 X88.023 Y118.656 E.01981
G1 X78.844 Y109.477 E.44338
G1 X78.844 Y110.058 E.01984
G1 X87.442 Y118.656 E.41532
G1 X86.861 Y118.656 E.01984
G1 X78.844 Y110.639 E.38725
G1 X78.844 Y111.22 E.01984
G1 X86.28 Y118.656 E.35919
G1 X85.699 Y118.656 E.01984
G1 X78.844 Y111.801 E.33112
G1 X78.844 Y112.382 E.01984
M73 P13 R8
G1 X85.118 Y118.656 E.30306
G1 X84.537 Y118.656 E.01984
G1 X78.844 Y112.963 E.27499
G1 X78.844 Y113.544 E.01984
G1 X83.956 Y118.656 E.24693
G1 X83.375 Y118.656 E.01984
G1 X78.844 Y114.125 E.21886
M73 P13 R7
G1 X78.844 Y114.706 E.01984
G1 X82.794 Y118.656 E.1908
G1 X82.213 Y118.656 E.01984
G1 X78.844 Y115.287 E.16274
G1 X78.844 Y115.868 E.01984
G1 X81.632 Y118.656 E.13467
G1 X81.052 Y118.656 E.01981
G1 X78.844 Y116.448 E.10665
G1 X78.844 Y117.029 E.01984
G1 X80.471 Y118.656 E.07859
G1 X79.89 Y118.656 E.01984
G1 X78.844 Y117.61 E.05053
G1 X78.844 Y118.191 E.01984
G1 X79.492 Y118.839 E.0313
EXCLUDE_OBJECT_END NAME=0_40mm_nozzle_0_80mm_walls_stl
;LAYER_CHANGE
;Z:0.400071
;HEIGHT:0.200071
;BEFORE_LAYER_CHANGE
G92 E0.0
;0.400071
;M201 X4000 Y4000
;M74 W0

G1 Z.4 F60000
;AFTER_LAYER_CHANGE
;0.400071
CALCULATE_PA MATERIAL=PLA BOWDEN_LENGTH=6.0 LAYER_HEIGHT=0.24 NOZZLE_SIZE=0.4 PRINT_SPEED=90
M104 S200 ; set temperature
M140 S60 ; set bed temperature
EXCLUDE_OBJECT_START NAME=0_40mm_nozzle_0_80mm_walls_stl
G1 E-2 F3000
G1 X79.492 Y118.839 F60000
G1 X96.461 Y101.039
G1 E2 F3000
;TYPE:Perimeter
;WIDTH:0.45
G1 F6000
G1 X96.461 Y118.961 E.60683
G1 X78.539 Y118.961 E.60683
G1 X78.539 Y101.039 E.60683
G1 X96.401 Y101.039 E.6048
G1 X96.868 Y100.632 F60000
G1 F6000
G1 X96.868 Y119.368 E.63439
G1 X78.132 Y119.368 E.63439
G1 X78.132 Y100.632 E.63439
G1 X96.808 Y100.632 E.63236
G1 X97.275 Y100.225 F60000
;TYPE:External perimeter
G1 F5400
G1 X97.275 Y119.775 E.66195
G1 X77.725 Y119.775 E.66195
G1 X77.725 Y100.225 E.66195
G1 X97.215 Y100.225 E.65992
G1 X97.274 Y100.621 F60000
M73 P14 R7
G1 E-2 F3000
G1 X96.341 Y118.118 F60000
G1 E2 F3000
;TYPE:Top solid infill
;WIDTH:0.400897
G1 F1800
G1 X95.778 Y118.681 E.02371
G1 X95.272 Y118.681 E.01507
G1 X96.181 Y117.772 E.03828
G1 X96.181 Y117.266 E.01507
G1 X94.766 Y118.681 E.05958
G1 X94.26 Y118.681 E.01507
G1 X96.181 Y116.76 E.08089
G1 X96.181 Y116.253 E.0151
G1 X93.753 Y118.681 E.10224
G1 X93.247 Y118.681 E.01507
G1 X96.181 Y115.747 E.12355
G1 X96.181 Y115.241 E.01507
G1 X92.741 Y118.681 E.14485
G1 X92.235 Y118.681 E.01507
G1 X96.181 Y114.735 E.16616
