; generated by PrusaSlicer 2.7.1+MacOS-arm64 on 2024-02-11 at 02:25:29 UTC


;
;

;
;

;
;

;
;

;
;
; 

; external perimeters extrusion width = 0.45mm
; perimeters extrusion width = 0.45mm
; infill extrusion width = 0.45mm
; solid infill extrusion width = 0.45mm
; top infill extrusion width = 0.40mm

M73 P0 R7

EXCLUDE_OBJECT_DEFINE NAME=0_40mm_nozzle_0_80mm_walls_stl CENTER=87.500,110.000 POLYGON=[[97.500,120.000],[77.500,120.000],[77.500,100.000],[97.500,100.000]]

;TYPE:Custom
CALCULATE_PA MATERIAL=PLA BOWDEN_LENGTH=5.5 LAYER_HEIGHT=0.22 NOZZLE_SIZE=0.4 PRINT_SPEED=90


START_PRINT EXTRUDER=210 BED=65
G21 ; set units to millimeters
G90 ; use absolute coordinates
M83 ; use relative distances for extrusion
; Filament gcode
M107
;LAYER_CHANGE
;Z:0.22
;HEIGHT:0.22
;BEFORE_LAYER_CHANGE
G92 E0.0
;0.22
;M201 X4000 Y4000
M74 W0

G1 Z.22 F36000
;AFTER_LAYER_CHANGE
;0.22
CALCULATE_PA MATERIAL=PLA BOWDEN_LENGTH=6. LAYER_HEIGHT=0.2 NOZZLE_SIZE=0.4 PRINT_SPEED=90
G1 E-2 F3000
G1 X74.732 Y96.501 F36000
G1 Z.22
G1 E2 F3000
;TYPE:Skirt/Brim
;WIDTH:0.45
G1 F1800
G1 X75.511 Y95.987 E.03438
G1 X76.438 Y95.624 E.03668
G1 X77.368 Y95.468 E.03474
G1 X97.684 Y95.472 E.74846
G1 X98.588 Y95.632 E.03382
G1 X99.491 Y95.988 E.03576
G1 X100.205 Y96.451 E.03135
G1 X100.857 Y97.063 E.03294
G1 X101.379 Y97.773 E.03247
G1 X101.773 Y98.606 E.03395
G1 X102.019 Y99.736 E.04261
G1 X102.032 Y120.14 E.75171
G1 X101.775 Y121.389 E.04698
G1 X101.424 Y122.15 E.03087
G1 X100.961 Y122.815 E.02985
G1 X100.268 Y123.499 E.03587
G1 X99.489 Y124.013 E.03438
G1 X98.562 Y124.376 E.03668
G1 X97.633 Y124.532 E.0347
G1 X77.359 Y124.532 E.74692
G1 X76.111 Y124.275 E.04694
G1 X75.35 Y123.924 E.03087
G1 X74.685 Y123.461 E.02985
G1 X74.001 Y122.768 E.03587
G1 X73.487 Y121.989 E.03438
G1 X73.124 Y121.062 E.03668
G1 X72.968 Y120.133 E.0347
G1 X72.968 Y99.859 E.74692
G1 X73.225 Y98.611 E.04694
G1 X73.576 Y97.85 E.03087
G1 X74.039 Y97.185 E.02985
G1 X74.69 Y96.543 E.03368
G1 X74.97 Y96.827 F36000
G1 F1800
G1 X74.972 Y96.825 E.0001
G1 X75.68 Y96.353 E.03135
G1 X76.528 Y96.017 E.0336
G1 X77.385 Y95.871 E.03203
G1 X97.665 Y95.875 E.74714
G1 X98.496 Y96.024 E.0311
M73 P1 R7
G1 X99.322 Y96.355 E.03278
G1 X99.969 Y96.777 E.02846
G1 X100.566 Y97.343 E.03031
G1 X101.042 Y97.994 E.02971
G1 X101.398 Y98.755 E.03095
G1 X101.621 Y99.799 E.03933
G1 X101.629 Y120.12 E.74865
G1 X101.399 Y121.243 E.04223
G1 X101.083 Y121.935 E.02803
G1 X100.641 Y122.57 E.0285
G1 X100.028 Y123.175 E.03173
G1 X99.32 Y123.647 E.03135
G1 X98.472 Y123.983 E.0336
G1 X97.615 Y124.129 E.03203
G1 X77.38 Y124.129 E.74548
G1 X76.257 Y123.899 E.04223
G1 X75.565 Y123.583 E.02803
G1 X74.93 Y123.141 E.0285
G1 X74.325 Y122.528 E.03173
G1 X73.853 Y121.82 E.03135
G1 X73.517 Y120.972 E.0336
G1 X73.371 Y120.115 E.03203
G1 X73.371 Y99.88 E.74548
G1 X73.601 Y98.757 E.04223
G1 X73.917 Y98.065 E.02803
G1 X74.359 Y97.43 E.0285
G1 X74.927 Y96.869 E.02941
G1 X75.208 Y97.153 F36000
G1 F1800
G1 X75.213 Y97.148 E.00026
G1 X75.851 Y96.719 E.02832
G1 X76.618 Y96.41 E.03046
G1 X77.403 Y96.274 E.02935
G1 X97.646 Y96.277 E.74577
G1 X98.402 Y96.416 E.02832
G1 X99.152 Y96.72 E.02981
G1 X99.732 Y97.103 E.02561
G1 X100.274 Y97.621 E.02762
G1 X100.704 Y98.214 E.02699
G1 X101.023 Y98.903 E.02797
G1 X101.222 Y99.86 E.03601
G1 X101.226 Y120.1 E.74566
G1 X101.023 Y121.097 E.03748
M73 P2 R7
G1 X100.725 Y121.751 E.02648
G1 X100.323 Y122.323 E.02576
G1 X99.787 Y122.852 E.02774
G1 X99.149 Y123.281 E.02832
G1 X98.382 Y123.59 E.03046
G1 X97.598 Y123.726 E.02931
G1 X77.4 Y123.726 E.74412
G1 X76.403 Y123.523 E.03748
G1 X75.749 Y123.225 E.02648
G1 X75.177 Y122.823 E.02576
G1 X74.648 Y122.287 E.02774
G1 X74.219 Y121.649 E.02832
G1 X73.91 Y120.882 E.03046
G1 X73.774 Y120.098 E.02931
G1 X73.774 Y99.9 E.74412
G1 X73.977 Y98.903 E.03748
G1 X74.275 Y98.249 E.02648
G1 X74.677 Y97.677 E.02576
G1 X75.165 Y97.195 E.02527
G1 X75.447 Y97.483 F36000
G1 F1800
G1 X75.482 Y97.449 E.0018
G1 X76.022 Y97.084 E.02401
G1 X76.711 Y96.803 E.02741
G1 X77.421 Y96.676 E.02657
G1 X97.627 Y96.68 E.74441
G1 X98.306 Y96.808 E.02546
G1 X98.979 Y97.084 E.0268
G1 X99.492 Y97.427 E.02273
G1 X99.981 Y97.898 E.02501
G1 X100.365 Y98.432 E.02423
G1 X100.647 Y99.048 E.02496
G1 X100.824 Y99.92 E.03278
G1 X100.824 Y120.08 E.74272
G1 X100.647 Y120.952 E.03278
G1 X100.384 Y121.535 E.02356
G1 X100.004 Y122.076 E.02436
G1 X99.518 Y122.551 E.02504
G1 X98.978 Y122.916 E.02401
G1 X98.289 Y123.197 E.02741
G1 X97.579 Y123.324 E.02657
G1 X77.42 Y123.324 E.74268
G1 X76.548 Y123.147 E.03278
G1 X75.965 Y122.884 E.02356
G1 X75.424 Y122.504 E.02436
G1 X74.949 Y122.018 E.02504
G1 X74.584 Y121.478 E.02401
M73 P3 R7
G1 X74.303 Y120.789 E.02741
G1 X74.176 Y120.079 E.02657
G1 X74.176 Y99.92 E.74268
G1 X74.353 Y99.048 E.03278
G1 X74.616 Y98.465 E.02356
G1 X74.996 Y97.924 E.02436
G1 X75.404 Y97.525 E.02102
G1 X75.684 Y97.813 F36000
G1 F1800
G1 X75.749 Y97.75 E.00333
G1 X76.196 Y97.448 E.01987
G1 X76.805 Y97.195 E.0243
G1 X77.44 Y97.079 E.02378
G1 X97.607 Y97.083 E.74297
G1 X98.209 Y97.199 E.02259
G1 X98.804 Y97.448 E.02376
G1 X99.251 Y97.75 E.01987
G1 X99.687 Y98.173 E.02238
G1 X100.025 Y98.649 E.02151
G1 X100.27 Y99.193 E.02198
G1 X100.421 Y99.94 E.02808
G1 X100.421 Y120.06 E.74124
G1 X100.27 Y120.807 E.02808
G1 X100.025 Y121.351 E.02198
G1 X99.687 Y121.827 E.02151
G1 X99.251 Y122.25 E.02238
G1 X98.804 Y122.552 E.01987
G1 X98.195 Y122.805 E.0243
G1 X97.561 Y122.921 E.02375
G1 X77.44 Y122.921 E.74128
G1 X76.693 Y122.77 E.02808
G1 X76.149 Y122.525 E.02198
G1 X75.673 Y122.187 E.02151
G1 X75.25 Y121.751 E.02238
G1 X74.948 Y121.304 E.01987
G1 X74.695 Y120.695 E.0243
G1 X74.579 Y120.061 E.02375
G1 X74.579 Y99.94 E.74128
G1 X74.73 Y99.193 E.02808
G1 X74.975 Y98.649 E.02198
G1 X75.313 Y98.173 E.02151
G1 X75.641 Y97.855 E.01683
G1 X75.921 Y98.141 F36000
G1 F1800
G1 X75.993 Y98.072 E.00367
G1 X76.373 Y97.81 E.017
G1 X76.902 Y97.587 E.02115
G1 X77.459 Y97.482 E.02088
G1 X97.587 Y97.486 E.74154
G1 X98.108 Y97.59 E.01957
M73 P4 R7
G1 X98.627 Y97.81 E.02077
G1 X99.007 Y98.072 E.017
G1 X99.391 Y98.447 E.01977
G1 X99.683 Y98.863 E.01872
G1 X99.893 Y99.335 E.01903
G1 X100.018 Y99.96 E.02348
G1 X100.018 Y120.04 E.73977
G1 X99.893 Y120.665 E.02348
G1 X99.683 Y121.137 E.01903
G1 X99.391 Y121.553 E.01872
G1 X99.008 Y121.928 E.01975
G1 X98.627 Y122.19 E.01703
G1 X98.098 Y122.413 E.02115
G1 X97.541 Y122.518 E.02088
G1 X77.46 Y122.518 E.73981
G1 X76.835 Y122.393 E.02348
G1 X76.363 Y122.183 E.01903
G1 X75.947 Y121.891 E.01872
G1 X75.572 Y121.508 E.01975
G1 X75.31 Y121.127 E.01703
G1 X75.087 Y120.598 E.02115
G1 X74.982 Y120.041 E.02088
G1 X74.982 Y99.96 E.73981
G1 X75.107 Y99.335 E.02348
G1 X75.317 Y98.863 E.01903
G1 X75.609 Y98.447 E.01872
G1 X75.878 Y98.183 E.01389
G1 X76.16 Y98.468 F36000
G1 F1800
G1 X76.238 Y98.391 E.00404
G1 X76.553 Y98.171 E.01416
G1 X77.002 Y97.977 E.01802
G1 X77.479 Y97.885 E.0179
G1 X97.565 Y97.889 E.73999
G1 X98.005 Y97.98 E.01655
G1 X98.447 Y98.171 E.01774
G1 X98.762 Y98.391 E.01416
G1 X99.094 Y98.72 E.01722
G1 X99.341 Y99.075 E.01593
G1 X99.515 Y99.475 E.01607
G1 X99.615 Y99.98 E.01897
G1 X99.615 Y120.02 E.7383
G1 X99.515 Y120.525 E.01897
G1 X99.341 Y120.925 E.01607
G1 X99.094 Y121.28 E.01593
G1 X98.762 Y121.609 E.01722
G1 X98.447 Y121.829 E.01416
G1 X97.998 Y122.023 E.01802
G1 X97.521 Y122.115 E.0179
G1 X77.48 Y122.115 E.73833
G1 X76.975 Y122.015 E.01897
M73 P5 R7
G1 X76.575 Y121.841 E.01607
G1 X76.22 Y121.594 E.01593
G1 X75.891 Y121.262 E.01722
G1 X75.671 Y120.947 E.01416
G1 X75.477 Y120.498 E.01802
G1 X75.385 Y120.021 E.0179
G1 X75.385 Y99.98 E.73833
G1 X75.485 Y99.475 E.01897
G1 X75.659 Y99.075 E.01607
G1 X75.906 Y98.72 E.01593
G1 X76.118 Y98.51 E.01099
G1 X76.401 Y98.794 F36000
G1 F1800
G1 X76.487 Y98.708 E.00448
G1 X76.736 Y98.53 E.01128
G1 X77.105 Y98.367 E.01486
G1 X77.5 Y98.287 E.01485
G1 X97.543 Y98.291 E.73841
G1 X97.898 Y98.369 E.01339
G1 X98.264 Y98.53 E.01473
G1 X98.795 Y98.99 E.02588
G1 X98.996 Y99.285 E.01315
G1 X99.136 Y99.613 E.01314
G1 X99.213 Y99.999 E.0145
G1 X99.213 Y120.001 E.7369
G1 X99.136 Y120.387 E.0145
G1 X98.996 Y120.715 E.01314
G1 X98.795 Y121.01 E.01315
G1 X98.513 Y121.292 E.01469
G1 X98.264 Y121.47 E.01128
G1 X97.895 Y121.633 E.01486
G1 X97.501 Y121.713 E.01481
G1 X77.499 Y121.713 E.7369
G1 X77.113 Y121.636 E.0145
G1 X76.785 Y121.496 E.01314
G1 X76.49 Y121.295 E.01315
G1 X76.208 Y121.013 E.01469
G1 X76.03 Y120.764 E.01128
G1 X75.867 Y120.395 E.01486
G1 X75.787 Y120.001 E.01481
G1 X75.787 Y99.999 E.7369
G1 X75.864 Y99.613 E.0145
G1 X76.004 Y99.285 E.01314
G1 X76.205 Y98.99 E.01315
G1 X76.359 Y98.836 E.00802
G1 X76.634 Y99.144 F36000
G1 F1800
G1 X76.918 Y98.89 E.01404
G1 X77.247 Y98.745 E.01325
G1 X77.519 Y98.69 E.01022
G1 X97.521 Y98.694 E.7369
G1 X98.082 Y98.89 E.02189
M73 P6 R7
G1 X98.496 Y99.26 E.02046
G1 X98.756 Y99.748 E.02037
G1 X98.81 Y100.019 E.01018
G1 X98.81 Y119.981 E.73542
G1 X98.756 Y120.252 E.01018
G1 X98.496 Y120.74 E.02037
G1 X98.082 Y121.11 E.02046
G1 X97.753 Y121.255 E.01325
G1 X97.481 Y121.31 E.01022
G1 X77.519 Y121.31 E.73542
G1 X77.248 Y121.256 E.01018
G1 X76.76 Y120.996 E.02037
G1 X76.39 Y120.582 E.02046
G1 X76.245 Y120.253 E.01325
G1 X76.19 Y119.981 E.01022
G1 X76.19 Y100.019 E.73542
G1 X76.244 Y99.748 E.01018
G1 X76.504 Y99.26 E.02037
G1 X76.59 Y99.184 E.00423
G1 X76.859 Y99.48 F36000
G1 F1800
G1 X77.131 Y99.232 E.01356
G1 X77.539 Y99.093 E.01588
G1 X97.498 Y99.097 E.73531
G1 X97.869 Y99.232 E.01454
G1 X98.197 Y99.531 E.01635
G1 X98.407 Y100.039 E.02025
G1 X98.407 Y119.961 E.73395
G1 X98.284 Y120.337 E.01457
G1 X97.967 Y120.698 E.0177
G1 X97.461 Y120.907 E.02017
G1 X77.539 Y120.907 E.73395
G1 X77.163 Y120.784 E.01457
M73 P7 R7
G1 X76.802 Y120.467 E.0177
G1 X76.593 Y119.961 E.02017
G1 X76.593 Y100.039 E.73395
G1 X76.803 Y99.531 E.02025
G1 X76.815 Y99.521 E.00058
G1 X77.102 Y99.802 F36000
G1 F1800
G1 X77.302 Y99.602 E.01042
G1 X77.559 Y99.496 E.01024
G1 X97.48 Y99.504 E.73391
G1 X97.698 Y99.602 E.00881
G1 X97.898 Y99.802 E.01042
G1 X98.004 Y100.059 E.01024
G1 X98.004 Y119.941 E.73248
G1 X97.898 Y120.198 E.01024
G1 X97.698 Y120.398 E.01042
G1 X97.441 Y120.504 E.01024
G1 X77.559 Y120.504 E.73248
G1 X77.302 Y120.398 E.01024
G1 X77.102 Y120.198 E.01042
G1 X76.996 Y119.941 E.01024
G1 X76.996 Y100.059 E.73248
G1 X77.079 Y99.857 E.00805
G1 X77.429 Y100.045 F36000
G1 F1800
G1 X77.619 Y99.899 E.00883
G1 X97.381 Y99.899 E.72805
G1 X97.601 Y100.119 E.01146
G1 X97.571 Y119.956 E.73082
G1 X97.381 Y120.101 E.00881
M73 P8 R7
G1 X77.545 Y120.071 E.73078
G1 X77.399 Y119.881 E.00883
G1 X77.429 Y100.105 E.72857
EXCLUDE_OBJECT_START NAME=0_40mm_nozzle_0_80mm_walls_stl
G1 E-2 F3000
G1 X77.429 Y100.105 F36000
G1 X96.672 Y100.828
G1 E2 F3000
;TYPE:Perimeter
;WIDTH:0.449999
G1 F1800
G1 X96.672 Y110 E.33791
G1 X96.672 Y119.172 E.33791
G1 X78.328 Y119.172 E.67581
G1 X78.328 Y100.828 E.67581
G1 X96.612 Y100.828 E.6736
G1 X97.075 Y100.425 F36000
;TYPE:External perimeter
G1 F1800
G1 X97.075 Y110 E.35275
G1 X97.075 Y119.575 E.35275
M73 P9 R7
G1 X77.925 Y119.575 E.70551
G1 X77.925 Y100.425 E.70551
G1 X97.015 Y100.425 E.7033
G1 X97.074 Y100.821 F36000
G1 X95.728 Y100.949
;TYPE:Solid infill
;WIDTH:0.454483
G1 F1800
G1 X96.37 Y101.591 E.03382
G1 X96.37 Y102.167 E.02146
G1 X95.333 Y101.13 E.05463
G1 X94.757 Y101.13 E.02146
G1 X96.37 Y102.743 E.08497
G1 X96.37 Y103.319 E.02146
G1 X94.181 Y101.13 E.11532
G1 X93.605 Y101.13 E.02146
G1 X96.37 Y103.895 E.14566
G1 X96.37 Y104.471 E.02146
G1 X93.029 Y101.13 E.17601
G1 X92.453 Y101.13 E.02146
G1 X96.37 Y105.047 E.20635
G1 X96.37 Y105.623 E.02146
G1 X91.877 Y101.13 E.2367
G1 X91.301 Y101.13 E.02146
M73 P9 R6
G1 X96.37 Y106.199 E.26704
G1 X96.37 Y106.775 E.02146
G1 X90.725 Y101.13 E.29739
G1 X90.149 Y101.13 E.02146
G1 X96.37 Y107.351 E.32773
G1 X96.37 Y107.927 E.02146
G1 X89.573 Y101.13 E.35807
G1 X88.997 Y101.13 E.02146
M73 P10 R6
G1 X96.37 Y108.503 E.38842
G1 X96.37 Y109.079 E.02146
G1 X88.421 Y101.13 E.41876
G1 X87.845 Y101.13 E.02146
G1 X96.37 Y109.655 E.44911
G1 X96.37 Y110.231 E.02146
G1 X87.269 Y101.13 E.47945
G1 X86.693 Y101.13 E.02146
G1 X96.37 Y110.807 E.5098
G1 X96.37 Y111.383 E.02146
G1 X86.117 Y101.13 E.54014
G1 X85.541 Y101.13 E.02146
G1 X96.37 Y111.959 E.57048
G1 X96.37 Y112.535 E.02146
G1 X84.965 Y101.13 E.60083
G1 X84.39 Y101.13 E.02142
G1 X96.37 Y113.11 E.63112
G1 X96.37 Y113.686 E.02146
M73 P11 R6
G1 X83.814 Y101.13 E.66146
G1 X83.238 Y101.13 E.02146
G1 X96.37 Y114.262 E.69181
G1 X96.37 Y114.838 E.02146
G1 X82.662 Y101.13 E.72215
G1 X82.086 Y101.13 E.02146
G1 X96.37 Y115.414 E.7525
G1 X96.37 Y115.99 E.02146
G1 X81.51 Y101.13 E.78284
G1 X80.934 Y101.13 E.02146
G1 X96.37 Y116.566 E.81319
G1 X96.37 Y117.142 E.02146
G1 X80.358 Y101.13 E.84353
G1 X79.782 Y101.13 E.02146
M73 P12 R6
G1 X96.37 Y117.718 E.87387
G1 X96.37 Y118.294 E.02146
G1 X79.206 Y101.13 E.90422
G1 X78.63 Y101.13 E.02146
G1 X96.37 Y118.87 E.93456
G1 X95.794 Y118.87 E.02146
G1 X78.63 Y101.706 E.90422
G1 X78.63 Y102.282 E.02146
G1 X95.218 Y118.87 E.87387
G1 X94.642 Y118.87 E.02146
G1 X78.63 Y102.858 E.84353
G1 X78.63 Y103.434 E.02146
M73 P13 R6
G1 X94.066 Y118.87 E.81319
G1 X93.49 Y118.87 E.02146
G1 X78.63 Y104.01 E.78284
G1 X78.63 Y104.586 E.02146
G1 X92.914 Y118.87 E.7525
G1 X92.338 Y118.87 E.02146
G1 X78.63 Y105.162 E.72215
G1 X78.63 Y105.738 E.02146
G1 X91.762 Y118.87 E.69181
G1 X91.186 Y118.87 E.02146
G1 X78.63 Y106.314 E.66146
G1 X78.63 Y106.89 E.02146
M73 P14 R6
G1 X90.61 Y118.87 E.63112
G1 X90.034 Y118.87 E.02146
G1 X78.63 Y107.466 E.60078
G1 X78.63 Y108.042 E.02146
G1 X89.458 Y118.87 E.57043
G1 X88.883 Y118.87 E.02142
G1 X78.63 Y108.618 E.54011
G1 X78.63 Y109.193 E.02142
G1 X88.307 Y118.87 E.5098
G1 X87.731 Y118.87 E.02146
G1 X78.63 Y109.769 E.47945
G1 X78.63 Y110.345 E.02146
G1 X87.155 Y118.87 E.44911
G1 X86.579 Y118.87 E.02146
G1 X78.63 Y110.921 E.41876
G1 X78.63 Y111.497 E.02146
G1 X86.003 Y118.87 E.38842
G1 X85.427 Y118.87 E.02146
G1 X78.63 Y112.073 E.35807
M73 P15 R6
G1 X78.63 Y112.649 E.02146
G1 X84.851 Y118.87 E.32773
G1 X84.275 Y118.87 E.02146
G1 X78.63 Y113.225 E.29739
G1 X78.63 Y113.801 E.02146
G1 X83.699 Y118.87 E.26704
G1 X83.123 Y118.87 E.02146
G1 X78.63 Y114.377 E.2367
G1 X78.63 Y114.953 E.02146
G1 X82.547 Y118.87 E.20635
G1 X81.971 Y118.87 E.02146
G1 X78.63 Y115.529 E.17601
G1 X78.63 Y116.105 E.02146
G1 X81.395 Y118.87 E.14566
G1 X80.819 Y118.87 E.02146
G1 X78.63 Y116.681 E.11532
G1 X78.63 Y117.257 E.02146
G1 X80.243 Y118.87 E.08497
G1 X79.667 Y118.87 E.02146
G1 X78.63 Y117.833 E.05463
G1 X78.63 Y118.409 E.02146
G1 X79.272 Y119.051 E.03382
EXCLUDE_OBJECT_END NAME=0_40mm_nozzle_0_80mm_walls_stl
;LAYER_CHANGE
;Z:0.423329
;HEIGHT:0.203329
;BEFORE_LAYER_CHANGE
G92 E0.0
;0.423329
;M201 X4000 Y4000
M74 W0

G1 Z.423 F36000
;AFTER_LAYER_CHANGE
;0.423329
CALCULATE_PA MATERIAL=PLA BOWDEN_LENGTH=6. LAYER_HEIGHT=0.2 NOZZLE_SIZE=0.4 PRINT_SPEED=90
M104 S200 ; set temperature
M140 S60 ; set bed temperature
EXCLUDE_OBJECT_START NAME=0_40mm_nozzle_0_80mm_walls_stl
G1 E-2 F3000
G1 X79.272 Y119.051 F36000
G1 X96.869 Y100.631
G1 E2 F3000
;TYPE:Perimeter
;WIDTH:0.45
G1 F5508.721
G1 X96.869 Y110 E.32184
G1 X96.869 Y119.369 E.32184
G1 X78.131 Y119.369 E.64368
G1 F6000
G1 X78.131 Y100.631 E.64368
G1 X96.809 Y100.631 E.64162
G1 X97.275 Y100.225 F36000
;TYPE:External perimeter
G1 F5018.364
G1 X97.275 Y110 E.33579
G1 X97.275 Y119.775 E.33579
G1 X77.725 Y119.775 E.67158
G1 F5073.462
G1 X77.725 Y119.1 E.02319
G1 F5400
G1 X77.725 Y100.225 E.64839
G1 X96.6 Y100.225 E.64839
M73 P16 R6
G1 F5073.462
G1 X97.215 Y100.225 E.02113
G1 X97.274 Y100.621 F36000
G1 E-2 F3000
G1 X94.5 Y99 F36000
G1 X96 Y97.5
G1 X97.5 Y97.5
G1 X99 Y99
G1 X99 Y118.5
G1 X97.5 Y120
G1 X96.749 Y118.523
G1 E2 F3000
;TYPE:Top solid infill
;WIDTH:0.402692
G1 F1800
G1 X96.183 Y119.089 E.0243
G1 X95.676 Y119.089 E.01539
G1 X96.589 Y118.176 E.03919
G1 X96.589 Y117.668 E.01542
G1 X95.168 Y119.089 E.061
G1 X94.66 Y119.089 E.01542
G1 X96.589 Y117.16 E.0828
G1 X96.589 Y116.652 E.01542
G1 X94.152 Y119.089 E.10461
G1 X93.645 Y119.089 E.01539
G1 X96.589 Y116.145 E.12637
G1 X96.589 Y115.637 E.01542
G1 X93.137 Y119.089 E.14818
G1 X92.629 Y119.089 E.01542
G1 X96.589 Y115.129 E.16998
G1 X96.589 Y114.621 E.01542
