; generated by PrusaSlicer 2.7.2+MacOS-arm64 on 2024-03-02 at 05:19:26 UTC


;
;

;
;

;
;

;
;

;
;
; 

; external perimeters extrusion width = 0.45mm
; perimeters extrusion width = 0.45mm
; infill extrusion width = 0.45mm
; solid infill extrusion width = 0.45mm
; top infill extrusion width = 0.40mm

; external perimeters extrusion width = 0.45mm
; perimeters extrusion width = 0.45mm
; infill extrusion width = 0.45mm
; solid infill extrusion width = 0.45mm
; top infill extrusion width = 0.40mm

; external perimeters extrusion width = 0.45mm
; perimeters extrusion width = 0.45mm
; infill extrusion width = 0.45mm
; solid infill extrusion width = 0.45mm
; top infill extrusion width = 0.40mm

M73 P0 R62

EXCLUDE_OBJECT_DEFINE NAME='2020_din_rail_stand_off_7mm_din_rail_v2_stl' CENTER=87.500,110.000 POLYGON=[[121.000,120.000],[54.000,120.000],[54.000,100.000],[121.000,100.000]]
EXCLUDE_OBJECT_DEFINE NAME='2020_din_rail_stand_off_7mm_din_rail_v2_stl' CENTER=87.500,175.000 POLYGON=[[121.000,185.000],[54.000,185.000],[54.000,165.000],[121.000,165.000]]
EXCLUDE_OBJECT_DEFINE NAME='2020_din_rail_stand_off_7mm_din_rail_v2_stl' CENTER=87.500,45.000 POLYGON=[[121.000,55.000],[54.000,55.000],[54.000,35.000],[121.000,35.000]]

;TYPE:Custom
CALCULATE_PA MATERIAL=PLA BOWDEN_LENGTH=6 LAYER_HEIGHT=0.2 NOZZLE_SIZE=0.4 PRINT_SPEED=90


START_PRINT EXTRUDER=210 BED=65
G21 ; set units to millimeters
G90 ; use absolute coordinates
M83 ; use relative distances for extrusion
; Filament gcode
M107
;LAYER_CHANGE
;Z:0.2
;HEIGHT:0.2
G1 E-2 F3000
EXCLUDE_OBJECT_START NAME='2020_din_rail_stand_off_7mm_din_rail_v2_stl'
G1 Z.2 F60000
G1 X120.775 Y184.775
G1 Z.2
G1 E2 F3000
;TYPE:External perimeter
;WIDTH:0.45
G1 F1800
G1 X54.225 Y184.775 E2.25264
G1 X54.225 Y165.225 E.66174
G1 X120.775 Y165.225 E2.25264
G1 X120.775 Y184.715 E.65971
G1 X120.379 Y184.774 F60000
G1 X120.368 Y184.368
;TYPE:Perimeter
G1 F1800
G1 X54.632 Y184.368 E2.22509
G1 X54.632 Y165.632 E.63419
G1 X120.368 Y165.632 E2.22509
G1 X120.368 Y184.308 E.63216
G1 X119.961 Y183.961 F60000
G1 F1800
G1 X55.039 Y183.961 E2.19753
G1 X55.039 Y166.039 E.60664
G1 X119.961 Y166.039 E2.19753
G1 X119.961 Y183.901 E.60461
G1 E-2 F3000
G1 X119.961 Y183.901 F60000
G1 X113.71 Y174.715
G1 E2 F3000
;TYPE:External perimeter
G1 F1800
G1 X113.725 Y175 E.00966
G1 X113.71 Y175.285 E.00966
G1 X113.664 Y175.572 E.00984
G1 X113.592 Y175.842 E.00946
G1 X113.49 Y176.108 E.00964
G1 X113.36 Y176.363 E.00969
G1 X113.205 Y176.602 E.00964
G1 X113.025 Y176.824 E.00967
G1 X112.824 Y177.025 E.00962
G1 X112.602 Y177.205 E.00967
G1 X112.363 Y177.36 E.00964
G1 X112.108 Y177.49 E.00969
G1 X111.842 Y177.592 E.00964
G1 X111.567 Y177.666 E.00964
G1 X111.285 Y177.71 E.00966
G1 X111 Y177.725 E.00966
G1 X110.715 Y177.71 E.00966
G1 X110.433 Y177.666 E.00966
G1 X110.158 Y177.592 E.00964
G1 X109.892 Y177.49 E.00964
G1 X109.637 Y177.36 E.00969
G1 X109.394 Y177.201 E.00983
G1 X109.176 Y177.025 E.00948
G1 X108.975 Y176.824 E.00962
G1 X108.795 Y176.602 E.00967
G1 X108.64 Y176.363 E.00964
G1 X108.51 Y176.108 E.00969
G1 X108.408 Y175.842 E.00964
G1 X108.334 Y175.567 E.00964
G1 X108.29 Y175.285 E.00966
G1 X108.275 Y175 E.00966
G1 X108.29 Y174.715 E.00966
G1 X108.334 Y174.433 E.00966
G1 X108.408 Y174.158 E.00964
G1 X108.51 Y173.892 E.00964
G1 X108.64 Y173.637 E.00969
G1 X108.795 Y173.398 E.00964
G1 X108.975 Y173.176 E.00967
G1 X109.176 Y172.975 E.00962
G1 X109.398 Y172.795 E.00967
G1 X109.637 Y172.64 E.00964
G1 X109.892 Y172.51 E.00969
G1 X110.158 Y172.408 E.00964
G1 X110.434 Y172.334 E.00967
G1 X110.721 Y172.289 E.00983
G1 X111 Y172.275 E.00946
G1 X111.285 Y172.29 E.00966
G1 X111.567 Y172.334 E.00966
G1 X111.842 Y172.408 E.00964
G1 X112.108 Y172.51 E.00964
G1 X112.363 Y172.64 E.00969
G1 X112.602 Y172.795 E.00964
G1 X112.824 Y172.975 E.00967
G1 X113.025 Y173.176 E.00962
G1 X113.205 Y173.398 E.00967
G1 X113.36 Y173.637 E.00964
G1 X113.49 Y173.892 E.00969
G1 X113.592 Y174.158 E.00964
G1 X113.666 Y174.433 E.00964
G1 X113.701 Y174.656 E.00764
G1 X113.717 Y175.056 F60000
G1 X114.113 Y174.653
;TYPE:Perimeter
G1 F1800
G1 X114.116 Y174.673 E.00068
G1 X114.133 Y175 E.01108
G1 X114.116 Y175.328 E.01112
G1 X114.063 Y175.657 E.01128
G1 X113.98 Y175.968 E.0109
G1 X113.862 Y176.274 E.0111
G1 X113.713 Y176.566 E.0111
G1 X113.535 Y176.842 E.01112
G1 X113.328 Y177.096 E.01109
G1 X113.096 Y177.328 E.01111
G1 X112.842 Y177.535 E.01109
G1 X112.566 Y177.713 E.01112
G1 X112.274 Y177.862 E.0111
G1 X111.968 Y177.98 E.0111
G1 X111.651 Y178.064 E.0111
G1 X111.327 Y178.116 E.01111
G1 X111 Y178.133 E.01108
G1 X110.673 Y178.116 E.01108
G1 X110.349 Y178.064 E.01111
G1 X110.032 Y177.98 E.0111
G1 X109.726 Y177.862 E.0111
G1 X109.433 Y177.713 E.01113
G1 X109.154 Y177.531 E.01128
G1 X108.904 Y177.328 E.0109
G1 X108.672 Y177.096 E.01111
G1 X108.465 Y176.842 E.01109
G1 X108.287 Y176.566 E.01112
G1 X108.138 Y176.274 E.0111
G1 X108.02 Y175.968 E.0111
G1 X107.936 Y175.651 E.0111
G1 X107.884 Y175.327 E.01111
G1 X107.867 Y175 E.01108
G1 X107.884 Y174.673 E.01108
G1 X107.936 Y174.349 E.01111
G1 X108.02 Y174.032 E.0111
G1 X108.138 Y173.726 E.0111
G1 X108.287 Y173.434 E.0111
G1 X108.465 Y173.158 E.01112
G1 X108.672 Y172.904 E.01109
G1 X108.904 Y172.672 E.01111
G1 X109.158 Y172.465 E.01109
G1 X109.434 Y172.287 E.01112
G1 X109.726 Y172.138 E.0111
G1 X110.032 Y172.02 E.0111
G1 X110.349 Y171.935 E.01111
G1 X110.678 Y171.884 E.01127
G1 X111 Y171.867 E.01091
G1 X111.327 Y171.884 E.01108
G1 X111.651 Y171.936 E.01111
G1 X111.968 Y172.02 E.0111
G1 X112.274 Y172.138 E.0111
G1 X112.566 Y172.287 E.0111
G1 X112.842 Y172.465 E.01112
G1 X113.096 Y172.672 E.01109
G1 X113.328 Y172.904 E.01111
G1 X113.535 Y173.159 E.01112
G1 X113.713 Y173.434 E.01109
G1 X113.862 Y173.726 E.0111
G1 X113.98 Y174.032 E.0111
G1 X114.064 Y174.349 E.0111
G1 X114.103 Y174.594 E.0084
G1 X114.103 Y174.594 F60000
G1 X114.515 Y174.591
G1 F1800
G1 X114.521 Y174.63 E.00134
G1 X114.541 Y175 E.01254
G1 X114.521 Y175.371 E.01258
G1 X114.462 Y175.742 E.01272
G1 X114.367 Y176.094 E.01234
G1 X114.234 Y176.44 E.01255
G1 X114.066 Y176.77 E.01253
G1 X113.864 Y177.081 E.01255
G1 X113.631 Y177.369 E.01254
G1 X113.369 Y177.631 E.01254
G1 X113.081 Y177.864 E.01254
G1 X112.77 Y178.066 E.01255
G1 X112.44 Y178.234 E.01253
G1 X112.094 Y178.367 E.01255
G1 X111.736 Y178.463 E.01255
G1 X111.37 Y178.521 E.01254
G1 X111 Y178.541 E.01254
G1 X110.63 Y178.521 E.01254
G1 X110.264 Y178.463 E.01254
G1 X109.906 Y178.367 E.01255
G1 X109.56 Y178.234 E.01255
G1 X109.229 Y178.066 E.01256
G1 X108.914 Y177.86 E.01274
G1 X108.631 Y177.631 E.01232
G1 X108.369 Y177.369 E.01254
G1 X108.136 Y177.081 E.01254
G1 X107.934 Y176.77 E.01255
G1 X107.766 Y176.44 E.01253
G1 X107.633 Y176.094 E.01255
G1 X107.537 Y175.736 E.01255
G1 X107.479 Y175.37 E.01254
G1 X107.459 Y175 E.01254
G1 X107.479 Y174.63 E.01254
G1 X107.537 Y174.264 E.01254
G1 X107.633 Y173.906 E.01255
G1 X107.766 Y173.56 E.01255
G1 X107.934 Y173.23 E.01253
G1 X108.136 Y172.919 E.01255
G1 X108.369 Y172.631 E.01254
G1 X108.631 Y172.369 E.01254
G1 X108.919 Y172.136 E.01254
G1 X109.23 Y171.934 E.01255
G1 X109.56 Y171.766 E.01253
G1 X109.906 Y171.633 E.01255
G1 X110.265 Y171.537 E.01258
G1 X110.636 Y171.478 E.01272
G1 X111 Y171.459 E.01234
G1 X111.37 Y171.479 E.01254
G1 X111.736 Y171.537 E.01254
G1 X112.094 Y171.633 E.01255
G1 X112.44 Y171.766 E.01255
G1 X112.77 Y171.934 E.01253
G1 X113.081 Y172.136 E.01255
G1 X113.369 Y172.369 E.01254
G1 X113.631 Y172.631 E.01254
G1 X113.864 Y172.919 E.01254
G1 X114.066 Y173.23 E.01255
G1 X114.234 Y173.56 E.01253
G1 X114.367 Y173.906 E.01255
G1 X114.463 Y174.264 E.01255
G1 X114.506 Y174.532 E.00919
G1 E-2 F3000
G1 X114.506 Y174.532 F60000
G1 X114.082 Y174.599
G1 X114.044 Y174.353
G1 X113.959 Y174.039
G1 X113.843 Y173.734
G1 X113.695 Y173.444
G1 X113.517 Y173.171
G1 X113.312 Y172.918
G1 X113.082 Y172.688
G1 X112.829 Y172.483
G1 X112.556 Y172.305
G1 X112.266 Y172.157
G1 X111.961 Y172.041
G1 X111.647 Y171.956
G1 X111.325 Y171.905
G1 X111 Y171.888
G1 X64 Y171.888
G1 X63.675 Y171.906
G1 X63.353 Y171.956
G1 X63.038 Y172.041
G1 X62.734 Y172.157
G1 X62.444 Y172.305
G1 X62.171 Y172.483
G1 X61.918 Y172.688
G1 X61.688 Y172.918
G1 X61.483 Y173.171
G1 X61.305 Y173.444
G1 X61.157 Y173.734
G1 X61.041 Y174.039
M73 P0 R61
G1 X60.956 Y174.353
G1 X60.911 Y174.638
G1 X60.909 Y174.655
G1 X61.29 Y174.715
G1 E2 F3000
;TYPE:External perimeter
G1 F1800
G1 X61.334 Y174.433 E.00966
G1 X61.408 Y174.158 E.00964
G1 X61.51 Y173.892 E.00964
G1 X61.64 Y173.637 E.00969
G1 X61.795 Y173.398 E.00964
G1 X61.975 Y173.176 E.00967
G1 X62.176 Y172.975 E.00962
G1 X62.398 Y172.795 E.00967
G1 X62.637 Y172.64 E.00964
G1 X62.892 Y172.51 E.00969
G1 X63.158 Y172.408 E.00964
G1 X63.434 Y172.334 E.00967
G1 X63.721 Y172.289 E.00983
G1 X64 Y172.275 E.00946
G1 X64.285 Y172.29 E.00966
G1 X64.567 Y172.334 E.00966
G1 X64.842 Y172.408 E.00964
G1 X65.108 Y172.51 E.00964
G1 X65.363 Y172.64 E.00969
G1 X65.602 Y172.795 E.00964
G1 X65.824 Y172.975 E.00967
G1 X66.025 Y173.176 E.00962
G1 X66.205 Y173.398 E.00967
G1 X66.36 Y173.637 E.00964
G1 X66.49 Y173.892 E.00969
G1 X66.592 Y174.158 E.00964
G1 X66.666 Y174.433 E.00964
G1 X66.71 Y174.715 E.00966
G1 X66.725 Y175 E.00966
G1 X66.71 Y175.285 E.00966
G1 X66.666 Y175.567 E.00966
G1 X66.592 Y175.842 E.00964
G1 X66.49 Y176.108 E.00964
G1 X66.36 Y176.363 E.00969
G1 X66.205 Y176.602 E.00964
G1 X66.025 Y176.824 E.00967
G1 X65.824 Y177.025 E.00962
G1 X65.602 Y177.205 E.00967
G1 X65.363 Y177.36 E.00964
G1 X65.108 Y177.49 E.00969
G1 X64.842 Y177.592 E.00964
G1 X64.567 Y177.666 E.00964
G1 X64.285 Y177.71 E.00966
G1 X64 Y177.725 E.00966
G1 X63.715 Y177.71 E.00966
G1 X63.433 Y177.666 E.00966
G1 X63.158 Y177.592 E.00964
G1 X62.892 Y177.49 E.00964
G1 X62.637 Y177.36 E.00969
G1 X62.394 Y177.201 E.00983
G1 X62.176 Y177.025 E.00948
G1 X61.975 Y176.824 E.00962
G1 X61.795 Y176.602 E.00967
G1 X61.64 Y176.363 E.00964
G1 X61.51 Y176.108 E.00969
G1 X61.408 Y175.842 E.00964
G1 X61.334 Y175.567 E.00964
G1 X61.29 Y175.285 E.00966
G1 X61.275 Y175 E.00966
G1 X61.286 Y174.775 E.00763
G1 X61.354 Y174.381 F60000
G1 X60.883 Y174.692
;TYPE:Perimeter
G1 F1800
G1 X60.884 Y174.673 E.00064
G1 X60.936 Y174.349 E.01111
G1 X61.02 Y174.032 E.0111
G1 X61.138 Y173.726 E.0111
G1 X61.287 Y173.434 E.0111
G1 X61.465 Y173.158 E.01112
G1 X61.672 Y172.904 E.01109
G1 X61.904 Y172.672 E.01111
G1 X62.158 Y172.465 E.01109
G1 X62.434 Y172.287 E.01112
G1 X62.726 Y172.138 E.0111
G1 X63.032 Y172.02 E.0111
G1 X63.349 Y171.935 E.01111
G1 X63.678 Y171.884 E.01127
G1 X64 Y171.867 E.01091
G1 X64.327 Y171.884 E.01108
G1 X64.651 Y171.936 E.01111
G1 X64.968 Y172.02 E.0111
G1 X65.274 Y172.138 E.0111
G1 X65.566 Y172.287 E.0111
G1 X65.842 Y172.465 E.01112
G1 X66.096 Y172.672 E.01109
G1 X66.328 Y172.904 E.01111
G1 X66.535 Y173.158 E.01109
G1 X66.713 Y173.434 E.01112
G1 X66.862 Y173.726 E.0111
G1 X66.98 Y174.032 E.0111
G1 X67.064 Y174.349 E.0111
G1 X67.116 Y174.673 E.01111
G1 X67.133 Y175 E.01108
G1 X67.116 Y175.327 E.01108
G1 X67.064 Y175.651 E.01111
G1 X66.98 Y175.968 E.0111
G1 X66.862 Y176.274 E.0111
G1 X66.713 Y176.566 E.0111
G1 X66.535 Y176.842 E.01112
G1 X66.328 Y177.096 E.01109
G1 X66.096 Y177.328 E.01111
G1 X65.842 Y177.535 E.01109
G1 X65.566 Y177.713 E.01112
G1 X65.274 Y177.862 E.0111
G1 X64.968 Y177.98 E.0111
G1 X64.651 Y178.064 E.0111
G1 X64.327 Y178.116 E.01111
G1 X64 Y178.133 E.01108
G1 X63.673 Y178.116 E.01108
G1 X63.349 Y178.064 E.01111
G1 X63.032 Y177.98 E.0111
G1 X62.726 Y177.862 E.0111
G1 X62.433 Y177.713 E.01113
G1 X62.154 Y177.531 E.01128
G1 X61.904 Y177.328 E.0109
G1 X61.672 Y177.096 E.01111
G1 X61.465 Y176.842 E.01109
G1 X61.287 Y176.566 E.01112
G1 X61.138 Y176.274 E.0111
G1 X61.02 Y175.968 E.0111
G1 X60.936 Y175.651 E.0111
G1 X60.884 Y175.327 E.01111
G1 X60.867 Y175 E.01108
G1 X60.88 Y174.752 E.00841
G1 X60.88 Y174.752 F60000
G1 X60.485 Y174.591
G1 F1800
G1 X60.537 Y174.264 E.01121
G1 X60.633 Y173.906 E.01255
G1 X60.766 Y173.56 E.01255
G1 X60.934 Y173.23 E.01253
G1 X61.136 Y172.919 E.01255
G1 X61.369 Y172.631 E.01254
G1 X61.631 Y172.369 E.01254
G1 X61.919 Y172.136 E.01254
G1 X62.23 Y171.934 E.01255
G1 X62.56 Y171.766 E.01253
G1 X62.906 Y171.633 E.01255
G1 X63.265 Y171.537 E.01258
G1 X63.636 Y171.478 E.01272
G1 X64 Y171.459 E.01234
G1 X64.37 Y171.479 E.01254
G1 X64.736 Y171.537 E.01254
G1 X65.094 Y171.633 E.01255
G1 X65.44 Y171.766 E.01255
G1 X65.77 Y171.934 E.01253
G1 X66.081 Y172.136 E.01255
G1 X66.369 Y172.369 E.01254
G1 X66.631 Y172.631 E.01254
G1 X66.864 Y172.919 E.01254
G1 X67.066 Y173.23 E.01255
G1 X67.234 Y173.56 E.01253
G1 X67.367 Y173.906 E.01255
G1 X67.463 Y174.264 E.01255
G1 X67.521 Y174.63 E.01254
G1 X67.541 Y175 E.01254
G1 X67.521 Y175.37 E.01254
G1 X67.463 Y175.736 E.01254
G1 X67.367 Y176.094 E.01255
G1 X67.234 Y176.44 E.01255
G1 X67.066 Y176.77 E.01253
G1 X66.864 Y177.081 E.01255
G1 X66.631 Y177.369 E.01254
G1 X66.369 Y177.631 E.01254
G1 X66.081 Y177.864 E.01254
G1 X65.77 Y178.066 E.01255
G1 X65.44 Y178.234 E.01253
G1 X65.094 Y178.367 E.01255
G1 X64.736 Y178.463 E.01255
G1 X64.37 Y178.521 E.01254
G1 X64 Y178.541 E.01254
G1 X63.63 Y178.521 E.01254
G1 X63.264 Y178.463 E.01254
G1 X62.906 Y178.367 E.01255
G1 X62.56 Y178.234 E.01255
G1 X62.229 Y178.066 E.01256
G1 X61.914 Y177.86 E.01274
G1 X61.631 Y177.631 E.01232
G1 X61.369 Y177.369 E.01254
G1 X61.136 Y177.081 E.01254
G1 X60.934 Y176.77 E.01255
G1 X60.766 Y176.44 E.01253
G1 X60.633 Y176.094 E.01255
G1 X60.537 Y175.736 E.01255
G1 X60.479 Y175.37 E.01254
G1 X60.459 Y175 E.01254
G1 X60.478 Y174.65 E.01186
G1 E-2 F3000
G1 X60.478 Y174.65 F60000
G1 X60.906 Y174.675
G1 X60.911 Y174.638
G1 X60.956 Y174.353
G1 X61.041 Y174.039
G1 X61.157 Y173.734
G1 X61.305 Y173.444
G1 X61.483 Y173.171
G1 X61.688 Y172.918
G1 X61.918 Y172.688
G1 X62.171 Y172.483
G1 X62.444 Y172.305
G1 X62.734 Y172.157
G1 X63.038 Y172.041
G1 X63.353 Y171.956
G1 X63.675 Y171.906
G1 X64 Y171.888
G1 X64.325 Y171.905
G1 X64.647 Y171.956
G1 X64.961 Y172.041
G1 X65.266 Y172.157
G1 X65.556 Y172.305
G1 X65.829 Y172.483
G1 X66.082 Y172.688
G1 X66.312 Y172.918
G1 X66.517 Y173.171
G1 X66.695 Y173.444
G1 X66.843 Y173.735
G1 X66.959 Y174.039
G1 X67.044 Y174.353
G1 X67.093 Y174.668
G1 X84.404 Y174.695
G1 X84.79 Y174.715
G1 E2 F3000
;TYPE:External perimeter
G1 F1800
G1 X84.834 Y174.433 E.00966
G1 X84.908 Y174.158 E.00964
G1 X85.01 Y173.892 E.00964
G1 X85.14 Y173.637 E.00969
G1 X85.295 Y173.398 E.00964
G1 X85.475 Y173.176 E.00967
G1 X85.676 Y172.975 E.00962
G1 X85.898 Y172.795 E.00967
G1 X86.137 Y172.64 E.00964
G1 X86.392 Y172.51 E.00969
G1 X86.658 Y172.408 E.00964
G1 X86.934 Y172.334 E.00967
G1 X87.221 Y172.289 E.00983
G1 X87.5 Y172.275 E.00946
G1 X87.785 Y172.29 E.00966
G1 X88.067 Y172.334 E.00966
G1 X88.342 Y172.408 E.00964
G1 X88.608 Y172.51 E.00964
G1 X88.863 Y172.64 E.00969
G1 X89.102 Y172.795 E.00964
G1 X89.324 Y172.975 E.00967
G1 X89.525 Y173.176 E.00962
G1 X89.705 Y173.398 E.00967
G1 X89.86 Y173.637 E.00964
G1 X89.99 Y173.892 E.00969
G1 X90.092 Y174.158 E.00964
G1 X90.166 Y174.433 E.00964
G1 X90.21 Y174.715 E.00966
G1 X90.225 Y175 E.00966
G1 X90.21 Y175.285 E.00966
G1 X90.164 Y175.572 E.00984
G1 X90.092 Y175.842 E.00946
G1 X89.99 Y176.108 E.00964
G1 X89.86 Y176.363 E.00969
G1 X89.705 Y176.602 E.00964
G1 X89.525 Y176.824 E.00967
G1 X89.324 Y177.025 E.00962
G1 X89.102 Y177.205 E.00967
G1 X88.863 Y177.36 E.00964
G1 X88.608 Y177.49 E.00969
G1 X88.342 Y177.592 E.00964
G1 X88.067 Y177.666 E.00964
G1 X87.785 Y177.71 E.00966
G1 X87.5 Y177.725 E.00966
G1 X87.215 Y177.71 E.00966
G1 X86.928 Y177.664 E.00984
G1 X86.658 Y177.592 E.00946
G1 X86.392 Y177.49 E.00964
G1 X86.137 Y177.36 E.00969
G1 X85.898 Y177.205 E.00964
G1 X85.676 Y177.025 E.00967
G1 X85.475 Y176.824 E.00962
G1 X85.295 Y176.602 E.00967
G1 X85.14 Y176.363 E.00964
G1 X85.01 Y176.108 E.00969
G1 X84.908 Y175.842 E.00964
G1 X84.834 Y175.567 E.00964
G1 X84.79 Y175.285 E.00966
G1 X84.775 Y175 E.00966
G1 X84.786 Y174.775 E.00763
G1 X84.854 Y174.381 F60000
G1 X84.387 Y174.653
;TYPE:Perimeter
G1 F1800
G1 X84.436 Y174.349 E.01042
G1 X84.52 Y174.032 E.0111
G1 X84.638 Y173.726 E.0111
G1 X84.787 Y173.434 E.0111
G1 X84.965 Y173.158 E.01112
G1 X85.172 Y172.904 E.01109
