; generated by PrusaSlicer 2.7.2+MacOS-arm64 on 2024-03-02 at 06:11:04 UTC


;
;

;
;

;
;

;
;

;
;
; 

; external perimeters extrusion width = 0.45mm
; perimeters extrusion width = 0.45mm
; infill extrusion width = 0.45mm
; solid infill extrusion width = 0.45mm
; top infill extrusion width = 0.40mm

M73 P0 R40

EXCLUDE_OBJECT_DEFINE NAME='2020_din_rail_stand_off_7mm_din_rail_v2_stl_(Instance_1)' CENTER=62.491,60.543 POLYGON=[[95.991,70.543],[28.991,70.543],[28.991,50.543],[95.991,50.543]]
EXCLUDE_OBJECT_DEFINE NAME='2020_din_rail_stand_off_7mm_din_rail_v2_stl_(Instance_2)' CENTER=58.922,160.834 POLYGON=[[92.422,170.834],[25.422,170.834],[25.422,150.834],[92.422,150.834]]

;TYPE:Custom
CALCULATE_PA MATERIAL=PLA BOWDEN_LENGTH=6 LAYER_HEIGHT=0.2 NOZZLE_SIZE=0.4 PRINT_SPEED=90


START_PRINT EXTRUDER=210 BED=65
G21 ; set units to millimeters
G90 ; use absolute coordinates
M83 ; use relative distances for extrusion
; Filament gcode
M107
;LAYER_CHANGE
;Z:0.2
;HEIGHT:0.2
G1 E-.6 F3600
EXCLUDE_OBJECT_START NAME='2020_din_rail_stand_off_7mm_din_rail_v2_stl_(Instance_1)'
G1 Z.2 F60000
G1 X58.976 Y60.134
G1 Z.2
G1 E.6 F3600
;TYPE:Perimeter
;WIDTH:0.45
G1 F1800
G1 X59.028 Y59.807 E.01121
G1 X59.124 Y59.449 E.01255
G1 X59.256 Y59.103 E.01254
G1 X59.425 Y58.773 E.01255
G1 X59.627 Y58.462 E.01255
G1 X59.86 Y58.174 E.01254
G1 X60.122 Y57.912 E.01254
G1 X60.41 Y57.679 E.01254
G1 X60.721 Y57.477 E.01255
G1 X61.051 Y57.309 E.01253
G1 X61.397 Y57.176 E.01255
G1 X61.756 Y57.08 E.01258
G1 X62.127 Y57.022 E.01271
G1 X62.491 Y57.003 E.01234
G1 X62.861 Y57.022 E.01254
G1 X63.227 Y57.08 E.01254
G1 X63.585 Y57.176 E.01255
G1 X63.931 Y57.309 E.01255
G1 X64.261 Y57.477 E.01253
G1 X64.572 Y57.679 E.01255
G1 X64.86 Y57.912 E.01254
G1 X65.122 Y58.174 E.01254
G1 X65.355 Y58.462 E.01254
G1 X65.557 Y58.773 E.01255
G1 X65.725 Y59.103 E.01253
G1 X65.858 Y59.449 E.01255
G1 X65.954 Y59.807 E.01255
G1 X66.012 Y60.173 E.01254
G1 X66.032 Y60.543 E.01254
G1 X66.012 Y60.914 E.01258
G1 X65.953 Y61.285 E.01272
G1 X65.858 Y61.637 E.01234
G1 X65.725 Y61.983 E.01255
G1 X65.557 Y62.313 E.01253
G1 X65.355 Y62.624 E.01255
G1 X65.122 Y62.912 E.01254
G1 X64.86 Y63.174 E.01254
G1 X64.572 Y63.408 E.01256
G1 X64.261 Y63.609 E.01253
G1 X63.931 Y63.778 E.01255
G1 X63.585 Y63.91 E.01254
G1 X63.227 Y64.006 E.01255
G1 X62.861 Y64.064 E.01254
G1 X62.491 Y64.084 E.01254
G1 X62.12 Y64.064 E.01258
G1 X61.749 Y64.005 E.01272
G1 X61.397 Y63.91 E.01234
G1 X61.051 Y63.778 E.01254
G1 X60.721 Y63.609 E.01255
G1 X60.41 Y63.408 E.01253
G1 X60.122 Y63.174 E.01256
G1 X59.86 Y62.912 E.01254
G1 X59.627 Y62.624 E.01254
G1 X59.425 Y62.313 E.01255
G1 X59.256 Y61.983 E.01255
G1 X59.124 Y61.637 E.01254
G1 X59.028 Y61.279 E.01255
G1 X58.97 Y60.913 E.01254
G1 X58.95 Y60.543 E.01254
G1 X58.969 Y60.194 E.01183
G1 X58.969 Y60.194 F60000
G1 X59.378 Y60.196
G1 F1800
G1 X59.426 Y59.892 E.01042
G1 X59.511 Y59.575 E.01111
G1 X59.629 Y59.269 E.0111
G1 X59.778 Y58.977 E.0111
G1 X59.956 Y58.702 E.01109
G1 X60.163 Y58.447 E.01112
G1 X60.395 Y58.215 E.01111
G1 X60.649 Y58.009 E.01107
G1 X60.924 Y57.83 E.01111
G1 X61.217 Y57.681 E.01113
G1 X61.523 Y57.564 E.01109
G1 X61.84 Y57.478 E.01112
G1 X62.169 Y57.427 E.01127
G1 X62.491 Y57.41 E.01091
G1 X62.818 Y57.427 E.01108
G1 X63.142 Y57.479 E.01111
G1 X63.459 Y57.564 E.01111
G1 X63.765 Y57.681 E.01109
G1 X64.057 Y57.83 E.0111
G1 X64.332 Y58.009 E.01111
G1 X64.587 Y58.215 E.0111
G1 X64.819 Y58.447 E.01111
G1 X65.026 Y58.702 E.01112
G1 X65.204 Y58.977 E.01109
G1 X65.353 Y59.269 E.0111
G1 X65.471 Y59.575 E.0111
G1 X65.555 Y59.892 E.0111
G1 X65.607 Y60.216 E.01111
G1 X65.624 Y60.543 E.01108
G1 X65.607 Y60.871 E.01112
G1 X65.554 Y61.2 E.01128
G1 X65.471 Y61.511 E.0109
G1 X65.353 Y61.817 E.0111
G1 X65.204 Y62.11 E.01113
G1 X65.026 Y62.385 E.01109
G1 X64.819 Y62.639 E.01109
G1 X64.587 Y62.871 E.01111
G1 X64.332 Y63.078 E.01112
G1 X64.057 Y63.256 E.01109
G1 X63.765 Y63.405 E.0111
G1 X63.459 Y63.523 E.0111
G1 X63.142 Y63.608 E.01111
G1 X62.818 Y63.659 E.0111
G1 X62.491 Y63.676 E.01108
G1 X62.163 Y63.659 E.01112
G1 X61.834 Y63.606 E.01128
G1 X61.523 Y63.523 E.0109
G1 X61.217 Y63.405 E.0111
G1 X60.924 Y63.256 E.01113
G1 X60.649 Y63.078 E.01109
G1 X60.395 Y62.871 E.01109
G1 X60.163 Y62.639 E.01111
G1 X59.956 Y62.385 E.01109
G1 X59.778 Y62.11 E.01109
G1 X59.629 Y61.817 E.01113
G1 X59.511 Y61.511 E.0111
G1 X59.426 Y61.195 E.01108
G1 X59.375 Y60.871 E.0111
G1 X59.358 Y60.543 E.01112
G1 X59.373 Y60.256 E.00973
G1 X59.373 Y60.256 F60000
G1 X59.781 Y60.258
;TYPE:External perimeter
G1 F1800
G1 X59.825 Y59.977 E.00963
G1 X59.899 Y59.701 E.00967
G1 X60.001 Y59.435 E.00964
G1 X60.131 Y59.18 E.00969
G1 X60.286 Y58.941 E.00964
G1 X60.466 Y58.72 E.00965
G1 X60.667 Y58.518 E.00965
G1 X60.889 Y58.338 E.00967
G1 X61.128 Y58.183 E.00964
G1 X61.382 Y58.053 E.00966
G1 X61.649 Y57.951 E.00967
G1 X61.925 Y57.877 E.00967
G1 X62.212 Y57.832 E.00983
G1 X62.491 Y57.818 E.00946
G1 X62.776 Y57.833 E.00966
G1 X63.058 Y57.877 E.00966
G1 X63.333 Y57.951 E.00964
G1 X63.599 Y58.053 E.00964
G1 X63.854 Y58.183 E.00969
G1 X64.093 Y58.338 E.00964
G1 X64.315 Y58.518 E.00967
G1 X64.516 Y58.72 E.00965
G1 X64.696 Y58.941 E.00965
G1 X64.851 Y59.18 E.00964
G1 X64.981 Y59.435 E.00969
G1 X65.083 Y59.701 E.00964
G1 X65.157 Y59.977 E.00967
G1 X65.201 Y60.258 E.00963
G1 X65.216 Y60.543 E.00966
G1 X65.201 Y60.828 E.00966
G1 X65.155 Y61.115 E.00984
G1 X65.083 Y61.385 E.00946
G1 X64.981 Y61.652 E.00967
G1 X64.851 Y61.906 E.00966
G1 X64.696 Y62.145 E.00964
G1 X64.516 Y62.367 E.00967
G1 X64.315 Y62.568 E.00962
G1 X64.093 Y62.748 E.00967
G1 X63.854 Y62.903 E.00964
G1 X63.599 Y63.033 E.00969
G1 X63.333 Y63.135 E.00964
G1 X63.058 Y63.209 E.00964
G1 X62.776 Y63.254 E.00967
G1 X62.491 Y63.268 E.00966
G1 X62.206 Y63.254 E.00966
G1 X61.919 Y63.207 E.00984
G1 X61.649 Y63.135 E.00946
G1 X61.382 Y63.033 E.00967
G1 X61.128 Y62.903 E.00966
G1 X60.889 Y62.748 E.00964
G1 X60.667 Y62.568 E.00967
G1 X60.466 Y62.367 E.00962
G1 X60.286 Y62.145 E.00967
G1 X60.131 Y61.906 E.00964
G1 X60.001 Y61.652 E.00966
G1 X59.899 Y61.385 E.00967
G1 X59.825 Y61.11 E.00964
G1 X59.781 Y60.828 E.00966
G1 X59.766 Y60.543 E.00966
G1 X59.777 Y60.318 E.00763
G1 X59.845 Y59.924 F60000
G1 E-.6 F3600
G1 X59.467 Y59.823 F60000
G1 X39.316 Y57.449
G1 X38.991 Y57.432
G1 X38.666 Y57.449
G1 X38.344 Y57.5
G1 X38.029 Y57.584
G1 X37.725 Y57.701
G1 X37.435 Y57.848
G1 X37.162 Y58.026
G1 X36.909 Y58.231
G1 X36.679 Y58.461
G1 X36.474 Y58.714
G1 X36.296 Y58.987
G1 X36.148 Y59.278
G1 X36.032 Y59.582
G1 X35.947 Y59.896
G1 X35.902 Y60.181
G1 X35.899 Y60.201
G1 X35.476 Y60.134
G1 E.6 F3600
;TYPE:Perimeter
G1 F1800
G1 X35.528 Y59.807 E.01121
G1 X35.624 Y59.449 E.01255
G1 X35.756 Y59.103 E.01254
G1 X35.925 Y58.773 E.01255
G1 X36.127 Y58.462 E.01255
G1 X36.36 Y58.174 E.01254
G1 X36.622 Y57.912 E.01254
G1 X36.91 Y57.679 E.01254
G1 X37.221 Y57.477 E.01255
G1 X37.551 Y57.309 E.01253
G1 X37.897 Y57.176 E.01255
G1 X38.256 Y57.08 E.01258
G1 X38.627 Y57.022 E.01271
G1 X38.991 Y57.003 E.01234
G1 X39.361 Y57.022 E.01254
G1 X39.727 Y57.08 E.01254
G1 X40.085 Y57.176 E.01255
G1 X40.431 Y57.309 E.01255
G1 X40.761 Y57.477 E.01253
G1 X41.072 Y57.679 E.01255
G1 X41.36 Y57.912 E.01254
G1 X41.622 Y58.174 E.01254
G1 X41.855 Y58.462 E.01254
G1 X42.057 Y58.773 E.01255
G1 X42.225 Y59.103 E.01253
G1 X42.358 Y59.449 E.01255
G1 X42.454 Y59.807 E.01255
G1 X42.512 Y60.173 E.01254
G1 X42.532 Y60.543 E.01254
G1 X42.512 Y60.913 E.01254
G1 X42.454 Y61.279 E.01254
G1 X42.358 Y61.637 E.01255
G1 X42.225 Y61.983 E.01255
G1 X42.057 Y62.313 E.01253
G1 X41.855 Y62.624 E.01255
G1 X41.622 Y62.912 E.01254
G1 X41.36 Y63.174 E.01254
G1 X41.072 Y63.408 E.01256
G1 X40.761 Y63.609 E.01253
G1 X40.431 Y63.778 E.01255
G1 X40.085 Y63.91 E.01254
G1 X39.727 Y64.006 E.01255
G1 X39.361 Y64.064 E.01254
G1 X38.991 Y64.084 E.01254
G1 X38.621 Y64.064 E.01254
G1 X38.255 Y64.006 E.01254
G1 X37.897 Y63.91 E.01255
G1 X37.551 Y63.778 E.01254
G1 X37.22 Y63.609 E.01258
G1 X36.905 Y63.404 E.01272
G1 X36.622 Y63.174 E.01234
G1 X36.36 Y62.912 E.01254
G1 X36.127 Y62.624 E.01254
G1 X35.925 Y62.313 E.01255
G1 X35.756 Y61.983 E.01255
G1 X35.624 Y61.637 E.01254
G1 X35.528 Y61.279 E.01255
G1 X35.47 Y60.913 E.01254
G1 X35.45 Y60.543 E.01254
G1 X35.469 Y60.194 E.01183
G1 X35.469 Y60.194 F60000
G1 X35.874 Y60.235
G1 F1800
G1 X35.875 Y60.216 E.00064
G1 X35.926 Y59.892 E.0111
G1 X36.011 Y59.575 E.01111
G1 X36.129 Y59.269 E.0111
G1 X36.278 Y58.977 E.0111
G1 X36.456 Y58.702 E.01109
G1 X36.663 Y58.447 E.01112
G1 X36.895 Y58.215 E.01111
G1 X37.149 Y58.009 E.01107
G1 X37.424 Y57.83 E.01111
G1 X37.717 Y57.681 E.01113
G1 X38.023 Y57.564 E.01109
G1 X38.34 Y57.478 E.01112
G1 X38.669 Y57.427 E.01127
G1 X38.991 Y57.41 E.01091
G1 X39.318 Y57.427 E.01108
G1 X39.642 Y57.479 E.01111
G1 X39.959 Y57.564 E.01111
G1 X40.265 Y57.681 E.01109
G1 X40.557 Y57.83 E.0111
G1 X40.832 Y58.009 E.01111
G1 X41.087 Y58.215 E.0111
G1 X41.319 Y58.447 E.01111
G1 X41.526 Y58.702 E.01112
G1 X41.704 Y58.977 E.01109
G1 X41.853 Y59.269 E.0111
G1 X41.971 Y59.575 E.0111
G1 X42.055 Y59.892 E.0111
G1 X42.107 Y60.216 E.01111
G1 X42.124 Y60.543 E.01108
G1 X42.107 Y60.871 E.01112
G1 X42.055 Y61.195 E.01111
G1 X41.971 Y61.511 E.01107
G1 X41.853 Y61.817 E.0111
G1 X41.704 Y62.11 E.01113
G1 X41.526 Y62.385 E.01109
G1 X41.319 Y62.639 E.01109
G1 X41.087 Y62.871 E.01111
G1 X40.832 Y63.078 E.01112
G1 X40.557 Y63.256 E.01109
G1 X40.265 Y63.405 E.0111
G1 X39.959 Y63.523 E.0111
G1 X39.642 Y63.608 E.01111
G1 X39.318 Y63.659 E.0111
G1 X38.991 Y63.676 E.01108
G1 X38.663 Y63.659 E.01112
G1 X38.34 Y63.608 E.01107
G1 X38.023 Y63.523 E.01111
G1 X37.717 Y63.405 E.0111
G1 X37.424 Y63.256 E.01113
G1 X37.145 Y63.074 E.01128
G1 X36.895 Y62.871 E.0109
G1 X36.663 Y62.639 E.01111
G1 X36.456 Y62.385 E.01109
G1 X36.278 Y62.11 E.01109
G1 X36.129 Y61.817 E.01113
G1 X36.011 Y61.511 E.0111
G1 X35.926 Y61.195 E.01108
G1 X35.875 Y60.871 E.0111
G1 X35.858 Y60.543 E.01112
G1 X35.871 Y60.295 E.00841
G1 X35.871 Y60.295 F60000
G1 X36.281 Y60.258
;TYPE:External perimeter
G1 F1800
G1 X36.325 Y59.977 E.00963
G1 X36.399 Y59.701 E.00967
G1 X36.501 Y59.435 E.00964
G1 X36.631 Y59.18 E.00969
G1 X36.786 Y58.941 E.00964
G1 X36.966 Y58.72 E.00965
G1 X37.167 Y58.518 E.00965
G1 X37.389 Y58.338 E.00967
G1 X37.628 Y58.183 E.00964
G1 X37.882 Y58.053 E.00966
G1 X38.149 Y57.951 E.00967
G1 X38.425 Y57.877 E.00967
G1 X38.712 Y57.832 E.00983
G1 X38.991 Y57.818 E.00946
G1 X39.276 Y57.833 E.00966
G1 X39.558 Y57.877 E.00966
G1 X39.833 Y57.951 E.00964
G1 X40.099 Y58.053 E.00964
G1 X40.354 Y58.183 E.00969
G1 X40.593 Y58.338 E.00964
G1 X40.815 Y58.518 E.00967
G1 X41.016 Y58.72 E.00965
G1 X41.196 Y58.941 E.00965
G1 X41.351 Y59.18 E.00964
G1 X41.481 Y59.435 E.00969
G1 X41.583 Y59.701 E.00964
G1 X41.657 Y59.977 E.00967
G1 X41.701 Y60.258 E.00963
G1 X41.716 Y60.543 E.00966
G1 X41.701 Y60.828 E.00966
G1 X41.657 Y61.11 E.00966
G1 X41.583 Y61.385 E.00964
G1 X41.481 Y61.652 E.00967
G1 X41.351 Y61.906 E.00966
G1 X41.196 Y62.145 E.00964
G1 X41.016 Y62.367 E.00967
G1 X40.815 Y62.568 E.00962
G1 X40.593 Y62.748 E.00967
G1 X40.354 Y62.903 E.00964
G1 X40.099 Y63.033 E.00969
G1 X39.833 Y63.135 E.00964
G1 X39.558 Y63.209 E.00964
G1 X39.276 Y63.254 E.00967
G1 X38.991 Y63.268 E.00966
G1 X38.706 Y63.254 E.00966
G1 X38.424 Y63.209 E.00967
G1 X38.149 Y63.135 E.00964
G1 X37.882 Y63.033 E.00967
G1 X37.628 Y62.903 E.00966
G1 X37.385 Y62.745 E.00981
G1 X37.167 Y62.568 E.00951
G1 X36.966 Y62.367 E.00962
G1 X36.786 Y62.145 E.00967
G1 X36.631 Y61.906 E.00964
G1 X36.501 Y61.652 E.00966
G1 X36.399 Y61.385 E.00967
G1 X36.325 Y61.11 E.00964
G1 X36.281 Y60.828 E.00966
G1 X36.266 Y60.543 E.00966
G1 X36.277 Y60.318 E.00763
G1 X36.345 Y59.924 F60000
G1 E-.6 F3600
G1 X35.967 Y59.823 F60000
G1 X36.032 Y59.582
G1 X36.148 Y59.278
G1 X36.296 Y58.987
G1 X36.474 Y58.714
G1 X36.679 Y58.461
G1 X36.909 Y58.231
G1 X37.162 Y58.026
G1 X37.435 Y57.848
G1 X37.725 Y57.701
G1 X38.029 Y57.584
G1 X38.344 Y57.5
G1 X38.666 Y57.449
G1 X38.991 Y57.432
G1 X85.991 Y57.432
G1 X86.316 Y57.449
G1 X86.638 Y57.5
G1 X86.952 Y57.584
G1 X87.257 Y57.701
G1 X87.547 Y57.848
G1 X87.82 Y58.026
G1 X88.073 Y58.231
G1 X88.303 Y58.461
G1 X88.508 Y58.714
G1 X88.686 Y58.987
G1 X88.834 Y59.278
G1 X88.95 Y59.582
G1 X89.035 Y59.896
G1 X89.04 Y59.933
G1 X89.083 Y60.201
G1 X89.506 Y60.134
G1 E.6 F3600
;TYPE:Perimeter
G1 F1800
G1 X89.512 Y60.173 E.00134
G1 X89.532 Y60.543 E.01254
G1 X89.512 Y60.914 E.01258
G1 X89.453 Y61.285 E.01272
G1 X89.358 Y61.637 E.01234
G1 X89.225 Y61.983 E.01255
G1 X89.057 Y62.313 E.01253
G1 X88.855 Y62.624 E.01255
G1 X88.622 Y62.912 E.01254
G1 X88.36 Y63.174 E.01254
G1 X88.072 Y63.408 E.01256
G1 X87.761 Y63.609 E.01253
G1 X87.431 Y63.778 E.01255
G1 X87.085 Y63.91 E.01254
G1 X86.727 Y64.006 E.01255
G1 X86.361 Y64.064 E.01254
G1 X85.991 Y64.084 E.01254
G1 X85.621 Y64.064 E.01254
G1 X85.255 Y64.006 E.01254
G1 X84.897 Y63.91 E.01255
G1 X84.551 Y63.778 E.01254
G1 X84.22 Y63.609 E.01258
G1 X83.905 Y63.404 E.01272
G1 X83.622 Y63.174 E.01234
G1 X83.36 Y62.912 E.01254
G1 X83.127 Y62.624 E.01254
G1 X82.925 Y62.313 E.01255
G1 X82.756 Y61.983 E.01255
G1 X82.624 Y61.637 E.01254
G1 X82.528 Y61.279 E.01255
G1 X82.47 Y60.913 E.01254
G1 X82.45 Y60.543 E.01254
G1 X82.47 Y60.173 E.01254
G1 X82.528 Y59.807 E.01254
G1 X82.624 Y59.449 E.01255
G1 X82.756 Y59.103 E.01254
G1 X82.925 Y58.773 E.01255
G1 X83.127 Y58.462 E.01255
G1 X83.36 Y58.174 E.01254
G1 X83.622 Y57.912 E.01254
G1 X83.91 Y57.679 E.01254
G1 X84.221 Y57.477 E.01255
G1 X84.551 Y57.309 E.01253
G1 X84.897 Y57.176 E.01255
G1 X85.256 Y57.08 E.01258
G1 X85.627 Y57.022 E.01271
G1 X85.991 Y57.003 E.01234
G1 X86.361 Y57.022 E.01254
G1 X86.727 Y57.08 E.01254
G1 X87.085 Y57.176 E.01255
G1 X87.431 Y57.309 E.01255
G1 X87.761 Y57.477 E.01253
G1 X88.072 Y57.679 E.01255
G1 X88.36 Y57.912 E.01254
G1 X88.622 Y58.174 E.01254
G1 X88.855 Y58.462 E.01254
G1 X89.057 Y58.773 E.01255
G1 X89.225 Y59.103 E.01253
G1 X89.358 Y59.449 E.01255
G1 X89.454 Y59.807 E.01255
G1 X89.497 Y60.075 E.00919
G1 X89.497 Y60.075 F60000
G1 X89.104 Y60.196
G1 F1800
G1 X89.107 Y60.216 E.00068
G1 X89.124 Y60.543 E.01108
G1 X89.107 Y60.871 E.01112
G1 X89.054 Y61.2 E.01128
G1 X88.971 Y61.511 E.0109
G1 X88.853 Y61.817 E.0111
G1 X88.704 Y62.11 E.01113
G1 X88.526 Y62.385 E.01109
G1 X88.319 Y62.639 E.01109
G1 X88.087 Y62.871 E.01111
G1 X87.832 Y63.078 E.01112
G1 X87.557 Y63.256 E.01109
G1 X87.265 Y63.405 E.0111
G1 X86.959 Y63.523 E.0111
G1 X86.642 Y63.608 E.01111
G1 X86.318 Y63.659 E.0111
G1 X85.991 Y63.676 E.01108
G1 X85.663 Y63.659 E.01112
G1 X85.34 Y63.608 E.01107
G1 X85.023 Y63.523 E.01111
G1 X84.717 Y63.405 E.0111
G1 X84.424 Y63.256 E.01113
G1 X84.145 Y63.074 E.01128
G1 X83.895 Y62.871 E.0109
G1 X83.663 Y62.639 E.01111
G1 X83.456 Y62.385 E.01109
G1 X83.278 Y62.11 E.01109
G1 X83.129 Y61.817 E.01113
G1 X83.011 Y61.511 E.0111
G1 X82.926 Y61.195 E.01108
G1 X82.875 Y60.871 E.0111
G1 X82.858 Y60.543 E.01112
G1 X82.875 Y60.216 E.01108
G1 X82.926 Y59.892 E.0111
G1 X83.011 Y59.575 E.01111
G1 X83.129 Y59.269 E.0111
G1 X83.278 Y58.977 E.0111
G1 X83.456 Y58.702 E.01109
G1 X83.663 Y58.447 E.01112
G1 X83.895 Y58.215 E.01111
G1 X84.149 Y58.009 E.01107
G1 X84.424 Y57.83 E.01111
G1 X84.717 Y57.681 E.01113
G1 X85.023 Y57.564 E.01109
G1 X85.34 Y57.478 E.01112
G1 X85.669 Y57.427 E.01127
G1 X85.991 Y57.41 E.01091
G1 X86.318 Y57.427 E.01108
G1 X86.642 Y57.479 E.01111
G1 X86.959 Y57.564 E.01111
G1 X87.265 Y57.681 E.01109
G1 X87.557 Y57.83 E.0111
G1 X87.832 Y58.009 E.01111
G1 X88.087 Y58.215 E.0111
G1 X88.319 Y58.447 E.01111
G1 X88.526 Y58.702 E.01112
G1 X88.704 Y58.977 E.01109
G1 X88.853 Y59.269 E.0111
G1 X88.971 Y59.575 E.0111
G1 X89.055 Y59.892 E.0111
G1 X89.094 Y60.137 E.0084
G1 X89.094 Y60.137 F60000
G1 X88.701 Y60.258
;TYPE:External perimeter
G1 F1800
G1 X88.716 Y60.543 E.00966
G1 X88.701 Y60.828 E.00966
G1 X88.655 Y61.115 E.00984
G1 X88.583 Y61.385 E.00946
G1 X88.481 Y61.652 E.00967
G1 X88.351 Y61.906 E.00966
G1 X88.196 Y62.145 E.00964
G1 X88.016 Y62.367 E.00967
G1 X87.815 Y62.568 E.00962
G1 X87.593 Y62.748 E.00967
G1 X87.354 Y62.903 E.00964
G1 X87.099 Y63.033 E.00969
G1 X86.833 Y63.135 E.00964
G1 X86.558 Y63.209 E.00964
