; generated by PrusaSlicer 2.7.2+MacOS-arm64 on 2024-03-02 at 05:35:14 UTC


;
;

;
;

;
;

;
;

;
;
; 

; external perimeters extrusion width = 0.45mm
; perimeters extrusion width = 0.45mm
; infill extrusion width = 0.45mm
; solid infill extrusion width = 0.45mm
; top infill extrusion width = 0.40mm

M73 P0 R41

EXCLUDE_OBJECT_DEFINE NAME='2020_din_rail_stand_off_7mm_din_rail_v2_stl_(Instance_1)' CENTER=87.500,142.500 POLYGON=[[121.000,152.500],[54.000,152.500],[54.000,132.500],[121.000,132.500]]
EXCLUDE_OBJECT_DEFINE NAME='2020_din_rail_stand_off_7mm_din_rail_v2_stl_(Instance_2)' CENTER=87.500,77.500 POLYGON=[[121.000,87.500],[54.000,87.500],[54.000,67.500],[121.000,67.500]]

;TYPE:Custom
CALCULATE_PA MATERIAL=PLA BOWDEN_LENGTH=6 LAYER_HEIGHT=0.2 NOZZLE_SIZE=0.4 PRINT_SPEED=90


START_PRINT EXTRUDER=210 BED=65
G21 ; set units to millimeters
G90 ; use absolute coordinates
M83 ; use relative distances for extrusion
; Filament gcode
M107
;LAYER_CHANGE
;Z:0.2
;HEIGHT:0.2
G1 E-2 F3000
EXCLUDE_OBJECT_START NAME='2020_din_rail_stand_off_7mm_din_rail_v2_stl_(Instance_1)'
G1 Z.2 F60000
G1 X83.985 Y142.091
G1 Z.2
G1 E2 F3000
;TYPE:Perimeter
;WIDTH:0.45
G1 F1800
G1 X84.037 Y141.764 E.01121
G1 X84.133 Y141.406 E.01255
G1 X84.266 Y141.06 E.01255
G1 X84.434 Y140.73 E.01253
G1 X84.636 Y140.419 E.01255
G1 X84.869 Y140.131 E.01254
G1 X85.131 Y139.869 E.01254
G1 X85.419 Y139.636 E.01254
G1 X85.73 Y139.434 E.01255
G1 X86.06 Y139.266 E.01253
G1 X86.406 Y139.133 E.01255
G1 X86.765 Y139.037 E.01258
G1 X87.136 Y138.978 E.01272
G1 X87.5 Y138.959 E.01234
G1 X87.87 Y138.979 E.01254
G1 X88.236 Y139.037 E.01254
G1 X88.594 Y139.133 E.01255
G1 X88.94 Y139.266 E.01255
G1 X89.27 Y139.434 E.01253
G1 X89.581 Y139.636 E.01255
G1 X89.869 Y139.869 E.01254
G1 X90.131 Y140.131 E.01254
G1 X90.364 Y140.419 E.01254
G1 X90.566 Y140.73 E.01255
G1 X90.734 Y141.06 E.01253
G1 X90.867 Y141.406 E.01255
G1 X90.963 Y141.764 E.01255
G1 X91.021 Y142.13 E.01254
G1 X91.041 Y142.5 E.01254
G1 X91.021 Y142.871 E.01258
G1 X90.962 Y143.242 E.01272
G1 X90.867 Y143.594 E.01234
G1 X90.734 Y143.94 E.01255
G1 X90.566 Y144.27 E.01253
G1 X90.364 Y144.581 E.01255
G1 X90.131 Y144.869 E.01254
G1 X89.869 Y145.131 E.01254
G1 X89.581 Y145.364 E.01254
G1 X89.27 Y145.566 E.01255
G1 X88.94 Y145.734 E.01253
G1 X88.594 Y145.867 E.01255
G1 X88.236 Y145.963 E.01255
G1 X87.87 Y146.021 E.01254
G1 X87.5 Y146.041 E.01254
G1 X87.129 Y146.021 E.01258
G1 X86.758 Y145.962 E.01272
G1 X86.406 Y145.867 E.01234
G1 X86.06 Y145.734 E.01255
G1 X85.73 Y145.566 E.01253
G1 X85.419 Y145.364 E.01255
G1 X85.131 Y145.131 E.01254
G1 X84.869 Y144.869 E.01254
G1 X84.636 Y144.581 E.01254
G1 X84.434 Y144.27 E.01255
G1 X84.266 Y143.94 E.01253
G1 X84.133 Y143.594 E.01255
G1 X84.037 Y143.236 E.01255
G1 X83.979 Y142.87 E.01254
G1 X83.959 Y142.5 E.01254
G1 X83.978 Y142.15 E.01186
G1 X83.978 Y142.15 F60000
G1 X84.387 Y142.153
G1 F1800
G1 X84.436 Y141.849 E.01042
G1 X84.52 Y141.532 E.0111
G1 X84.638 Y141.226 E.0111
G1 X84.787 Y140.934 E.0111
G1 X84.965 Y140.658 E.01112
G1 X85.172 Y140.404 E.01109
G1 X85.404 Y140.172 E.01111
G1 X85.658 Y139.965 E.01109
G1 X85.934 Y139.787 E.01112
G1 X86.226 Y139.638 E.0111
G1 X86.532 Y139.52 E.0111
G1 X86.849 Y139.435 E.01111
G1 X87.178 Y139.384 E.01127
G1 X87.5 Y139.367 E.01091
G1 X87.827 Y139.384 E.01108
G1 X88.151 Y139.436 E.01111
G1 X88.468 Y139.52 E.0111
G1 X88.774 Y139.638 E.0111
G1 X89.066 Y139.787 E.0111
G1 X89.342 Y139.965 E.01112
G1 X89.596 Y140.172 E.01109
G1 X89.828 Y140.404 E.01111
G1 X90.035 Y140.659 E.01112
G1 X90.213 Y140.934 E.01109
G1 X90.362 Y141.226 E.0111
G1 X90.48 Y141.532 E.0111
G1 X90.564 Y141.849 E.0111
G1 X90.616 Y142.173 E.01111
G1 X90.633 Y142.5 E.01108
G1 X90.616 Y142.828 E.01112
G1 X90.563 Y143.157 E.01128
G1 X90.48 Y143.468 E.0109
G1 X90.362 Y143.774 E.0111
G1 X90.213 Y144.066 E.0111
G1 X90.035 Y144.342 E.01112
G1 X89.828 Y144.596 E.01109
G1 X89.596 Y144.828 E.01111
G1 X89.342 Y145.035 E.01109
G1 X89.066 Y145.213 E.01112
G1 X88.774 Y145.362 E.0111
G1 X88.468 Y145.48 E.0111
G1 X88.151 Y145.564 E.0111
G1 X87.827 Y145.616 E.01111
G1 X87.5 Y145.633 E.01108
G1 X87.172 Y145.616 E.01112
G1 X86.843 Y145.563 E.01128
G1 X86.532 Y145.48 E.0109
G1 X86.226 Y145.362 E.0111
G1 X85.934 Y145.213 E.0111
G1 X85.658 Y145.035 E.01112
G1 X85.404 Y144.828 E.01109
G1 X85.172 Y144.596 E.01111
G1 X84.965 Y144.342 E.01109
G1 X84.787 Y144.066 E.01112
G1 X84.638 Y143.774 E.0111
G1 X84.52 Y143.468 E.0111
G1 X84.436 Y143.151 E.0111
G1 X84.384 Y142.827 E.01111
G1 X84.367 Y142.5 E.01108
G1 X84.382 Y142.213 E.00973
G1 X84.382 Y142.213 F60000
G1 X84.79 Y142.215
;TYPE:External perimeter
G1 F1800
G1 X84.834 Y141.933 E.00966
G1 X84.908 Y141.658 E.00964
G1 X85.01 Y141.392 E.00964
G1 X85.14 Y141.137 E.00969
G1 X85.295 Y140.898 E.00964
G1 X85.475 Y140.676 E.00967
G1 X85.676 Y140.475 E.00962
G1 X85.898 Y140.295 E.00967
G1 X86.137 Y140.14 E.00964
G1 X86.392 Y140.01 E.00969
G1 X86.658 Y139.908 E.00964
G1 X86.934 Y139.834 E.00967
G1 X87.221 Y139.789 E.00983
G1 X87.5 Y139.775 E.00946
G1 X87.785 Y139.79 E.00966
G1 X88.067 Y139.834 E.00966
G1 X88.342 Y139.908 E.00964
G1 X88.608 Y140.01 E.00964
G1 X88.863 Y140.14 E.00969
G1 X89.102 Y140.295 E.00964
G1 X89.324 Y140.475 E.00967
G1 X89.525 Y140.676 E.00962
G1 X89.705 Y140.898 E.00967
G1 X89.86 Y141.137 E.00964
G1 X89.99 Y141.392 E.00969
G1 X90.092 Y141.658 E.00964
G1 X90.166 Y141.933 E.00964
G1 X90.21 Y142.215 E.00966
G1 X90.225 Y142.5 E.00966
G1 X90.21 Y142.785 E.00966
G1 X90.164 Y143.072 E.00984
G1 X90.092 Y143.342 E.00946
G1 X89.99 Y143.608 E.00964
G1 X89.86 Y143.863 E.00969
G1 X89.705 Y144.102 E.00964
G1 X89.525 Y144.324 E.00967
G1 X89.324 Y144.525 E.00962
G1 X89.102 Y144.705 E.00967
G1 X88.863 Y144.86 E.00964
G1 X88.608 Y144.99 E.00969
G1 X88.342 Y145.092 E.00964
G1 X88.067 Y145.166 E.00964
G1 X87.785 Y145.21 E.00966
G1 X87.5 Y145.225 E.00966
G1 X87.215 Y145.21 E.00966
G1 X86.928 Y145.164 E.00984
G1 X86.658 Y145.092 E.00946
G1 X86.392 Y144.99 E.00964
G1 X86.137 Y144.86 E.00969
G1 X85.898 Y144.705 E.00964
G1 X85.676 Y144.525 E.00967
G1 X85.475 Y144.324 E.00962
G1 X85.295 Y144.102 E.00967
G1 X85.14 Y143.863 E.00964
G1 X85.01 Y143.608 E.00969
G1 X84.908 Y143.342 E.00964
G1 X84.834 Y143.067 E.00964
G1 X84.79 Y142.785 E.00966
G1 X84.775 Y142.5 E.00966
G1 X84.786 Y142.275 E.00763
G1 X84.854 Y141.881 F60000
G1 E-2 F3000
G1 X84.476 Y141.78 F60000
G1 X64.325 Y139.405
G1 X64 Y139.388
G1 X63.675 Y139.406
G1 X63.353 Y139.456
G1 X63.038 Y139.541
G1 X62.734 Y139.657
G1 X62.444 Y139.805
G1 X62.171 Y139.983
G1 X61.918 Y140.188
G1 X61.688 Y140.418
G1 X61.483 Y140.671
G1 X61.305 Y140.944
G1 X61.157 Y141.234
G1 X61.041 Y141.539
G1 X60.956 Y141.853
G1 X60.905 Y142.175
G1 X60.905 Y142.192
G1 X60.477 Y142.169
G1 E2 F3000
;TYPE:Perimeter
G1 F1800
G1 X60.479 Y142.13 E.00132
G1 X60.537 Y141.764 E.01254
G1 X60.633 Y141.406 E.01255
G1 X60.766 Y141.06 E.01255
G1 X60.934 Y140.73 E.01253
G1 X61.136 Y140.419 E.01255
G1 X61.369 Y140.131 E.01254
G1 X61.631 Y139.869 E.01254
G1 X61.919 Y139.636 E.01254
G1 X62.23 Y139.434 E.01255
G1 X62.56 Y139.266 E.01253
G1 X62.906 Y139.133 E.01255
G1 X63.265 Y139.037 E.01258
G1 X63.636 Y138.978 E.01272
G1 X64 Y138.959 E.01234
G1 X64.37 Y138.979 E.01254
G1 X64.736 Y139.037 E.01254
G1 X65.094 Y139.133 E.01255
G1 X65.44 Y139.266 E.01255
G1 X65.77 Y139.434 E.01253
G1 X66.081 Y139.636 E.01255
G1 X66.369 Y139.869 E.01254
G1 X66.631 Y140.131 E.01254
G1 X66.864 Y140.419 E.01254
G1 X67.066 Y140.73 E.01255
G1 X67.234 Y141.06 E.01253
G1 X67.367 Y141.406 E.01255
G1 X67.463 Y141.764 E.01255
G1 X67.521 Y142.13 E.01254
G1 X67.541 Y142.5 E.01254
G1 X67.521 Y142.87 E.01254
G1 X67.463 Y143.236 E.01254
G1 X67.367 Y143.594 E.01255
G1 X67.234 Y143.94 E.01255
G1 X67.066 Y144.27 E.01253
G1 X66.864 Y144.581 E.01255
G1 X66.631 Y144.869 E.01254
G1 X66.369 Y145.131 E.01254
G1 X66.081 Y145.364 E.01254
G1 X65.77 Y145.566 E.01255
G1 X65.44 Y145.734 E.01253
G1 X65.094 Y145.867 E.01255
G1 X64.736 Y145.963 E.01255
G1 X64.37 Y146.021 E.01254
G1 X64 Y146.041 E.01254
G1 X63.63 Y146.021 E.01254
G1 X63.264 Y145.963 E.01254
G1 X62.906 Y145.867 E.01255
G1 X62.56 Y145.734 E.01255
G1 X62.229 Y145.566 E.01256
G1 X61.914 Y145.36 E.01274
G1 X61.631 Y145.131 E.01232
G1 X61.369 Y144.869 E.01254
G1 X61.136 Y144.581 E.01254
G1 X60.934 Y144.27 E.01255
G1 X60.766 Y143.94 E.01253
G1 X60.633 Y143.594 E.01255
G1 X60.537 Y143.236 E.01255
G1 X60.479 Y142.87 E.01254
G1 X60.459 Y142.5 E.01254
G1 X60.474 Y142.229 E.00919
G1 X60.474 Y142.229 F60000
G1 X60.883 Y142.192
G1 F1800
G1 X60.884 Y142.173 E.00064
G1 X60.936 Y141.849 E.01111
G1 X61.02 Y141.532 E.0111
G1 X61.138 Y141.226 E.0111
G1 X61.287 Y140.934 E.0111
G1 X61.465 Y140.658 E.01112
G1 X61.672 Y140.404 E.01109
G1 X61.904 Y140.172 E.01111
G1 X62.158 Y139.965 E.01109
G1 X62.434 Y139.787 E.01112
G1 X62.726 Y139.638 E.0111
G1 X63.032 Y139.52 E.0111
G1 X63.349 Y139.435 E.01111
G1 X63.678 Y139.384 E.01127
G1 X64 Y139.367 E.01091
G1 X64.327 Y139.384 E.01108
G1 X64.651 Y139.436 E.01111
G1 X64.968 Y139.52 E.0111
G1 X65.274 Y139.638 E.0111
G1 X65.566 Y139.787 E.0111
G1 X65.842 Y139.965 E.01112
G1 X66.096 Y140.172 E.01109
G1 X66.328 Y140.404 E.01111
G1 X66.535 Y140.658 E.01109
G1 X66.713 Y140.934 E.01112
G1 X66.862 Y141.226 E.0111
G1 X66.98 Y141.532 E.0111
G1 X67.064 Y141.849 E.0111
G1 X67.116 Y142.173 E.01111
G1 X67.133 Y142.5 E.01108
G1 X67.116 Y142.827 E.01108
G1 X67.064 Y143.151 E.01111
G1 X66.98 Y143.468 E.0111
G1 X66.862 Y143.774 E.0111
G1 X66.713 Y144.066 E.0111
G1 X66.535 Y144.342 E.01112
G1 X66.328 Y144.596 E.01109
G1 X66.096 Y144.828 E.01111
G1 X65.842 Y145.035 E.01109
G1 X65.566 Y145.213 E.01112
G1 X65.274 Y145.362 E.0111
G1 X64.968 Y145.48 E.0111
G1 X64.651 Y145.564 E.0111
G1 X64.327 Y145.616 E.01111
G1 X64 Y145.633 E.01108
G1 X63.673 Y145.616 E.01108
G1 X63.349 Y145.564 E.01111
G1 X63.032 Y145.48 E.0111
G1 X62.726 Y145.362 E.0111
G1 X62.433 Y145.213 E.01113
G1 X62.154 Y145.031 E.01128
G1 X61.904 Y144.828 E.0109
G1 X61.672 Y144.596 E.01111
G1 X61.465 Y144.342 E.01109
G1 X61.287 Y144.066 E.01112
G1 X61.138 Y143.774 E.0111
G1 X61.02 Y143.468 E.0111
G1 X60.936 Y143.151 E.0111
G1 X60.884 Y142.827 E.01111
G1 X60.867 Y142.5 E.01108
G1 X60.88 Y142.252 E.00841
G1 X60.88 Y142.252 F60000
G1 X61.29 Y142.215
;TYPE:External perimeter
G1 F1800
G1 X61.334 Y141.933 E.00966
G1 X61.408 Y141.658 E.00964
G1 X61.51 Y141.392 E.00964
G1 X61.64 Y141.137 E.00969
G1 X61.795 Y140.898 E.00964
G1 X61.975 Y140.676 E.00967
G1 X62.176 Y140.475 E.00962
G1 X62.398 Y140.295 E.00967
G1 X62.637 Y140.14 E.00964
G1 X62.892 Y140.01 E.00969
G1 X63.158 Y139.908 E.00964
G1 X63.434 Y139.834 E.00967
G1 X63.721 Y139.789 E.00983
G1 X64 Y139.775 E.00946
G1 X64.285 Y139.79 E.00966
G1 X64.567 Y139.834 E.00966
G1 X64.842 Y139.908 E.00964
G1 X65.108 Y140.01 E.00964
G1 X65.363 Y140.14 E.00969
G1 X65.602 Y140.295 E.00964
G1 X65.824 Y140.475 E.00967
G1 X66.025 Y140.676 E.00962
G1 X66.205 Y140.898 E.00967
G1 X66.36 Y141.137 E.00964
G1 X66.49 Y141.392 E.00969
G1 X66.592 Y141.658 E.00964
G1 X66.666 Y141.933 E.00964
G1 X66.71 Y142.215 E.00966
G1 X66.725 Y142.5 E.00966
G1 X66.71 Y142.785 E.00966
G1 X66.666 Y143.067 E.00966
G1 X66.592 Y143.342 E.00964
G1 X66.49 Y143.608 E.00964
G1 X66.36 Y143.863 E.00969
G1 X66.205 Y144.102 E.00964
G1 X66.025 Y144.324 E.00967
G1 X65.824 Y144.525 E.00962
G1 X65.602 Y144.705 E.00967
G1 X65.363 Y144.86 E.00964
G1 X65.108 Y144.99 E.00969
G1 X64.842 Y145.092 E.00964
G1 X64.567 Y145.166 E.00964
G1 X64.285 Y145.21 E.00966
G1 X64 Y145.225 E.00966
G1 X63.715 Y145.21 E.00966
G1 X63.433 Y145.166 E.00966
G1 X63.158 Y145.092 E.00964
G1 X62.892 Y144.99 E.00964
G1 X62.637 Y144.86 E.00969
G1 X62.394 Y144.701 E.00983
G1 X62.176 Y144.525 E.00948
G1 X61.975 Y144.324 E.00962
G1 X61.795 Y144.102 E.00967
G1 X61.64 Y143.863 E.00964
G1 X61.51 Y143.608 E.00969
G1 X61.408 Y143.342 E.00964
G1 X61.334 Y143.067 E.00964
G1 X61.29 Y142.785 E.00966
G1 X61.275 Y142.5 E.00966
G1 X61.286 Y142.275 E.00763
G1 X61.354 Y141.881 F60000
G1 E-2 F3000
G1 X60.976 Y141.78 F60000
G1 X61.041 Y141.539
G1 X61.157 Y141.234
G1 X61.305 Y140.944
G1 X61.483 Y140.671
G1 X61.688 Y140.418
G1 X61.918 Y140.188
G1 X62.171 Y139.983
G1 X62.444 Y139.805
G1 X62.734 Y139.657
G1 X63.038 Y139.541
G1 X63.353 Y139.456
G1 X63.675 Y139.406
G1 X64 Y139.388
G1 X111 Y139.388
G1 X111.325 Y139.405
G1 X111.647 Y139.456
G1 X111.961 Y139.541
G1 X112.266 Y139.657
G1 X112.556 Y139.805
G1 X112.829 Y139.983
G1 X113.082 Y140.188
G1 X113.312 Y140.418
G1 X113.517 Y140.671
G1 X113.695 Y140.944
G1 X113.843 Y141.234
G1 X113.959 Y141.539
G1 X114.044 Y141.853
G1 X114.049 Y141.89
G1 X114.092 Y142.158
G1 X114.515 Y142.091
G1 E2 F3000
;TYPE:Perimeter
G1 F1800
G1 X114.521 Y142.13 E.00134
G1 X114.541 Y142.5 E.01254
G1 X114.521 Y142.871 E.01258
G1 X114.462 Y143.242 E.01272
G1 X114.367 Y143.594 E.01234
G1 X114.234 Y143.94 E.01255
G1 X114.066 Y144.27 E.01253
G1 X113.864 Y144.581 E.01255
G1 X113.631 Y144.869 E.01254
G1 X113.369 Y145.131 E.01254
G1 X113.081 Y145.364 E.01254
G1 X112.77 Y145.566 E.01255
G1 X112.44 Y145.734 E.01253
G1 X112.094 Y145.867 E.01255
G1 X111.736 Y145.963 E.01255
G1 X111.37 Y146.021 E.01254
G1 X111 Y146.041 E.01254
G1 X110.63 Y146.021 E.01254
G1 X110.264 Y145.963 E.01254
G1 X109.906 Y145.867 E.01255
G1 X109.56 Y145.734 E.01255
G1 X109.229 Y145.566 E.01256
G1 X108.914 Y145.36 E.01274
G1 X108.631 Y145.131 E.01232
G1 X108.369 Y144.869 E.01254
G1 X108.136 Y144.581 E.01254
G1 X107.934 Y144.27 E.01255
G1 X107.766 Y143.94 E.01253
G1 X107.633 Y143.594 E.01255
G1 X107.537 Y143.236 E.01255
G1 X107.479 Y142.87 E.01254
G1 X107.459 Y142.5 E.01254
G1 X107.479 Y142.13 E.01254
G1 X107.537 Y141.764 E.01254
G1 X107.633 Y141.406 E.01255
G1 X107.766 Y141.06 E.01255
G1 X107.934 Y140.73 E.01253
G1 X108.136 Y140.419 E.01255
G1 X108.369 Y140.131 E.01254
G1 X108.631 Y139.869 E.01254
G1 X108.919 Y139.636 E.01254
G1 X109.23 Y139.434 E.01255
G1 X109.56 Y139.266 E.01253
G1 X109.906 Y139.133 E.01255
G1 X110.265 Y139.037 E.01258
G1 X110.636 Y138.978 E.01272
G1 X111 Y138.959 E.01234
G1 X111.37 Y138.979 E.01254
G1 X111.736 Y139.037 E.01254
G1 X112.094 Y139.133 E.01255
G1 X112.44 Y139.266 E.01255
G1 X112.77 Y139.434 E.01253
G1 X113.081 Y139.636 E.01255
G1 X113.369 Y139.869 E.01254
G1 X113.631 Y140.131 E.01254
G1 X113.864 Y140.419 E.01254
G1 X114.066 Y140.73 E.01255
G1 X114.234 Y141.06 E.01253
G1 X114.367 Y141.406 E.01255
G1 X114.463 Y141.764 E.01255
G1 X114.506 Y142.032 E.00919
G1 X114.506 Y142.032 F60000
G1 X114.113 Y142.153
G1 F1800
G1 X114.116 Y142.173 E.00068
G1 X114.133 Y142.5 E.01108
G1 X114.116 Y142.828 E.01112
G1 X114.063 Y143.157 E.01128
G1 X113.98 Y143.468 E.0109
G1 X113.862 Y143.774 E.0111
G1 X113.713 Y144.066 E.0111
G1 X113.535 Y144.342 E.01112
G1 X113.328 Y144.596 E.01109
G1 X113.096 Y144.828 E.01111
G1 X112.842 Y145.035 E.01109
G1 X112.566 Y145.213 E.01112
G1 X112.274 Y145.362 E.0111
G1 X111.968 Y145.48 E.0111
G1 X111.651 Y145.564 E.0111
G1 X111.327 Y145.616 E.01111
G1 X111 Y145.633 E.01108
G1 X110.673 Y145.616 E.01108
G1 X110.349 Y145.564 E.01111
G1 X110.032 Y145.48 E.0111
G1 X109.726 Y145.362 E.0111
G1 X109.433 Y145.213 E.01113
G1 X109.154 Y145.031 E.01128
G1 X108.904 Y144.828 E.0109
G1 X108.672 Y144.596 E.01111
G1 X108.465 Y144.342 E.01109
G1 X108.287 Y144.066 E.01112
G1 X108.138 Y143.774 E.0111
G1 X108.02 Y143.468 E.0111
G1 X107.936 Y143.151 E.0111
G1 X107.884 Y142.827 E.01111
G1 X107.867 Y142.5 E.01108
G1 X107.884 Y142.173 E.01108
G1 X107.936 Y141.849 E.01111
G1 X108.02 Y141.532 E.0111
G1 X108.138 Y141.226 E.0111
G1 X108.287 Y140.934 E.0111
G1 X108.465 Y140.658 E.01112
G1 X108.672 Y140.404 E.01109
G1 X108.904 Y140.172 E.01111
G1 X109.158 Y139.965 E.01109
G1 X109.434 Y139.787 E.01112
G1 X109.726 Y139.638 E.0111
G1 X110.032 Y139.52 E.0111
G1 X110.349 Y139.435 E.01111
G1 X110.678 Y139.384 E.01127
G1 X111 Y139.367 E.01091
G1 X111.327 Y139.384 E.01108
G1 X111.651 Y139.436 E.01111
G1 X111.968 Y139.52 E.0111
G1 X112.274 Y139.638 E.0111
G1 X112.566 Y139.787 E.0111
G1 X112.842 Y139.965 E.01112
G1 X113.096 Y140.172 E.01109
G1 X113.328 Y140.404 E.01111
G1 X113.535 Y140.659 E.01112
G1 X113.713 Y140.934 E.01109
G1 X113.862 Y141.226 E.0111
G1 X113.98 Y141.532 E.0111
