; generated by PrusaSlicer 2.7.2+MacOS-arm64 on 2024-03-02 at 05:51:01 UTC


;
;

;
;

;
;

;
;

;
;
; 

; external perimeters extrusion width = 0.45mm
; perimeters extrusion width = 0.45mm
; infill extrusion width = 0.45mm
; solid infill extrusion width = 0.45mm
; top infill extrusion width = 0.40mm

M73 P0 R103

EXCLUDE_OBJECT_DEFINE NAME='2020_din_rail_stand_off_7mm_din_rail_v2_stl_(Instance_1)' CENTER=53.745,24.638 POLYGON=[[87.245,34.638],[20.245,34.638],[20.245,14.638],[87.245,14.638]]
EXCLUDE_OBJECT_DEFINE NAME='2020_din_rail_stand_off_7mm_din_rail_v2_stl_(Instance_2)' CENTER=43.647,62.481 POLYGON=[[77.147,72.481],[10.147,72.481],[10.147,52.481],[77.147,52.481]]
EXCLUDE_OBJECT_DEFINE NAME='2020_din_rail_stand_off_7mm_din_rail_v2_stl_(Instance_3)' CENTER=46.504,100.964 POLYGON=[[80.004,110.964],[13.005,110.964],[13.005,90.964],[80.004,90.964]]
EXCLUDE_OBJECT_DEFINE NAME='2020_din_rail_stand_off_7mm_din_rail_v2_stl_(Instance_4)' CENTER=48.069,149.623 POLYGON=[[81.569,159.623],[14.569,159.623],[14.569,139.623],[81.569,139.623]]
EXCLUDE_OBJECT_DEFINE NAME='2020_din_rail_stand_off_7mm_din_rail_v2_stl_(Instance_5)' CENTER=48.514,192.937 POLYGON=[[82.014,202.937],[15.014,202.937],[15.014,182.937],[82.014,182.937]]

;TYPE:Custom
CALCULATE_PA MATERIAL=PLA BOWDEN_LENGTH=6 LAYER_HEIGHT=0.2 NOZZLE_SIZE=0.4 PRINT_SPEED=90


START_PRINT EXTRUDER=210 BED=65
G21 ; set units to millimeters
G90 ; use absolute coordinates
M83 ; use relative distances for extrusion
; Filament gcode
M107
;LAYER_CHANGE
;Z:0.2
;HEIGHT:0.2
G1 E-.6 F3600
EXCLUDE_OBJECT_START NAME='2020_din_rail_stand_off_7mm_din_rail_v2_stl_(Instance_5)'
G1 Z.2 F60000
G1 X44.999 Y192.527
G1 Z.2
G1 E.6 F3600
;TYPE:Perimeter
;WIDTH:0.45
G1 F1800
G1 X45.051 Y192.2 E.01121
G1 X45.146 Y191.842 E.01254
G1 X45.279 Y191.496 E.01255
G1 X45.448 Y191.166 E.01255
G1 X45.649 Y190.855 E.01253
G1 X45.883 Y190.567 E.01256
G1 X46.145 Y190.305 E.01254
G1 X46.433 Y190.072 E.01254
G1 X46.743 Y189.87 E.01252
G1 X47.074 Y189.702 E.01256
G1 X47.42 Y189.569 E.01255
G1 X47.779 Y189.473 E.01258
G1 X48.15 Y189.415 E.01271
G1 X48.514 Y189.396 E.01234
G1 X48.884 Y189.415 E.01254
G1 X49.25 Y189.473 E.01254
G1 X49.608 Y189.569 E.01255
G1 X49.954 Y189.702 E.01255
G1 X50.284 Y189.87 E.01253
G1 X50.595 Y190.072 E.01255
G1 X50.883 Y190.305 E.01254
G1 X51.145 Y190.567 E.01254
G1 X51.378 Y190.855 E.01254
G1 X51.58 Y191.166 E.01255
G1 X51.748 Y191.496 E.01253
G1 X51.881 Y191.842 E.01255
G1 X51.977 Y192.2 E.01255
G1 X52.035 Y192.566 E.01254
G1 X52.054 Y192.937 E.01257
G1 X52.035 Y193.308 E.01257
G1 X51.975 Y193.679 E.01272
G1 X51.881 Y194.031 E.01233
G1 X51.748 Y194.377 E.01255
G1 X51.58 Y194.707 E.01253
G1 X51.378 Y195.018 E.01255
G1 X51.145 Y195.306 E.01254
G1 X50.883 Y195.568 E.01254
G1 X50.595 Y195.801 E.01254
G1 X50.284 Y196.003 E.01255
G1 X49.954 Y196.171 E.01253
G1 X49.608 Y196.304 E.01255
G1 X49.25 Y196.4 E.01255
G1 X48.884 Y196.458 E.01254
G1 X48.514 Y196.477 E.01254
G1 X48.143 Y196.458 E.01257
G1 X47.772 Y196.398 E.01272
G1 X47.42 Y196.304 E.01233
G1 X47.074 Y196.171 E.01255
G1 X46.743 Y196.003 E.01256
G1 X46.433 Y195.801 E.01252
G1 X46.145 Y195.568 E.01254
G1 X45.883 Y195.306 E.01254
G1 X45.649 Y195.018 E.01256
G1 X45.448 Y194.707 E.01253
G1 X45.279 Y194.377 E.01255
G1 X45.146 Y194.031 E.01255
G1 X45.051 Y193.673 E.01254
G1 X44.993 Y193.307 E.01254
G1 X44.973 Y192.937 E.01254
G1 X44.991 Y192.587 E.01186
G1 X44.991 Y192.587 F60000
G1 X45.401 Y192.59
G1 F1800
G1 X45.449 Y192.285 E.01045
G1 X45.534 Y191.968 E.01111
G1 X45.652 Y191.662 E.0111
G1 X45.801 Y191.37 E.0111
G1 X45.979 Y191.095 E.01109
G1 X46.186 Y190.84 E.01112
G1 X46.417 Y190.608 E.01108
G1 X46.672 Y190.402 E.0111
G1 X46.947 Y190.223 E.01111
G1 X47.239 Y190.074 E.0111
G1 X47.546 Y189.957 E.01112
G1 X47.863 Y189.872 E.01111
G1 X48.192 Y189.82 E.01127
G1 X48.514 Y189.804 E.01091
G1 X48.841 Y189.821 E.01108
G1 X49.165 Y189.872 E.0111
G1 X49.482 Y189.957 E.01111
G1 X49.788 Y190.074 E.01109
G1 X50.08 Y190.223 E.0111
G1 X50.355 Y190.402 E.01111
G1 X50.61 Y190.608 E.0111
G1 X50.842 Y190.84 E.01111
G1 X51.048 Y191.095 E.0111
G1 X51.227 Y191.37 E.01111
G1 X51.376 Y191.662 E.0111
G1 X51.493 Y191.968 E.01109
G1 X51.578 Y192.285 E.01111
G1 X51.63 Y192.609 E.01111
G1 X51.647 Y192.937 E.01112
G1 X51.63 Y193.265 E.01112
G1 X51.577 Y193.594 E.01128
G1 X51.493 Y193.905 E.0109
G1 X51.376 Y194.211 E.01109
G1 X51.227 Y194.503 E.0111
G1 X51.048 Y194.778 E.01111
G1 X50.842 Y195.033 E.0111
G1 X50.61 Y195.265 E.01111
G1 X50.355 Y195.471 E.0111
G1 X50.08 Y195.65 E.01111
G1 X49.788 Y195.799 E.0111
G1 X49.482 Y195.916 E.01109
G1 X49.165 Y196.001 E.01111
G1 X48.841 Y196.052 E.0111
G1 X48.514 Y196.069 E.01108
G1 X48.186 Y196.052 E.01112
G1 X47.857 Y196 E.01127
G1 X47.546 Y195.916 E.0109
G1 X47.239 Y195.799 E.01112
G1 X46.947 Y195.65 E.0111
G1 X46.672 Y195.471 E.01111
G1 X46.417 Y195.265 E.0111
G1 X46.186 Y195.033 E.01108
G1 X45.979 Y194.778 E.01112
G1 X45.801 Y194.503 E.01109
G1 X45.652 Y194.211 E.0111
G1 X45.534 Y193.905 E.0111
G1 X45.449 Y193.588 E.01111
G1 X45.398 Y193.264 E.0111
G1 X45.381 Y192.937 E.01108
G1 X45.396 Y192.649 E.00976
G1 X45.396 Y192.649 F60000
G1 X45.803 Y192.652
;TYPE:External perimeter
G1 F1800
G1 X45.848 Y192.37 E.00967
G1 X45.922 Y192.094 E.00967
G1 X46.024 Y191.828 E.00964
G1 X46.154 Y191.574 E.00966
G1 X46.309 Y191.335 E.00964
G1 X46.488 Y191.113 E.00965
G1 X46.69 Y190.911 E.00967
G1 X46.912 Y190.732 E.00965
G1 X47.151 Y190.576 E.00966
G1 X47.405 Y190.447 E.00964
G1 X47.672 Y190.345 E.00967
G1 X47.947 Y190.271 E.00964
G1 X48.234 Y190.226 E.00983
G1 X48.514 Y190.211 E.00949
G1 X48.799 Y190.226 E.00966
G1 X49.08 Y190.271 E.00963
G1 X49.356 Y190.345 E.00967
G1 X49.622 Y190.447 E.00964
G1 X49.876 Y190.576 E.00964
G1 X50.116 Y190.732 E.00969
G1 X50.337 Y190.911 E.00963
G1 X50.539 Y191.113 E.00967
G1 X50.719 Y191.335 E.00967
G1 X50.874 Y191.574 E.00964
G1 X51.003 Y191.828 E.00964
G1 X51.106 Y192.094 E.00966
G1 X51.18 Y192.37 E.00967
G1 X51.224 Y192.652 E.00966
G1 X51.239 Y192.937 E.00966
G1 X51.224 Y193.222 E.00966
G1 X51.178 Y193.508 E.00981
G1 X51.106 Y193.779 E.00949
G1 X51.003 Y194.045 E.00966
G1 X50.874 Y194.299 E.00964
G1 X50.719 Y194.538 E.00964
G1 X50.539 Y194.76 E.00967
G1 X50.337 Y194.962 E.00967
G1 X50.116 Y195.141 E.00963
G1 X49.876 Y195.297 E.00969
G1 X49.622 Y195.426 E.00964
G1 X49.356 Y195.528 E.00964
G1 X49.08 Y195.602 E.00967
G1 X48.799 Y195.647 E.00963
G1 X48.514 Y195.662 E.00966
G1 X48.229 Y195.647 E.00966
G1 X47.942 Y195.601 E.00984
G1 X47.672 Y195.528 E.00947
G1 X47.405 Y195.426 E.00967
G1 X47.151 Y195.297 E.00964
G1 X46.912 Y195.141 E.00966
G1 X46.69 Y194.962 E.00965
G1 X46.488 Y194.76 E.00967
G1 X46.309 Y194.538 E.00965
G1 X46.154 Y194.299 E.00964
G1 X46.024 Y194.045 E.00966
G1 X45.922 Y193.779 E.00964
G1 X45.848 Y193.503 E.00967
G1 X45.803 Y193.221 E.00967
G1 X45.788 Y192.937 E.00963
G1 X45.8 Y192.712 E.00763
G1 X45.868 Y192.317 F60000
G1 E-.6 F3600
G1 X45.49 Y192.216 F60000
G1 X25.339 Y189.842
G1 X25.014 Y189.825
G1 X24.688 Y189.842
G1 X24.367 Y189.893
G1 X24.052 Y189.977
G1 X23.748 Y190.094
G1 X23.458 Y190.242
G1 X23.185 Y190.419
G1 X22.932 Y190.624
G1 X22.701 Y190.855
G1 X22.496 Y191.108
G1 X22.319 Y191.381
G1 X22.171 Y191.671
G1 X22.054 Y191.975
G1 X21.97 Y192.29
G1 X21.925 Y192.575
G1 X21.922 Y192.594
G1 X21.499 Y192.527
G1 E.6 F3600
;TYPE:Perimeter
G1 F1800
G1 X21.551 Y192.2 E.01121
G1 X21.646 Y191.842 E.01254
G1 X21.779 Y191.496 E.01255
G1 X21.948 Y191.166 E.01255
G1 X22.149 Y190.855 E.01253
G1 X22.383 Y190.567 E.01256
G1 X22.645 Y190.305 E.01254
G1 X22.933 Y190.072 E.01254
G1 X23.243 Y189.87 E.01252
G1 X23.574 Y189.702 E.01256
G1 X23.92 Y189.569 E.01255
G1 X24.279 Y189.473 E.01258
G1 X24.65 Y189.415 E.01271
G1 X25.014 Y189.396 E.01234
G1 X25.384 Y189.415 E.01254
G1 X25.75 Y189.473 E.01254
G1 X26.108 Y189.569 E.01255
G1 X26.454 Y189.702 E.01255
G1 X26.784 Y189.87 E.01253
G1 X27.095 Y190.072 E.01255
G1 X27.383 Y190.305 E.01254
G1 X27.645 Y190.567 E.01254
G1 X27.878 Y190.855 E.01254
G1 X28.08 Y191.166 E.01255
G1 X28.248 Y191.496 E.01253
G1 X28.381 Y191.842 E.01255
G1 X28.477 Y192.2 E.01255
G1 X28.535 Y192.566 E.01254
G1 X28.554 Y192.937 E.01257
G1 X28.535 Y193.307 E.01254
G1 X28.477 Y193.673 E.01254
G1 X28.381 Y194.031 E.01255
G1 X28.248 Y194.377 E.01255
G1 X28.08 Y194.707 E.01253
G1 X27.878 Y195.018 E.01255
G1 X27.645 Y195.306 E.01254
G1 X27.383 Y195.568 E.01254
G1 X27.095 Y195.801 E.01254
G1 X26.784 Y196.003 E.01255
G1 X26.454 Y196.171 E.01253
G1 X26.108 Y196.304 E.01255
G1 X25.75 Y196.4 E.01255
G1 X25.384 Y196.458 E.01254
G1 X25.014 Y196.477 E.01254
G1 X24.644 Y196.458 E.01254
G1 X24.278 Y196.4 E.01254
G1 X23.92 Y196.304 E.01255
G1 X23.574 Y196.171 E.01255
G1 X23.243 Y196.002 E.01258
G1 X22.928 Y195.797 E.01272
G1 X22.645 Y195.568 E.01232
G1 X22.383 Y195.306 E.01254
G1 X22.149 Y195.018 E.01256
G1 X21.948 Y194.707 E.01253
G1 X21.779 Y194.377 E.01255
G1 X21.646 Y194.031 E.01255
G1 X21.551 Y193.673 E.01254
G1 X21.493 Y193.307 E.01254
G1 X21.473 Y192.937 E.01254
G1 X21.491 Y192.587 E.01186
G1 X21.491 Y192.587 F60000
G1 X21.897 Y192.629
G1 F1800
G1 X21.898 Y192.609 E.00068
G1 X21.949 Y192.285 E.0111
G1 X22.034 Y191.968 E.01111
G1 X22.152 Y191.662 E.0111
G1 X22.301 Y191.37 E.0111
G1 X22.479 Y191.095 E.01109
G1 X22.686 Y190.84 E.01112
G1 X22.917 Y190.608 E.01108
G1 X23.172 Y190.402 E.0111
G1 X23.447 Y190.223 E.01111
G1 X23.739 Y190.074 E.0111
G1 X24.046 Y189.957 E.01112
G1 X24.363 Y189.872 E.01111
G1 X24.692 Y189.82 E.01127
G1 X25.014 Y189.804 E.01091
G1 X25.341 Y189.821 E.01108
G1 X25.665 Y189.872 E.0111
G1 X25.982 Y189.957 E.01111
G1 X26.288 Y190.074 E.01109
G1 X26.58 Y190.223 E.0111
G1 X26.855 Y190.402 E.01111
G1 X27.11 Y190.608 E.0111
G1 X27.342 Y190.84 E.01111
G1 X27.548 Y191.095 E.0111
G1 X27.727 Y191.37 E.01111
G1 X27.876 Y191.662 E.0111
G1 X27.993 Y191.968 E.01109
G1 X28.078 Y192.285 E.01111
G1 X28.13 Y192.609 E.01111
G1 X28.147 Y192.937 E.01112
G1 X28.13 Y193.264 E.01108
G1 X28.078 Y193.588 E.01111
G1 X27.993 Y193.905 E.01111
G1 X27.876 Y194.211 E.01109
G1 X27.727 Y194.503 E.0111
G1 X27.548 Y194.778 E.01111
G1 X27.342 Y195.033 E.0111
G1 X27.11 Y195.265 E.01111
G1 X26.855 Y195.471 E.0111
G1 X26.58 Y195.65 E.01111
G1 X26.288 Y195.799 E.0111
G1 X25.982 Y195.916 E.01109
G1 X25.665 Y196.001 E.01111
G1 X25.341 Y196.052 E.0111
G1 X25.014 Y196.069 E.01108
G1 X24.686 Y196.052 E.01112
G1 X24.362 Y196.001 E.0111
G1 X24.046 Y195.916 E.01108
G1 X23.739 Y195.799 E.01112
G1 X23.447 Y195.649 E.01111
G1 X23.168 Y195.467 E.01128
G1 X22.917 Y195.265 E.01091
G1 X22.686 Y195.033 E.01108
G1 X22.479 Y194.778 E.01112
G1 X22.301 Y194.503 E.01109
G1 X22.152 Y194.211 E.0111
G1 X22.034 Y193.905 E.0111
G1 X21.949 Y193.588 E.01111
G1 X21.898 Y193.264 E.0111
G1 X21.881 Y192.937 E.01108
G1 X21.894 Y192.689 E.00841
G1 X21.894 Y192.689 F60000
G1 X22.303 Y192.652
;TYPE:External perimeter
G1 F1800
G1 X22.348 Y192.37 E.00967
G1 X22.422 Y192.094 E.00967
G1 X22.524 Y191.828 E.00964
G1 X22.654 Y191.574 E.00966
G1 X22.809 Y191.335 E.00964
G1 X22.988 Y191.113 E.00965
G1 X23.19 Y190.911 E.00967
G1 X23.412 Y190.732 E.00965
G1 X23.651 Y190.576 E.00966
G1 X23.905 Y190.447 E.00964
G1 X24.172 Y190.345 E.00967
G1 X24.447 Y190.271 E.00964
G1 X24.734 Y190.226 E.00983
G1 X25.014 Y190.211 E.00949
G1 X25.299 Y190.226 E.00966
G1 X25.58 Y190.271 E.00963
G1 X25.856 Y190.345 E.00967
G1 X26.122 Y190.447 E.00964
G1 X26.376 Y190.576 E.00964
G1 X26.616 Y190.732 E.00969
G1 X26.837 Y190.911 E.00963
G1 X27.039 Y191.113 E.00967
G1 X27.219 Y191.335 E.00967
G1 X27.374 Y191.574 E.00964
G1 X27.503 Y191.828 E.00964
G1 X27.606 Y192.094 E.00966
G1 X27.68 Y192.37 E.00967
G1 X27.724 Y192.652 E.00966
G1 X27.739 Y192.937 E.00966
G1 X27.724 Y193.221 E.00963
G1 X27.68 Y193.503 E.00966
G1 X27.606 Y193.779 E.00967
G1 X27.503 Y194.045 E.00966
G1 X27.374 Y194.299 E.00964
G1 X27.219 Y194.538 E.00964
G1 X27.039 Y194.76 E.00967
G1 X26.837 Y194.962 E.00967
G1 X26.616 Y195.141 E.00963
G1 X26.376 Y195.297 E.00969
G1 X26.122 Y195.426 E.00964
G1 X25.856 Y195.528 E.00964
G1 X25.58 Y195.602 E.00967
G1 X25.299 Y195.647 E.00963
G1 X25.014 Y195.662 E.00966
G1 X24.729 Y195.647 E.00966
G1 X24.447 Y195.602 E.00967
G1 X24.172 Y195.528 E.00964
G1 X23.905 Y195.426 E.00967
G1 X23.651 Y195.297 E.00964
G1 X23.408 Y195.138 E.00983
G1 X23.19 Y194.962 E.00948
G1 X22.988 Y194.76 E.00967
G1 X22.809 Y194.538 E.00965
G1 X22.654 Y194.299 E.00964
G1 X22.524 Y194.045 E.00966
G1 X22.422 Y193.779 E.00964
G1 X22.348 Y193.503 E.00967
G1 X22.303 Y193.221 E.00967
G1 X22.288 Y192.937 E.00963
G1 X22.3 Y192.712 E.00763
G1 X22.368 Y192.317 F60000
G1 E-.6 F3600
G1 X21.99 Y192.216 F60000
G1 X22.054 Y191.975
G1 X22.171 Y191.671
G1 X22.319 Y191.381
G1 X22.496 Y191.108
G1 X22.701 Y190.855
G1 X22.932 Y190.624
G1 X23.185 Y190.419
G1 X23.458 Y190.242
G1 X23.748 Y190.094
G1 X24.052 Y189.977
G1 X24.367 Y189.893
G1 X24.688 Y189.842
G1 X25.014 Y189.825
G1 X72.014 Y189.825
G1 X72.339 Y189.842
G1 X72.661 Y189.893
G1 X72.975 Y189.977
G1 X73.279 Y190.094
G1 X73.57 Y190.242
G1 X73.843 Y190.419
G1 X74.096 Y190.624
G1 X74.326 Y190.855
G1 X74.531 Y191.108
G1 X74.708 Y191.381
G1 X74.856 Y191.671
G1 X74.973 Y191.975
G1 X75.057 Y192.29
G1 X75.063 Y192.326
G1 X75.106 Y192.594
G1 X75.529 Y192.527
G1 E.6 F3600
;TYPE:Perimeter
G1 F1800
G1 X75.535 Y192.566 E.00134
G1 X75.554 Y192.937 E.01257
G1 X75.535 Y193.308 E.01257
G1 X75.475 Y193.679 E.01272
G1 X75.381 Y194.031 E.01233
G1 X75.248 Y194.377 E.01255
G1 X75.08 Y194.707 E.01253
G1 X74.878 Y195.018 E.01255
G1 X74.645 Y195.306 E.01254
G1 X74.383 Y195.568 E.01254
G1 X74.095 Y195.801 E.01254
G1 X73.784 Y196.003 E.01255
G1 X73.454 Y196.171 E.01253
G1 X73.108 Y196.304 E.01255
G1 X72.75 Y196.4 E.01255
G1 X72.384 Y196.458 E.01254
G1 X72.014 Y196.477 E.01254
G1 X71.644 Y196.458 E.01254
G1 X71.278 Y196.4 E.01254
G1 X70.92 Y196.304 E.01255
G1 X70.574 Y196.171 E.01255
G1 X70.243 Y196.002 E.01258
G1 X69.928 Y195.797 E.01272
G1 X69.645 Y195.568 E.01232
G1 X69.383 Y195.306 E.01254
G1 X69.149 Y195.018 E.01256
G1 X68.948 Y194.707 E.01253
G1 X68.779 Y194.377 E.01255
G1 X68.646 Y194.031 E.01255
G1 X68.551 Y193.673 E.01254
G1 X68.493 Y193.307 E.01254
G1 X68.473 Y192.937 E.01254
G1 X68.493 Y192.566 E.01258
G1 X68.551 Y192.2 E.01254
G1 X68.646 Y191.842 E.01254
G1 X68.779 Y191.496 E.01255
G1 X68.948 Y191.166 E.01255
G1 X69.149 Y190.855 E.01253
G1 X69.383 Y190.567 E.01256
G1 X69.645 Y190.305 E.01254
G1 X69.933 Y190.072 E.01254
G1 X70.243 Y189.87 E.01252
G1 X70.574 Y189.702 E.01256
G1 X70.92 Y189.569 E.01255
G1 X71.279 Y189.473 E.01258
G1 X71.65 Y189.415 E.01271
G1 X72.014 Y189.396 E.01234
G1 X72.384 Y189.415 E.01254
G1 X72.75 Y189.473 E.01254
G1 X73.108 Y189.569 E.01255
G1 X73.454 Y189.702 E.01255
G1 X73.784 Y189.87 E.01253
G1 X74.095 Y190.072 E.01255
G1 X74.383 Y190.305 E.01254
G1 X74.645 Y190.567 E.01254
G1 X74.878 Y190.855 E.01254
G1 X75.08 Y191.166 E.01255
G1 X75.248 Y191.496 E.01253
G1 X75.381 Y191.842 E.01255
G1 X75.477 Y192.2 E.01255
G1 X75.519 Y192.468 E.00918
G1 X75.519 Y192.468 F60000
G1 X75.126 Y192.59
G1 F1800
G1 X75.13 Y192.609 E.00066
G1 X75.147 Y192.937 E.01112
G1 X75.13 Y193.265 E.01112
G1 X75.077 Y193.594 E.01128
G1 X74.993 Y193.905 E.0109
G1 X74.876 Y194.211 E.01109
G1 X74.727 Y194.503 E.0111
G1 X74.548 Y194.778 E.01111
G1 X74.342 Y195.033 E.0111
G1 X74.11 Y195.265 E.01111
G1 X73.855 Y195.471 E.0111
G1 X73.58 Y195.65 E.01111
G1 X73.288 Y195.799 E.0111
G1 X72.982 Y195.916 E.01109
G1 X72.665 Y196.001 E.01111
G1 X72.341 Y196.052 E.0111
G1 X72.014 Y196.069 E.01108
G1 X71.686 Y196.052 E.01112
G1 X71.362 Y196.001 E.0111
G1 X71.046 Y195.916 E.01108
G1 X70.739 Y195.799 E.01112
G1 X70.447 Y195.649 E.01111
G1 X70.168 Y195.467 E.01128
G1 X69.917 Y195.265 E.01091
G1 X69.686 Y195.033 E.01108
G1 X69.479 Y194.778 E.01112
G1 X69.301 Y194.503 E.01109
G1 X69.152 Y194.211 E.0111
G1 X69.034 Y193.905 E.0111
G1 X68.949 Y193.588 E.01111
G1 X68.898 Y193.264 E.0111
G1 X68.881 Y192.937 E.01108
G1 X68.898 Y192.609 E.01112
G1 X68.949 Y192.285 E.0111
G1 X69.034 Y191.968 E.01111
G1 X69.152 Y191.662 E.0111
G1 X69.301 Y191.37 E.0111
G1 X69.479 Y191.095 E.01109
G1 X69.686 Y190.84 E.01112
G1 X69.917 Y190.608 E.01108
