; generated by SuperSlicer 2.5.60.0 on 2024-07-05 at 14:17:18 UTC


;
;

;
;
; 

; external perimeters extrusion width = 0.48mm
; perimeters extrusion width = 0.48mm
; infill extrusion width = 0.48mm
; solid infill extrusion width = 0.48mm
; top infill extrusion width = 0.48mm
; support material extrusion width = 0.42mm
; first layer extrusion width = 0.48mm

; object:{"name":"20mm Focus Pierce_Part 1__Main_2024-07-05 10-09-14","id":"20mm Focus Pierce_Part 1__Main_2024-07-05 10-09-14.stl id:0 copy 0","object_center":[90.000000,92.500000,0.000000],"boundingbox_center":[90.000000,92.500000,10.000000],"boundingbox_size":[30.000004,10.000000,20.000000]}
EXCLUDE_OBJECT_DEFINE NAME=20mm_Focus_Pierce_Part_1__Main_2024_07_05_10_09_14_stl_id_0_copy_0 CENTER=90.000000,92.500000 POLYGON=[[75.00,87.50],[105.00,87.50],[105.00,97.50],[75.00,97.50],[75.00,87.50]]
; Total objects to print: 1
; plater:{"center":[90.000000,92.500000,0.000000],"boundingbox_center":[90.000000,92.500000,10.000000],"boundingbox_size":[30.000004,10.000000,20.000000]}

M107
;TYPE:Custom
START_PRINT EXTRUDER=250 BED=100
G21 ; set units to millimeters
G90 ; use absolute coordinates
M83 ; use relative distances for extrusion
; Filament gcode
FILAMENT_START MATERIAL=ASA COLOR=#E8FEF0 VENDOR=123-3D
SET_PRESSURE_ADVANCE ADVANCE=0.062
M104 S250 ; set temperature
M109 S250 ; set temperature and wait for it to be reached
M190 S100 ; set bed temperature and wait for it to be reached
;LAYER_CHANGE
;Z:0.24
;HEIGHT:0.24
G1 E-1 F3600
G1 Z0.24 F60000
G92 E0
M204 S1000
G1 X72.473 Y84.37
G1 E1 F3600
;TYPE:Skirt
;WIDTH:0.45
G1 F2400
G1 X71.366 Y85.76 E0.065
G1 F2399.678
G1 X70.971 Y87.492 E.06499
G1 X70.971 Y97.508 E0.36637
G1 X71.073 Y98.402 E.03292
G1 X71.845 Y100.002 E.065
G1 X73.235 Y101.109 E0.065
G1 X74.967 Y101.504 E.06499
G1 X105.033 Y101.504 E1.09982
G1 X105.927 Y101.402 E.03293
G1 X107.527 Y100.63 E.06499
G1 X108.634 Y99.24 E0.065
G1 X109.029 Y97.508 E.065
G1 X109.029 Y87.492 E0.36636
G1 X108.927 Y86.598 E.03292
G1 X108.155 Y84.998 E.065
G1 X106.765 Y83.891 E0.065
G1 X105.033 Y83.496 E.06499
G1 X74.967 Y83.496 E1.09982
G1 X74.073 Y83.598 E.03293
G1 X72.527 Y84.344 E.0628
G1 X72.861 Y84.576 F60000
G1 F2400
G1 X71.764 Y85.855 E0.06163
G1 F2398.26
G1 X71.37 Y87.492 E.06163
G1 X71.37 Y97.508 E0.36636
G1 F2399.321
G1 X72.051 Y99.614 E.08098
G1 X73.33 Y100.711 E0.06163
G1 F2398.367
G1 X74.967 Y101.105 E.06163
G1 X105.033 Y101.105 E1.09982
G1 F2399.415
G1 X107.139 Y100.424 E.08098
G1 X108.236 Y99.145 E0.06163
G1 F2398.26
G1 X108.63 Y97.508 E.06163
G1 X108.63 Y87.492 E0.36636
G1 F2399.321
G1 X107.949 Y85.386 E.08098
G1 X106.67 Y84.289 E0.06163
G1 F2398.367
G1 X105.033 Y83.895 E.06163
G1 X74.967 Y83.895 E1.09982
G1 F2399.53
G1 X72.918 Y84.557 E.07879
G1 X73.246 Y84.796 F60000
G1 F2400
G1 X72.162 Y85.955 E0.05806
G1 F2399.388
G1 X71.768 Y87.492 E.05806
G1 X71.768 Y97.508 E0.36637
G1 X72.271 Y99.229 E.06559
G1 X73.43 Y100.313 E.05806
G1 X74.967 Y100.707 E.05806
G1 X105.033 Y100.707 E1.09982
G1 X106.754 Y100.204 E.06559
G1 X107.838 Y99.045 E.05807
G1 X108.232 Y97.508 E.05806
G1 X108.232 Y87.492 E0.36636
G1 X107.729 Y85.771 E.06559
G1 X106.57 Y84.687 E.05807
G1 X105.033 Y84.293 E.05806
G1 X74.967 Y84.293 E1.09982
G1 X73.304 Y84.779 E.06339
G1 X72.202 Y83.92 F60000
;WIDTH:0.48
G1 F2243.705
G1 X73.013 Y83.412 E.03763
G1 F2264.106
G1 X73.742 Y83.138 E.03061
G1 F2279.468
G1 X74.59 Y82.993 E.03386
G1 F2298.316
G1 X79.001 Y82.994 Z.24 E.17351
G1 F2313.897
G1 X83.412 Y82.994 Z.24 E.17351
G1 F2329.479
G1 X87.823 Y82.995 Z.24 E.17351
G1 F2345.061
G1 X92.234 Y82.995 Z.24 E.17351
G1 F2360.642
G1 X96.645 Y82.996 Z.24 E.17351
G1 F2376.224
G1 X101.056 Y82.996 Z.24 E.17351
G1 F2399.596
G1 X105.467 Y82.997 Z.24 E.17351
G1 X106.364 Y83.169 E0.03592
G1 X107.213 Y83.527 E.03625
G1 X107.877 Y83.987 E0.03177
G1 X108.475 Y84.572 E.03291
G1 X108.948 Y85.227 E0.03177
G1 F2397.864
G1 X109.306 Y86 E.03353
G1 X109.532 Y87.11 E0.04455
G1 F2399.75
G1 X109.52 Y90.82 Z.24 E.14591
G1 X109.507 Y94.529 Z.24 E.14591
G1 F2400
G1 X109.495 Y98.239 Z.24 E.14591
G1 F2396.67
G1 X109.346 Y98.873 E.02565
G1 F2399.862
G1 X109.098 Y99.496 E.02637
G1 X108.621 Y100.252 E0.03515
G1 F2398.218
G1 X107.798 Y101.08 E.04594
G1 X106.987 Y101.588 E0.03763
G1 F2396.229
G1 X106.259 Y101.861 E.03061
G1 X105.41 Y102.007 E0.03385
G1 F2397.62
G1 X101.006 Y102.007 Z.24 E.17323
G1 X96.602 Y102.007 Z.24 E.17323
G1 F2398.352
G1 X92.198 Y102.007 Z.24 E.17323
G1 X87.794 Y102.007 Z.24 E.17323
G1 F2399.085
G1 X83.39 Y102.007 Z.24 E.17323
G1 X78.986 Y102.007 Z.24 E.17323
G1 F2400
G1 X74.582 Y102.007 Z.24 E.17323
G1 F2399.156
G1 X73.491 Y101.786 E.0438
G1 X72.848 Y101.505 E0.0276
G1 X72.258 Y101.125 E.02761
G1 X71.401 Y100.28 E0.04733
G1 F2398.146
G1 X70.887 Y99.463 E.03798
G1 X70.613 Y98.733 E0.03065
G1 F2399.482
G1 X70.468 Y97.883 E.03391
G1 F2398.891
G1 X70.475 Y94.217 Z.24 E.14423
G1 X70.483 Y90.55 Z.24 E.14423
G1 F2397.03
G1 X70.49 Y86.884 Z.24 E.14423
G1 X70.634 Y86.191 E0.02781
G1 F2396.511
G1 X70.897 Y85.513 E.02863
G1 F2399.235
G1 X71.378 Y84.749 E.03551
G1 X72.16 Y83.962 E0.04361
G1 X72.488 Y84.24 F60000
G1 F2397.707
G1 X73.185 Y83.805 E.03233
G1 X73.836 Y83.557 E0.02739
G1 F2396.094
G1 X74.608 Y83.422 E.03087
G1 X105.446 Y83.426 E1.213
G1 F2399.411
G1 X106.259 Y83.585 E.03259
G1 X107.024 Y83.912 E0.03272
G1 X107.616 Y84.328 E.02846
G1 X108.161 Y84.864 E.03008
G1 X108.587 Y85.459 E.02879
G1 X108.906 Y86.156 E.03014
G1 X109.103 Y87.131 E0.03911
G1 X109.093 Y90.809 Z.24 E.14467
G1 X109.083 Y94.486 Z.24 E.14467
G1 F2400
G1 X109.073 Y98.164 Z.24 E.14467
G1 F2398.292
G1 X108.933 Y98.759 E.02405
G1 X108.708 Y99.318 E0.02368
G1 F2399.422
G1 X108.272 Y100.002 E.03189
G1 X107.512 Y100.76 E.04223
G1 X106.815 Y101.195 E0.03232
G1 F2396.5
G1 X106.165 Y101.443 E.0274
G1 X105.392 Y101.578 E0.03085
G1 F2398.815
G1 X100.994 Y101.578 Z.24 E.17301
G1 X96.595 Y101.578 Z.24 E.17301
G1 F2399.18
G1 X92.197 Y101.578 Z.24 E.17301
G1 X87.798 Y101.578 Z.24 E.17301
G1 X83.4 Y101.578 Z.24 E.17301
G1 X79.001 Y101.578 Z.24 E.17301
G1 F2400
G1 X74.603 Y101.578 Z.24 E.17301
G1 F2397.611
G1 X73.641 Y101.384 E.03863
G1 X73.065 Y101.135 E0.02467
G1 X72.509 Y100.777 E.02603
G1 F2399.997
G1 X71.72 Y99.994 E.04372
G1 F2398.856
G1 X71.28 Y99.291 E.03262
G1 X71.032 Y98.639 E0.02741
G1 X70.897 Y97.865 E.03091
G1 F2399.599
G1 X70.903 Y94.227 Z.24 E.14312
G1 F2398.797
G1 X70.908 Y90.588 Z.24 E.14312
G1 F2397.595
G1 X70.914 Y86.95 Z.24 E.14312
G1 X71.05 Y86.296 E0.02625
G1 F2399.638
G1 X71.289 Y85.688 E.02568
G1 F2394.878
G1 X71.727 Y84.999 E.03216
G1 X72.445 Y84.282 E0.03988
G1 X72.772 Y84.562 F60000
G1 F2398.812
G1 X73.358 Y84.197 E.02716
G1 X73.931 Y83.975 E.02419
G1 X74.627 Y83.85 E0.02781
G1 F2399.549
G1 X79.027 Y83.851 Z.24 E.17306
G1 X83.426 Y83.851 Z.24 E.17306
G1 X87.826 Y83.852 Z.24 E.17306
G1 X92.226 Y83.852 Z.24 E.17306
G1 X96.626 Y83.853 Z.24 E.17306
G1 X101.025 Y83.853 Z.24 E.17306
G1 X105.425 Y83.854 Z.24 E.17306
G1 X106.153 Y84.001 E0.02921
G1 X106.833 Y84.296 E.02916
G1 X107.354 Y84.667 E0.02515
G1 F2395.393
G1 X107.846 Y85.155 E.0273
G1 X108.226 Y85.69 E0.0258
G1 F2399.627
G1 X108.505 Y86.31 E.02674
G1 X108.675 Y87.151 E.03375
G1 X108.667 Y90.798 Z.24 E.14344
G1 X108.658 Y94.444 Z.24 E.14344
G1 X108.65 Y98.091 Z.24 E.14344
G1 X108.529 Y98.615 E0.02115
G1 X108.318 Y99.139 E.02222
G1 X107.925 Y99.75 E0.02857
G1 X107.228 Y100.438 E.03852
G1 X106.642 Y100.803 E.02716
G1 X106.069 Y101.025 E.02418
G1 X105.373 Y101.15 E0.02781
G1 X100.98 Y101.15 Z.24 E.17278
G1 X96.588 Y101.15 Z.24 E.17278
G1 X92.195 Y101.15 Z.24 E.17278
G1 F2398.895
G1 X87.803 Y101.15 Z.24 E.17278
G1 X83.41 Y101.15 Z.24 E.17278
G1 X79.018 Y101.15 Z.24 E.17278
G1 X74.625 Y101.15 Z.24 E.17278
G1 X73.79 Y100.982 E0.03348
G1 X73.252 Y100.749 E.02307
G1 X72.761 Y100.43 E0.02303
G1 X72.041 Y99.708 E.04012
G1 F2399.886
G1 X71.672 Y99.117 E.02739
G1 X71.45 Y98.543 E0.02419
G1 F2397.019
G1 X71.325 Y97.847 E.02784
G1 X71.338 Y87.014 E0.42611
G1 F2398.08
G1 X71.456 Y86.436 E.02322
G1 F2399.864
G1 X71.68 Y85.865 E.02412
G1 X72.075 Y85.25 E0.02874
G1 F2397.821
G1 X72.729 Y84.604 E.03617
G1 X73.054 Y84.885 F60000
G1 F2400
G1 X73.533 Y84.589 E0.02213
G1 F2399.791
G1 X74.03 Y84.393 E.021
G1 F2398.17
G1 X74.647 Y84.279 E.02469
G1 X105.404 Y84.283 E1.20982
G1 F2399.949
G1 X106.003 Y84.403 E.02403
G1 X106.641 Y84.68 E.02736
G1 X107.089 Y85.004 E.02176
G1 F2397.608
G1 X107.53 Y85.445 E.02455
G1 X107.863 Y85.92 E0.02279
G1 F2394.876
G1 X108.104 Y86.462 E.02336
G1 X108.246 Y87.172 E0.02846
G1 F2398.53
G1 X108.24 Y90.788 Z.24 E.14222
G1 F2399.118
G1 X108.233 Y94.403 Z.24 E.14222
G1 F2400
G1 X108.227 Y98.019 Z.24 E.14222
G1 F2397.398
G1 X108.115 Y98.502 E.01952
G1 X107.929 Y98.959 E0.0194
G1 F2398.364
G1 X107.579 Y99.496 E.02523
G1 X106.946 Y100.115 E.03484
G1 X106.467 Y100.411 E0.02213
G1 F2399.791
G1 X105.97 Y100.607 E.021
G1 F2398.187
G1 X105.353 Y100.721 E.02469
G1 X74.646 Y100.721 E1.20787
G1 F2397.107
G1 X73.94 Y100.58 E.02833
G1 X73.439 Y100.363 E0.02144
G1 X73.015 Y100.084 E.01997
G1 F2399.993
G1 X72.362 Y99.424 E.03653
G1 F2398.883
G1 X72.064 Y98.942 E.0223
G1 F2399.863
G1 X71.868 Y98.445 E.02101
G1 X71.754 Y97.827 E0.02471
G1 X71.757 Y94.244 Z.24 E.14094
G1 X71.76 Y90.661 Z.24 E.14094
G1 F2400
G1 X71.763 Y87.078 Z.24 E.14094
G1 F2394.576
G1 X71.872 Y86.54 E.02163
G1 X72.07 Y86.043 E0.02102
G1 F2396.56
G1 X72.421 Y85.504 E.02532
G1 F2399.312
G1 X73.011 Y84.926 E.03248
G1 X73.335 Y85.209 F60000
G1 F2400
G1 X73.71 Y84.98 E0.01727
G1 F2399.564
G1 X74.131 Y84.81 E.01785
G1 F2397.109
G1 X74.667 Y84.707 E.02149
G1 X105.382 Y84.711 E1.20815
G1 F2396.702
G1 X105.893 Y84.818 E.02056
G1 X106.446 Y85.063 E0.02378
G1 F2398.883
G1 X106.798 Y85.319 E.01712
G1 X107.214 Y85.735 E0.02313
G1 F2394.749
G1 X107.499 Y86.146 E.01971
G1 X107.702 Y86.612 E0.01999
G1 F2399.388
G1 X107.818 Y87.192 E.02327
G1 X107.804 Y97.946 E0.42298
G1 F2394.61
G1 X107.702 Y98.388 E.01787
G1 X107.541 Y98.776 E0.0165
G1 F2399.248
G1 X107.234 Y99.241 E.0219
G1 F2396.406
G1 X106.665 Y99.791 E.03116
G1 F2398.872
G1 X106.29 Y100.02 E.01728
G1 X105.869 Y100.19 E0.01784
G1 F2397.43
G1 X105.333 Y100.293 E.02148
G1 F2399.885
G1 X100.952 Y100.293 Z.24 E.17232
G1 X96.571 Y100.293 Z.24 E.17232
G1 X92.19 Y100.293 Z.24 E.17232
G1 X87.81 Y100.293 Z.24 E.17232
G1 F2398.964
G1 X83.429 Y100.293 Z.24 E.17232
G1 X79.048 Y100.293 Z.24 E.17232
G1 X74.667 Y100.293 Z.24 E.17232
G1 X74.087 Y100.177 E0.02325
G1 F2394.615
G1 X73.659 Y99.995 E.01832
G1 X73.27 Y99.739 E0.0183
G1 F2399.36
G1 X72.685 Y99.141 E.03289
G1 F2397.413
G1 X72.454 Y98.765 E.01737
G1 X72.285 Y98.344 E0.01784
G1 F2396.239
G1 X72.182 Y97.808 E.0215
G1 F2399.949
G1 X72.185 Y94.239 Z.24 E.14038
G1 X72.188 Y90.67 Z.24 E.14038
G1 X72.191 Y87.101 Z.24 E.14038
G1 X72.287 Y86.647 E0.01825
G1 X72.459 Y86.224 E.01796
G1 X72.766 Y85.759 E0.0219
G1 F2394.462
G1 X73.292 Y85.251 E.0288
G1 X73.614 Y85.535 F60000
G1 F2400
G1 X73.889 Y85.369 E0.01262
G1 F2398.307
G1 X74.235 Y85.226 E.01473
G1 X74.688 Y85.136 E.01818
G1 X105.359 Y85.14 E1.20642
G1 F2394.624
G1 X105.78 Y85.231 E.01697
G1 X106.249 Y85.444 E0.02024
G1 F2392.476
G1 X106.506 Y85.633 E.01257
G1 X106.897 Y86.024 E0.02171
G1 F2395.573
G1 X107.133 Y86.371 E.01653
G1 F2399.855
G1 X107.299 Y86.76 E.01665
G1 X107.389 Y87.213 E.01818
G1 X107.38 Y97.875 E0.41938
G1 F2394.573
G1 X107.299 Y98.241 E.01477
G1 X107.153 Y98.592 E0.01494
G1 F2399.435
G1 X106.891 Y98.982 E.01847
G1 F2396.646
G1 X106.386 Y99.465 E.0275
G1 X106.111 Y99.631 E0.01262
G1 F2398.307
G1 X105.765 Y99.774 E.01473
G1 X105.312 Y99.864 E.01818
G1 X74.688 Y99.864 E1.20459
G1 X74.235 Y99.774 E.01817
G1 X73.845 Y99.608 E0.01666
G1 F2399.525
G1 X73.527 Y99.395 E.01505
G1 F2396.114
G1 X73.01 Y98.861 E.02926
G1 X72.844 Y98.586 E0.01262
G1 F2398.307
G1 X72.701 Y98.24 E.01473
G1 F2397.273
G1 X72.611 Y97.787 E.01819
G1 X72.62 Y87.125 E0.41938
G1 F2394.573
G1 X72.701 Y86.759 E.01477
G1 X72.847 Y86.408 E0.01494
G1 F2399.435
G1 X73.109 Y86.018 E.01847
G1 X73.571 Y85.576 E.02514
G1 X73.859 Y85.888 F60000
G1 F2400
G1 X74.069 Y85.759 E0.00969
G1 F2394.665
G1 X74.379 Y85.63 E.01323
G1 X74.709 Y85.564 E0.01323
G1 F2397.998
G1 X79.084 Y85.565 Z.24 E.1721
G1 X83.459 Y85.565 Z.24 E.1721
G1 F2396.109
G1 X87.834 Y85.566 Z.24 E.1721
G1 F2395.165
G1 X92.21 Y85.566 Z.24 E.1721
G1 F2394.22
G1 X96.585 Y85.567 Z.24 E.1721
G1 F2393.276
G1 X100.96 Y85.567 Z.24 E.1721
G1 F2391.859
G1 X105.335 Y85.568 Z.24 E.1721
G1 X105.627 Y85.632 E0.01172
G1 F2395.329
G1 X106.016 Y85.804 E.01674
G1 F2393.443
G1 X106.215 Y85.948 E.00968
G1 X106.579 Y86.312 E0.02021
G1 F2391.328
G1 X106.765 Y86.591 E.01323
G1 F2397.777
G1 X106.895 Y86.904 E.01334
G1 X106.961 Y87.234 E0.01322
G1 X106.96 Y90.759 Z.24 E.13864
G1 X106.958 Y94.283 Z.24 E.13863
G1 F2398.723
G1 X106.957 Y97.808 Z.24 E.13864
G1 X106.895 Y98.096 E0.01158
G1 X106.765 Y98.409 E.01334
G1 F2396.467
G1 X106.577 Y98.69 E.01332
G1 F2399.723
G1 X106.141 Y99.112 E.02386
G1 X105.931 Y99.241 E0.00969
G1 F2391.905
G1 X105.621 Y99.37 E.01324
G1 X105.291 Y99.436 E0.01322
G1 F2397.127
G1 X100.922 Y99.436 Z.24 E.17185
G1 X96.553 Y99.436 Z.24 E.17185
G1 X92.184 Y99.436 Z.24 E.17185
G1 X87.816 Y99.436 Z.24 E.17185
G1 X83.447 Y99.436 Z.24 E.17185
G1 X79.078 Y99.436 Z.24 E.17185
G1 X74.709 Y99.436 Z.24 E.17185
G1 X74.379 Y99.37 E0.01322
G1 X74.066 Y99.24 E.01334
G1 F2396.401
G1 X73.785 Y99.052 E.01332
G1 F2399.734
G1 X73.363 Y98.616 E.02386
G1 X73.234 Y98.406 E0.00969
G1 F2391.879
G1 X73.105 Y98.096 E.01324
G1 X73.039 Y97.766 E0.01322
G1 F2397.469
G1 X73.04 Y94.241 Z.24 E.13864
G1 X73.042 Y90.717 Z.24 E.13863
G1 F2398.723
G1 X73.043 Y87.192 Z.24 E.13864
G1 X73.105 Y86.904 E0.01158
G1 X73.235 Y86.591 E.01334
G1 F2395.075
G1 X73.423 Y86.31 E.01332
G1 X73.816 Y85.929 E.0215
G1 X74.107 Y86.238 F60000
G1 F2400
G1 X74.25 Y86.147 E0.00663
G1 F2385.617
G1 X74.524 Y86.034 E.01168
G1 F2393.73
G1 X74.73 Y85.993 E.00827
G1 F2398.738
G1 X79.099 Y85.994 Z.24 E.17185
G1 X83.468 Y85.994 Z.24 E.17184
G1 F2399.126
G1 X87.837 Y85.995 Z.24 E.17185
G1 X92.205 Y85.995 Z.24 E.17185
G1 X96.574 Y85.996 Z.24 E.17185
G1 X100.943 Y85.996 Z.24 E.17184
G1 F2400
G1 X105.312 Y85.997 Z.24 E.17185
G1 F2396.884
G1 X105.476 Y86.034 E.00662
G1 X105.788 Y86.167 E0.01333
G1 F2387.199
G1 X105.925 Y86.264 E.00663
G1 X106.261 Y86.6 E0.01866
G1 F2399.577
G1 X106.378 Y86.775 E.00827
G1 F2393.656
G1 X106.491 Y87.049 E.01169
G1 F2398.691
G1 X106.532 Y87.255 E.00827
G1 X106.532 Y97.745 E0.4126
G1 F2396.18
G1 X106.491 Y97.951 E.00828
G1 X106.378 Y98.225 E.01168
G1 X106.261 Y98.4 E0.00827
G1 F2391.326
G1 X105.893 Y98.762 E.02031
G1 X105.75 Y98.853 E0.00663
G1 F2385.617
G1 X105.476 Y98.966 E.01168
G1 F2393.73
G1 X105.27 Y99.007 E.00827
G1 F2398.738
G1 X100.907 Y99.007 Z.24 E.17161
G1 X96.544 Y99.007 Z.24 E.17161
G1 F2399.126
G1 X92.181 Y99.007 Z.24 E.17161
G1 X87.819 Y99.007 Z.24 E.17161
G1 X83.456 Y99.007 Z.24 E.17161
G1 X79.093 Y99.007 Z.24 E.17161
G1 F2400
G1 X74.73 Y99.007 Z.24 E.17161
G1 F2398.788
G1 X74.524 Y98.966 E.00827
G1 F2396.855
G1 X74.25 Y98.853 E.01168
G1 F2398.443
G1 X74.075 Y98.736 E.00828
G1 F2396.386
G1 X73.712 Y98.368 E.02031
G1 X73.622 Y98.225 E0.00662
G1 F2387.447
G1 X73.509 Y97.951 E.01169
G1 F2396
G1 X73.468 Y97.745 E.00827
G1 X73.468 Y87.255 E0.41261
G1 F2398.713
G1 X73.509 Y87.049 E.00827
G1 F2395.219
G1 X73.622 Y86.775 E.01168
G1 X73.739 Y86.6 E0.00827
G1 F2396.558
G1 X74.064 Y86.28 E.01795
G1 X74.363 Y86.582 F60000
G1 F2395.352
G1 X74.433 Y86.535 E.00332
G1 F2386.209
G1 X74.668 Y86.438 E.01003
G1 X74.751 Y86.421 E0.00332
G1 F2390.065
G1 X79.108 Y86.421 Z.24 E.17138
G1 X83.465 Y86.421 Z.24 E.17137
G1 X87.822 Y86.421 Z.24 E.17138
G1 X92.178 Y86.421 Z.24 E.17138
G1 X96.535 Y86.421 Z.24 E.17138
G1 X100.892 Y86.421 Z.24 E.17137
G1 X105.249 Y86.421 Z.24 E.17138
G1 X105.332 Y86.438 E0.00332
G1 F2386.209
G1 X105.567 Y86.535 E.01003
G1 F2394.649
G1 X105.637 Y86.582 E.00332
G1 X105.943 Y86.888 E0.017
G1 X105.99 Y86.958 E.00332
G1 F2386.253
G1 X106.087 Y87.193 E.01003
G1 X106.104 Y87.276 E0.00332
G1 F2390.199
G1 X106.104 Y90.759 Z.24 E.13698
G1 X106.104 Y94.241 Z.24 E.13699
G1 X106.104 Y97.724 Z.24 E.13698
