; generated by SuperSlicer 2.5.60.0 on 2024-07-05 at 15:00:18 UTC


;
;

;
;
; 

; external perimeters extrusion width = 0.48mm
; perimeters extrusion width = 0.48mm
; infill extrusion width = 0.48mm
; solid infill extrusion width = 0.48mm
; top infill extrusion width = 0.48mm
; support material extrusion width = 0.42mm
; first layer extrusion width = 0.48mm

; external perimeters extrusion width = 0.48mm
; perimeters extrusion width = 0.48mm
; infill extrusion width = 0.48mm
; solid infill extrusion width = 0.48mm
; top infill extrusion width = 0.48mm
; support material extrusion width = 0.42mm
; first layer extrusion width = 0.48mm

; external perimeters extrusion width = 0.48mm
; perimeters extrusion width = 0.48mm
; infill extrusion width = 0.48mm
; solid infill extrusion width = 0.48mm
; top infill extrusion width = 0.48mm
; support material extrusion width = 0.42mm
; first layer extrusion width = 0.48mm

; object:{"name":"20mm Focus Pierce_Part 1__Main_2024-07-05 10-09-14","id":"20mm Focus Pierce_Part 1__Main_2024-07-05 10-09-14.stl id:0 copy 0","object_center":[90.000000,92.500000,0.000000],"boundingbox_center":[90.000000,92.500000,10.000000],"boundingbox_size":[30.000004,10.000000,20.000000]}
EXCLUDE_OBJECT_DEFINE NAME=20mm_Focus_Pierce_Part_1__Main_2024_07_05_10_09_14_stl_id_0_copy_0 CENTER=90.000000,92.500000 POLYGON=[[75.00,87.50],[105.00,87.50],[105.00,97.50],[75.00,97.50],[75.00,87.50]]
; object:{"name":"20mm Focus Pierce_Part 1__Main_2024-07-05 10-09-14","id":"20mm Focus Pierce_Part 1__Main_2024-07-05 10-09-14.stl id:1 copy 0","object_center":[90.660419,106.961413,0.000000],"boundingbox_center":[90.660419,106.961413,10.000000],"boundingbox_size":[30.000004,10.000000,20.000000]}
EXCLUDE_OBJECT_DEFINE NAME=20mm_Focus_Pierce_Part_1__Main_2024_07_05_10_09_14_stl_id_1_copy_0 CENTER=90.660419,106.961413 POLYGON=[[75.66,101.96],[105.66,101.96],[105.66,111.96],[75.66,111.96],[75.66,101.96]]
; object:{"name":"20mm Focus Pierce_Part 1__Main_2024-07-05 10-09-14","id":"20mm Focus Pierce_Part 1__Main_2024-07-05 10-09-14.stl id:2 copy 0","object_center":[91.339771,119.732339,0.000000],"boundingbox_center":[91.339771,119.732339,10.000000],"boundingbox_size":[30.000004,10.000000,20.000000]}
EXCLUDE_OBJECT_DEFINE NAME=20mm_Focus_Pierce_Part_1__Main_2024_07_05_10_09_14_stl_id_2_copy_0 CENTER=91.339771,119.732339 POLYGON=[[76.34,114.73],[106.34,114.73],[106.34,124.73],[76.34,124.73],[76.34,114.73]]
; Total objects to print: 3
; plater:{"center":[90.669885,106.116169,0.000000],"boundingbox_center":[90.669885,106.116169,10.000000],"boundingbox_size":[31.339775,37.232339,20.000000]}

M107
;TYPE:Custom
START_PRINT EXTRUDER=250 BED=100
G21 ; set units to millimeters
G90 ; use absolute coordinates
M83 ; use relative distances for extrusion
; Filament gcode
FILAMENT_START MATERIAL=ASA COLOR=#E8FEF0 VENDOR=123-3D
SET_PRESSURE_ADVANCE ADVANCE=0.062
M104 S250 ; set temperature
M109 S250 ; set temperature and wait for it to be reached
M190 S100 ; set bed temperature and wait for it to be reached
;LAYER_CHANGE
;Z:0.24
;HEIGHT:0.24
G1 E-1 F3600
G1 Z0.24 F60000
G92 E0
M204 S1000
G1 X72.473 Y84.37
G1 E1 F3600
;TYPE:Skirt
;WIDTH:0.45
G1 F2400
G1 X71.366 Y85.76 E0.07065
G1 F2399.363
G1 X70.971 Y87.492 E.07065
G1 X70.975 Y97.69 E0.40547
G1 X71.195 Y102.51 Z.24 E.19187
G1 X71.416 Y107.331 Z.24 E.19187
G1 X71.636 Y112.151 Z.24 E.19187
G1 X72.317 Y124.952 E0.50971
G1 X73.185 Y127.234 E.09709
G1 X74.575 Y128.341 E0.07065
G1 X76.307 Y128.736 E.07064
G1 X80.602 Y128.736 Z.24 E.17078
G1 X84.897 Y128.736 Z.24 E.17078
G1 X89.192 Y128.736 Z.24 E.17078
G1 X93.487 Y128.736 Z.24 E.17078
G1 X97.782 Y128.736 Z.24 E.17078
G1 F2398.777
G1 X102.077 Y128.736 Z.24 E.17078
G1 X106.372 Y128.736 Z.24 E.17078
G1 X107.267 Y128.635 E0.03579
G1 F2399.138
G1 X108.867 Y127.862 E.07065
G1 X109.974 Y126.472 E0.07064
G1 X110.369 Y124.74 E.07065
G1 X110.369 Y121.402 Z.24 E.13274
G1 X110.369 Y118.063 Z.24 E.13274
G1 X110.369 Y114.725 Z.24 E.13274
G1 X109.024 Y87.296 E1.09193
G1 X108.155 Y84.998 E.09769
G1 X106.765 Y83.891 E0.07065
G1 X105.033 Y83.496 E.07065
G1 X74.967 Y83.496 E1.19546
G1 X74.073 Y83.598 E.03578
G1 X72.527 Y84.344 E.06827
G1 X72.861 Y84.576 F60000
G1 F2400
G1 X71.764 Y85.855 E0.06698
G1 F2398.099
G1 X71.37 Y87.492 E.06699
G1 X71.373 Y97.672 E0.40475
G1 F2399.817
G1 X71.593 Y102.492 Z.24 E.19187
G1 X71.814 Y107.313 Z.24 E.19187
G1 X72.034 Y112.133 Z.24 E.19187
G1 X72.715 Y124.931 E0.50959
G1 X73.391 Y126.846 E.08077
G1 X74.669 Y127.943 E.06698
G1 X76.307 Y128.338 E0.06699
G1 X80.602 Y128.338 Z.24 E.17078
G1 X84.897 Y128.338 Z.24 E.17078
G1 X89.192 Y128.338 Z.24 E.17078
G1 X93.487 Y128.338 Z.24 E.17078
G1 X97.782 Y128.338 Z.24 E.17078
G1 X102.077 Y128.338 Z.24 E.17078
G1 X106.372 Y128.338 Z.24 E.17078
G1 X108.479 Y127.656 E0.08803
G1 F2398.739
G1 X109.576 Y126.378 E.06699
G1 X109.97 Y124.74 E0.06698
G1 F2399.757
G1 X109.97 Y121.402 Z.24 E.13274
G1 X109.97 Y118.063 Z.24 E.13274
G1 F2400
G1 X109.97 Y114.725 Z.24 E.13274
G1 F2399.953
G1 X109.746 Y110.157 Z.24 E.18186
G1 X109.522 Y105.589 Z.24 E.18186
G1 X109.298 Y101.021 Z.24 E.18186
G1 X109.074 Y96.452 Z.24 E.18186
G1 X108.85 Y91.884 Z.24 E.18186
G1 X108.626 Y87.316 Z.24 E.18186
G1 X107.949 Y85.386 E.08131
G1 X106.67 Y84.289 E0.06698
G1 F2398.171
G1 X105.033 Y83.895 E.06699
G1 X74.967 Y83.895 E1.19545
G1 F2399.295
G1 X72.918 Y84.557 E.08565
G1 X73.246 Y84.796 F60000
G1 F2400
G1 X72.162 Y85.955 E0.06311
G1 F2399.43
G1 X71.768 Y87.492 E.06311
G1 X71.769 Y90.879 Z.24 E.13467
G1 X71.77 Y94.266 Z.24 E.13467
G1 X71.771 Y97.653 Z.24 E.13467
G1 X72.432 Y112.115 E0.57562
G1 X72.659 Y116.38 Z.24 E.16982
G1 X72.885 Y120.645 Z.24 E.16982
G1 F2400
G1 X73.112 Y124.91 Z.24 E.16982
G1 F2399.334
G1 X73.61 Y126.461 E.06478
G1 X74.77 Y127.545 E0.06311
G1 F2398.914
G1 X76.307 Y127.939 E.06311
G1 F2399.923
G1 X80.602 Y127.939 Z.24 E.17078
G1 X84.897 Y127.939 Z.24 E.17078
G1 X89.192 Y127.939 Z.24 E.17078
G1 X93.487 Y127.939 Z.24 E.17078
G1 X97.782 Y127.939 Z.24 E.17078
G1 X102.077 Y127.939 Z.24 E.17078
G1 F2398.917
G1 X106.372 Y127.939 Z.24 E.17078
G1 X108.094 Y127.437 E0.07129
G1 X109.178 Y126.278 E.06311
G1 X109.572 Y124.74 E0.06312
G1 F2399.688
G1 X109.572 Y121.402 Z.24 E.13274
G1 X109.572 Y118.063 Z.24 E.13274
G1 X109.572 Y114.725 Z.24 E.13274
G1 X109.348 Y110.16 Z.24 E.18173
G1 X109.124 Y105.595 Z.24 E.18173
G1 X108.9 Y101.03 Z.24 E.18173
G1 X108.676 Y96.465 Z.24 E.18173
G1 X108.452 Y91.9 Z.24 E.18173
G1 X108.228 Y87.335 Z.24 E.18173
G1 X107.729 Y85.771 E0.06527
G1 X106.57 Y84.687 E.06311
G1 X105.033 Y84.293 E.06312
G1 X74.967 Y84.293 E1.19545
G1 X73.304 Y84.779 E.06891
G1 X72.823 Y83.508 F60000
;WIDTH:0.48
G1 F2243.424
G1 X73.691 Y83.152 E.04009
G1 F2259.522
G1 X74.589 Y82.993 E.03902
G1 F2279.88
G1 X79 Y82.994 Z.24 E.1886
G1 F2298.357
G1 X83.411 Y82.994 Z.24 E.1886
G1 F2316.834
G1 X87.822 Y82.995 Z.24 E.1886
G1 F2335.311
G1 X92.234 Y82.995 Z.24 E.1886
G1 F2353.788
G1 X96.645 Y82.996 Z.24 E.1886
G1 F2372.265
G1 X101.056 Y82.996 Z.24 E.1886
G1 F2399.98
G1 X105.467 Y82.997 Z.24 E.1886
G1 X106.364 Y83.169 E0.03905
G1 X107.213 Y83.527 E.0394
G1 X107.877 Y83.987 E0.03453
G1 X108.475 Y84.572 E.03577
G1 X108.948 Y85.227 E0.03454
G1 F2398.083
G1 X109.306 Y86 E.03644
G1 X109.528 Y87.066 E0.04653
G1 X109.526 Y90.707 Z.24 E.15566
G1 F2399.306
G1 X109.525 Y94.347 Z.24 E.15566
G1 F2400
G1 X109.523 Y97.988 Z.24 E.15566
G1 F2399.912
G1 X109.353 Y98.85 E.03757
G1 X109.236 Y99.153 E.01389
G1 X109.743 Y99.934 E0.03981
G1 F2397.707
G1 X110.023 Y100.642 E.03257
G1 X110.177 Y101.414 E0.03363
G1 F2398.388
G1 X110.182 Y105.054 Z.24 E.15564
G1 F2399.033
G1 X110.187 Y108.695 Z.24 E.15564
G1 F2400
G1 X110.192 Y112.335 Z.24 E.15564
G1 F2399.459
G1 X110.426 Y112.716 E.01912
G1 X110.705 Y113.422 E0.03245
G1 F2398.758
G1 X110.872 Y114.35 E.04033
G1 F2399.961
G1 X110.872 Y117.942 Z.24 E.15358
G1 X110.872 Y121.534 Z.24 E.15358
G1 X110.872 Y125.126 Z.24 E.15358
G1 X110.646 Y126.232 E0.04826
G1 F2398.927
G1 X110.353 Y126.89 E.0308
G1 X109.944 Y127.505 E0.03156
G1 F2396.654
G1 X109.247 Y128.222 E.04279
G1 X108.526 Y128.719 E0.03742
G1 F2399.204
G1 X107.659 Y129.077 E.04011
G1 X106.752 Y129.239 E.0394
G1 X102.348 Y129.239 Z.24 E.18831
G1 X97.943 Y129.239 Z.24 E.18831
G1 X93.539 Y129.239 Z.24 E.18831
G1 X89.134 Y129.239 Z.24 E.18831
G1 X84.73 Y129.239 Z.24 E.18831
G1 X80.325 Y129.239 Z.24 E.18831
G1 X75.921 Y129.239 Z.24 E.18831
G1 X74.815 Y129.013 E0.04826
G1 F2397.605
G1 X74.157 Y128.721 E.0308
G1 X73.542 Y128.312 E0.03156
G1 F2399.126
G1 X72.825 Y127.615 E.04276
G1 F2398.295
G1 X72.376 Y126.978 E.03334
G1 X72.021 Y126.193 E0.03682
G1 F2399.974
G1 X71.832 Y125.357 E.03663
G1 X71.824 Y121.695 Z.24 E.15657
G1 X71.816 Y118.033 Z.24 E.15657
G1 F2400
G1 X71.808 Y114.371 Z.24 E.15657
G1 F2396.121
G1 X71.583 Y113.995 E.01876
G1 X71.295 Y113.273 E0.03322
G1 F2398.847
G1 X71.129 Y112.344 E.04036
G1 X71.129 Y101.572 E0.46056
G1 F2397.133
G1 X71.308 Y100.611 E.0418
G1 F2399.793
G1 X71.433 Y100.299 E.01434
G1 X71.296 Y100.146 E0.00876
G1 F2396.562
G1 X70.906 Y99.5 E.03228
G1 F2399.008
G1 X70.629 Y98.788 E.03268
G1 X70.468 Y97.887 E0.03912
G1 X70.471 Y94.263 Z.24 E.15495
G1 X70.474 Y90.639 Z.24 E.15495
G1 X70.477 Y87.015 Z.24 E.15495
G1 X70.622 Y86.235 E.03392
G1 X70.897 Y85.514 E0.03298
G1 F2397.367
G1 X71.378 Y84.749 E.03867
G1 X72.197 Y83.924 E0.0497
G1 F2399.76
G1 X72.773 Y83.542 E.02955
G1 X73.041 Y83.878 F60000
G1 F2400
G1 X73.789 Y83.57 E0.03458
G1 F2398.651
G1 X74.608 Y83.422 E.0356
G1 X105.446 Y83.426 E1.31848
G1 X106.259 Y83.585 E.03543
G1 X107.024 Y83.912 E0.03556
G1 F2399.884
G1 X107.616 Y84.328 E.03093
G1 F2398.998
G1 X108.161 Y84.864 E.0327
G1 X108.587 Y85.459 E.0313
G1 X108.906 Y86.156 E0.03275
G1 F2399.569
G1 X109.103 Y87.13 E.04247
G1 X109.1 Y90.742 Z.24 E.15444
G1 X109.097 Y94.354 Z.24 E.15444
G1 X109.094 Y97.966 Z.24 E.15444
G1 X108.937 Y98.746 E0.03402
G1 F2397.773
G1 X108.736 Y99.249 E.02316
G1 X108.912 Y99.435 E0.01093
G1 X109.352 Y100.112 E.03452
G1 F2398.941
G1 X109.617 Y100.782 E.03081
G1 X109.753 Y101.476 E0.03022
G1 F2397.423
G1 X109.757 Y105.092 Z.24 E.15461
G1 F2395.096
G1 X109.76 Y108.708 Z.24 E.15461
G1 F2391.605
G1 X109.764 Y112.324 Z.24 E.15461
G1 X109.749 Y112.434 E0.00473
G1 F2392.299
G1 X110.035 Y112.891 E.02308
G1 X110.299 Y113.559 E0.0307
G1 F2399.818
G1 X110.443 Y114.369 E.03517
G1 X110.443 Y117.948 Z.24 E.153
G1 X110.443 Y121.526 Z.24 E.153
G1 F2400
G1 X110.443 Y125.105 Z.24 E.153
G1 F2396.183
G1 X110.245 Y126.079 E.04253
G1 X109.969 Y126.7 E0.02901
G1 F2397.3
G1 X109.6 Y127.25 E.02833
G1 X108.955 Y127.908 E0.0394
G1 X108.34 Y128.332 E.03196
G1 X107.559 Y128.66 E0.03619
G1 F2399.515
G1 X106.732 Y128.811 E.03593
G1 X102.333 Y128.811 Z.24 E.18806
G1 X97.935 Y128.811 Z.24 E.18806
G1 X93.536 Y128.811 Z.24 E.18806
G1 X89.138 Y128.811 Z.24 E.18806
G1 X84.739 Y128.811 Z.24 E.18806
G1 X80.341 Y128.811 Z.24 E.18806
G1 F2400
G1 X75.942 Y128.811 Z.24 E.18806
G1 F2399.537
G1 X74.968 Y128.612 E.04252
G1 F2396.702
G1 X74.348 Y128.337 E.02902
G1 X73.797 Y127.967 E0.02833
G1 F2397.419
G1 X73.139 Y127.322 E.0394
G1 X72.738 Y126.748 E0.02993
G1 X72.434 Y126.077 E.03152
G1 X72.255 Y125.285 E0.0347
G1 F2399.02
G1 X72.249 Y121.647 Z.24 E.15556
G1 X72.242 Y118.008 Z.24 E.15556
G1 F2400
G1 X72.236 Y114.37 Z.24 E.15556
G1 F2391.791
G1 X72.249 Y114.273 E.0042
G1 F2399.058
G1 X71.974 Y113.82 E.02267
G1 X71.701 Y113.135 E0.03152
G1 X71.557 Y112.325 E.03517
G1 X71.557 Y108.747 Z.24 E.15296
G1 X71.557 Y105.17 Z.24 E.15297
G1 F2398.305
G1 X71.557 Y101.592 Z.24 E.15296
G1 X71.724 Y100.712 E0.03827
G1 F2396.81
G1 X71.934 Y100.209 E.02333
G1 X71.65 Y99.905 E0.01779
G1 F2397.649
G1 X71.298 Y99.326 E.02899
G1 X71.047 Y98.69 E0.02921
G1 F2398.107
G1 X70.897 Y97.868 E.03574
G1 F2399.726
G1 X70.9 Y94.257 Z.24 E.15438
G1 X70.903 Y90.647 Z.24 E.15438
G1 F2398.356
G1 X70.906 Y87.036 Z.24 E.15438
G1 F2399.733
G1 X71.039 Y86.334 E.03053
G1 X71.289 Y85.688 E0.02959
G1 F2394.322
G1 X71.727 Y84.999 E.03496
G1 X72.485 Y84.243 E0.04574
G1 F2397.065
G1 X72.991 Y83.911 E.02589
G1 X73.257 Y84.249 F60000
G1 F2400
G1 X73.93 Y83.975 E0.03105
G1 F2396.527
G1 X74.627 Y83.85 E.03031
G1 F2399.981
G1 X79.027 Y83.851 Z.24 E.18811
G1 X83.426 Y83.851 Z.24 E.18811
G1 X87.826 Y83.852 Z.24 E.18811
G1 X92.226 Y83.852 Z.24 E.18811
G1 X96.626 Y83.853 Z.24 E.18811
G1 X101.025 Y83.853 Z.24 E.18811
G1 X105.425 Y83.854 Z.24 E.18811
G1 X106.153 Y84.001 E0.03175
G1 F2398.927
G1 X106.833 Y84.296 E.0317
G1 X107.354 Y84.667 E0.02734
G1 F2396.905
G1 X107.846 Y85.155 E.02966
G1 X108.226 Y85.69 E0.02805
G1 F2398.567
G1 X108.505 Y86.31 E.02907
G1 X108.675 Y87.151 E0.03666
G1 X108.672 Y90.749 Z.24 E.15383
G1 X108.669 Y94.346 Z.24 E.15382
G1 F2399.507
G1 X108.666 Y97.944 Z.24 E.15383
G1 X108.521 Y98.64 E.03039
G1 X108.319 Y99.137 E.02293
G1 X108.205 Y99.32 E.00921
G1 X108.566 Y99.688 E0.02201
G1 F2398.521
G1 X108.963 Y100.292 E.0309
G1 F2399.403
G1 X109.201 Y100.884 E.02729
G1 F2398.162
G1 X109.328 Y101.537 E.02847
G1 X109.335 Y112.307 E0.46046
G1 F2397.44
G1 X109.3 Y112.526 E.00949
G1 X109.644 Y113.068 E0.02744
G1 F2394.458
G1 X109.892 Y113.696 E.02891
G1 X110.015 Y114.388 E0.03001
G1 F2397.202
G1 X110.015 Y117.953 Z.24 E.15243
G1 F2398.272
G1 X110.015 Y121.518 Z.24 E.15243
G1 F2399.877
G1 X110.015 Y125.083 Z.24 E.15243
G1 X109.843 Y125.928 E0.03687
G1 F2397.571
G1 X109.603 Y126.476 E.02559
G1 X109.255 Y126.994 E0.02665
G1 F2395.718
G1 X108.664 Y127.592 E.03597
G1 X108.151 Y127.947 E0.02664
G1 F2398.22
G1 X107.457 Y128.243 E.03227
G1 X106.713 Y128.382 E.03239
G1 X75.964 Y128.382 E1.31467
G1 F2399.354
G1 X75.119 Y128.21 E.03688
G1 X74.571 Y127.97 E0.02558
G1 X74.053 Y127.623 E.02666
G1 F2398.209
G1 X73.455 Y127.032 E.03596
G1 X73.102 Y126.521 E0.02653
G1 F2397.437
G1 X72.835 Y125.922 E.02806
G1 F2399.669
G1 X72.678 Y125.216 E.03093
G1 X72.665 Y114.387 E0.46298
G1 X72.701 Y114.164 E.00966
G1 F2390.689
G1 X72.643 Y114.095 E.00387
G1 F2399.808
G1 X72.365 Y113.644 E.02264
G1 X72.107 Y112.996 E0.0298
G1 F2397.894
G1 X71.986 Y112.306 E.02997
G1 F2399.979
G1 X71.986 Y108.742 Z.24 E.1524
G1 X71.986 Y105.177 Z.24 E.1524
G1 X71.986 Y101.613 Z.24 E.1524
G1 X72.141 Y100.817 E0.03467
G1 F2398.748
G1 X72.394 Y100.223 E.02762
G1 F2399.153
G1 X72.452 Y100.131 E.00465
G1 X72.003 Y99.661 E0.02777
G1 X71.688 Y99.149 E.02569
G1 F2396.298
G1 X71.464 Y98.591 E.02573
G1 X71.325 Y97.848 E0.03229
G1 F2398.161
G1 X71.328 Y94.251 Z.24 E.1538
G1 X71.331 Y90.654 Z.24 E.1538
G1 F2400
G1 X71.334 Y87.057 Z.24 E.1538
G1 F2399.569
G1 X71.456 Y86.436 E.02706
G1 X71.68 Y85.865 E.02622
G1 X72.075 Y85.25 E0.03123
G1 F2398.154
G1 X72.77 Y84.563 E.0418
G1 F2399.365
G1 X73.206 Y84.281 E.0222
G1 X73.47 Y84.621 F60000
G1 F2400
G1 X74.029 Y84.393 E0.0258
G1 F2399.818
G1 X74.647 Y84.279 E.02686
G1 X79.041 Y84.28 Z.24 E.18786
G1 X83.435 Y84.28 Z.24 E.18786
G1 X87.829 Y84.281 Z.24 E.18786
G1 X92.222 Y84.281 Z.24 E.18786
G1 X96.616 Y84.282 Z.24 E.18786
G1 X101.01 Y84.282 Z.24 E.18786
G1 F2400
G1 X105.404 Y84.283 Z.24 E.18786
G1 F2399.999
G1 X106.003 Y84.403 E.02612
G1 X106.641 Y84.68 E.02974
G1 X107.089 Y85.004 E.02365
G1 F2398.248
G1 X107.53 Y85.445 E.02668
G1 X107.863 Y85.92 E0.02478
G1 F2395.051
G1 X108.104 Y86.462 E.02539
G1 X108.246 Y87.172 E0.03093
G1 F2398.191
G1 X108.243 Y90.755 Z.24 E.15321
G1 X108.24 Y94.339 Z.24 E.15321
G1 F2400
G1 X108.237 Y97.922 Z.24 E.15321
G1 F2399.737
G1 X108.117 Y98.497 E.02512
G1 X107.93 Y98.957 E.02124
G1 X107.651 Y99.387 E.02192
G1 F2395.483
G1 X107.726 Y99.445 E.00406
G1 X108.221 Y99.943 E0.02999
G1 F2396.095
G1 X108.573 Y100.472 E.0272
G1 F2399.853
G1 X108.795 Y101.024 E.02544
G1 X108.903 Y101.597 E0.02493
G1 X108.904 Y105.161 Z.24 E.15237
G1 F2398.345
G1 X108.906 Y108.724 Z.24 E.15237
G1 F2396.865
G1 X108.907 Y112.288 Z.24 E.15237
G1 X108.841 Y112.658 E0.01605
G1 X108.959 Y112.786 E.00745
G1 X109.253 Y113.244 E.02329
G1 X109.486 Y113.834 E0.02708
G1 F2394.884
G1 X109.586 Y114.406 E.02486
G1 X109.586 Y125.062 E0.45557
G1 F2397.957
G1 X109.441 Y125.777 E.03122
G1 X109.218 Y126.286 E0.02376
G1 F2399.437
G1 X108.912 Y126.736 E.02327
G1 X108.375 Y127.276 E0.03255
G1 F2396.759
