; generated by SuperSlicer 2.5.59.8 on 2024-04-10 at 11:40:16 UTC


;
;

;
;

;
;

;
;

;
;
; 

; external perimeters extrusion width = 0.40mm
; perimeters extrusion width = 0.40mm
; infill extrusion width = 0.40mm
; solid infill extrusion width = 0.40mm
; top infill extrusion width = 0.40mm

; object:{"name":"a_EVA_Backplate_Merc_Support_V1-1","id":"a_EVA_Backplate_Merc_Support_V1-1.stl id:0 copy 0","object_center":[87.500000,110.000000,0.000000],"boundingbox_center":[87.500000,110.000000,11.375000],"boundingbox_size":[53.199562,85.000000,22.750000]}
EXCLUDE_OBJECT_DEFINE NAME=a_EVA_Backplate_Merc_Support_V1_1_stl_id_0_copy_0 CENTER=87.500000,110.000000 POLYGON=[[60.90,126.44],[60.93,125.99],[70.11,71.27],[70.21,70.80],[70.37,70.33],[70.57,69.89],[70.83,69.47],[71.12,69.09],[71.46,68.73],[71.83,68.42],[72.23,68.14],[72.66,67.92],[73.11,67.74],[73.58,67.61],[74.06,67.53],[74.55,67.50],[109.55,67.50],[110.04,67.53],[110.52,67.61],[110.99,67.74],[111.44,67.92],[111.87,68.14],[112.27,68.42],[112.64,68.73],[112.98,69.09],[113.27,69.47],[113.53,69.89],[113.73,70.33],[113.89,70.80],[113.99,71.27],[114.04,71.76],[114.10,84.33],[114.10,137.50],[113.10,138.50],[71.05,152.45],[70.85,152.50],[64.45,152.50],[64.39,152.50],[64.33,152.48],[64.27,152.46],[64.25,152.45],[64.21,152.42],[64.15,152.36],[64.10,152.30],[64.09,152.28],[64.07,152.22],[64.05,152.16],[64.05,152.15],[60.92,126.89],[60.90,126.44]]
; plater:{"center":[87.500000,110.000000,0.000000],"boundingbox_center":[87.500000,110.000000,11.375000],"boundingbox_size":[53.199562,85.000000,22.750000]}

M73 P0 R94
M107
;TYPE:Custom
CALCULATE_PA MATERIAL=ABS BOWDEN_LENGTH=6 LAYER_HEIGHT=0.24 NOZZLE_SIZE=0.4 PRINT_SPEED=95


START_PRINT EXTRUDER=270 BED=100

M107
G21 ; set units to millimeters
G90 ; use absolute coordinates
M83 ; use relative distances for extrusion
ACTIVATE_EXTRUDER EXTRUDER=extruder
; Filament gcode
M104 S270 T0 ; set temperature
M109 S270 T0 ; set temperature and wait for it to be reached
M190 S100 ; set bed temperature and wait for it to be reached
;LAYER_CHANGE
;Z:0.24
;HEIGHT:0.24
;BEFORE_LAYER_CHANGE
G92 E0.0

G1 E-1.5 F3000
G1 Z0.2 F3600000
G1 Z0.24
;AFTER_LAYER_CHANGE
;0.24




CALCULATE_PA MATERIAL=ABS BOWDEN_LENGTH=6.0 LAYER_HEIGHT=0.2 NOZZLE_SIZE=0.4 PRINT_SPEED=95


G92 E0
G1 Z0.44
G1 X68.051 Y65.535
G1 Z0.24
G1 E1.5 F3000
;TYPE:Skirt
;WIDTH:0.4
M107
G1 F2400
G1 X68.233 Y65.346 E0.00914
G1 X68.87 Y64.795 E0.02927
G1 X69.668 Y64.232 E0.03398
G1 X70.591 Y63.723 E0.03662
G1 X71.567 Y63.324 E0.03668
G1 X72.583 Y63.038 E0.0367
G1 X73.633 Y62.871 E0.03695
G1 X74.488 Y62.825 E0.0298
G1 X109.622 Y62.825 E1.22169
G1 X110.555 Y62.88 E0.0325
G1 X111.483 Y63.031 E0.0327
G1 X112.39 Y63.276 E0.03269
G1 X113.256 Y63.606 E0.03222
G1 X114.413 Y64.219 E0.04553
G1 X115.138 Y64.723 E0.03071
G1 X115.821 Y65.303 E0.03114
G1 X116.47 Y65.976 E0.03253
G1 X117.053 Y66.719 E0.03282
G1 X117.729 Y67.843 E0.0456
G1 X118.099 Y68.669 E0.03147
G1 X118.389 Y69.54 E0.03192
G1 X118.59 Y70.436 E0.03194
G1 X118.702 Y71.35 E0.03203
G1 X118.716 Y72.396 E0.03636
G1 X118.62 Y73.384 E0.03453
G1 X118.417 Y74.357 E0.03455
G1 X118.092 Y75.348 E0.03626
G1 X117.666 Y76.279 E0.0356
G1 X117.156 Y77.131 E0.03453
G1 X116.561 Y77.917 E0.03429
G1 X115.862 Y78.654 E0.03535
G1 X117.279 Y80.117 E0.07083
G1 X117.858 Y80.954 E0.03537
G1 X118.28 Y81.81 E0.03319
G1 X118.572 Y82.698 E0.03253
G1 X118.748 Y83.729 E0.03634
G1 X118.775 Y137.883 E1.8831
G1 X118.182 Y139.789 E0.06943
G1 X117.545 Y140.667 E0.0377
G1 X115.832 Y142.297 E0.08226
G1 X114.638 Y142.916 E0.04674
G1 X113.382 Y143.175 E0.04462
G1 X75.932 Y143.175 E1.30225
G1 X75.917 Y152.425 E0.32166
G1 X75.602 Y153.88 E0.05175
G1 X74.932 Y155.125 E0.04916
G1 X74.233 Y155.881 E0.03583
G1 X73.327 Y156.539 E0.03891
G1 X72.202 Y156.982 E0.04207
G1 X71.248 Y157.159 E0.03371
G1 X64.265 Y157.175 E0.24285
G1 X63.218 Y157.016 E0.0368
G1 X62.194 Y156.655 E0.03776
G1 X61.085 Y155.896 E0.04675
G1 X60.217 Y154.912 E0.04561
G1 X59.647 Y153.733 E0.04553
G1 X59.388 Y152.478 E0.04458
G1 X59.37 Y133.243 E0.66887
G1 X59.176 Y133.086 E0.00868
G1 X58.584 Y132.506 E0.0288
G1 X57.977 Y131.777 E0.03298
G1 X57.421 Y130.936 E0.03506
G1 X56.985 Y130.083 E0.0333
G1 X56.635 Y129.159 E0.03438
G1 X56.389 Y128.197 E0.03451
G1 X56.258 Y127.262 E0.03283
G1 X56.227 Y126.31 E0.03313
M73 P0 R93
G1 X56.297 Y125.378 E0.0325
G1 X56.462 Y124.468 E0.03217
G1 X56.723 Y123.577 E0.03229
G1 X57.077 Y122.717 E0.03232
G1 X57.559 Y121.835 E0.03497
G1 X58.103 Y121.057 E0.033
G1 X58.715 Y120.356 E0.03236
G1 X59.413 Y119.71 E0.03309
G1 X60.185 Y119.137 E0.03341
G1 X61.035 Y118.641 E0.03423
G1 X61.849 Y118.276 E0.031
G1 X62.641 Y118.011 E0.02905
G1 X65.324 Y117.284 E0.09666
G1 X65.363 Y83.615 E1.17078
G1 X65.534 Y82.672 E0.03332
G1 X65.823 Y81.799 E0.03196
G1 X66.236 Y80.964 E0.03241
G1 X66.77 Y80.18 E0.03299
G1 X68.239 Y78.655 E0.07363
G1 X67.536 Y77.915 E0.0355
G1 X66.966 Y77.164 E0.03277
G1 X66.401 Y76.217 E0.03832
G1 X65.975 Y75.264 E0.03631
G1 X65.682 Y74.355 E0.03322
G1 X65.486 Y73.421 E0.0332
G1 X65.384 Y72.416 E0.0351
G1 X65.388 Y71.515 E0.03135
G1 X65.48 Y70.618 E0.03136
G1 X65.694 Y69.601 E0.03611
G1 X65.988 Y68.703 E0.03286
G1 X66.371 Y67.842 E0.03277
G1 X66.951 Y66.858 E0.03971
G1 X67.657 Y65.944 E0.04019
G1 X68.009 Y65.578 E0.01764
M107
G1 X68.26 Y65.82 F3600000
M107
G1 F2400
G1 X68.479 Y65.593 E0.01095
G1 X69.091 Y65.064 E0.02814
G1 X69.861 Y64.522 E0.03274
G1 X70.75 Y64.033 E0.03527
G1 X71.689 Y63.65 E0.03529
G1 X72.667 Y63.377 E0.0353
G1 X73.678 Y63.217 E0.03559
G1 X74.493 Y63.174 E0.02838
G1 X109.617 Y63.174 E1.22135
G1 X110.508 Y63.226 E0.03104
G1 X111.401 Y63.37 E0.03146
G1 X112.274 Y63.605 E0.03145
G1 X113.122 Y63.928 E0.03154
G1 X114.223 Y64.512 E0.04332
G1 X114.932 Y65.005 E0.03005
G1 X115.589 Y65.563 E0.02995
G1 X116.213 Y66.212 E0.03131
G1 X116.772 Y66.925 E0.03153
G1 X117.415 Y67.994 E0.04338
G1 X117.777 Y68.803 E0.0308
G1 X118.055 Y69.641 E0.03071
G1 X118.248 Y70.504 E0.03073
G1 X118.355 Y71.383 E0.03079
G1 X118.368 Y72.39 E0.03505
G1 X118.274 Y73.341 E0.0332
G1 X118.083 Y74.257 E0.03257
G1 X117.764 Y75.23 E0.03558
G1 X117.353 Y76.125 E0.03423
G1 X116.862 Y76.943 E0.03321
G1 X116.301 Y77.686 E0.03237
G1 X115.676 Y78.354 E0.03179
G1 X115.315 Y78.667 E0.01661
G1 X115.618 Y78.904 E0.01338
G1 X117.019 Y80.35 E0.06999
G1 X117.551 Y81.12 E0.03257
G1 X117.953 Y81.93 E0.03145
G1 X118.237 Y82.795 E0.03165
G1 X118.399 Y83.744 E0.03347
G1 X118.426 Y137.856 E1.88166
G1 X117.858 Y139.657 E0.06567
G1 X117.294 Y140.425 E0.03315
G1 X115.648 Y142 E0.0792
G1 X114.543 Y142.58 E0.04338
G1 X113.364 Y142.826 E0.04191
G1 X75.583 Y142.826 E1.31373
G1 X75.572 Y152.371 E0.33189
G1 X75.283 Y153.736 E0.04854
G1 X74.636 Y154.94 E0.04751
G1 X73.99 Y155.631 E0.03292
G1 X73.179 Y156.223 E0.03489
G1 X72.09 Y156.652 E0.04071
G1 X71.232 Y156.81 E0.03033
G1 X64.277 Y156.826 E0.24184
G1 X63.288 Y156.674 E0.03482
G1 X62.333 Y156.334 E0.03524
G1 X61.3 Y155.621 E0.04363
G1 X60.495 Y154.701 E0.04254
G1 X59.971 Y153.603 E0.0423
G1 X59.733 Y152.426 E0.04175
G1 X59.718 Y133.075 E0.67288
G1 X59.413 Y132.831 E0.01359
G1 X58.834 Y132.263 E0.02819
G1 X58.251 Y131.562 E0.03172
G1 X57.717 Y130.752 E0.03372
G1 X57.3 Y129.934 E0.03195
G1 X56.965 Y129.045 E0.03304
G1 X56.73 Y128.121 E0.03316
G1 X56.604 Y127.223 E0.0315
G1 X56.575 Y126.327 E0.03121
G1 X56.641 Y125.431 E0.03122
G1 X56.799 Y124.557 E0.03089
G1 X57.055 Y123.684 E0.03165
G1 X57.395 Y122.859 E0.03102
G1 X57.85 Y122.026 E0.03298
G1 X58.372 Y121.279 E0.0317
G1 X58.959 Y120.605 E0.03107
G1 X59.629 Y119.984 E0.03177
G1 X60.385 Y119.423 E0.03274
G1 X61.186 Y118.955 E0.03226
G1 X61.983 Y118.598 E0.03038
G1 X62.746 Y118.343 E0.02796
G1 X65.672 Y117.551 E0.1054
G1 X65.711 Y83.631 E1.17949
G1 X65.869 Y82.77 E0.03045
G1 X66.141 Y81.943 E0.03027
G1 X66.543 Y81.129 E0.03157
G1 X67.032 Y80.41 E0.03021
G1 X68.454 Y78.929 E0.07143
G1 X68.785 Y78.667 E0.01468
G1 X68.42 Y78.35 E0.0168
G1 X67.797 Y77.683 E0.03175
G1 X67.25 Y76.961 E0.0315
G1 X66.706 Y76.048 E0.03696
G1 X66.304 Y75.148 E0.03426
G1 X66.017 Y74.257 E0.03257
G1 X65.829 Y73.358 E0.03192
G1 X65.733 Y72.408 E0.0332
G1 X65.735 Y71.541 E0.03015
G1 X65.823 Y70.68 E0.0301
G1 X66.028 Y69.7 E0.03481
G1 X66.31 Y68.837 E0.03159
G1 X66.685 Y67.993 E0.03211
G1 X67.245 Y67.045 E0.03828
G1 X67.915 Y66.179 E0.03808
G1 X68.219 Y65.863 E0.01522
M107
G1 X68.47 Y66.104 F3600000
M107
G1 F2400
G1 X68.713 Y65.852 E0.0122
G1 X69.312 Y65.333 E0.02755
G1 X70.053 Y64.813 E0.0315
G1 X70.909 Y64.344 E0.03392
G1 X71.811 Y63.977 E0.03389
G1 X72.751 Y63.715 E0.03391
G1 X73.723 Y63.563 E0.03422
G1 X74.497 Y63.522 E0.02696
G1 X109.611 Y63.522 E1.22102
G1 X110.478 Y63.573 E0.0302
G1 X111.336 Y63.712 E0.03021
G1 X112.175 Y63.939 E0.03021
G1 X112.987 Y64.25 E0.03025
G1 X114.032 Y64.804 E0.04113
G1 X114.726 Y65.286 E0.02939
G1 X115.356 Y65.822 E0.02876
G1 X115.956 Y66.447 E0.0301
G1 X116.491 Y67.132 E0.03023
G1 X117.102 Y68.146 E0.04119
G1 X117.449 Y68.921 E0.02953
G1 X117.717 Y69.726 E0.02949
G1 X117.906 Y70.571 E0.03012
G1 X118.008 Y71.415 E0.02955
G1 X118.019 Y72.385 E0.03373
G1 X117.928 Y73.297 E0.03186
G1 X117.748 Y74.158 E0.03061
G1 X117.443 Y75.094 E0.0342
G1 X117.041 Y75.97 E0.03355
G1 X116.578 Y76.741 E0.03125
G1 X116.04 Y77.455 E0.03109
G1 X115.428 Y78.109 E0.03115
G1 X114.766 Y78.681 E0.03043
G1 X115.376 Y79.155 E0.0269
G1 X116.758 Y80.582 E0.06905
G1 X117.257 Y81.307 E0.03061
G1 X117.635 Y82.073 E0.02971
G1 X117.902 Y82.891 E0.0299
G1 X118.051 Y83.758 E0.03061
G1 X118.078 Y137.83 E1.88022
G1 X117.56 Y139.475 E0.05996
G1 X117.041 Y140.185 E0.03059
G1 X115.463 Y141.704 E0.07616
G1 X114.447 Y142.244 E0.04001
G1 X113.345 Y142.478 E0.03916
G1 X75.235 Y142.478 E1.32521
G1 X75.227 Y152.318 E0.34216
G1 X74.964 Y153.594 E0.04531
G1 X74.34 Y154.754 E0.04583
G1 X73.747 Y155.38 E0.02998
G1 X73.03 Y155.907 E0.03093
G1 X71.978 Y156.322 E0.03934
G1 X71.215 Y156.462 E0.02695
G1 X64.29 Y156.478 E0.24083
G1 X63.387 Y156.34 E0.03174
G1 X62.511 Y156.033 E0.0323
G1 X61.548 Y155.375 E0.04055
G1 X60.773 Y154.49 E0.04092
G1 X60.295 Y153.474 E0.03904
G1 X60.078 Y152.375 E0.03894
G1 X60.067 Y132.907 E0.67695
G1 X59.651 Y132.576 E0.0185
G1 X59.085 Y132.021 E0.02757
G1 X58.525 Y131.347 E0.03045
G1 X58.014 Y130.569 E0.03238
G1 X57.615 Y129.784 E0.0306
G1 X57.294 Y128.931 E0.03169
G1 X57.07 Y128.044 E0.03182
G1 X56.952 Y127.203 E0.02955
G1 X56.924 Y126.343 E0.02993
G1 X56.986 Y125.484 E0.02994
G1 X57.14 Y124.628 E0.03024
G1 X57.387 Y123.791 E0.03035
G1 X57.714 Y123.001 E0.02973
G1 X58.141 Y122.218 E0.03102
G1 X58.641 Y121.501 E0.03041
G1 X59.203 Y120.854 E0.02978
G1 X59.844 Y120.258 E0.03044
G1 X60.585 Y119.708 E0.03207
G1 X61.338 Y119.27 E0.0303
G1 X62.118 Y118.919 E0.02975
G1 X62.852 Y118.676 E0.02687
G1 X66.02 Y117.817 E0.11415
G1 X66.06 Y83.647 E1.1882
G1 X66.209 Y82.845 E0.02837
G1 X66.468 Y82.064 E0.02861
G1 X66.838 Y81.314 E0.02908
G1 X67.293 Y80.641 E0.02825
G1 X68.697 Y79.179 E0.07049
G1 X69.333 Y78.679 E0.02812
G1 X68.668 Y78.105 E0.03055
G1 X68.069 Y77.465 E0.03049
G1 X67.544 Y76.774 E0.03017
G1 X67.011 Y75.878 E0.03627
G1 X66.633 Y75.032 E0.03221
G1 X66.351 Y74.159 E0.03192
G1 X66.172 Y73.296 E0.03064
G1 X66.082 Y72.4 E0.03132
G1 X66.083 Y71.568 E0.02894
G1 X66.166 Y70.742 E0.02884
G1 X66.363 Y69.799 E0.0335
G1 X66.638 Y68.953 E0.03094
G1 X66.999 Y68.144 E0.03081
G1 X67.528 Y67.249 E0.03613
G1 X68.173 Y66.413 E0.03672
G1 X68.428 Y66.148 E0.01281
M107
G1 X68.679 Y66.389 F3600000
M107
G1 F2400
G1 X68.958 Y66.099 E0.014
G1 X69.533 Y65.603 E0.0264
G1 X70.246 Y65.104 E0.03025
G1 X71.067 Y64.654 E0.03256
G1 X71.933 Y64.303 E0.0325
G1 X72.834 Y64.054 E0.03251
G1 X73.768 Y63.908 E0.03286
G1 X74.502 Y63.871 E0.02556
G1 X109.606 Y63.871 E1.22069
G1 X110.432 Y63.919 E0.02874
G1 X111.271 Y64.055 E0.02959
G1 X112.075 Y64.273 E0.02896
G1 X112.852 Y64.571 E0.02895
G1 X113.842 Y65.096 E0.03895
G1 X114.507 Y65.557 E0.02814
G1 X115.111 Y66.07 E0.02755
G1 X115.687 Y66.668 E0.02886
G1 X116.21 Y67.338 E0.02955
G1 X116.788 Y68.299 E0.03899
G1 X117.127 Y69.056 E0.02886
G1 X117.384 Y69.827 E0.02827
G1 X117.564 Y70.638 E0.02889
G1 X117.66 Y71.447 E0.02831
G1 X117.67 Y72.379 E0.03242
G1 X117.585 Y73.235 E0.02991
G1 X117.414 Y74.06 E0.02929
G1 X117.122 Y74.957 E0.03281
G1 X116.728 Y75.816 E0.03287
G1 X116.294 Y76.539 E0.0293
G1 X115.779 Y77.224 E0.0298
G1 X115.18 Y77.864 E0.0305
G1 X114.514 Y78.438 E0.03058
G1 X114.165 Y78.679 E0.01471
G1 X114.254 Y78.726 E0.00348
G1 X115.135 Y79.407 E0.03872
G1 X116.498 Y80.813 E0.0681
G1 X116.962 Y81.493 E0.02864
G1 X117.317 Y82.216 E0.02798
G1 X117.567 Y82.986 E0.02817
G1 X117.702 Y83.773 E0.02777
G1 X117.729 Y137.803 E1.87877
G1 X117.237 Y139.341 E0.05616
G1 X116.788 Y139.944 E0.02614
G1 X115.277 Y141.408 E0.07318
G1 X114.349 Y141.908 E0.03663
G1 X113.327 Y142.129 E0.03638
G1 X74.887 Y142.129 E1.33667
G1 X74.879 Y152.299 E0.35365
G1 X74.628 Y153.498 E0.04257
G1 X74.071 Y154.531 E0.04084
G1 X73.505 Y155.129 E0.02862
G1 X72.843 Y155.612 E0.02848
G1 X71.867 Y155.991 E0.03641
G1 X71.169 Y156.116 E0.02467
G1 X64.303 Y156.129 E0.23876
G1 X63.457 Y155.998 E0.02977
G1 X62.649 Y155.712 E0.02981
G1 X61.764 Y155.101 E0.03739
G1 X61.052 Y154.28 E0.03779
G1 X60.62 Y153.347 E0.03576
G1 X60.424 Y152.325 E0.03617
G1 X60.415 Y132.739 E0.68108
G1 X59.888 Y132.32 E0.0234
G1 X59.335 Y131.778 E0.02694
G1 X58.8 Y131.132 E0.02917
G1 X58.31 Y130.386 E0.03103
G1 X57.93 Y129.636 E0.02925
G1 X57.63 Y128.836 E0.02969
G1 X57.41 Y127.968 E0.03115
G1 X57.299 Y127.164 E0.02822
G1 X57.272 Y126.358 E0.02804
G1 X57.331 Y125.536 E0.02866
G1 X57.477 Y124.717 E0.02894
G1 X57.712 Y123.915 E0.02904
G1 X58.032 Y123.143 E0.02908
G1 X58.433 Y122.409 E0.02907
G1 X58.911 Y121.722 E0.02911
G1 X59.447 Y121.103 E0.02849
G1 X60.06 Y120.532 E0.0291
G1 X60.785 Y119.994 E0.03139
G1 X61.505 Y119.576 E0.02896
G1 X62.252 Y119.241 E0.02848
G1 X62.947 Y119.011 E0.02545
G1 X66.368 Y118.084 E0.12324
G1 X66.408 Y83.664 E1.1969
G1 X66.549 Y82.922 E0.02628
G1 X66.795 Y82.186 E0.02698
G1 X67.134 Y81.499 E0.02664
G1 X67.555 Y80.872 E0.02627
G1 X68.94 Y79.429 E0.06953
G1 X69.821 Y78.74 E0.03891
G1 X69.937 Y78.679 E0.00453
G1 X69.594 Y78.444 E0.01443
G1 X68.916 Y77.86 E0.03114
G1 X68.341 Y77.247 E0.02923
G1 X67.839 Y76.587 E0.02884
G1 X67.325 Y75.726 E0.03486
G1 X66.961 Y74.916 E0.03087
G1 X66.691 Y74.078 E0.03062
G1 X66.515 Y73.234 E0.02999
G1 X66.429 Y72.374 E0.03004
G1 X66.431 Y71.577 E0.02772
G1 X66.512 Y70.787 E0.02763
G1 X66.697 Y69.898 E0.03157
G1 X66.96 Y69.087 E0.02966
G1 X67.313 Y68.295 E0.03014
G1 X67.822 Y67.436 E0.03471
G1 X68.431 Y66.648 E0.03462
G1 X68.638 Y66.433 E0.01039
M107
G1 X68.889 Y66.674 F3600000
M107
G1 F2400
G1 X69.192 Y66.358 E0.01523
G1 X69.754 Y65.873 E0.02581
G1 X70.437 Y65.395 E0.02899
G1 X71.225 Y64.965 E0.0312
G1 X72.054 Y64.63 E0.0311
G1 X72.917 Y64.392 E0.03112
G1 X73.812 Y64.254 E0.03149
G1 X74.506 Y64.219 E0.02417
G1 X109.601 Y64.219 E1.22036
G1 X110.402 Y64.266 E0.0279
G1 X111.206 Y64.397 E0.02833
G1 X111.975 Y64.607 E0.02771
G1 X112.717 Y64.893 E0.02766
G1 X113.652 Y65.388 E0.0368
G1 X114.288 Y65.828 E0.02688
G1 X114.879 Y66.33 E0.02695
G1 X115.429 Y66.903 E0.02763
G1 X115.928 Y67.544 E0.02825
G1 X116.474 Y68.451 E0.03681
G1 X116.799 Y69.174 E0.02757
G1 X117.05 Y69.929 E0.02765
G1 X117.222 Y70.705 E0.02766
G1 X117.313 Y71.478 E0.02706
G1 X117.323 Y72.354 E0.03046
G1 X117.242 Y73.173 E0.02862
G1 X117.075 Y73.98 E0.02864
G1 X116.801 Y74.821 E0.03076
G1 X116.415 Y75.662 E0.03218
G1 X116 Y76.351 E0.02797
G1 X115.518 Y76.993 E0.02791
G1 X114.945 Y77.606 E0.02919
G1 X114.293 Y78.168 E0.02992
G1 X113.615 Y78.634 E0.02862
G1 X113.456 Y78.721 E0.00629
G1 X114.055 Y79.013 E0.02315
G1 X114.894 Y79.659 E0.0368
G1 X116.219 Y81.023 E0.06613
G1 X116.655 Y81.658 E0.02681
G1 X116.999 Y82.358 E0.02711
G1 X117.226 Y83.059 E0.0256
G1 X117.354 Y83.789 E0.02577
G1 X117.381 Y137.776 E1.8773
G1 X116.94 Y139.157 E0.05041
G1 X116.535 Y139.705 E0.02368
G1 X115.089 Y141.114 E0.07023
G1 X114.25 Y141.573 E0.03323
G1 X113.308 Y141.781 E0.03355
G1 X74.632 Y141.781 E1.34488
G1 X74.539 Y141.873 E0.00456
G1 X74.53 Y152.281 E0.36194
G1 X74.309 Y153.356 E0.03815
G1 X73.801 Y154.31 E0.03757
