; generated by SuperSlicer 2.5.59.8 on 2024-03-26 at 10:38:58 UTC


;
;

;
;

;
;

;
;

;
;
; 

; external perimeters extrusion width = 0.40mm
; perimeters extrusion width = 0.40mm
; infill extrusion width = 0.40mm
; solid infill extrusion width = 0.40mm
; top infill extrusion width = 0.40mm

; object:{"name":"a_EVA_FrontPlate_HD_V-1-1","id":"a_EVA_FrontPlate_HD_V-1-1.stl id:0 copy 0","object_center":[85.906994,108.400732,0.000000],"boundingbox_center":[85.906994,108.400732,4.000000],"boundingbox_size":[44.100002,57.000000,8.000000]}
EXCLUDE_OBJECT_DEFINE NAME=a_EVA_FrontPlate_HD_V_1_1_stl_id_0_copy_0 CENTER=85.906994,108.400732 POLYGON=[[63.86,81.90],[65.86,79.90],[105.96,79.90],[107.96,81.90],[107.96,135.90],[106.96,136.90],[64.86,136.90],[63.86,135.90],[63.86,81.90]]
; plater:{"center":[85.906994,108.400732,0.000000],"boundingbox_center":[85.906994,108.400732,4.000000],"boundingbox_size":[44.100002,57.000000,8.000000]}

M73 P0 R71
M107
;TYPE:Custom
CALCULATE_PA MATERIAL=ABS BOWDEN_LENGTH=6 LAYER_HEIGHT=0.24 NOZZLE_SIZE=0.4 PRINT_SPEED=50


START_PRINT EXTRUDER=270 BED=100

M107
G21 ; set units to millimeters
G90 ; use absolute coordinates
M83 ; use relative distances for extrusion
ACTIVATE_EXTRUDER EXTRUDER=extruder
; Filament gcode
M104 S270 T0 ; set temperature
M109 S270 T0 ; set temperature and wait for it to be reached
M190 S100 ; set bed temperature and wait for it to be reached
;LAYER_CHANGE
;Z:0.24
;HEIGHT:0.24
;BEFORE_LAYER_CHANGE
G92 E0.0

G1 E-1.5 F3000
G1 Z0.2 F3600000
G1 Z0.24
;AFTER_LAYER_CHANGE
;0.24




CALCULATE_PA MATERIAL=ABS BOWDEN_LENGTH=6.0 LAYER_HEIGHT=0.2 NOZZLE_SIZE=0.4 PRINT_SPEED=50


G92 E0
G1 Z0.44
G1 X60.383 Y72.063
G1 Z0.24
G1 E1.5 F3000
;TYPE:Skirt
;WIDTH:0.4
M107
G1 F2400
G1 X62.561 Y70.931 E0.08537
G1 X64.922 Y70.385 E0.08427
G1 X106.848 Y70.382 E1.4579
G1 X109.193 Y70.911 E0.08357
G1 X111.305 Y71.977 E0.08226
G1 X115.086 Y75.51 E0.17994
G1 X116.713 Y78.076 E0.10568
G1 X117.48 Y81.071 E0.10748
G1 X117.511 Y136.386 E1.92348
G1 X117.065 Y138.79 E0.08503
G1 X116.075 Y140.966 E0.08314
G1 X115.676 Y141.486 E0.02278
G1 X112.522 Y144.683 E0.15615
G1 X110.525 Y145.759 E0.07888
G1 X108.193 Y146.379 E0.08391
G1 X100.429 Y146.458 E0.27
G1 X97.947 Y145.993 E0.08782
G1 X94.942 Y144.371 E0.11873
G1 X92.967 Y142.454 E0.09571
G1 X78.831 Y142.454 E0.49154
G1 X76.57 Y144.595 E0.10829
G1 X73.999 Y145.94 E0.10088
G1 X71.472 Y146.446 E0.08962
G1 X63.963 Y146.415 E0.26112
G1 X61.705 Y145.922 E0.08037
G1 X59.622 Y144.907 E0.08056
G1 X58.828 Y144.271 E0.03538
G1 X55.763 Y141.007 E0.15569
G1 X54.759 Y138.813 E0.08393
G1 X54.303 Y136.469 E0.08303
G1 X54.303 Y81.334 E1.91721
G1 X54.773 Y78.952 E0.0844
G1 X55.786 Y76.756 E0.0841
G1 X56.092 Y76.363 E0.01733
G1 X60.34 Y72.106 E0.20914
M107
G1 X60.568 Y72.36 F3600000
M107
G1 F2400
G1 X62.661 Y71.266 E0.08213
G1 X64.981 Y70.729 E0.08281
G1 X106.791 Y70.727 E1.45385
G1 X109.055 Y71.232 E0.08066
G1 X111.126 Y72.277 E0.08064
G1 X114.831 Y75.749 E0.17658
M73 P0 R70
G1 X116.404 Y78.239 E0.10242
G1 X117.137 Y81.135 E0.10388
G1 X117.162 Y136.37 E1.92068
G1 X116.739 Y138.666 E0.08117
G1 X115.786 Y140.771 E0.08035
G1 X115.42 Y141.25 E0.02095
G1 X112.333 Y144.389 E0.15308
G1 X110.415 Y145.428 E0.07586
G1 X108.168 Y146.031 E0.08091
G1 X100.443 Y146.109 E0.26864
G1 X98.038 Y145.655 E0.08509
G1 X95.13 Y144.076 E0.11509
G1 X93.109 Y142.106 E0.09815
G1 X78.692 Y142.106 E0.50131
G1 X76.387 Y144.298 E0.11062
G1 X73.86 Y145.62 E0.09916
G1 X71.456 Y146.097 E0.08522
G1 X64.019 Y146.071 E0.2586
G1 X61.8 Y145.586 E0.079
G1 X59.793 Y144.602 E0.07771
G1 X59.073 Y144.024 E0.03212
G1 X56.068 Y140.836 E0.15234
G1 X55.097 Y138.725 E0.08079
G1 X54.652 Y136.452 E0.08055
G1 X54.652 Y81.351 E1.91603
G1 X55.098 Y79.079 E0.0805
G1 X56.074 Y76.954 E0.08132
G1 X56.347 Y76.601 E0.0155
G1 X60.526 Y72.402 E0.20599
M107
G1 X60.753 Y72.656 F3600000
M107
G1 F2400
G1 X62.803 Y71.585 E0.08042
G1 X65.04 Y71.073 E0.0798
G1 X106.735 Y71.071 E1.44984
G1 X108.918 Y71.553 E0.07774
G1 X110.946 Y72.577 E0.07902
G1 X114.577 Y75.987 E0.17322
G1 X116.094 Y78.401 E0.09915
G1 X116.794 Y81.199 E0.10028
G1 X116.814 Y136.354 E1.91792
G1 X116.413 Y138.542 E0.07733
G1 X115.496 Y140.576 E0.07757
G1 X115.163 Y141.014 E0.01913
G1 X112.144 Y144.095 E0.15002
G1 X110.305 Y145.097 E0.07284
G1 X108.142 Y145.682 E0.0779
G1 X100.457 Y145.761 E0.26726
G1 X98.13 Y145.318 E0.08235
G1 X95.318 Y143.782 E0.11143
G1 X93.251 Y141.757 E0.10061
G1 X78.552 Y141.757 E0.51112
G1 X76.204 Y144 E0.11294
G1 X73.721 Y145.299 E0.09744
G1 X71.44 Y145.748 E0.08083
G1 X64.075 Y145.726 E0.2561
G1 X61.934 Y145.264 E0.07616
G1 X59.964 Y144.298 E0.07629
G1 X59.318 Y143.776 E0.02889
G1 X56.372 Y140.664 E0.14901
G1 X55.435 Y138.637 E0.07764
G1 X55 Y136.435 E0.07806
G1 X55 Y81.368 E1.91485
G1 X55.436 Y79.167 E0.07802
G1 X56.362 Y77.15 E0.07716
G1 X56.602 Y76.839 E0.01367
G1 X60.711 Y72.699 E0.20283
M107
G1 X60.939 Y72.952 F3600000
M107
G1 F2400
G1 X62.903 Y71.92 E0.07715
G1 X65.099 Y71.417 E0.07834
G1 X106.678 Y71.416 E1.44584
G1 X108.821 Y71.888 E0.07631
G1 X110.766 Y72.876 E0.07586
G1 X114.321 Y76.226 E0.16986
G1 X115.784 Y78.563 E0.09587
G1 X116.451 Y81.262 E0.09668
G1 X116.465 Y136.338 E1.91517
M73 P1 R70
G1 X116.074 Y138.458 E0.07494
G1 X115.206 Y140.381 E0.07336
G1 X114.906 Y140.778 E0.0173
G1 X111.954 Y143.802 E0.14695
G1 X110.193 Y144.766 E0.06982
G1 X108.116 Y145.334 E0.07487
G1 X100.47 Y145.412 E0.26588
G1 X98.223 Y144.981 E0.07959
G1 X95.507 Y143.488 E0.10777
G1 X93.394 Y141.409 E0.10309
G1 X78.412 Y141.409 E0.52095
G1 X76.02 Y143.703 E0.11525
G1 X73.581 Y144.979 E0.09571
G1 X71.424 Y145.4 E0.07645
G1 X64.13 Y145.381 E0.25362
G1 X62.068 Y144.941 E0.07333
G1 X60.167 Y144.014 E0.07352
G1 X59.563 Y143.527 E0.027
G1 X56.676 Y140.491 E0.14565
G1 X55.76 Y138.51 E0.07592
G1 X55.349 Y136.418 E0.07414
G1 X55.349 Y81.385 E1.91367
G1 X55.762 Y79.293 E0.07413
G1 X56.651 Y77.346 E0.07443
G1 X56.857 Y77.076 E0.01183
G1 X60.897 Y72.995 E0.19967
M107
G1 X61.125 Y73.248 F3600000
M107
G1 F2400
G1 X63.045 Y72.239 E0.07542
G1 X65.157 Y71.762 E0.07529
G1 X106.622 Y71.76 E1.44188
G1 X108.683 Y72.209 E0.07335
G1 X110.586 Y73.175 E0.07421
G1 X114.066 Y76.464 E0.16648
G1 X115.474 Y78.723 E0.09258
G1 X116.107 Y81.324 E0.09308
G1 X116.117 Y136.323 E1.91246
G1 X115.747 Y138.334 E0.07112
G1 X114.916 Y140.187 E0.07062
G1 X114.649 Y140.543 E0.01547
G1 X111.763 Y143.509 E0.1439
G1 X110.08 Y144.436 E0.0668
G1 X108.09 Y144.986 E0.07181
G1 X100.484 Y145.063 E0.26448
G1 X98.316 Y144.644 E0.07681
G1 X95.696 Y143.195 E0.1041
G1 X93.537 Y141.06 E0.10558
G1 X78.272 Y141.06 E0.53082
G1 X75.837 Y143.406 E0.11756
G1 X73.442 Y144.658 E0.09396
G1 X71.408 Y145.051 E0.07206
G1 X64.184 Y145.037 E0.25117
G1 X62.201 Y144.618 E0.0705
G1 X60.37 Y143.73 E0.07075
G1 X59.807 Y143.278 E0.02512
G1 X56.98 Y140.319 E0.1423
G1 X56.097 Y138.422 E0.07275
G1 X55.697 Y136.401 E0.07164
G1 X55.697 Y81.402 E1.91248
G1 X56.1 Y79.381 E0.07165
G1 X56.941 Y77.541 E0.07035
G1 X57.113 Y77.312 E0.00996
G1 X61.083 Y73.291 E0.19648
M107
G1 X61.311 Y73.544 F3600000
M107
G1 F2400
G1 X63.186 Y72.558 E0.07368
G1 X65.214 Y72.106 E0.07223
G1 X106.566 Y72.105 E1.43795
G1 X108.587 Y72.545 E0.07191
G1 X110.405 Y73.474 E0.07101
G1 X113.81 Y76.701 E0.16312
G1 X115.163 Y78.883 E0.08929
G1 X115.763 Y81.386 E0.08948
G1 X115.768 Y136.307 E1.90978
G1 X115.421 Y138.211 E0.06732
G1 X114.625 Y139.994 E0.06788
G1 X114.391 Y140.308 E0.01363
G1 X111.572 Y143.216 E0.14084
G1 X109.967 Y144.105 E0.0638
G1 X108.064 Y144.638 E0.06872
G1 X100.499 Y144.715 E0.26307
G1 X98.41 Y144.307 E0.07401
G1 X95.887 Y142.902 E0.10041
G1 X93.68 Y140.712 E0.1081
G1 X78.131 Y140.712 E0.54071
G1 X75.653 Y143.109 E0.11987
G1 X73.304 Y144.338 E0.0922
G1 X71.392 Y144.703 E0.06769
G1 X64.238 Y144.692 E0.24874
G1 X62.333 Y144.295 E0.06767
G1 X60.572 Y143.446 E0.06798
G1 X60.05 Y143.028 E0.02324
G1 X57.284 Y140.145 E0.13895
G1 X56.435 Y138.333 E0.06958
G1 X56.046 Y136.384 E0.06912
G1 X56.046 Y81.419 E1.91129
G1 X56.425 Y79.507 E0.06778
G1 X57.231 Y77.735 E0.06771
G1 X57.37 Y77.548 E0.00808
G1 X61.269 Y73.587 E0.19328
M107
G1 X61.498 Y73.84 F3600000
M107
G1 F2400
G1 X63.285 Y72.893 E0.07032
G1 X65.271 Y72.45 E0.07075
G1 X106.511 Y72.449 E1.43404
G1 X108.449 Y72.865 E0.06891
G1 X110.224 Y73.773 E0.06934
G1 X113.553 Y76.938 E0.15973
G1 X114.852 Y79.043 E0.08598
G1 X115.42 Y81.446 E0.08588
G1 X115.42 Y136.291 E1.90713
G1 X115.082 Y138.128 E0.06494
G1 X114.334 Y139.802 E0.06376
G1 X114.132 Y140.074 E0.01178
G1 X111.38 Y142.925 E0.13778
G1 X109.853 Y143.776 E0.0608
G1 X108.037 Y144.289 E0.06561
G1 X100.513 Y144.366 E0.26165
G1 X98.504 Y143.971 E0.0712
G1 X96.115 Y142.638 E0.0951
G1 X93.824 Y140.363 E0.11227
G1 X77.989 Y140.363 E0.55062
G1 X75.469 Y142.812 E0.12218
G1 X73.165 Y144.017 E0.09042
G1 X71.376 Y144.354 E0.06332
G1 X64.291 Y144.347 E0.24635
G1 X62.465 Y143.972 E0.06484
G1 X60.774 Y143.161 E0.0652
G1 X60.293 Y142.778 E0.02136
G1 X57.587 Y139.97 E0.13561
G1 X56.772 Y138.243 E0.0664
G1 X56.394 Y136.366 E0.06658
G1 X56.394 Y81.436 E1.9101
G1 X56.751 Y79.632 E0.06393
G1 X57.523 Y77.926 E0.06512
G1 X57.628 Y77.784 E0.00615
G1 X61.456 Y73.882 E0.19006
M107
G1 X61.685 Y74.135 F3600000
M107
G1 F2400
G1 X63.427 Y73.212 E0.06856
G1 X65.327 Y72.795 E0.06765
G1 X106.456 Y72.794 E1.43016
G1 X108.353 Y73.201 E0.06747
G1 X110.042 Y74.072 E0.06608
G1 X113.297 Y77.175 E0.15637
G1 X114.519 Y79.151 E0.08078
G1 X115.071 Y81.466 E0.08279
G1 X115.071 Y136.275 E1.90587
G1 X114.755 Y138.005 E0.06116
G1 X114.042 Y139.611 E0.0611
G1 X113.873 Y139.841 E0.00992
G1 X111.187 Y142.633 E0.13472
G1 X109.737 Y143.446 E0.0578
G1 X108.01 Y143.941 E0.06248
G1 X100.527 Y144.017 E0.2602
G1 X98.598 Y143.634 E0.06838
G1 X96.344 Y142.374 E0.08981
G1 X93.968 Y140.015 E0.11644
G1 X77.847 Y140.015 E0.56055
G1 X75.285 Y142.515 E0.12448
G1 X73.026 Y143.696 E0.08864
G1 X71.36 Y144.006 E0.05895
G1 X64.343 Y144.002 E0.24398
G1 X62.595 Y143.648 E0.06202
G1 X60.975 Y142.875 E0.06243
G1 X60.536 Y142.528 E0.01948
G1 X57.89 Y139.796 E0.13224
G1 X57.097 Y138.114 E0.06466
G1 X56.743 Y136.349 E0.06259
G1 X56.743 Y81.453 E1.9089
G1 X57.089 Y79.72 E0.06145
G1 X57.816 Y78.115 E0.06127
G1 X57.886 Y78.018 E0.00417
G1 X61.643 Y74.178 E0.18681
M107
G1 X61.873 Y74.43 F3600000
M107
G1 F2400
G1 X63.525 Y73.547 E0.06515
G1 X65.384 Y73.139 E0.06616
G1 X106.402 Y73.138 E1.42631
G1 X108.214 Y73.522 E0.06441
G1 X109.86 Y74.37 E0.0644
G1 X113.04 Y77.412 E0.153
G1 X114.208 Y79.309 E0.07749
G1 X114.723 Y81.487 E0.0778
G1 X114.723 Y136.26 E1.90462
G1 X114.428 Y137.883 E0.05739
G1 X113.749 Y139.422 E0.05847
G1 X113.613 Y139.609 E0.00803
G1 X110.993 Y142.342 E0.13166
G1 X109.62 Y143.117 E0.05482
G1 X107.983 Y143.593 E0.05931
G1 X100.542 Y143.669 E0.25875
G1 X98.694 Y143.298 E0.06555
G1 X96.573 Y142.11 E0.08453
G1 X94.111 Y139.666 E0.12061
G1 X77.705 Y139.666 E0.57049
G1 X75.101 Y142.218 E0.12677
G1 X72.888 Y143.375 E0.08683
G1 X71.344 Y143.657 E0.05459
G1 X64.395 Y143.657 E0.24165
G1 X62.725 Y143.324 E0.0592
G1 X61.175 Y142.589 E0.05965
G1 X60.777 Y142.276 E0.0176
G1 X58.192 Y139.62 E0.12887
G1 X57.434 Y138.024 E0.06146
G1 X57.091 Y136.332 E0.06004
G1 X57.091 Y81.471 E1.90769
G1 X57.426 Y79.809 E0.05896
G1 X58.112 Y78.3 E0.05763
G1 X58.146 Y78.25 E0.00208
G1 X61.831 Y74.473 E0.1835
M107
G1 X62.061 Y74.724 F3600000
M107
G1 F2400
G1 X63.668 Y73.866 E0.06337
G1 X65.439 Y73.484 E0.06301
G1 X106.383 Y73.487 E1.42375
G1 X108.118 Y73.858 E0.06169
G1 X109.678 Y74.668 E0.0611
G1 X112.782 Y77.647 E0.14963
G1 X113.896 Y79.468 E0.0742
G1 X114.374 Y81.507 E0.07283
G1 X114.374 Y136.244 E1.90337
G1 X114.088 Y137.8 E0.05503
G1 X113.455 Y139.234 E0.0545
G1 X113.352 Y139.377 E0.00612
G1 X110.799 Y142.052 E0.12858
G1 X109.503 Y142.789 E0.05185
G1 X107.955 Y143.245 E0.05611
G1 X100.557 Y143.32 E0.25727
G1 X98.79 Y142.962 E0.0627
G1 X96.802 Y141.846 E0.07928
G1 X94.255 Y139.318 E0.12478
G1 X77.563 Y139.318 E0.58044
G1 X74.917 Y141.921 E0.12906
G1 X72.75 Y143.054 E0.08501
G1 X71.328 Y143.309 E0.05023
G1 X64.445 Y143.312 E0.23935
G1 X62.854 Y142.999 E0.05638
G1 X61.374 Y142.303 E0.05688
G1 X61.018 Y142.024 E0.01571
G1 X58.494 Y139.444 E0.12551
G1 X57.771 Y137.933 E0.05825
G1 X57.44 Y136.314 E0.05747
G1 X57.44 Y81.488 E1.90647
G1 X57.764 Y79.898 E0.05644
G1 X58.417 Y78.472 E0.05453
G1 X62.019 Y74.767 E0.17967
M107
G1 X62.249 Y75.019 F3600000
M107
G1 F2400
G1 X63.766 Y74.202 E0.05992
G1 X65.458 Y73.832 E0.06021
G1 X106.365 Y73.835 E1.42246
G1 X107.978 Y74.178 E0.05736
G1 X109.495 Y74.965 E0.05941
G1 X112.524 Y77.883 E0.14627
G1 X113.563 Y79.575 E0.06903
G1 X114.026 Y81.527 E0.06976
G1 X114.026 Y136.228 E1.90212
M73 P2 R70
G1 X113.761 Y137.679 E0.05128
G1 X113.159 Y139.049 E0.05204
G1 X113.091 Y139.147 E0.00415
G1 X110.604 Y141.762 E0.12549
G1 X109.384 Y142.46 E0.04889
G1 X107.927 Y142.897 E0.05288
G1 X100.572 Y142.971 E0.25577
G1 X98.886 Y142.626 E0.05983
G1 X97.03 Y141.582 E0.07404
G1 X94.398 Y138.969 E0.12896
G1 X77.419 Y138.969 E0.59041
G1 X74.732 Y141.624 E0.13135
G1 X72.613 Y142.732 E0.08317
G1 X71.284 Y142.963 E0.04691
G1 X64.495 Y142.966 E0.23606
G1 X62.982 Y142.674 E0.05357
G1 X61.573 Y142.015 E0.05411
G1 X61.259 Y141.772 E0.01382
G1 X58.796 Y139.267 E0.12214
G1 X58.108 Y137.842 E0.05503
G1 X57.788 Y136.296 E0.05487
G1 X57.788 Y81.506 E1.90523
M73 P2 R69
G1 X58.101 Y79.988 E0.0539
G1 X58.721 Y78.645 E0.05142
G1 X62.207 Y75.062 E0.17385
M107
G1 X62.438 Y75.313 F3600000
M107
G1 F2400
G1 X63.91 Y74.52 E0.05814
G1 X65.477 Y74.181 E0.05574
G1 X106.347 Y74.184 E1.42117
G1 X107.882 Y74.514 E0.05462
G1 X109.311 Y75.262 E0.05609
G1 X112.266 Y78.118 E0.14291
G1 X113.251 Y79.733 E0.06577
G1 X113.677 Y81.547 E0.06481
G1 X113.677 Y136.212 E1.90087
G1 X113.422 Y137.596 E0.04892
G1 X112.86 Y138.868 E0.04838
G1 X112.827 Y138.918 E0.00207
G1 X110.408 Y141.473 E0.12235
G1 X109.263 Y142.133 E0.04595
G1 X107.898 Y142.548 E0.04961
G1 X100.587 Y142.623 E0.25426
G1 X98.983 Y142.29 E0.05695
G1 X97.259 Y141.318 E0.06882
G1 X94.542 Y138.621 E0.13313
G1 X77.276 Y138.621 E0.6004
G1 X74.547 Y141.327 E0.13364
G1 X72.476 Y142.411 E0.0813
G1 X71.24 Y142.617 E0.04355
G1 X64.544 Y142.621 E0.23287
G1 X63.109 Y142.349 E0.05076
G1 X61.77 Y141.727 E0.05136
G1 X61.498 Y141.518 E0.01192
G1 X59.097 Y139.089 E0.11878
G1 X58.445 Y137.749 E0.05181
G1 X58.137 Y136.278 E0.05225
G1 X58.137 Y81.524 E1.90398
G1 X58.438 Y80.078 E0.05134
G1 X59.024 Y78.818 E0.04832
G1 X62.396 Y75.356 E0.16806
M107
G1 X62.627 Y75.606 F3600000
M107
G1 F2400
G1 X64.009 Y74.855 E0.05468
G1 X65.495 Y74.529 E0.05292
G1 X106.328 Y74.532 E1.41987
G1 X107.785 Y74.849 E0.05185
G1 X109.126 Y75.559 E0.05276
G1 X112.008 Y78.353 E0.13959
G1 X112.919 Y79.84 E0.06063
G1 X113.329 Y81.568 E0.06173
G1 X113.329 Y136.196 E1.89961
G1 X113.095 Y137.474 E0.04515
G1 X112.553 Y138.7 E0.04663
G1 X110.211 Y141.184 E0.11871
G1 X109.141 Y141.806 E0.04304
G1 X107.87 Y142.2 E0.04629
G1 X100.602 Y142.274 E0.25272
G1 X99.081 Y141.954 E0.05405
G1 X97.488 Y141.054 E0.06362
G1 X94.686 Y138.272 E0.13732
G1 X77.132 Y138.272 E0.61039
G1 X74.362 Y141.031 E0.13592
G1 X72.339 Y142.089 E0.0794
G1 X71.199 Y142.27 E0.04014
G1 X64.56 Y142.272 E0.23086
G1 X63.196 Y142.011 E0.04829
G1 X61.966 Y141.439 E0.04717
G1 X61.737 Y141.264 E0.01002
G1 X59.397 Y138.91 E0.11542
G1 X58.781 Y137.656 E0.04858
G1 X58.485 Y136.26 E0.04961
G1 X58.485 Y81.542 E1.90272
G1 X58.775 Y80.17 E0.04876
G1 X59.327 Y78.993 E0.04522
G1 X62.586 Y75.649 E0.16234
M107
G1 X62.818 Y75.899 F3600000
M107
G1 F2400
G1 X64.109 Y75.19 E0.05121
G1 X65.514 Y74.878 E0.05008
G1 X106.309 Y74.881 E1.41855
G1 X107.687 Y75.184 E0.04905
G1 X108.94 Y75.855 E0.04943
G1 X111.749 Y78.588 E0.13629
G1 X112.607 Y79.998 E0.05739
G1 X112.98 Y81.588 E0.05679
G1 X112.98 Y136.18 E1.89836
G1 X112.756 Y137.39 E0.04277
G1 X112.247 Y138.532 E0.04347
G1 X110.014 Y140.896 E0.1131
G1 X109.017 Y141.479 E0.04015
G1 X107.84 Y141.852 E0.04294
G1 X100.618 Y141.925 E0.25115
G1 X99.18 Y141.619 E0.05113
G1 X97.717 Y140.791 E0.05845
G1 X94.829 Y137.924 E0.1415
G1 X76.988 Y137.924 E0.62041
G1 X74.177 Y140.734 E0.1382
G1 X72.203 Y141.767 E0.07747
G1 X71.16 Y141.924 E0.03669
G1 X64.576 Y141.924 E0.22893
G1 X63.323 Y141.686 E0.04437
