; generated by SuperSlicer 2.5.59.8 on 2024-03-17 at 13:19:23 UTC


;
;

;
;

;
;

;
;

;
;
; 

; external perimeters extrusion width = 0.40mm
; perimeters extrusion width = 0.40mm
; infill extrusion width = 0.40mm
; solid infill extrusion width = 0.40mm
; top infill extrusion width = 0.40mm

; object:{"name":"a_EVA_Backplate_Merc_Support_V1-1","id":"a_EVA_Backplate_Merc_Support_V1-1.stl id:0 copy 0","object_center":[58.407954,118.703523,0.000000],"boundingbox_center":[58.407954,118.703523,11.375000],"boundingbox_size":[53.199562,85.000000,22.750000]}
EXCLUDE_OBJECT_DEFINE NAME=a_EVA_Backplate_Merc_Support_V1_1_stl_id_0_copy_0 CENTER=58.407954,118.703523 POLYGON=[[31.81,135.14],[31.84,134.70],[41.02,79.98],[41.12,79.50],[41.28,79.04],[41.48,78.60],[41.73,78.18],[42.03,77.79],[42.36,77.44],[42.73,77.12],[43.14,76.85],[43.57,76.62],[44.02,76.44],[44.49,76.31],[44.97,76.23],[45.46,76.20],[80.46,76.20],[80.94,76.23],[81.43,76.31],[81.89,76.44],[82.35,76.62],[82.78,76.85],[83.18,77.12],[83.55,77.44],[83.89,77.79],[84.18,78.18],[84.43,78.60],[84.64,79.04],[84.79,79.50],[84.90,79.98],[84.95,80.46],[85.01,93.03],[85.01,146.20],[84.01,147.20],[41.96,161.15],[41.76,161.20],[35.36,161.20],[35.30,161.20],[35.23,161.18],[35.18,161.16],[35.16,161.15],[35.12,161.13],[35.05,161.06],[35.01,161.00],[35.00,160.99],[34.98,160.93],[34.96,160.87],[34.96,160.85],[31.83,135.59],[31.81,135.14]]
; plater:{"center":[58.407954,118.703523,0.000000],"boundingbox_center":[58.407954,118.703523,11.375000],"boundingbox_size":[53.199562,85.000000,22.750000]}

M73 P0 R94
M73 C79
M107
;TYPE:Custom
CALCULATE_PA MATERIAL=PLA BOWDEN_LENGTH=6 LAYER_HEIGHT=0.24 NOZZLE_SIZE=0.4 PRINT_SPEED=95


START_PRINT EXTRUDER=260 BED=95

M107
G21 ; set units to millimeters
G90 ; use absolute coordinates
M83 ; use relative distances for extrusion
ACTIVATE_EXTRUDER EXTRUDER=extruder
; Filament gcode
M104 S260 T0 ; set temperature
M109 S260 T0 ; set temperature and wait for it to be reached
M190 S95 ; set bed temperature and wait for it to be reached
;LAYER_CHANGE
;Z:0.24
;HEIGHT:0.24
;BEFORE_LAYER_CHANGE
G92 E0.0

G1 E-1.5 F3000
M73 C1
G1 Z0.2 F3600000
G1 Z0.24
;AFTER_LAYER_CHANGE
;0.24




CALCULATE_PA MATERIAL=PLA BOWDEN_LENGTH=6.0 LAYER_HEIGHT=0.2 NOZZLE_SIZE=0.4 PRINT_SPEED=95


G92 E0
G1 Z0.44
G1 X40.576 Y72.935
G1 Z0.24
G1 E1.5 F3000
;TYPE:Skirt
;WIDTH:0.4
M107
G1 F2400
G1 X41.499 Y72.427 E0.03662
G1 X42.475 Y72.027 E0.03668
G1 X43.491 Y71.742 E0.0367
G1 X44.541 Y71.575 E0.03695
G1 X45.396 Y71.529 E0.0298
G1 X80.53 Y71.529 E1.22169
G1 X81.462 Y71.584 E0.0325
G1 X82.391 Y71.735 E0.0327
G1 X83.298 Y71.979 E0.03269
G1 X84.164 Y72.31 E0.03222
G1 X85.321 Y72.923 E0.04553
G1 X86.046 Y73.427 E0.03071
G1 X86.729 Y74.006 E0.03114
G1 X87.378 Y74.68 E0.03253
G1 X87.961 Y75.422 E0.03282
G1 X88.637 Y76.546 E0.0456
G1 X89.007 Y77.372 E0.03147
G1 X89.297 Y78.243 E0.03192
G1 X89.498 Y79.139 E0.03194
G1 X89.61 Y80.054 E0.03203
G1 X89.624 Y81.099 E0.03636
G1 X89.528 Y82.088 E0.03453
G1 X89.325 Y83.06 E0.03455
G1 X89 Y84.051 E0.03626
G1 X88.574 Y84.982 E0.0356
G1 X88.064 Y85.834 E0.03453
G1 X87.469 Y86.621 E0.03429
G1 X86.77 Y87.358 E0.03535
G1 X88.187 Y88.821 E0.07083
G1 X88.766 Y89.657 E0.03537
G1 X89.188 Y90.513 E0.03319
G1 X89.48 Y91.402 E0.03253
G1 X89.655 Y92.432 E0.03634
G1 X89.683 Y146.586 E1.8831
G1 X89.09 Y148.493 E0.06943
G1 X88.453 Y149.37 E0.0377
G1 X86.74 Y151.001 E0.08226
G1 X85.546 Y151.619 E0.04674
G1 X84.29 Y151.878 E0.04462
G1 X46.84 Y151.878 E1.30225
G1 X46.825 Y161.129 E0.32166
G1 X46.51 Y162.583 E0.05175
G1 X45.84 Y163.828 E0.04916
G1 X45.141 Y164.585 E0.03583
G1 X44.235 Y165.242 E0.03891
G1 X43.11 Y165.686 E0.04207
G1 X42.156 Y165.862 E0.03371
G1 X35.172 Y165.878 E0.24285
G1 X34.126 Y165.72 E0.0368
G1 X33.102 Y165.358 E0.03776
G1 X31.993 Y164.599 E0.04675
G1 X31.125 Y163.616 E0.04561
G1 X30.555 Y162.437 E0.04553
G1 X30.296 Y161.181 E0.04458
G1 X30.278 Y141.946 E0.66887
G1 X30.084 Y141.789 E0.00868
G1 X29.492 Y141.21 E0.0288
G1 X28.885 Y140.481 E0.03298
G1 X28.329 Y139.64 E0.03506
G1 X27.893 Y138.787 E0.0333
G1 X27.543 Y137.862 E0.03438
G1 X27.297 Y136.901 E0.03451
G1 X27.166 Y135.966 E0.03283
G1 X27.135 Y135.014 E0.03313
G1 X27.205 Y134.082 E0.0325
G1 X27.37 Y133.171 E0.03217
G1 X27.631 Y132.28 E0.03229
G1 X27.985 Y131.421 E0.03232
G1 X28.467 Y130.538 E0.03497
G1 X29.011 Y129.761 E0.033
G1 X29.623 Y129.06 E0.03236
G1 X30.321 Y128.413 E0.03309
G1 X31.093 Y127.841 E0.03341
G1 X31.943 Y127.345 E0.03423
G1 X32.757 Y126.98 E0.031
G1 X33.549 Y126.715 E0.02905
G1 X36.232 Y125.987 E0.09666
G1 X36.271 Y92.318 E1.17078
G1 X36.442 Y91.375 E0.03332
G1 X36.731 Y90.503 E0.03196
G1 X37.144 Y89.667 E0.03241
G1 X37.678 Y88.883 E0.03299
G1 X39.147 Y87.358 E0.07363
G1 X38.444 Y86.618 E0.0355
G1 X37.874 Y85.867 E0.03277
G1 X37.309 Y84.921 E0.03832
G1 X36.883 Y83.968 E0.03631
G1 X36.59 Y83.058 E0.03322
G1 X36.393 Y82.124 E0.0332
G1 X36.292 Y81.12 E0.0351
G1 X36.296 Y80.218 E0.03135
G1 X36.388 Y79.321 E0.03136
G1 X36.602 Y78.305 E0.03611
G1 X36.896 Y77.407 E0.03286
G1 X37.279 Y76.546 E0.03277
G1 X37.859 Y75.562 E0.03971
G1 X38.565 Y74.647 E0.04019
G1 X39.141 Y74.049 E0.02887
G1 X39.778 Y73.498 E0.02927
G1 X40.527 Y72.97 E0.0319
M107
G1 X40.728 Y73.255 F3600000
M107
G1 F2400
G1 X40.769 Y73.226 E0.00175
G1 X41.658 Y72.737 E0.03527
G1 X42.597 Y72.353 E0.03529
G1 X43.575 Y72.08 E0.0353
G1 X44.586 Y71.92 E0.03559
G1 X45.401 Y71.877 E0.02838
G1 X80.525 Y71.877 E1.22135
G1 X81.416 Y71.929 E0.03104
G1 X82.309 Y72.073 E0.03146
G1 X83.182 Y72.308 E0.03145
G1 X84.03 Y72.632 E0.03154
G1 X85.131 Y73.215 E0.04332
G1 X85.84 Y73.708 E0.03005
G1 X86.497 Y74.266 E0.02995
G1 X87.121 Y74.915 E0.03131
G1 X87.68 Y75.629 E0.03153
G1 X88.323 Y76.698 E0.04338
G1 X88.685 Y77.507 E0.0308
G1 X88.963 Y78.345 E0.03071
G1 X89.156 Y79.207 E0.03073
G1 X89.263 Y80.086 E0.03079
G1 X89.276 Y81.094 E0.03505
G1 X89.182 Y82.044 E0.0332
G1 X88.991 Y82.961 E0.03257
G1 X88.672 Y83.933 E0.03558
G1 X88.261 Y84.828 E0.03423
G1 X87.77 Y85.647 E0.03321
G1 X87.209 Y86.39 E0.03237
G1 X86.584 Y87.057 E0.03179
G1 X86.223 Y87.37 E0.01661
G1 X86.526 Y87.608 E0.01338
G1 X87.927 Y89.053 E0.06999
G1 X88.459 Y89.823 E0.03257
G1 X88.861 Y90.634 E0.03145
G1 X89.145 Y91.498 E0.03165
G1 X89.307 Y92.447 E0.03347
G1 X89.334 Y146.56 E1.88166
G1 X88.766 Y148.361 E0.06567
G1 X88.202 Y149.129 E0.03315
G1 X86.556 Y150.704 E0.0792
G1 X85.451 Y151.283 E0.04338
G1 X84.272 Y151.53 E0.04191
G1 X46.491 Y151.53 E1.31373
G1 X46.48 Y161.074 E0.33189
G1 X46.191 Y162.44 E0.04854
G1 X45.544 Y163.643 E0.04751
G1 X44.898 Y164.335 E0.03292
G1 X44.087 Y164.926 E0.03489
G1 X42.998 Y165.356 E0.04071
G1 X42.14 Y165.514 E0.03033
G1 X35.185 Y165.53 E0.24184
G1 X34.195 Y165.378 E0.03482
G1 X33.241 Y165.037 E0.03524
G1 X32.208 Y164.325 E0.04363
G1 X31.403 Y163.404 E0.04254
G1 X30.879 Y162.306 E0.0423
G1 X30.641 Y161.129 E0.04175
G1 X30.626 Y141.779 E0.67288
G1 X30.321 Y141.534 E0.01359
G1 X29.742 Y140.967 E0.02819
G1 X29.159 Y140.265 E0.03172
G1 X28.625 Y139.456 E0.03372
G1 X28.208 Y138.637 E0.03195
G1 X27.873 Y137.748 E0.03304
G1 X27.637 Y136.824 E0.03316
G1 X27.512 Y135.927 E0.0315
G1 X27.483 Y135.03 E0.03121
G1 X27.549 Y134.134 E0.03122
G1 X27.707 Y133.26 E0.03089
G1 X27.963 Y132.387 E0.03165
G1 X28.303 Y131.562 E0.03102
G1 X28.758 Y130.73 E0.03298
G1 X29.28 Y129.983 E0.0317
G1 X29.867 Y129.309 E0.03107
G1 X30.537 Y128.687 E0.03177
G1 X31.293 Y128.126 E0.03274
G1 X32.094 Y127.659 E0.03226
G1 X32.891 Y127.301 E0.03038
G1 X33.654 Y127.047 E0.02796
G1 X36.58 Y126.254 E0.1054
G1 X36.619 Y92.334 E1.17949
G1 X36.777 Y91.473 E0.03045
G1 X37.049 Y90.646 E0.03027
G1 X37.451 Y89.832 E0.03157
G1 X37.939 Y89.114 E0.03021
G1 X39.362 Y87.632 E0.07143
G1 X39.693 Y87.37 E0.01468
G1 X39.328 Y87.054 E0.0168
G1 X38.704 Y86.387 E0.03175
G1 X38.158 Y85.664 E0.0315
G1 X37.614 Y84.751 E0.03696
G1 X37.212 Y83.852 E0.03426
G1 X36.925 Y82.96 E0.03257
G1 X36.736 Y82.062 E0.03192
G1 X36.641 Y81.112 E0.0332
G1 X36.643 Y80.245 E0.03015
G1 X36.731 Y79.384 E0.0301
G1 X36.936 Y78.404 E0.03481
G1 X37.218 Y77.54 E0.03159
G1 X37.593 Y76.696 E0.03211
G1 X38.153 Y75.749 E0.03828
G1 X38.823 Y74.882 E0.03808
G1 X39.387 Y74.297 E0.02826
G1 X39.999 Y73.768 E0.02814
G1 X40.679 Y73.289 E0.02891
M107
G1 X40.879 Y73.574 F3600000
M107
G1 F2400
G1 X40.961 Y73.516 E0.0035
G1 X41.817 Y73.047 E0.03392
G1 X42.719 Y72.68 E0.03389
G1 X43.659 Y72.419 E0.03391
G1 X44.631 Y72.266 E0.03422
G1 X45.405 Y72.226 E0.02696
G1 X80.519 Y72.226 E1.22102
G1 X81.386 Y72.277 E0.0302
G1 X82.244 Y72.416 E0.03021
G1 X83.083 Y72.642 E0.03021
G1 X83.895 Y72.953 E0.03025
G1 X84.94 Y73.507 E0.04113
G1 X85.634 Y73.99 E0.02939
G1 X86.264 Y74.526 E0.02876
G1 X86.864 Y75.15 E0.0301
G1 X87.399 Y75.835 E0.03023
G1 X88.01 Y76.85 E0.04119
G1 X88.357 Y77.625 E0.02953
G1 X88.625 Y78.43 E0.02949
G1 X88.814 Y79.275 E0.03012
G1 X88.916 Y80.118 E0.02955
G1 X88.927 Y81.088 E0.03373
G1 X88.836 Y82 E0.03186
G1 X88.656 Y82.862 E0.03061
G1 X88.351 Y83.797 E0.0342
G1 X87.949 Y84.674 E0.03355
G1 X87.486 Y85.444 E0.03125
G1 X86.948 Y86.158 E0.03109
G1 X86.336 Y86.813 E0.03115
G1 X85.674 Y87.384 E0.03043
G1 X86.284 Y87.859 E0.0269
G1 X87.666 Y89.285 E0.06905
G1 X88.165 Y90.011 E0.03061
G1 X88.543 Y90.777 E0.02971
G1 X88.81 Y91.594 E0.0299
G1 X88.958 Y92.462 E0.03061
G1 X88.986 Y146.533 E1.88022
G1 X88.468 Y148.178 E0.05996
G1 X87.949 Y148.888 E0.03059
G1 X86.371 Y150.407 E0.07616
G1 X85.355 Y150.947 E0.04001
G1 X84.253 Y151.181 E0.03916
G1 X46.143 Y151.181 E1.32521
G1 X46.135 Y161.021 E0.34216
G1 X45.872 Y162.297 E0.04531
G1 X45.248 Y163.458 E0.04583
G1 X44.655 Y164.084 E0.02998
G1 X43.938 Y164.61 E0.03093
G1 X42.885 Y165.025 E0.03934
G1 X42.123 Y165.165 E0.02695
G1 X35.198 Y165.181 E0.24083
G1 X34.295 Y165.044 E0.03174
G1 X33.419 Y164.737 E0.0323
G1 X32.456 Y164.079 E0.04055
G1 X31.681 Y163.193 E0.04092
G1 X31.203 Y162.177 E0.03904
G1 X30.986 Y161.078 E0.03894
G1 X30.975 Y141.611 E0.67695
G1 X30.559 Y141.279 E0.0185
G1 X29.992 Y140.724 E0.02757
G1 X29.433 Y140.05 E0.03045
G1 X28.922 Y139.273 E0.03238
G1 X28.523 Y138.488 E0.0306
G1 X28.202 Y137.635 E0.03169
G1 X27.978 Y136.748 E0.03182
G1 X27.86 Y135.906 E0.02955
G1 X27.832 Y135.046 E0.02993
G1 X27.894 Y134.187 E0.02994
G1 X28.048 Y133.332 E0.03024
G1 X28.295 Y132.494 E0.03035
G1 X28.622 Y131.704 E0.02973
G1 X29.049 Y130.921 E0.03102
G1 X29.549 Y130.204 E0.03041
G1 X30.111 Y129.558 E0.02978
G1 X30.752 Y128.961 E0.03044
G1 X31.493 Y128.412 E0.03207
G1 X32.246 Y127.973 E0.0303
G1 X33.026 Y127.623 E0.02975
G1 X33.76 Y127.379 E0.02687
G1 X36.928 Y126.521 E0.11415
G1 X36.968 Y92.351 E1.1882
G1 X37.117 Y91.549 E0.02837
G1 X37.376 Y90.767 E0.02861
G1 X37.746 Y90.018 E0.02908
G1 X38.201 Y89.345 E0.02825
G1 X39.605 Y87.882 E0.07049
G1 X40.241 Y87.383 E0.02812
G1 X39.576 Y86.809 E0.03055
G1 X38.977 Y86.169 E0.03049
G1 X38.452 Y85.478 E0.03017
G1 X37.919 Y84.582 E0.03627
G1 X37.541 Y83.736 E0.03221
G1 X37.259 Y82.862 E0.03192
G1 X37.08 Y82 E0.03064
G1 X36.989 Y81.104 E0.03132
G1 X36.991 Y80.271 E0.02894
G1 X37.074 Y79.446 E0.02884
G1 X37.271 Y78.503 E0.0335
G1 X37.546 Y77.657 E0.03094
G1 X37.907 Y76.847 E0.03081
G1 X38.436 Y75.953 E0.03613
G1 X39.081 Y75.117 E0.03672
G1 X39.621 Y74.555 E0.02709
G1 X40.22 Y74.037 E0.02755
G1 X40.83 Y73.609 E0.02591
M107
G1 X41.03 Y73.894 F3600000
M107
G1 F2400
G1 X41.153 Y73.807 E0.00525
G1 X41.975 Y73.358 E0.03256
G1 X42.841 Y73.007 E0.0325
G1 X43.742 Y72.757 E0.03251
G1 X44.676 Y72.612 E0.03286
G1 X45.41 Y72.574 E0.02556
G1 X80.514 Y72.574 E1.22069
G1 X81.339 Y72.622 E0.02874
G1 X82.179 Y72.758 E0.02959
G1 X82.983 Y72.976 E0.02896
G1 X83.76 Y73.275 E0.02895
G1 X84.75 Y73.799 E0.03895
G1 X85.415 Y74.261 E0.02814
G1 X86.019 Y74.774 E0.02755
G1 X86.595 Y75.372 E0.02886
G1 X87.118 Y76.041 E0.02955
G1 X87.696 Y77.002 E0.03899
G1 X88.035 Y77.759 E0.02886
G1 X88.291 Y78.531 E0.02827
G1 X88.472 Y79.342 E0.02889
G1 X88.568 Y80.15 E0.02831
G1 X88.578 Y81.083 E0.03242
G1 X88.493 Y81.938 E0.02991
G1 X88.322 Y82.763 E0.02929
G1 X88.03 Y83.661 E0.03281
G1 X87.636 Y84.52 E0.03287
G1 X87.202 Y85.242 E0.0293
G1 X86.687 Y85.927 E0.0298
G1 X86.088 Y86.568 E0.0305
G1 X85.421 Y87.142 E0.03058
G1 X85.073 Y87.382 E0.01471
G1 X85.162 Y87.429 E0.00348
G1 X86.043 Y88.11 E0.03872
G1 X87.406 Y89.517 E0.0681
G1 X87.87 Y90.197 E0.02864
G1 X88.225 Y90.919 E0.02798
G1 X88.475 Y91.69 E0.02817
G1 X88.61 Y92.477 E0.02777
G1 X88.637 Y146.506 E1.87877
G1 X88.145 Y148.045 E0.05616
G1 X87.696 Y148.648 E0.02614
G1 X86.185 Y150.112 E0.07318
G1 X85.257 Y150.612 E0.03663
G1 X84.235 Y150.833 E0.03638
G1 X45.795 Y150.833 E1.33667
G1 X45.787 Y161.003 E0.35365
G1 X45.536 Y162.201 E0.04257
G1 X44.979 Y163.235 E0.04084
G1 X44.413 Y163.833 E0.02862
G1 X43.751 Y164.315 E0.02848
G1 X42.775 Y164.694 E0.03641
G1 X42.077 Y164.82 E0.02467
G1 X35.211 Y164.833 E0.23876
G1 X34.365 Y164.702 E0.02977
G1 X33.557 Y164.416 E0.02981
G1 X32.672 Y163.805 E0.03739
G1 X31.96 Y162.983 E0.03779
G1 X31.528 Y162.05 E0.03576
G1 X31.332 Y161.029 E0.03617
G1 X31.323 Y141.442 E0.68108
G1 X30.796 Y141.024 E0.0234
G1 X30.243 Y140.482 E0.02694
G1 X29.708 Y139.836 E0.02917
G1 X29.218 Y139.089 E0.03103
G1 X28.838 Y138.339 E0.02925
G1 X28.538 Y137.54 E0.02969
G1 X28.318 Y136.672 E0.03115
G1 X28.207 Y135.868 E0.02822
G1 X28.18 Y135.062 E0.02804
G1 X28.239 Y134.24 E0.02866
G1 X28.385 Y133.421 E0.02894
G1 X28.62 Y132.619 E0.02904
G1 X28.94 Y131.846 E0.02908
G1 X29.341 Y131.113 E0.02907
G1 X29.819 Y130.425 E0.02911
G1 X30.355 Y129.806 E0.02849
G1 X30.967 Y129.236 E0.0291
G1 X31.693 Y128.698 E0.03139
G1 X32.413 Y128.279 E0.02896
G1 X33.16 Y127.944 E0.02848
G1 X33.855 Y127.714 E0.02545
G1 X37.276 Y126.788 E0.12324
G1 X37.316 Y92.367 E1.1969
G1 X37.457 Y91.625 E0.02628
G1 X37.703 Y90.889 E0.02698
G1 X38.042 Y90.202 E0.02664
G1 X38.463 Y89.575 E0.02627
G1 X39.848 Y88.133 E0.06953
G1 X40.729 Y87.443 E0.03891
G1 X40.845 Y87.383 E0.00453
G1 X40.502 Y87.148 E0.01443
G1 X39.824 Y86.564 E0.03114
G1 X39.249 Y85.951 E0.02923
G1 X38.747 Y85.291 E0.02884
G1 X38.232 Y84.43 E0.03486
G1 X37.869 Y83.62 E0.03087
G1 X37.599 Y82.782 E0.03062
G1 X37.423 Y81.938 E0.02999
G1 X37.337 Y81.078 E0.03004
G1 X37.339 Y80.281 E0.02772
G1 X37.419 Y79.49 E0.02763
G1 X37.605 Y78.601 E0.03157
G1 X37.868 Y77.79 E0.02966
G1 X38.221 Y76.999 E0.03014
G1 X38.73 Y76.14 E0.03471
G1 X39.339 Y75.351 E0.03462
G1 X39.866 Y74.803 E0.02648
G1 X40.441 Y74.307 E0.0264
G1 X40.981 Y73.928 E0.02291
M107
G1 X41.18 Y74.214 F3600000
M107
G1 F2400
G1 X41.345 Y74.098 E0.007
G1 X42.133 Y73.669 E0.0312
G1 X42.962 Y73.334 E0.0311
G1 X43.825 Y73.096 E0.03112
G1 X44.72 Y72.958 E0.03149
G1 X45.414 Y72.923 E0.02417
G1 X80.509 Y72.923 E1.22036
G1 X81.31 Y72.969 E0.0279
G1 X82.114 Y73.101 E0.02833
G1 X82.883 Y73.31 E0.02771
G1 X83.625 Y73.596 E0.02766
G1 X84.56 Y74.092 E0.0368
G1 X85.196 Y74.532 E0.02688
G1 X85.787 Y75.034 E0.02695
G1 X86.337 Y75.607 E0.02763
G1 X86.836 Y76.247 E0.02825
G1 X87.382 Y77.154 E0.03681
G1 X87.707 Y77.878 E0.02757
G1 X87.958 Y78.632 E0.02765
G1 X88.13 Y79.409 E0.02766
G1 X88.221 Y80.182 E0.02706
G1 X88.231 Y81.058 E0.03046
G1 X88.15 Y81.877 E0.02862
G1 X87.983 Y82.683 E0.02864
G1 X87.709 Y83.525 E0.03076
G1 X87.323 Y84.366 E0.03218
G1 X86.908 Y85.055 E0.02797
G1 X86.426 Y85.696 E0.02791
G1 X85.853 Y86.31 E0.02919
G1 X85.201 Y86.871 E0.02992
G1 X84.523 Y87.338 E0.02862
G1 X84.364 Y87.425 E0.00629
G1 X84.963 Y87.716 E0.02315
G1 X85.802 Y88.362 E0.0368
G1 X87.127 Y89.726 E0.06613
G1 X87.563 Y90.362 E0.02681
G1 X87.907 Y91.062 E0.02711
G1 X88.134 Y91.762 E0.0256
G1 X88.262 Y92.492 E0.02577
G1 X88.289 Y146.479 E1.8773
G1 X87.848 Y147.86 E0.05041
G1 X87.443 Y148.408 E0.02368
G1 X85.996 Y149.818 E0.07023
G1 X85.158 Y150.277 E0.03323
G1 X84.216 Y150.484 E0.03355
G1 X45.54 Y150.484 E1.34488
G1 X45.447 Y150.576 E0.00456
G1 X45.438 Y160.985 E0.36194
G1 X45.217 Y162.06 E0.03815
G1 X44.709 Y163.013 E0.03757
G1 X44.195 Y163.561 E0.02613
G1 X43.565 Y164.02 E0.02711
G1 X42.666 Y164.363 E0.03343
G1 X42.032 Y164.474 E0.02241
G1 X35.224 Y164.484 E0.23674
G1 X34.466 Y164.368 E0.02667
G1 X33.695 Y164.095 E0.02842
G1 X32.89 Y163.532 E0.03417
G1 X32.241 Y162.775 E0.03467
G1 X31.854 Y161.925 E0.03247
