; generated by SuperSlicer 2.5.59.8 on 2024-03-18 at 10:55:30 UTC


;
;

;
;

;
;

;
;

;
;
; 

; external perimeters extrusion width = 0.40mm
; perimeters extrusion width = 0.40mm
; infill extrusion width = 0.40mm
; solid infill extrusion width = 0.40mm
; top infill extrusion width = 0.40mm

; object:{"name":"a_EVA_FrontPlate_HD_V-1-1","id":"a_EVA_FrontPlate_HD_V-1-1.stl id:0 copy 0","object_center":[56.585171,116.341870,0.000000],"boundingbox_center":[56.585171,116.341870,4.000000],"boundingbox_size":[44.100002,57.000000,8.000000]}
EXCLUDE_OBJECT_DEFINE NAME=a_EVA_FrontPlate_HD_V_1_1_stl_id_0_copy_0 CENTER=56.585171,116.341870 POLYGON=[[34.54,89.84],[36.54,87.84],[76.64,87.84],[78.64,89.84],[78.64,143.84],[77.64,144.84],[35.54,144.84],[34.54,143.84],[34.54,89.84]]
; plater:{"center":[56.585171,116.341870,0.000000],"boundingbox_center":[56.585171,116.341870,4.000000],"boundingbox_size":[44.100002,57.000000,8.000000]}

M73 P0 R70
M117 Time Left 1h9m59s
M107
;TYPE:Custom
CALCULATE_PA MATERIAL=ASA BOWDEN_LENGTH=6 LAYER_HEIGHT=0.24 NOZZLE_SIZE=0.4 PRINT_SPEED=95


START_PRINT EXTRUDER=270 BED=105

M107
G21 ; set units to millimeters
G90 ; use absolute coordinates
M83 ; use relative distances for extrusion
ACTIVATE_EXTRUDER EXTRUDER=extruder
; Filament gcode
M104 S270 T0 ; set temperature
M109 S270 T0 ; set temperature and wait for it to be reached
M190 S105 ; set bed temperature and wait for it to be reached
;LAYER_CHANGE
;Z:0.24
;HEIGHT:0.24
;BEFORE_LAYER_CHANGE
G92 E0.0

G1 E-1.5 F3000
M73 P0 R69
M117 Time Left 1h9m39s
G1 Z0.2 F3600000
G1 Z0.24
;AFTER_LAYER_CHANGE
;0.24




CALCULATE_PA MATERIAL=ASA BOWDEN_LENGTH=6.0 LAYER_HEIGHT=0.2 NOZZLE_SIZE=0.4 PRINT_SPEED=95


G92 E0
G1 Z0.44
G1 X34.888 Y83.466
G1 Z0.24
G1 E1.5 F3000
;TYPE:Skirt
;WIDTH:0.4
M107
G1 F2400
G1 X36.212 Y83.167 E0.0472
G1 X76.968 Y83.171 E1.41721
M117 Time Left 1h9m37s
G1 X78.265 Y83.46 E0.04623
G1 X79.431 Y84.091 E0.04609
G1 X82.168 Y86.763 E0.13302
G1 X82.952 Y88.046 E0.05229
G1 X83.31 Y89.549 E0.05372
M117 Time Left 1h9m37s
G1 X83.31 Y144.105 E1.89709
M117 Time Left 1h9m36s
G1 X83.096 Y145.246 E0.04037
G1 X82.62 Y146.303 E0.0403
G1 X80.494 Y148.549 E0.10755
G1 X79.57 Y149.095 E0.0373
G1 X78.488 Y149.445 E0.03953
G1 X71.312 Y149.518 E0.24956
G1 X69.958 Y149.225 E0.04818
G1 X68.625 Y148.468 E0.05331
G1 X65.651 Y145.517 E0.14569
G1 X47.521 Y145.517 E0.63042
M117 Time Left 1h9m35s
G1 X44.628 Y148.41 E0.1423
G1 X42.8 Y149.368 E0.07174
G1 X41.825 Y149.517 E0.03431
G1 X35.271 Y149.517 E0.2279
G1 X34.088 Y149.289 E0.04191
G1 X33.032 Y148.8 E0.04045
G1 X32.89 Y148.694 E0.00616
G1 X30.674 Y146.489 E0.1087
G1 X30.131 Y145.407 E0.0421
G1 X29.86 Y144.164 E0.04423
G1 X29.86 Y89.52 E1.90014
M117 Time Left 1h9m33s
G1 X30.126 Y88.298 E0.0435
G1 X30.61 Y87.285 E0.03902
G1 X33.688 Y84.133 E0.15319
G1 X34.835 Y83.495 E0.04566
M107
G1 X34.99 Y83.8 F3600000
M107
G1 F2400
G1 X36.231 Y83.516 E0.04429
G1 X76.948 Y83.519 E1.41585
M117 Time Left 1h9m32s
G1 X78.165 Y83.795 E0.04336
G1 X79.243 Y84.385 E0.04274
G1 X81.909 Y86.997 E0.12978
G1 X82.64 Y88.203 E0.04906
G1 X82.961 Y89.569 E0.0488
G1 X82.961 Y144.089 E1.89583
M117 Time Left 1h9m30s
G1 X82.769 Y145.122 E0.03653
G1 X82.314 Y146.133 E0.03855
G1 X80.295 Y148.262 E0.10204
G1 X79.442 Y148.77 E0.0345
G1 X78.458 Y149.097 E0.03607
G1 X71.328 Y149.169 E0.24793
G1 X70.058 Y148.89 E0.04522
G1 X68.854 Y148.205 E0.04819
G1 X65.795 Y145.168 E0.14988
G1 X47.377 Y145.168 E0.64043
M117 Time Left 1h9m29s
G1 X44.4 Y148.145 E0.1464
G1 X42.719 Y149.028 E0.06604
G1 X41.812 Y149.168 E0.03191
G1 X35.288 Y149.168 E0.22686
G1 X34.214 Y148.963 E0.038
G1 X33.222 Y148.507 E0.03795
G1 X33.125 Y148.437 E0.00417
G1 X30.972 Y146.307 E0.10533
G1 X30.467 Y145.31 E0.03885
G1 X30.209 Y144.145 E0.0415
G1 X30.209 Y89.539 E1.89882
M117 Time Left 1h9m27s
G1 X30.462 Y88.393 E0.04082
G1 X30.912 Y87.463 E0.03592
G1 X33.88 Y84.424 E0.1477
G1 X34.938 Y83.829 E0.04219
M107
G1 X35.093 Y84.133 F3600000
M107
G1 F2400
G1 X36.251 Y83.864 E0.04134
G1 X76.929 Y83.868 E1.41449
M117 Time Left 1h9m26s
G1 X78.019 Y84.112 E0.03883
G1 X79.054 Y84.679 E0.04105
G1 X81.649 Y87.23 E0.12653
G1 X82.307 Y88.311 E0.04401
G1 X82.613 Y89.59 E0.04572
G1 X82.613 Y144.073 E1.89455
M117 Time Left 1h9m24s
G1 X82.431 Y145.037 E0.03411
G1 X82.009 Y145.962 E0.03536
M117 Time Left 1h9m24s
G1 X80.095 Y147.976 E0.09661
G1 X79.312 Y148.446 E0.03176
G1 X78.426 Y148.748 E0.03255
G1 X71.345 Y148.82 E0.24626
G1 X70.159 Y148.556 E0.04223
G1 X69.083 Y147.941 E0.0431
G1 X65.938 Y144.82 E0.15408
G1 X47.233 Y144.82 E0.65045
G1 X44.172 Y147.88 E0.1505
M117 Time Left 1h9m23s
G1 X42.636 Y148.688 E0.06035
G1 X41.798 Y148.82 E0.0295
G1 X35.304 Y148.82 E0.22582
G1 X34.34 Y148.637 E0.03412
G1 X33.408 Y148.212 E0.03563
G1 X33.359 Y148.178 E0.00207
G1 X31.269 Y146.123 E0.10191
G1 X30.802 Y145.212 E0.03559
G1 X30.557 Y144.126 E0.03872
G1 X30.557 Y89.558 E1.89748
M117 Time Left 1h9m21s
G1 X30.798 Y88.489 E0.03811
G1 X31.212 Y87.641 E0.03283
G1 X34.074 Y84.715 E0.1423
M117 Time Left 1h9m21s
G1 X35.041 Y84.163 E0.03873
M107
G1 X35.214 Y84.466 F3600000
M107
G1 F2400
G1 X35.244 Y84.449 E0.0012
G1 X36.271 Y84.213 E0.03665
G1 X76.91 Y84.216 E1.41312
M117 Time Left 1h9m20s
G1 X77.917 Y84.446 E0.03594
G1 X78.864 Y84.972 E0.03768
G1 X81.389 Y87.463 E0.12332
G1 X81.995 Y88.468 E0.0408
G1 X82.264 Y89.61 E0.04082
G1 X82.264 Y144.057 E1.89327
M117 Time Left 1h9m19s
G1 X82.093 Y144.95 E0.03165
G1 X81.705 Y145.79 E0.03216
G1 X79.895 Y147.689 E0.09122
G1 X79.149 Y148.138 E0.03028
G1 X78.341 Y148.409 E0.02962
G1 X71.362 Y148.472 E0.24271
G1 X70.262 Y148.222 E0.03921
M117 Time Left 1h9m18s
G1 X69.277 Y147.651 E0.03959
G1 X66.082 Y144.471 E0.15675
G1 X47.088 Y144.471 E0.66047
G1 X43.944 Y147.615 E0.15461
G1 X42.553 Y148.348 E0.05469
G1 X41.784 Y148.471 E0.02707
G1 X35.32 Y148.471 E0.22477
G1 X34.426 Y148.299 E0.03166
M73 P1 R69
M117 Time Left 1h9m17s
G1 X33.581 Y147.908 E0.03239
G1 X31.566 Y145.938 E0.09801
G1 X31.137 Y145.113 E0.03233
G1 X30.906 Y144.106 E0.03591
G1 X30.906 Y89.578 E1.89611
M117 Time Left 1h9m16s
G1 X31.133 Y88.587 E0.03536
G1 X31.513 Y87.82 E0.02975
G1 X34.268 Y85.006 E0.13695
G1 X35.162 Y84.496 E0.0358
M107
G1 X35.333 Y84.791 F3600000
M107
G1 F2400
G1 X35.349 Y84.782 E0.00062
G1 X36.291 Y84.561 E0.03367
G1 X76.89 Y84.565 E1.41173
M117 Time Left 1h9m14s
G1 X77.814 Y84.78 E0.033
G1 X78.673 Y85.264 E0.0343
G1 X81.128 Y87.695 E0.12013
G1 X81.682 Y88.623 E0.03758
G1 X81.916 Y89.63 E0.03595
G1 X81.916 Y144.04 E1.89199
M117 Time Left 1h9m13s
G1 X81.755 Y144.862 E0.02915
G1 X81.401 Y145.616 E0.02895
G1 X79.696 Y147.402 E0.08588
G1 X78.986 Y147.829 E0.0288
G1 X78.258 Y148.07 E0.02667
G1 X71.38 Y148.123 E0.23918
G1 X70.367 Y147.888 E0.03615
G1 X69.473 Y147.362 E0.03607
G1 X66.226 Y144.123 E0.15948
G1 X46.944 Y144.123 E0.6705
M117 Time Left 1h9m12s
G1 X43.716 Y147.35 E0.15872
G1 X42.469 Y148.009 E0.04905
G1 X41.77 Y148.123 E0.02462
G1 X35.337 Y148.123 E0.22369
G1 X34.514 Y147.961 E0.02916
G1 X33.756 Y147.605 E0.02914
G1 X31.861 Y145.751 E0.09218
G1 X31.471 Y145.012 E0.02907
G1 X31.254 Y144.086 E0.03305
G1 X31.254 Y89.598 E1.89472
M117 Time Left 1h9m10s
G1 X31.467 Y88.686 E0.03257
G1 X31.812 Y88.001 E0.02667
G1 X34.463 Y85.295 E0.13171
G1 X35.281 Y84.821 E0.03289
M107
G1 X35.455 Y85.115 F3600000
M107
G1 F2400
G1 X36.312 Y84.91 E0.03065
G1 X76.869 Y84.913 E1.41031
M117 Time Left 1h9m9s
G1 X77.709 Y85.113 E0.03001
G1 X78.48 Y85.555 E0.03091
G1 X80.867 Y87.927 E0.11701
G1 X81.349 Y88.73 E0.03255
G1 X81.567 Y89.65 E0.03291
G1 X81.567 Y144.023 E1.89071
M117 Time Left 1h9m7s
G1 X81.43 Y144.734 E0.02517
G1 X81.098 Y145.443 E0.02722
G1 X79.496 Y147.116 E0.08054
M117 Time Left 1h9m7s
G1 X78.823 Y147.52 E0.0273
G1 X78.176 Y147.73 E0.02367
G1 X71.398 Y147.774 E0.23568
G1 X70.473 Y147.556 E0.03305
G1 X69.671 Y147.074 E0.03254
G1 X66.371 Y143.774 E0.16228
G1 X46.8 Y143.774 E0.68054
G1 X43.489 Y147.085 E0.16283
M117 Time Left 1h9m6s
G1 X42.384 Y147.67 E0.04344
G1 X41.756 Y147.774 E0.02215
G1 X35.354 Y147.774 E0.22261
G1 X34.643 Y147.637 E0.02518
G1 X33.931 Y147.302 E0.02737
G1 X32.156 Y145.563 E0.08641
G1 X31.805 Y144.909 E0.02582
G1 X31.603 Y144.066 E0.03014
G1 X31.603 Y89.618 E1.89329
M117 Time Left 1h9m5s
G1 X31.802 Y88.787 E0.02972
G1 X32.11 Y88.183 E0.02359
G1 X34.659 Y85.584 E0.12659
G1 X35.403 Y85.146 E0.03001
M107
G1 X35.564 Y85.447 F3600000
M107
G1 F2400
G1 X36.333 Y85.258 E0.02754
G1 X76.848 Y85.262 E1.40885
M117 Time Left 1h9m3s
G1 X77.601 Y85.446 E0.02696
G1 X78.285 Y85.845 E0.02753
G1 X80.605 Y88.158 E0.11394
M117 Time Left 1h9m3s
G1 X81.035 Y88.884 E0.02934
G1 X81.219 Y89.67 E0.02807
G1 X81.219 Y144.006 E1.88942
M117 Time Left 1h9m2s
G1 X81.092 Y144.645 E0.02264
G1 X80.795 Y145.267 E0.02398
G1 X79.297 Y146.829 E0.07526
G1 X78.661 Y147.211 E0.02579
G1 X78.096 Y147.39 E0.02063
G1 X71.417 Y147.426 E0.23225
G1 X70.628 Y147.242 E0.02817
G1 X69.902 Y146.812 E0.02935
G1 X66.515 Y143.426 E0.16654
G1 X46.655 Y143.426 E0.69058
M117 Time Left 1h9m1s
G1 X43.26 Y146.821 E0.16695
G1 X42.298 Y147.331 E0.03787
G1 X41.741 Y147.426 E0.01965
G1 X35.371 Y147.426 E0.22151
G1 X34.732 Y147.299 E0.02265
G1 X34.107 Y147 E0.0241
G1 X32.449 Y145.373 E0.08077
G1 X32.138 Y144.803 E0.02258
G1 X31.951 Y144.045 E0.02717
G1 X31.951 Y89.639 E1.89183
M73 P1 R68
M117 Time Left 1h8m59s
G1 X32.135 Y88.89 E0.02682
G1 X32.407 Y88.367 E0.02052
G1 X34.858 Y85.871 E0.12162
G1 X35.512 Y85.478 E0.02654
M107
G1 X35.675 Y85.779 F3600000
M107
G1 F2400
G1 X36.354 Y85.607 E0.02437
G1 X76.827 Y85.61 E1.40735
M117 Time Left 1h8m58s
G1 X77.491 Y85.778 E0.02384
G1 X78.088 Y86.133 E0.02414
G1 X80.344 Y88.389 E0.11094
G1 X80.703 Y88.991 E0.02436
G1 X80.87 Y89.691 E0.02502
G1 X80.87 Y143.989 E1.88809
M117 Time Left 1h8m56s
G1 X80.755 Y144.554 E0.02005
G1 X80.494 Y145.09 E0.02075
G1 X79.098 Y146.542 E0.07005
M117 Time Left 1h8m56s
G1 X78.5 Y146.901 E0.02425
G1 X78.018 Y147.049 E0.01753
G1 X71.436 Y147.077 E0.22888
G1 X70.735 Y146.909 E0.02509
G1 X70.133 Y146.55 E0.02437
G1 X66.659 Y143.077 E0.17081
G1 X46.511 Y143.077 E0.70062
G1 X43.032 Y146.556 E0.17107
M117 Time Left 1h8m55s
G1 X42.211 Y146.992 E0.03234
G1 X41.726 Y147.077 E0.01712
G1 X35.388 Y147.077 E0.22038
G1 X34.823 Y146.962 E0.02006
G1 X34.285 Y146.699 E0.02083
G1 X32.741 Y145.182 E0.07528
G1 X32.47 Y144.696 E0.01934
G1 X32.3 Y144.023 E0.02414
G1 X32.3 Y89.661 E1.89033
M117 Time Left 1h8m54s
G1 X32.468 Y88.996 E0.02385
G1 X32.703 Y88.552 E0.01746
G1 X35.058 Y86.157 E0.11681
G1 X35.624 Y85.81 E0.02307
M107
G1 X35.788 Y86.109 F3600000
M107
G1 F2400
G1 X36.377 Y85.955 E0.02115
G1 X76.805 Y85.959 E1.40583
M117 Time Left 1h8m52s
G1 X77.337 Y86.091 E0.01905
G1 X77.857 Y86.396 E0.02096
G1 X80.082 Y88.62 E0.10939
G1 X80.389 Y89.145 E0.02114
M117 Time Left 1h8m52s
G1 X80.522 Y89.711 E0.02023
G1 X80.522 Y143.97 E1.88676
M117 Time Left 1h8m51s
G1 X80.419 Y144.46 E0.0174
G1 X80.194 Y144.91 E0.0175
G1 X78.864 Y146.283 E0.06647
G1 X78.341 Y146.59 E0.02107
G1 X77.943 Y146.708 E0.01445
G1 X71.455 Y146.729 E0.2256
G1 X70.888 Y146.595 E0.02027
G1 X70.363 Y146.288 E0.02114
G1 X66.804 Y142.729 E0.17505
G1 X46.367 Y142.729 E0.71066
M117 Time Left 1h8m50s
G1 X42.804 Y146.291 E0.17519
G1 X42.122 Y146.654 E0.02686
G1 X41.71 Y146.729 E0.01456
G1 X35.407 Y146.729 E0.21921
G1 X34.917 Y146.626 E0.0174
G1 X34.466 Y146.4 E0.01755
G1 X33.032 Y144.988 E0.06998
G1 X32.801 Y144.585 E0.01612
G1 X32.648 Y144.001 E0.02102
G1 X32.648 Y89.683 E1.88878
M117 Time Left 1h8m48s
G1 X32.8 Y89.104 E0.0208
G1 X32.998 Y88.74 E0.01441
G1 X35.292 Y86.417 E0.11355
G1 X35.737 Y86.141 E0.01822
M107
G1 X35.905 Y86.439 F3600000
M107
G1 F2400
G1 X36.4 Y86.304 E0.01785
G1 X76.784 Y86.307 E1.40429
M117 Time Left 1h8m47s
G1 X77.185 Y86.405 E0.01435
G1 X77.627 Y86.658 E0.01771
G1 X79.819 Y88.85 E0.10778
G1 X80.073 Y89.295 E0.01784
G1 X80.173 Y89.731 E0.01553
G1 X80.173 Y143.953 E1.88546
M117 Time Left 1h8m45s
G1 X80.095 Y144.329 E0.01337
G1 X79.924 Y144.688 E0.01383
G1 X78.63 Y146.023 E0.06463
G1 X78.187 Y146.277 E0.01779
G1 X77.871 Y146.366 E0.01139
G1 X71.475 Y146.38 E0.22244
M117 Time Left 1h8m45s
G1 X71.039 Y146.28 E0.01555
G1 X70.593 Y146.025 E0.01784
G1 X66.948 Y142.38 E0.17926
G1 X46.222 Y142.38 E0.72069
G1 X42.576 Y146.026 E0.17931
G1 X42.032 Y146.317 E0.02144
G1 X41.694 Y146.38 E0.01195
G1 X35.424 Y146.38 E0.21802
M117 Time Left 1h8m44s
G1 X35.048 Y146.302 E0.01337
G1 X34.689 Y146.131 E0.01384
G1 X33.32 Y144.791 E0.0666
G1 X33.131 Y144.471 E0.0129
G1 X32.997 Y143.977 E0.0178
G1 X32.997 Y89.706 E1.88717
M117 Time Left 1h8m43s
G1 X33.13 Y89.217 E0.01765
G1 X33.29 Y88.931 E0.01137
G1 X35.525 Y86.676 E0.11041
G1 X35.854 Y86.47 E0.01348
M107
G1 X36.025 Y86.767 F3600000
M107
G1 F2400
G1 X36.424 Y86.652 E0.01445
G1 X76.763 Y86.655 E1.40272
M117 Time Left 1h8m42s
G1 X77.036 Y86.722 E0.00977
G1 X77.398 Y86.922 E0.01437
G1 X79.555 Y89.079 E0.10608
G1 X79.756 Y89.443 E0.01445
G1 X79.825 Y89.75 E0.01095
G1 X79.825 Y143.934 E1.88414
M117 Time Left 1h8m40s
G1 X79.759 Y144.234 E0.01068
G1 X79.624 Y144.509 E0.01067
G1 X78.399 Y145.761 E0.06089
G1 X78.036 Y145.962 E0.01442
G1 X77.804 Y146.023 E0.00835
G1 X71.493 Y146.032 E0.21945
G1 X71.186 Y145.963 E0.01095
G1 X70.822 Y145.762 E0.01445
G1 X67.092 Y142.032 E0.18343
G1 X46.078 Y142.032 E0.73073
M117 Time Left 1h8m39s
G1 X42.348 Y145.762 E0.18343
G1 X41.939 Y145.98 E0.01611
G1 X41.677 Y146.032 E0.00928
G1 X35.443 Y146.032 E0.21678
G1 X35.143 Y145.966 E0.01068
G1 X34.868 Y145.83 E0.01067
G1 X33.606 Y144.59 E0.06153
G1 X33.46 Y144.352 E0.0097
G1 X33.345 Y143.953 E0.01445
G1 X33.345 Y89.731 E1.88547
M117 Time Left 1h8m37s
G1 X33.459 Y89.333 E0.01437
G1 X33.58 Y89.126 E0.00835
G1 X35.759 Y86.936 E0.10742
G1 X35.974 Y86.799 E0.00887
M107
G1 X36.15 Y87.093 F3600000
M107
G1 F2400
G1 X36.45 Y87.001 E0.01091
G1 X76.743 Y87.004 E1.40111
M117 Time Left 1h8m36s
G1 X76.893 Y87.04 E0.00535
G1 X77.17 Y87.187 E0.01091
G1 X79.29 Y89.307 E0.10428
G1 X79.437 Y89.584 E0.01091
G1 X79.476 Y89.768 E0.00653
M117 Time Left 1h8m36s
G1 X79.476 Y143.916 E1.88287
M73 P2 R68
M117 Time Left 1h8m35s
G1 X79.437 Y144.099 E0.00653
G1 X79.324 Y144.33 E0.00894
G1 X78.17 Y145.497 E0.05706
G1 X77.893 Y145.644 E0.01091
G1 X77.743 Y145.68 E0.00535
G1 X71.511 Y145.683 E0.21669
G1 X71.328 Y145.644 E0.00653
G1 X71.051 Y145.497 E0.01091
G1 X67.237 Y141.683 E0.18755
G1 X45.934 Y141.683 E0.74077
M117 Time Left 1h8m34s
G1 X42.12 Y145.497 E0.18755
G1 X41.843 Y145.644 E0.01091
G1 X41.659 Y145.683 E0.00653
G1 X35.461 Y145.683 E0.2155
G1 X35.278 Y145.644 E0.00653
G1 X35.047 Y145.53 E0.00894
G1 X33.888 Y144.385 E0.05666
G1 X33.786 Y144.227 E0.00653
G1 X33.694 Y143.927 E0.01091
G1 X33.694 Y89.757 E1.88367
M117 Time Left 1h8m32s
G1 X33.786 Y89.457 E0.01091
G1 X33.866 Y89.326 E0.00535
G1 X35.992 Y87.195 E0.10466
G1 X36.1 Y87.125 E0.00445
M107
G1 X36.284 Y87.415 F3600000
M107
G1 F2400
G1 X36.479 Y87.349 E0.00715
G1 X76.692 Y87.349 E1.39833
M117 Time Left 1h8m31s
G1 X76.759 Y87.363 E0.00239
G1 X76.944 Y87.453 E0.00715
G1 X79.024 Y89.533 E0.10229
G1 X79.115 Y89.718 E0.00715
G1 X79.128 Y89.785 E0.00239
G1 X79.128 Y143.898 E1.88168
M117 Time Left 1h8m30s
G1 X79.115 Y143.966 E0.00239
G1 X79.024 Y144.15 E0.00715
G1 X77.944 Y145.23 E0.05311
G1 X77.759 Y145.321 E0.00715
G1 X77.692 Y145.335 E0.00239
G1 X71.529 Y145.335 E0.21431
G1 X71.461 Y145.321 E0.00239
G1 X71.277 Y145.23 E0.00715
G1 X67.381 Y141.335 E0.19158
G1 X45.789 Y141.335 E0.75081
M117 Time Left 1h8m29s
G1 X41.894 Y145.23 E0.19158
G1 X41.709 Y145.321 E0.00715
G1 X41.642 Y145.335 E0.00239
G1 X35.479 Y145.335 E0.21431
G1 X35.411 Y145.321 E0.00239
G1 X35.227 Y145.23 E0.00715
G1 X34.147 Y144.15 E0.05311
G1 X34.109 Y144.093 E0.00239
G1 X34.042 Y143.898 E0.00715
G1 X34.042 Y89.785 E1.88168
M117 Time Left 1h8m27s
G1 X34.109 Y89.591 E0.00715
G1 X34.147 Y89.533 E0.00239
G1 X36.234 Y87.449 E0.10258
M107
G1 X36.449 Y87.724 F3600000
M107
G1 F2400
G1 X36.513 Y87.698 E0.00241
G1 X76.657 Y87.698 E1.39595
M117 Time Left 1h8m26s
G1 X76.721 Y87.724 E0.00241
G1 X78.753 Y89.756 E0.0999
G1 X78.779 Y89.82 E0.00241
G1 X78.779 Y143.864 E1.87929
M117 Time Left 1h8m24s
G1 X78.753 Y143.928 E0.00241
G1 X77.721 Y144.96 E0.05072
