; generated by SuperSlicer 2.5.59.8 on 2024-03-19 at 16:54:09 UTC


;
;

;
;

;
;

;
;

;
;
; 

; external perimeters extrusion width = 0.40mm
; perimeters extrusion width = 0.40mm
; infill extrusion width = 0.40mm
; solid infill extrusion width = 0.40mm
; top infill extrusion width = 0.40mm

; object:{"name":"a_EVA_FrontPlate_HD_V-1-1","id":"a_EVA_FrontPlate_HD_V-1-1.stl id:0 copy 0","object_center":[62.923408,129.539365,0.000000],"boundingbox_center":[62.923408,129.539365,4.000000],"boundingbox_size":[44.100002,57.000000,8.000000]}
EXCLUDE_OBJECT_DEFINE NAME=a_EVA_FrontPlate_HD_V_1_1_stl_id_0_copy_0 CENTER=62.923408,129.539365 POLYGON=[[40.87,103.04],[42.87,101.04],[82.97,101.04],[84.97,103.04],[84.97,157.04],[83.97,158.04],[41.87,158.04],[40.87,157.04],[40.87,103.04]]
; plater:{"center":[62.923408,129.539365,0.000000],"boundingbox_center":[62.923408,129.539365,4.000000],"boundingbox_size":[44.100002,57.000000,8.000000]}

M73 P0 R68
M107
;TYPE:Custom
CALCULATE_PA MATERIAL=ABS BOWDEN_LENGTH=6 LAYER_HEIGHT=0.24 NOZZLE_SIZE=0.4 PRINT_SPEED=95


START_PRINT EXTRUDER=270 BED=110

M107
G21 ; set units to millimeters
G90 ; use absolute coordinates
M83 ; use relative distances for extrusion
ACTIVATE_EXTRUDER EXTRUDER=extruder
; Filament gcode
M104 S270 T0 ; set temperature
M109 S270 T0 ; set temperature and wait for it to be reached
M190 S110 ; set bed temperature and wait for it to be reached
;LAYER_CHANGE
;Z:0.24
;HEIGHT:0.24
;BEFORE_LAYER_CHANGE
G92 E0.0

G1 E-1.5 F3000
G1 Z0.2 F3600000
G1 Z0.24
;AFTER_LAYER_CHANGE
;0.24




CALCULATE_PA MATERIAL=ABS BOWDEN_LENGTH=6.0 LAYER_HEIGHT=0.2 NOZZLE_SIZE=0.4 PRINT_SPEED=95


G92 E0
G1 Z0.44
G1 X40.347 Y95.494
G1 Z0.24
G1 E1.5 F3000
;TYPE:Skirt
;WIDTH:0.52
M107
G1 F2400
G1 X38.519 Y96.761 E0.10398
G1 X36.595 Y98.685 E0.12719
G1 X35.166 Y100.905 E0.12341
G1 X34.769 Y103.093 E0.10398
G1 X34.769 Y156.986 E2.51929
G1 X35.328 Y159.566 E0.12341
G1 X36.595 Y161.394 E0.10398
G1 X37.519 Y162.318 E0.06108
G1 X39.739 Y163.747 E0.12341
G1 X41.927 Y164.144 E0.10398
G1 X83.92 Y164.144 E1.963
G1 X86.5 Y163.585 E0.12341
G1 X88.328 Y162.318 E0.10398
G1 X89.252 Y161.394 E0.06108
G1 X90.681 Y159.174 E0.12341
G1 X91.078 Y156.986 E0.10398
G1 X91.078 Y103.093 E2.51929
G1 X90.519 Y100.513 E0.12341
G1 X89.252 Y98.685 E0.10398
G1 X87.328 Y96.761 E0.12719
G1 X85.108 Y95.332 E0.12341
G1 X82.92 Y94.935 E0.10398
G1 X42.927 Y94.935 E1.86951
G1 X40.406 Y95.481 E0.12061
M107
;WIPE_START
G1 F2880000
G1 X42.927 Y94.935 E-0.00255
G1 X82.92 Y94.935 E-0.03958
G1 X85.108 Y95.332 E-0.0022
G1 X87.328 Y96.761 E-0.00261
G1 X89.252 Y98.685 E-0.00269
G1 X90.519 Y100.513 E-0.0022
G1 X91.078 Y103.093 E-0.00261
G1 X91.078 Y156.986 E-0.05333
G1 X90.681 Y159.174 E-0.0022
G1 X89.252 Y161.394 E-0.00261
G1 X88.328 Y162.318 E-0.00129
G1 X86.5 Y163.585 E-0.0022
G1 X83.92 Y164.144 E-0.00261
G1 X41.927 Y164.144 E-0.04155
G1 X39.739 Y163.747 E-0.0022
G1 X37.519 Y162.318 E-0.00261
G1 X36.595 Y161.394 E-0.00129
G1 X35.328 Y159.566 E-0.0022
G1 X34.769 Y156.986 E-0.00261
G1 X34.769 Y103.093 E-0.05333
G1 X35.166 Y100.905 E-0.0022
G1 X36.595 Y98.685 E-0.00261
G1 X38.519 Y96.761 E-0.00269
G1 X40.347 Y95.494 E-0.0022
;WIPE_END
G1 E-1.26579 F3000
G1 Z0.44 F3600000
; printing object a_EVA_FrontPlate_HD_V-1-1.stl id:0 copy 0
EXCLUDE_OBJECT_START NAME=a_EVA_FrontPlate_HD_V_1_1_stl_id_0_copy_0
G1 X42.01 Y157.709
G1 Z0.24
G1 E1.5 F3000
;TYPE:External perimeter
;WIDTH:0.399999
M107
G1 F2400
G1 X41.203 Y156.903 E0.03967
G1 X41.203 Y103.176 E1.86823
G1 X43.01 Y101.369 E0.08885
G1 X82.837 Y101.369 E1.38489
G1 X84.643 Y103.176 E0.08885
G1 X84.643 Y156.903 E1.86823
G1 X83.837 Y157.709 E0.03967
G1 X78.06 Y157.709 E0.20087
G1 X74.111 Y153.76 E0.1942
G1 X73.991 Y153.709 E0.00454
G1 X51.859 Y153.709 E0.7696
G1 X51.736 Y153.76 E0.00464
G1 X47.787 Y157.709 E0.1942
G1 X42.07 Y157.709 E0.19878
M107
;WIPE_START
G1 X42.01 Y157.309 F3600000
;WIPE_END
G1 E-1.5 F3000
G1 Z0.44 F3600000
G1 X48.244 Y107.182
G1 Z0.24
G1 E1.5 F3000
M107
G1 F2400
G1 X48.324 Y107.179 E0.0028
G1 X48.862 Y107.006 E0.01964
G1 X49.35 Y106.687 E0.02028
G1 X49.761 Y106.209 E0.02191
G1 X49.989 Y105.732 E0.0184
G1 X50.099 Y105.162 E0.0202
G1 X50.054 Y104.583 E0.0202
G1 X49.857 Y104.034 E0.02025
G1 X49.523 Y103.56 E0.02018
G1 X49.077 Y103.191 E0.02013
G1 X48.545 Y102.951 E0.02031
G1 X47.909 Y102.86 E0.02233
G1 X47.401 Y102.923 E0.01779
G1 X46.856 Y103.14 E0.02041
G1 X46.392 Y103.489 E0.0202
G1 X46.036 Y103.951 E0.02027
G1 X45.805 Y104.529 E0.02165
G1 X45.743 Y105.058 E0.01851
G1 X45.776 Y105.413 E0.01242
G1 X45.924 Y105.906 E0.01788
G1 X46.228 Y106.408 E0.02041
G1 X46.65 Y106.807 E0.0202
G1 X47.187 Y107.087 E0.02108
G1 X47.674 Y107.203 E0.0174
G1 X48.184 Y107.184 E0.01773
M107
;WIPE_START
G1 X48.456 Y107.521 F3600000
;WIPE_END
G1 E-1.5 F3000
G1 Z0.44 F3600000
G1 X72.639 Y132.591
G1 Z0.24
G1 E1.5 F3000
M107
G1 F2400
G1 X74.202 Y132.591 E0.05432
G1 X74.701 Y132.495 E0.01769
G1 X75.042 Y132.327 E0.0132
G1 X75.407 Y131.974 E0.01766
G1 X75.601 Y131.649 E0.01317
G1 X75.7 Y131.313 E0.01218
G1 X75.725 Y130.37 E0.03282
G1 X75.663 Y130.231 E0.00527
G1 X74.121 Y128.937 E0.07
G1 X75.663 Y127.644 E0.07
G1 X75.725 Y127.511 E0.00508
G1 X75.725 Y125.766 E0.06068
G1 X75.663 Y125.633 E0.00512
G1 X74.121 Y124.339 E0.07
G1 X75.663 Y123.045 E0.07
G1 X75.725 Y122.911 E0.00512
G1 X75.725 Y121.167 E0.06064
G1 X75.663 Y121.034 E0.00512
G1 X74.121 Y119.74 E0.07
G1 X75.663 Y118.446 E0.07
G1 X75.725 Y118.313 E0.00512
G1 X75.725 Y116.569 E0.06064
G1 X75.663 Y116.435 E0.00512
G1 X74.121 Y115.141 E0.07
G1 X75.663 Y113.847 E0.07
G1 X75.725 Y113.714 E0.00512
G1 X75.699 Y112.753 E0.03341
G1 X75.614 Y112.461 E0.01058
G1 X75.441 Y112.147 E0.01246
G1 X75.023 Y111.74 E0.02031
G1 X74.55 Y111.538 E0.01788
G1 X74.184 Y111.487 E0.01284
G1 X72.585 Y111.487 E0.0556
G1 X72.473 Y111.528 E0.00414
G1 X71.144 Y112.643 E0.06033
G1 X69.815 Y111.528 E0.06033
G1 X69.703 Y111.487 E0.00414
G1 X67.105 Y111.487 E0.09035
G1 X66.993 Y111.528 E0.00414
G1 X65.664 Y112.643 E0.06033
G1 X64.335 Y111.528 E0.06033
G1 X64.223 Y111.487 E0.00414
G1 X61.624 Y111.487 E0.09035
G1 X61.512 Y111.528 E0.00414
G1 X60.183 Y112.643 E0.06033
G1 X58.854 Y111.528 E0.06033
G1 X58.742 Y111.487 E0.00414
G1 X56.144 Y111.487 E0.09035
G1 X56.032 Y111.528 E0.00414
G1 X54.703 Y112.643 E0.06033
G1 X53.373 Y111.528 E0.06033
G1 X53.261 Y111.487 E0.00414
G1 X52.105 Y111.487 E0.04019
G1 X51.387 Y111.514 E0.02499
G1 X51.095 Y111.599 E0.01058
G1 X50.836 Y111.734 E0.01017
G1 X50.588 Y111.93 E0.011
G1 X50.393 Y112.161 E0.01051
G1 X50.246 Y112.43 E0.01065
G1 X50.147 Y112.766 E0.01218
G1 X50.121 Y113.709 E0.03282
G1 X50.156 Y113.818 E0.00399
G1 X51.726 Y115.141 E0.07138
G1 X50.184 Y116.435 E0.07
G1 X50.121 Y116.569 E0.00512
G1 X50.121 Y118.296 E0.06007
G1 X50.184 Y118.446 E0.00564
G1 X51.726 Y119.74 E0.07
G1 X50.184 Y121.034 E0.07
G1 X50.121 Y121.167 E0.00512
G1 X50.121 Y122.911 E0.06064
G1 X50.184 Y123.045 E0.00512
G1 X51.726 Y124.339 E0.07
G1 X50.184 Y125.633 E0.07
G1 X50.121 Y125.766 E0.00512
G1 X50.121 Y127.51 E0.06064
G1 X50.184 Y127.644 E0.00512
G1 X51.726 Y128.937 E0.07
G1 X50.184 Y130.231 E0.07
G1 X50.121 Y130.365 E0.00512
G1 X50.148 Y131.325 E0.03341
G1 X50.233 Y131.618 E0.01058
G1 X50.374 Y131.889 E0.01065
G1 X50.549 Y132.107 E0.00971
G1 X50.795 Y132.32 E0.01131
G1 X51.048 Y132.459 E0.01003
G1 X51.354 Y132.558 E0.01119
G1 X51.662 Y132.591 E0.01079
G1 X53.231 Y132.591 E0.05456
G1 X53.373 Y132.551 E0.00514
G1 X54.703 Y131.435 E0.06033
G1 X56.032 Y132.551 E0.06033
G1 X56.143 Y132.591 E0.00413
G1 X58.742 Y132.591 E0.09036
G1 X58.854 Y132.551 E0.00414
G1 X60.183 Y131.435 E0.06033
G1 X61.512 Y132.551 E0.06033
G1 X61.624 Y132.591 E0.00414
G1 X64.223 Y132.591 E0.09035
G1 X64.335 Y132.551 E0.00414
G1 X65.664 Y131.435 E0.06033
G1 X66.993 Y132.551 E0.06033
G1 X67.102 Y132.591 E0.00405
G1 X69.703 Y132.591 E0.09045
G1 X69.815 Y132.551 E0.00414
G1 X71.144 Y131.435 E0.06033
G1 X72.473 Y132.551 E0.06033
G1 X72.58 Y132.589 E0.00393
M107
;WIPE_START
G1 X72.811 Y132.953 F3600000
;WIPE_END
G1 E-1.5 F3000
G1 Z0.44 F3600000
G1 X45.571 Y124.901
G1 Z0.24
G1 E1.5 F3000
M107
G1 F2400
G1 X45.617 Y124.902 E0.00158
G1 X46.162 Y124.809 E0.01923
G1 X46.737 Y124.575 E0.0216
G1 X47.252 Y124.222 E0.0217
G1 X47.677 Y123.767 E0.02165
G1 X47.995 Y123.231 E0.02165
G1 X48.189 Y122.64 E0.02165
G1 X48.253 Y122.021 E0.02165
G1 X48.181 Y121.402 E0.02165
G1 X47.979 Y120.813 E0.02165
G1 X47.654 Y120.282 E0.02165
G1 X47.223 Y119.833 E0.02165
G1 X46.705 Y119.487 E0.02165
G1 X46.126 Y119.26 E0.02165
G1 X45.51 Y119.163 E0.02165
G1 X44.889 Y119.201 E0.02165
G1 X44.29 Y119.372 E0.02165
G1 X43.742 Y119.667 E0.02165
G1 X43.27 Y120.073 E0.02165
G1 X42.897 Y120.571 E0.02165
G1 X42.639 Y121.138 E0.02165
G1 X42.509 Y121.747 E0.02165
G1 X42.513 Y122.369 E0.02165
G1 X42.651 Y122.977 E0.02165
G1 X42.916 Y123.54 E0.02165
G1 X43.296 Y124.033 E0.02165
G1 X43.773 Y124.433 E0.02165
G1 X44.325 Y124.721 E0.02165
G1 X44.926 Y124.884 E0.02165
G1 X45.511 Y124.899 E0.02036
M107
;WIPE_START
G1 X45.762 Y125.253 F3600000
;WIPE_END
G1 E-1.5 F3000
G1 Z0.44 F3600000
G1 X52.334 Y142.593
G1 Z0.24
G1 E1.5 F3000
M107
G1 F2400
G1 X52.418 Y142.594 E0.00295
G1 X52.912 Y142.509 E0.01741
G1 X53.489 Y142.274 E0.02165
G1 X54.002 Y141.922 E0.02165
G1 X54.427 Y141.467 E0.02165
G1 X54.745 Y140.931 E0.02165
G1 X54.939 Y140.34 E0.02165
G1 X55.003 Y139.721 E0.02165
G1 X54.931 Y139.102 E0.02165
G1 X54.729 Y138.513 E0.02165
G1 X54.404 Y137.982 E0.02165
G1 X53.973 Y137.533 E0.02165
G1 X53.455 Y137.187 E0.02165
G1 X52.876 Y136.96 E0.02165
G1 X52.26 Y136.863 E0.02165
G1 X51.639 Y136.901 E0.02165
G1 X51.04 Y137.072 E0.02165
G1 X50.492 Y137.367 E0.02165
G1 X50.02 Y137.773 E0.02165
G1 X49.647 Y138.271 E0.02165
G1 X49.389 Y138.838 E0.02165
G1 X49.259 Y139.447 E0.02165
G1 X49.263 Y140.069 E0.02165
G1 X49.401 Y140.677 E0.02165
G1 X49.666 Y141.24 E0.02165
M73 P1 R68
G1 X50.046 Y141.733 E0.02165
G1 X50.523 Y142.133 E0.02165
G1 X51.117 Y142.433 E0.02312
G1 X51.676 Y142.584 E0.02015
G1 X52.274 Y142.592 E0.02078
M107
;WIPE_START
G1 X52.529 Y142.942 F3600000
;WIPE_END
G1 E-1.5 F3000
G1 Z0.44 F3600000
G1 X57.626 Y152.197
G1 Z0.24
G1 E1.5 F3000
M107
G1 F2400
G1 X58.091 Y152.114 E0.01643
G1 X58.615 Y151.863 E0.0202
G1 X59.056 Y151.482 E0.02027
G1 X59.379 Y151 E0.02017
G1 X59.563 Y150.453 E0.02009
G1 X59.598 Y149.929 E0.01824
G1 X59.456 Y149.268 E0.02351
G1 X59.194 Y148.768 E0.01963
G1 X58.845 Y148.387 E0.01797
G1 X58.509 Y148.15 E0.0143
G1 X58.031 Y147.95 E0.01803
G1 X57.417 Y147.86 E0.02158
G1 X56.901 Y147.923 E0.01806
G1 X56.356 Y148.14 E0.02041
G1 X55.892 Y148.489 E0.0202
G1 X55.536 Y148.951 E0.02027
G1 X55.305 Y149.529 E0.02165
G1 X55.244 Y150.061 E0.01862
G1 X55.317 Y150.594 E0.01871
G1 X55.56 Y151.17 E0.02173
G1 X55.925 Y151.622 E0.0202
G1 X56.399 Y151.962 E0.0203
G1 X57.002 Y152.176 E0.02223
G1 X57.519 Y152.216 E0.01806
G1 X57.567 Y152.208 E0.00168
M107
;WIPE_START
G1 X57.884 Y152.503 F3600000
;WIPE_END
G1 E-1.5 F3000
G1 Z0.44 F3600000
G1 X68.626 Y152.197
G1 Z0.24
G1 E1.5 F3000
M107
G1 F2400
G1 X69.091 Y152.114 E0.01643
G1 X69.615 Y151.863 E0.0202
G1 X70.056 Y151.482 E0.02027
G1 X70.379 Y151 E0.02017
G1 X70.563 Y150.453 E0.02009
G1 X70.598 Y149.929 E0.01824
G1 X70.473 Y149.301 E0.02228
G1 X70.187 Y148.759 E0.02131
G1 X69.845 Y148.387 E0.01757
G1 X69.509 Y148.15 E0.0143
G1 X69.049 Y147.952 E0.01742
G1 X68.416 Y147.86 E0.02224
G1 X67.901 Y147.923 E0.01802
G1 X67.356 Y148.14 E0.02041
G1 X66.892 Y148.489 E0.0202
G1 X66.522 Y148.985 E0.0215
G1 X66.305 Y149.529 E0.02037
G1 X66.244 Y150.061 E0.01862
G1 X66.317 Y150.594 E0.01871
G1 X66.56 Y151.17 E0.02173
G1 X66.925 Y151.622 E0.0202
G1 X67.399 Y151.962 E0.0203
G1 X68.002 Y152.176 E0.02223
G1 X68.519 Y152.216 E0.01806
G1 X68.567 Y152.208 E0.00168
M107
;WIPE_START
G1 X68.884 Y152.503 F3600000
;WIPE_END
G1 E-1.5 F3000
G1 Z0.44 F3600000
G1 X73.929 Y142.607
G1 Z0.24
G1 E1.5 F3000
M107
G1 F2400
G1 X74.569 Y142.486 E0.02266
G1 X75.089 Y142.274 E0.01949
G1 X75.602 Y141.922 E0.02165
G1 X76.027 Y141.467 E0.02165
G1 X76.345 Y140.931 E0.02165
G1 X76.539 Y140.34 E0.02165
G1 X76.603 Y139.721 E0.02165
G1 X76.531 Y139.102 E0.02165
G1 X76.329 Y138.513 E0.02165
G1 X76.004 Y137.982 E0.02165
G1 X75.507 Y137.488 E0.02436
G1 X75.047 Y137.183 E0.0192
G1 X74.476 Y136.96 E0.02133
G1 X73.86 Y136.863 E0.02165
G1 X73.175 Y136.919 E0.02391
G1 X72.64 Y137.072 E0.01934
G1 X72.092 Y137.367 E0.02165
G1 X71.62 Y137.773 E0.02165
G1 X71.247 Y138.271 E0.02165
G1 X70.989 Y138.838 E0.02165
G1 X70.859 Y139.447 E0.02165
G1 X70.863 Y140.069 E0.02165
G1 X71.001 Y140.677 E0.02165
G1 X71.266 Y141.24 E0.02165
G1 X71.646 Y141.733 E0.02165
G1 X72.123 Y142.133 E0.02165
G1 X72.675 Y142.421 E0.02165
G1 X73.276 Y142.584 E0.02165
G1 X73.87 Y142.612 E0.02067
M107
;WIPE_START
G1 X74.167 Y142.929 F3600000
;WIPE_END
G1 E-1.5 F3000
G1 Z0.44 F3600000
G1 X80.379 Y155.161
G1 Z0.24
G1 E1.5 F3000
M107
G1 F2400
G1 X80.641 Y155.114 E0.00926
G1 X81.165 Y154.863 E0.0202
G1 X81.606 Y154.482 E0.02027
G1 X81.929 Y154 E0.02017
G1 X82.113 Y153.453 E0.02009
G1 X82.148 Y152.929 E0.01824
G1 X82.023 Y152.301 E0.02228
G1 X81.732 Y151.753 E0.02158
G1 X81.364 Y151.361 E0.01868
G1 X80.911 Y151.074 E0.01865
G1 X80.358 Y150.895 E0.02023
G1 X79.972 Y150.861 E0.01347
G1 X79.451 Y150.923 E0.01824
G1 X78.906 Y151.14 E0.02041
G1 X78.442 Y151.489 E0.0202
G1 X78.086 Y151.951 E0.02027
G1 X77.855 Y152.529 E0.02165
G1 X77.794 Y153.061 E0.01862
G1 X77.867 Y153.594 E0.01871
G1 X78.11 Y154.17 E0.02173
G1 X78.475 Y154.622 E0.0202
G1 X78.947 Y154.961 E0.0202
G1 X79.49 Y155.164 E0.02016
G1 X80.067 Y155.217 E0.02018
G1 X80.32 Y155.171 E0.00892
M107
;WIPE_START
G1 X80.637 Y155.466 F3600000
;WIPE_END
G1 E-1.5 F3000
G1 Z0.44 F3600000
G1 X80.66 Y124.911
G1 Z0.24
G1 E1.5 F3000
M107
G1 F2400
G1 X81.262 Y124.809 E0.02122
G1 X81.837 Y124.575 E0.0216
G1 X82.352 Y124.222 E0.0217
G1 X82.777 Y123.767 E0.02165
G1 X83.095 Y123.231 E0.02165
G1 X83.289 Y122.64 E0.02165
G1 X83.353 Y122.021 E0.02165
G1 X83.281 Y121.402 E0.02165
G1 X83.079 Y120.813 E0.02165
G1 X82.754 Y120.282 E0.02165
G1 X82.323 Y119.833 E0.02165
G1 X81.805 Y119.487 E0.02165
G1 X81.226 Y119.26 E0.02165
G1 X80.61 Y119.163 E0.02165
G1 X79.989 Y119.201 E0.02165
G1 X79.39 Y119.372 E0.02165
G1 X78.775 Y119.723 E0.02464
G1 X78.37 Y120.073 E0.0186
G1 X77.997 Y120.571 E0.02165
G1 X77.739 Y121.138 E0.02165
G1 X77.609 Y121.747 E0.02165
G1 X77.613 Y122.369 E0.02165
G1 X77.751 Y122.977 E0.02165
G1 X78.016 Y123.54 E0.02165
G1 X78.396 Y124.033 E0.02165
G1 X78.873 Y124.433 E0.02165
G1 X79.425 Y124.721 E0.02165
G1 X80.026 Y124.884 E0.02165
G1 X80.6 Y124.911 E0.01999
M107
;WIPE_START
G1 X80.893 Y125.236 F3600000
;WIPE_END
G1 E-1.5 F3000
G1 Z0.44 F3600000
G1 X78.362 Y107.155
G1 Z0.24
G1 E1.5 F3000
M107
G1 F2400
G1 X78.591 Y107.114 E0.00808
G1 X79.115 Y106.863 E0.0202
G1 X79.556 Y106.482 E0.02027
G1 X79.879 Y106 E0.02017
G1 X80.063 Y105.453 E0.02009
G1 X80.098 Y104.929 E0.01824
G1 X79.973 Y104.301 E0.02228
G1 X79.708 Y103.791 E0.02
G1 X79.345 Y103.387 E0.01887
G1 X79.009 Y103.15 E0.0143
G1 X78.549 Y102.952 E0.01742
G1 X77.909 Y102.86 E0.02248
G1 X77.401 Y102.923 E0.01779
G1 X76.856 Y103.14 E0.02041
G1 X76.392 Y103.489 E0.0202
G1 X76.036 Y103.951 E0.02027
G1 X75.805 Y104.529 E0.02165
G1 X75.744 Y105.061 E0.01862
G1 X75.817 Y105.594 E0.01871
G1 X76.06 Y106.17 E0.02173
G1 X76.425 Y106.622 E0.0202
G1 X76.899 Y106.962 E0.0203
G1 X77.502 Y107.176 E0.02223
G1 X78.019 Y107.216 E0.01806
G1 X78.303 Y107.165 E0.01003
M107
;WIPE_START
G1 X78.62 Y107.46 F3600000
;WIPE_END
G1 E-1.5 F3000
G1 Z0.44 F3600000
G1 X63.016 Y108.288
G1 Z0.24
G1 E1.5 F3000
M107
G1 F2400
G1 X63.454 Y108.22 E0.01542
G1 X63.867 Y108.06 E0.01542
G1 X64.236 Y107.814 E0.01542
G1 X64.544 Y107.495 E0.01542
G1 X64.776 Y107.117 E0.01542
G1 X64.931 Y106.652 E0.01705
G1 X64.962 Y106.039 E0.02133
G1 X64.856 Y105.558 E0.01714
G1 X64.567 Y105.017 E0.02133
G1 X64.265 Y104.689 E0.01551
G1 X63.9 Y104.437 E0.01542
G1 X63.49 Y104.269 E0.01542
G1 X63.013 Y104.193 E0.01681
G1 X62.403 Y104.257 E0.02133
G1 X61.98 Y104.419 E0.01575
G1 X61.61 Y104.665 E0.01542
G1 X61.303 Y104.984 E0.01542
G1 X61.052 Y105.405 E0.01705
G1 X60.889 Y105.996 E0.02133
