; generated by SuperSlicer 2.5.59.8 on 2024-03-17 at 23:12:50 UTC


;
;

;
;

;
;

;
;

;
;
; 

; external perimeters extrusion width = 0.40mm
; perimeters extrusion width = 0.40mm
; infill extrusion width = 0.40mm
; solid infill extrusion width = 0.40mm
; top infill extrusion width = 0.40mm

; object:{"name":"a_EVA_FrontPlate_HD_V-1-1","id":"a_EVA_FrontPlate_HD_V-1-1.stl id:0 copy 0","object_center":[96.126409,115.885428,0.000000],"boundingbox_center":[96.126409,115.885428,4.000000],"boundingbox_size":[44.100002,57.000000,8.000000]}
EXCLUDE_OBJECT_DEFINE NAME=a_EVA_FrontPlate_HD_V_1_1_stl_id_0_copy_0 CENTER=96.126409,115.885428 POLYGON=[[74.08,89.39],[76.08,87.39],[116.18,87.39],[118.18,89.39],[118.18,143.39],[117.18,144.39],[75.08,144.39],[74.08,143.39],[74.08,89.39]]
; plater:{"center":[96.126409,115.885428,0.000000],"boundingbox_center":[96.126409,115.885428,4.000000],"boundingbox_size":[44.100002,57.000000,8.000000]}

M73 P0 R69
M107
;TYPE:Custom
CALCULATE_PA MATERIAL=PLA BOWDEN_LENGTH=6 LAYER_HEIGHT=0.24 NOZZLE_SIZE=0.4 PRINT_SPEED=95


START_PRINT EXTRUDER=270 BED=105

M107
G21 ; set units to millimeters
G90 ; use absolute coordinates
M83 ; use relative distances for extrusion
ACTIVATE_EXTRUDER EXTRUDER=extruder
; Filament gcode
M104 S270 T0 ; set temperature
M109 S270 T0 ; set temperature and wait for it to be reached
M190 S105 ; set bed temperature and wait for it to be reached
;LAYER_CHANGE
;Z:0.24
;HEIGHT:0.24
;BEFORE_LAYER_CHANGE
G92 E0.0

G1 E-1.5 F3000
G1 Z0.2 F3600000
G1 Z0.24
;AFTER_LAYER_CHANGE
;0.24




CALCULATE_PA MATERIAL=PLA BOWDEN_LENGTH=6.0 LAYER_HEIGHT=0.2 NOZZLE_SIZE=0.4 PRINT_SPEED=95


G92 E0
G1 Z0.44
G1 X73.229 Y83.676
G1 Z0.24
G1 E1.5 F3000
;TYPE:Skirt
;WIDTH:0.4
M107
G1 F2400
G1 X74.429 Y83.009 E0.04775
G1 X75.753 Y82.711 E0.0472
G1 X116.509 Y82.714 E1.41721
G1 X117.807 Y83.004 E0.04623
G1 X118.972 Y83.634 E0.04609
G1 X121.71 Y86.307 E0.13302
G1 X122.493 Y87.59 E0.05229
G1 X122.851 Y89.093 E0.05372
G1 X122.851 Y143.649 E1.89709
G1 X122.637 Y144.79 E0.04037
G1 X122.161 Y145.846 E0.0403
G1 X120.035 Y148.093 E0.10755
G1 X119.111 Y148.638 E0.0373
G1 X118.03 Y148.988 E0.03953
G1 X110.853 Y149.061 E0.24956
G1 X109.499 Y148.769 E0.04818
G1 X108.166 Y148.012 E0.05331
G1 X105.192 Y145.06 E0.14569
G1 X87.063 Y145.06 E0.63042
G1 X84.169 Y147.954 E0.1423
G1 X82.342 Y148.911 E0.07174
G1 X81.366 Y149.06 E0.03431
G1 X74.812 Y149.06 E0.2279
G1 X73.629 Y148.832 E0.04191
G1 X72.573 Y148.343 E0.04045
G1 X72.431 Y148.238 E0.00616
G1 X70.215 Y146.033 E0.1087
G1 X69.673 Y144.95 E0.0421
G1 X69.402 Y143.708 E0.04423
G1 X69.402 Y89.064 E1.90014
G1 X69.667 Y87.841 E0.0435
G1 X70.151 Y86.829 E0.03902
G1 X73.187 Y83.719 E0.15111
M107
G1 X73.421 Y83.968 F3600000
M107
G1 F2400
G1 X74.531 Y83.343 E0.04428
G1 X75.773 Y83.059 E0.04429
G1 X116.49 Y83.063 E1.41585
G1 X117.706 Y83.338 E0.04336
G1 X118.784 Y83.929 E0.04274
G1 X121.45 Y86.54 E0.12978
G1 X122.181 Y87.747 E0.04906
G1 X122.503 Y89.113 E0.0488
G1 X122.503 Y143.633 E1.89583
G1 X122.311 Y144.666 E0.03653
G1 X121.855 Y145.677 E0.03855
G1 X119.836 Y147.806 E0.10204
G1 X118.984 Y148.314 E0.0345
G1 X117.999 Y148.64 E0.03607
G1 X110.869 Y148.713 E0.24793
G1 X109.599 Y148.434 E0.04522
G1 X108.395 Y147.748 E0.04819
G1 X105.336 Y144.712 E0.14988
G1 X86.918 Y144.712 E0.64043
G1 X83.941 Y147.689 E0.1464
G1 X82.26 Y148.571 E0.06604
G1 X81.353 Y148.712 E0.03191
G1 X74.829 Y148.712 E0.22686
G1 X73.755 Y148.507 E0.038
G1 X72.764 Y148.051 E0.03795
G1 X72.666 Y147.981 E0.00417
G1 X70.513 Y145.85 E0.10533
G1 X70.008 Y144.854 E0.03885
G1 X69.75 Y143.689 E0.0415
G1 X69.75 Y89.083 E1.89882
G1 X70.003 Y87.936 E0.04082
G1 X70.453 Y87.006 E0.03592
G1 X73.379 Y84.011 E0.14562
M107
G1 X73.615 Y84.259 F3600000
M107
G1 F2400
G1 X74.635 Y83.677 E0.04081
G1 X75.793 Y83.408 E0.04134
G1 X116.47 Y83.411 E1.41449
G1 X117.56 Y83.656 E0.03883
G1 X118.595 Y84.223 E0.04105
G1 X121.19 Y86.774 E0.12653
G1 X121.848 Y87.855 E0.04401
G1 X122.154 Y89.133 E0.04572
G1 X122.154 Y143.617 E1.89455
G1 X121.972 Y144.58 E0.03411
G1 X121.55 Y145.506 E0.03536
G1 X119.636 Y147.519 E0.09661
G1 X118.853 Y147.99 E0.03176
G1 X117.968 Y148.292 E0.03255
G1 X110.886 Y148.364 E0.24626
G1 X109.701 Y148.1 E0.04223
G1 X108.624 Y147.485 E0.0431
G1 X105.48 Y144.363 E0.15408
G1 X86.774 Y144.363 E0.65045
G1 X83.714 Y147.424 E0.1505
G1 X82.177 Y148.231 E0.06035
G1 X81.339 Y148.363 E0.0295
G1 X74.845 Y148.363 E0.22582
G1 X73.881 Y148.181 E0.03412
G1 X72.949 Y147.755 E0.03563
G1 X72.9 Y147.722 E0.00207
G1 X70.81 Y145.666 E0.10191
G1 X70.343 Y144.756 E0.03559
G1 X70.099 Y143.669 E0.03872
G1 X70.099 Y89.102 E1.89748
G1 X70.339 Y88.032 E0.03811
G1 X70.754 Y87.184 E0.03283
G1 X73.573 Y84.301 E0.14022
M107
G1 X73.809 Y84.549 F3600000
M107
G1 F2400
G1 X74.785 Y83.992 E0.03908
G1 X75.812 Y83.756 E0.03665
G1 X116.451 Y83.76 E1.41312
G1 X117.458 Y83.99 E0.03594
G1 X118.406 Y84.516 E0.03768
G1 X120.93 Y87.006 E0.12332
G1 X121.536 Y88.011 E0.0408
G1 X121.806 Y89.154 E0.04082
G1 X121.806 Y143.6 E1.89327
G1 X121.634 Y144.494 E0.03165
G1 X121.246 Y145.333 E0.03216
G1 X119.436 Y147.233 E0.09122
G1 X118.69 Y147.681 E0.03028
G1 X117.883 Y147.953 E0.02962
G1 X110.903 Y148.015 E0.24271
G1 X109.803 Y147.766 E0.03921
G1 X108.818 Y147.195 E0.03959
G1 X105.623 Y144.015 E0.15675
G1 X86.63 Y144.015 E0.66047
G1 X83.486 Y147.159 E0.15461
G1 X82.094 Y147.892 E0.05469
G1 X81.326 Y148.015 E0.02707
G1 X74.862 Y148.015 E0.22477
M73 P1 R69
G1 X73.968 Y147.843 E0.03166
G1 X73.122 Y147.452 E0.03239
G1 X71.107 Y145.481 E0.09801
G1 X70.678 Y144.656 E0.03233
G1 X70.447 Y143.65 E0.03591
G1 X70.447 Y89.121 E1.89611
G1 X70.674 Y88.13 E0.03536
G1 X71.054 Y87.364 E0.02975
G1 X73.767 Y84.592 E0.13486
M107
G1 X74.004 Y84.839 F3600000
M107
G1 F2400
G1 X74.89 Y84.326 E0.0356
G1 X75.832 Y84.105 E0.03367
G1 X116.431 Y84.108 E1.41173
G1 X117.355 Y84.324 E0.033
G1 X118.214 Y84.808 E0.0343
G1 X120.669 Y87.239 E0.12013
G1 X121.223 Y88.167 E0.03758
G1 X121.457 Y89.174 E0.03595
G1 X121.457 Y143.583 E1.89199
G1 X121.296 Y144.406 E0.02915
G1 X120.942 Y145.16 E0.02895
G1 X119.237 Y146.946 E0.08588
G1 X118.527 Y147.373 E0.0288
G1 X117.799 Y147.613 E0.02667
G1 X110.921 Y147.667 E0.23918
G1 X109.908 Y147.432 E0.03615
G1 X109.014 Y146.905 E0.03607
G1 X105.767 Y143.666 E0.15948
G1 X86.485 Y143.666 E0.6705
G1 X83.258 Y146.894 E0.15872
G1 X82.01 Y147.552 E0.04905
G1 X81.311 Y147.666 E0.02462
G1 X74.879 Y147.666 E0.22369
G1 X74.056 Y147.505 E0.02916
G1 X73.297 Y147.149 E0.02914
G1 X71.402 Y145.294 E0.09218
G1 X71.012 Y144.555 E0.02907
G1 X70.796 Y143.63 E0.03305
G1 X70.796 Y89.141 E1.89472
G1 X71.009 Y88.229 E0.03257
G1 X71.353 Y87.544 E0.02667
G1 X73.962 Y84.882 E0.12962
M107
G1 X74.201 Y85.128 F3600000
M107
G1 F2400
G1 X74.996 Y84.659 E0.03211
G1 X75.853 Y84.453 E0.03063
G1 X116.41 Y84.457 E1.41031
G1 X117.25 Y84.657 E0.03001
G1 X118.021 Y85.099 E0.03091
G1 X120.408 Y87.471 E0.11701
G1 X120.89 Y88.273 E0.03255
G1 X121.109 Y89.194 E0.03291
G1 X121.109 Y143.567 E1.89071
G1 X120.971 Y144.277 E0.02517
G1 X120.639 Y144.986 E0.02722
G1 X119.037 Y146.659 E0.08054
G1 X118.365 Y147.064 E0.0273
G1 X117.717 Y147.274 E0.02367
G1 X110.939 Y147.318 E0.23568
G1 X110.014 Y147.099 E0.03305
G1 X109.212 Y146.618 E0.03254
G1 X105.912 Y143.318 E0.16228
G1 X86.341 Y143.318 E0.68054
G1 X83.03 Y146.629 E0.16283
G1 X81.926 Y147.213 E0.04344
G1 X81.297 Y147.318 E0.02215
G1 X74.895 Y147.318 E0.22261
G1 X74.184 Y147.18 E0.02518
G1 X73.472 Y146.846 E0.02737
G1 X71.697 Y145.106 E0.08641
G1 X71.346 Y144.452 E0.02582
G1 X71.144 Y143.609 E0.03014
G1 X71.144 Y89.162 E1.89329
G1 X71.343 Y88.331 E0.02972
G1 X71.651 Y87.726 E0.02359
G1 X74.159 Y85.17 E0.12451
M107
G1 X74.399 Y85.415 F3600000
M107
G1 F2400
G1 X75.105 Y84.991 E0.02863
G1 X75.874 Y84.802 E0.02754
G1 X116.389 Y84.805 E1.40885
G1 X117.142 Y84.989 E0.02696
G1 X117.826 Y85.389 E0.02753
G1 X120.147 Y87.702 E0.11394
G1 X120.577 Y88.428 E0.02934
G1 X120.76 Y89.214 E0.02807
G1 X120.76 Y143.55 E1.88942
M73 P1 R68
G1 X120.634 Y144.188 E0.02264
G1 X120.336 Y144.811 E0.02398
G1 X118.838 Y146.372 E0.07526
G1 X118.203 Y146.755 E0.02579
G1 X117.637 Y146.933 E0.02063
G1 X110.958 Y146.969 E0.23225
G1 X110.169 Y146.786 E0.02817
G1 X109.443 Y146.356 E0.02935
G1 X106.056 Y142.969 E0.16654
G1 X86.197 Y142.969 E0.69058
G1 X82.802 Y146.364 E0.16695
G1 X81.84 Y146.874 E0.03787
G1 X81.282 Y146.969 E0.01965
G1 X74.912 Y146.969 E0.22151
G1 X74.273 Y146.843 E0.02265
G1 X73.648 Y146.544 E0.0241
G1 X71.99 Y144.917 E0.08077
G1 X71.679 Y144.347 E0.02258
G1 X71.493 Y143.588 E0.02717
G1 X71.493 Y89.183 E1.89183
G1 X71.676 Y88.434 E0.02682
G1 X71.949 Y87.91 E0.02052
G1 X74.357 Y85.458 E0.11953
M107
G1 X74.6 Y85.701 F3600000
M107
G1 F2400
G1 X75.216 Y85.322 E0.02515
G1 X75.895 Y85.15 E0.02437
G1 X116.368 Y85.154 E1.40735
G1 X117.033 Y85.321 E0.02384
G1 X117.629 Y85.677 E0.02414
G1 X119.885 Y87.933 E0.11094
G1 X120.244 Y88.535 E0.02436
G1 X120.412 Y89.234 E0.02502
G1 X120.412 Y143.532 E1.88809
G1 X120.297 Y144.097 E0.02005
G1 X120.035 Y144.634 E0.02075
G1 X118.639 Y146.086 E0.07005
G1 X118.041 Y146.445 E0.02425
G1 X117.559 Y146.593 E0.01753
G1 X110.977 Y146.621 E0.22888
G1 X110.276 Y146.453 E0.02509
G1 X109.674 Y146.094 E0.02437
G1 X106.201 Y142.621 E0.17081
G1 X86.052 Y142.621 E0.70062
G1 X82.574 Y146.099 E0.17107
G1 X81.752 Y146.536 E0.03234
G1 X81.267 Y146.621 E0.01712
G1 X74.93 Y146.621 E0.22038
G1 X74.365 Y146.506 E0.02006
G1 X73.826 Y146.243 E0.02083
G1 X72.283 Y144.725 E0.07528
G1 X72.011 Y144.239 E0.01934
G1 X71.841 Y143.566 E0.02414
G1 X71.841 Y89.204 E1.89033
G1 X72.009 Y88.539 E0.02385
G1 X72.245 Y88.096 E0.01746
G1 X74.558 Y85.743 E0.11472
M107
G1 X74.805 Y85.988 F3600000
M107
G1 F2400
G1 X74.833 Y85.96 E0.00137
G1 X75.329 Y85.653 E0.0203
G1 X75.918 Y85.499 E0.02115
G1 X116.346 Y85.502 E1.40583
G1 X116.878 Y85.634 E0.01905
G1 X117.398 Y85.939 E0.02096
G1 X119.623 Y88.164 E0.10939
G1 X119.93 Y88.688 E0.02114
G1 X120.063 Y89.255 E0.02023
G1 X120.063 Y143.514 E1.88676
G1 X119.96 Y144.004 E0.0174
G1 X119.735 Y144.454 E0.0175
G1 X118.405 Y145.826 E0.06647
G1 X117.883 Y146.134 E0.02107
G1 X117.484 Y146.252 E0.01445
G1 X110.997 Y146.272 E0.2256
G1 X110.429 Y146.139 E0.02027
G1 X109.905 Y145.832 E0.02114
G1 X106.345 Y142.272 E0.17505
G1 X85.908 Y142.272 E0.71066
G1 X82.345 Y145.835 E0.17519
G1 X81.664 Y146.198 E0.02686
G1 X81.252 Y146.272 E0.01456
G1 X74.948 Y146.272 E0.21921
G1 X74.458 Y146.169 E0.0174
G1 X74.007 Y145.943 E0.01755
G1 X72.573 Y144.531 E0.06998
G1 X72.343 Y144.129 E0.01612
G1 X72.19 Y143.544 E0.02102
G1 X72.19 Y89.227 E1.88878
G1 X72.341 Y88.648 E0.0208
G1 X72.539 Y88.284 E0.01441
G1 X74.763 Y86.031 E0.11009
M107
G1 X75.011 Y86.276 F3600000
M107
G1 F2400
G1 X75.067 Y86.22 E0.00276
G1 X75.446 Y85.982 E0.01556
G1 X75.941 Y85.847 E0.01785
G1 X116.325 Y85.851 E1.40429
G1 X116.726 Y85.949 E0.01435
G1 X117.168 Y86.202 E0.01771
G1 X119.36 Y88.394 E0.10778
G1 X119.615 Y88.839 E0.01784
G1 X119.715 Y89.274 E0.01553
G1 X119.715 Y143.496 E1.88546
G1 X119.637 Y143.873 E0.01337
G1 X119.465 Y144.232 E0.01383
G1 X118.172 Y145.566 E0.06463
G1 X117.728 Y145.821 E0.01779
G1 X117.413 Y145.91 E0.01139
G1 X111.016 Y145.924 E0.22244
G1 X110.58 Y145.824 E0.01555
G1 X110.135 Y145.569 E0.01784
G1 X106.489 Y141.924 E0.17926
G1 X85.764 Y141.924 E0.72069
G1 X82.117 Y145.57 E0.17931
G1 X81.573 Y145.86 E0.02144
G1 X81.235 Y145.924 E0.01195
G1 X74.966 Y145.924 E0.21802
G1 X74.589 Y145.846 E0.01337
G1 X74.23 Y145.674 E0.01384
G1 X72.862 Y144.334 E0.0666
G1 X72.673 Y144.015 E0.0129
G1 X72.538 Y143.521 E0.0178
G1 X72.538 Y89.25 E1.88717
G1 X72.671 Y88.76 E0.01765
G1 X72.831 Y88.475 E0.01137
G1 X74.968 Y86.319 E0.10556
M107
G1 X75.215 Y86.564 F3600000
M107
G1 F2400
G1 X75.3 Y86.479 E0.00417
G1 X75.566 Y86.31 E0.01096
G1 X75.965 Y86.196 E0.01445
G1 X116.305 Y86.199 E1.40272
G1 X116.578 Y86.265 E0.00977
G1 X116.939 Y86.466 E0.01437
G1 X119.096 Y88.623 E0.10608
G1 X119.298 Y88.986 E0.01445
G1 X119.366 Y89.293 E0.01095
G1 X119.366 Y143.477 E1.88414
G1 X119.301 Y143.778 E0.01068
G1 X119.165 Y144.053 E0.01067
G1 X117.94 Y145.304 E0.06089
G1 X117.578 Y145.506 E0.01442
G1 X117.345 Y145.567 E0.00835
G1 X111.035 Y145.575 E0.21945
G1 X110.727 Y145.507 E0.01095
G1 X110.364 Y145.305 E0.01445
G1 X106.634 Y141.575 E0.18343
G1 X85.619 Y141.575 E0.73073
G1 X81.889 Y145.305 E0.18343
G1 X81.48 Y145.523 E0.01611
G1 X81.218 Y145.575 E0.00928
G1 X74.984 Y145.575 E0.21678
G1 X74.684 Y145.51 E0.01068
G1 X74.409 Y145.374 E0.01067
G1 X73.147 Y144.134 E0.06153
G1 X73.001 Y143.896 E0.0097
G1 X72.887 Y143.497 E0.01445
G1 X72.887 Y89.274 E1.88547
G1 X73.001 Y88.877 E0.01437
G1 X73.121 Y88.669 E0.00835
G1 X75.173 Y86.607 E0.10116
M107
G1 X75.42 Y86.853 F3600000
M107
G1 F2400
G1 X75.534 Y86.738 E0.00562
G1 X75.691 Y86.636 E0.00653
G1 X75.991 Y86.544 E0.01091
G1 X116.284 Y86.548 E1.40111
G1 X116.434 Y86.583 E0.00535
G1 X116.711 Y86.73 E0.01091
G1 X118.831 Y88.851 E0.10428
G1 X118.978 Y89.128 E0.01091
G1 X119.018 Y89.312 E0.00653
G1 X119.018 Y143.459 E1.88287
M73 P2 R68
G1 X118.978 Y143.643 E0.00653
G1 X118.865 Y143.874 E0.00894
G1 X117.711 Y145.04 E0.05706
G1 X117.434 Y145.187 E0.01091
G1 X117.284 Y145.223 E0.00535
G1 X111.053 Y145.227 E0.21669
G1 X110.869 Y145.187 E0.00653
G1 X110.592 Y145.04 E0.01091
G1 X106.778 Y141.227 E0.18755
G1 X85.475 Y141.227 E0.74077
G1 X81.661 Y145.04 E0.18755
G1 X81.384 Y145.187 E0.01091
G1 X81.2 Y145.227 E0.00653
G1 X75.003 Y145.227 E0.2155
G1 X74.819 Y145.187 E0.00653
G1 X74.588 Y145.074 E0.00894
G1 X73.429 Y143.928 E0.05666
G1 X73.327 Y143.771 E0.00653
G1 X73.235 Y143.471 E0.01091
G1 X73.235 Y89.3 E1.88367
G1 X73.327 Y89 E0.01091
G1 X73.408 Y88.869 E0.00535
G1 X75.377 Y86.895 E0.09696
M107
G1 X75.623 Y87.142 F3600000
M107
G1 F2400
G1 X75.768 Y86.997 E0.00711
G1 X75.825 Y86.959 E0.00239
G1 X76.02 Y86.893 E0.00715
G1 X116.233 Y86.893 E1.39833
G1 X116.3 Y86.906 E0.00239
G1 X116.485 Y86.997 E0.00715
G1 X118.565 Y89.077 E0.10229
G1 X118.656 Y89.262 E0.00715
G1 X118.669 Y89.329 E0.00239
G1 X118.669 Y143.442 E1.88168
G1 X118.656 Y143.509 E0.00239
G1 X118.565 Y143.694 E0.00715
G1 X117.485 Y144.774 E0.05311
G1 X117.3 Y144.865 E0.00715
G1 X117.233 Y144.878 E0.00239
G1 X111.07 Y144.878 E0.21431
G1 X111.003 Y144.865 E0.00239
G1 X110.818 Y144.774 E0.00715
G1 X106.922 Y140.878 E0.19158
G1 X85.331 Y140.878 E0.75081
G1 X81.435 Y144.774 E0.19158
G1 X81.25 Y144.865 E0.00715
G1 X81.183 Y144.878 E0.00239
G1 X75.02 Y144.878 E0.21431
G1 X74.953 Y144.865 E0.00239
G1 X74.768 Y144.774 E0.00715
G1 X73.688 Y143.694 E0.05311
G1 X73.65 Y143.637 E0.00239
G1 X73.584 Y143.442 E0.00715
G1 X73.584 Y89.329 E1.88168
G1 X73.65 Y89.134 E0.00715
G1 X73.688 Y89.077 E0.00239
G1 X75.581 Y87.184 E0.09309
M107
G1 X75.827 Y87.43 F3600000
M107
G1 F2400
G1 X75.99 Y87.268 E0.008
G1 X76.054 Y87.241 E0.00241
G1 X116.199 Y87.241 E1.39595
G1 X116.263 Y87.268 E0.00241
G1 X118.294 Y89.299 E0.0999
G1 X118.321 Y89.363 E0.00241
G1 X118.321 Y143.408 E1.87929
G1 X118.294 Y143.472 E0.00241
G1 X117.263 Y144.503 E0.05072
G1 X117.199 Y144.53 E0.00241
G1 X111.104 Y144.53 E0.21192
G1 X111.04 Y144.503 E0.00241
G1 X107.067 Y140.53 E0.1954
G1 X85.186 Y140.53 E0.76085
G1 X81.213 Y144.503 E0.1954
G1 X81.149 Y144.53 E0.00241
G1 X75.054 Y144.53 E0.21192
G1 X74.99 Y144.503 E0.00241
G1 X73.959 Y143.472 E0.05072
G1 X73.932 Y143.408 E0.00241
G1 X73.932 Y89.363 E1.87929
G1 X73.959 Y89.299 E0.00241
G1 X75.785 Y87.473 E0.08981
M107
;WIPE_START
G1 F2880000
G1 X73.959 Y89.299 E-0.00256
G1 X73.932 Y89.363 E-0.00007
G1 X73.932 Y143.408 E-0.05348
G1 X73.959 Y143.472 E-0.00007
G1 X74.99 Y144.503 E-0.00144
G1 X75.054 Y144.53 E-0.00007
G1 X81.149 Y144.53 E-0.00603
G1 X81.213 Y144.503 E-0.00007
G1 X85.186 Y140.53 E-0.00556
G1 X107.067 Y140.53 E-0.02165
G1 X111.04 Y144.503 E-0.00556
G1 X111.104 Y144.53 E-0.00007
G1 X117.199 Y144.53 E-0.00603
G1 X117.263 Y144.503 E-0.00007
G1 X118.294 Y143.472 E-0.00144
G1 X118.321 Y143.408 E-0.00007
G1 X118.321 Y89.363 E-0.05348
G1 X118.294 Y89.299 E-0.00007
G1 X116.263 Y87.268 E-0.00284
G1 X116.199 Y87.241 E-0.00007
G1 X76.054 Y87.241 E-0.03973
G1 X75.99 Y87.268 E-0.00007
G1 X75.827 Y87.43 E-0.00023
;WIPE_END
G1 E-1.29927 F3000
G1 Z0.44 F3600000
