; generated by SuperSlicer 2.5.59.8 on 2024-03-29 at 16:16:53 UTC


;
;

;
;

;
;

;
;

;
;
; 

; external perimeters extrusion width = 0.40mm
; perimeters extrusion width = 0.40mm
; infill extrusion width = 0.40mm
; solid infill extrusion width = 0.40mm
; top infill extrusion width = 0.40mm

; object:{"name":"a_EVA_FrontPlate_HD_V-1-1","id":"a_EVA_FrontPlate_HD_V-1-1.stl id:0 copy 0","object_center":[87.500000,110.000000,0.000000],"boundingbox_center":[87.500000,110.000000,4.000000],"boundingbox_size":[44.100002,57.000000,8.000000]}
EXCLUDE_OBJECT_DEFINE NAME=a_EVA_FrontPlate_HD_V_1_1_stl_id_0_copy_0 CENTER=87.500000,110.000000 POLYGON=[[65.45,83.50],[67.45,81.50],[107.55,81.50],[109.55,83.50],[109.55,137.50],[108.55,138.50],[66.45,138.50],[65.45,137.50],[65.45,83.50]]
; plater:{"center":[87.500000,110.000000,0.000000],"boundingbox_center":[87.500000,110.000000,4.000000],"boundingbox_size":[44.100002,57.000000,8.000000]}

M73 P0 R70
M107
;TYPE:Custom
CALCULATE_PA MATERIAL=ABS BOWDEN_LENGTH=6 LAYER_HEIGHT=0.24 NOZZLE_SIZE=0.4 PRINT_SPEED=95


START_PRINT EXTRUDER=270 BED=100

M107
G21 ; set units to millimeters
G90 ; use absolute coordinates
M83 ; use relative distances for extrusion
ACTIVATE_EXTRUDER EXTRUDER=extruder
; Filament gcode
M104 S270 T0 ; set temperature
M109 S270 T0 ; set temperature and wait for it to be reached
M190 S100 ; set bed temperature and wait for it to be reached
;LAYER_CHANGE
;Z:0.24
;HEIGHT:0.24
;BEFORE_LAYER_CHANGE
G92 E0.0

G1 E-1.5 F3000
M73 P0 R69
G1 Z0.2 F3600000
G1 Z0.24
;AFTER_LAYER_CHANGE
;0.24




CALCULATE_PA MATERIAL=ABS BOWDEN_LENGTH=6.0 LAYER_HEIGHT=0.2 NOZZLE_SIZE=0.4 PRINT_SPEED=95


G92 E0
G1 Z0.44
G1 X64.602 Y77.791
G1 Z0.24
G1 E1.5 F3000
;TYPE:Skirt
;WIDTH:0.4
M107
G1 F2400
G1 X65.802 Y77.124 E0.04775
G1 X67.127 Y76.825 E0.0472
G1 X107.883 Y76.829 E1.41721
G1 X109.18 Y77.118 E0.04623
G1 X110.346 Y77.749 E0.04609
G1 X113.083 Y80.421 E0.13302
G1 X113.867 Y81.704 E0.05229
G1 X114.225 Y83.207 E0.05372
G1 X114.225 Y137.764 E1.89709
G1 X114.011 Y138.905 E0.04037
G1 X113.534 Y139.961 E0.0403
G1 X111.408 Y142.207 E0.10755
G1 X110.485 Y142.753 E0.0373
G1 X109.403 Y143.103 E0.03953
G1 X102.227 Y143.176 E0.24956
G1 X100.872 Y142.883 E0.04818
G1 X99.539 Y142.126 E0.05331
G1 X96.566 Y139.175 E0.14569
G1 X78.436 Y139.175 E0.63042
G1 X75.543 Y142.068 E0.1423
G1 X73.715 Y143.026 E0.07174
G1 X72.74 Y143.175 E0.03431
G1 X66.186 Y143.175 E0.2279
G1 X65.003 Y142.947 E0.04191
G1 X63.947 Y142.458 E0.04045
G1 X63.804 Y142.352 E0.00616
G1 X61.589 Y140.147 E0.1087
G1 X61.046 Y139.065 E0.0421
G1 X60.775 Y137.822 E0.04423
G1 X60.775 Y83.178 E1.90014
G1 X61.041 Y81.956 E0.0435
G1 X61.525 Y80.944 E0.03902
G1 X64.56 Y77.834 E0.15111
M107
G1 X64.795 Y78.082 F3600000
M107
G1 F2400
G1 X65.905 Y77.458 E0.04428
G1 X67.146 Y77.174 E0.04429
G1 X107.863 Y77.177 E1.41585
G1 X109.079 Y77.453 E0.04336
G1 X110.158 Y78.043 E0.04274
G1 X112.824 Y80.655 E0.12978
G1 X113.555 Y81.862 E0.04906
G1 X113.876 Y83.228 E0.0488
G1 X113.876 Y137.748 E1.89583
G1 X113.684 Y138.78 E0.03653
G1 X113.229 Y139.791 E0.03855
G1 X111.209 Y141.92 E0.10204
G1 X110.357 Y142.428 E0.0345
G1 X109.373 Y142.755 E0.03607
G1 X102.243 Y142.827 E0.24793
G1 X100.973 Y142.549 E0.04522
G1 X99.768 Y141.863 E0.04819
G1 X96.709 Y138.826 E0.14988
G1 X78.292 Y138.826 E0.64043
G1 X75.315 Y141.803 E0.1464
G1 X73.633 Y142.686 E0.06604
G1 X72.726 Y142.826 E0.03191
G1 X66.202 Y142.826 E0.22686
G1 X65.129 Y142.621 E0.038
G1 X64.137 Y142.165 E0.03795
G1 X64.04 Y142.095 E0.00417
G1 X61.887 Y139.965 E0.10533
G1 X61.382 Y138.968 E0.03885
G1 X61.124 Y137.803 E0.0415
G1 X61.124 Y83.197 E1.89882
G1 X61.377 Y82.051 E0.04082
G1 X61.827 Y81.121 E0.03592
G1 X64.753 Y78.125 E0.14562
M107
G1 X64.989 Y78.373 F3600000
M107
G1 F2400
G1 X66.008 Y77.791 E0.04081
G1 X67.166 Y77.522 E0.04134
G1 X107.844 Y77.526 E1.41449
G1 X108.934 Y77.77 E0.03883
G1 X109.969 Y78.337 E0.04105
G1 X112.564 Y80.888 E0.12653
G1 X113.222 Y81.969 E0.04401
G1 X113.528 Y83.248 E0.04572
G1 X113.528 Y137.731 E1.89455
G1 X113.346 Y138.695 E0.03411
G1 X112.924 Y139.62 E0.03536
G1 X111.01 Y141.634 E0.09661
G1 X110.227 Y142.104 E0.03176
G1 X109.341 Y142.407 E0.03255
G1 X102.259 Y142.478 E0.24626
G1 X101.074 Y142.214 E0.04223
G1 X99.998 Y141.599 E0.0431
G1 X96.853 Y138.478 E0.15408
G1 X78.148 Y138.478 E0.65045
G1 X75.087 Y141.538 E0.1505
G1 X73.551 Y142.346 E0.06035
G1 X72.713 Y142.478 E0.0295
G1 X66.219 Y142.478 E0.22582
G1 X65.255 Y142.296 E0.03412
G1 X64.323 Y141.87 E0.03563
G1 X64.274 Y141.836 E0.00207
G1 X62.184 Y139.781 E0.10191
G1 X61.717 Y138.87 E0.03559
G1 X61.472 Y137.784 E0.03872
G1 X61.472 Y83.216 E1.89748
G1 X61.712 Y82.147 E0.03811
G1 X62.127 Y81.299 E0.03283
G1 X64.947 Y78.416 E0.14022
M107
G1 X65.182 Y78.664 F3600000
M107
G1 F2400
G1 X66.159 Y78.107 E0.03908
G1 X67.186 Y77.871 E0.03665
G1 X107.824 Y77.874 E1.41312
G1 X108.832 Y78.105 E0.03594
G1 X109.779 Y78.63 E0.03768
G1 X112.304 Y81.121 E0.12332
G1 X112.91 Y82.126 E0.0408
G1 X113.179 Y83.268 E0.04082
G1 X113.179 Y137.715 E1.89327
G1 X113.007 Y138.608 E0.03165
G1 X112.619 Y139.448 E0.03216
G1 X110.81 Y141.347 E0.09122
G1 X110.064 Y141.796 E0.03028
G1 X109.256 Y142.067 E0.02962
G1 X102.277 Y142.13 E0.24271
G1 X101.177 Y141.88 E0.03921
G1 X100.192 Y141.309 E0.03959
G1 X96.997 Y138.129 E0.15675
G1 X78.003 Y138.129 E0.66047
G1 X74.859 Y141.273 E0.15461
G1 X73.468 Y142.006 E0.05469
G1 X72.699 Y142.129 E0.02707
G1 X66.235 Y142.129 E0.22477
G1 X65.341 Y141.957 E0.03166
M73 P1 R69
G1 X64.496 Y141.566 E0.03239
G1 X62.48 Y139.596 E0.09801
G1 X62.052 Y138.771 E0.03233
G1 X61.821 Y137.764 E0.03591
G1 X61.821 Y83.236 E1.89611
G1 X62.048 Y82.245 E0.03536
G1 X62.427 Y81.478 E0.02975
G1 X65.14 Y78.707 E0.13486
M107
G1 X65.378 Y78.954 F3600000
M107
G1 F2400
G1 X66.263 Y78.44 E0.0356
G1 X67.206 Y78.219 E0.03367
G1 X107.804 Y78.223 E1.41173
G1 X108.729 Y78.438 E0.033
G1 X109.588 Y78.923 E0.0343
G1 X112.043 Y81.353 E0.12013
G1 X112.596 Y82.281 E0.03758
G1 X112.831 Y83.288 E0.03595
G1 X112.831 Y137.698 E1.89199
G1 X112.67 Y138.52 E0.02915
G1 X112.316 Y139.274 E0.02895
G1 X110.611 Y141.06 E0.08588
G1 X109.901 Y141.487 E0.0288
G1 X109.173 Y141.728 E0.02667
G1 X102.294 Y141.781 E0.23918
G1 X101.282 Y141.547 E0.03615
G1 X100.388 Y141.02 E0.03607
G1 X97.141 Y137.781 E0.15948
G1 X77.859 Y137.781 E0.6705
G1 X74.631 Y141.008 E0.15872
G1 X73.384 Y141.667 E0.04905
G1 X72.685 Y141.781 E0.02462
G1 X66.252 Y141.781 E0.22369
G1 X65.429 Y141.619 E0.02916
G1 X64.671 Y141.263 E0.02914
G1 X62.776 Y139.409 E0.09218
G1 X62.386 Y138.67 E0.02907
G1 X62.169 Y137.744 E0.03305
G1 X62.169 Y83.256 E1.89472
G1 X62.382 Y82.344 E0.03257
G1 X62.727 Y81.659 E0.02667
G1 X65.336 Y78.996 E0.12962
M107
G1 X65.574 Y79.242 F3600000
M107
G1 F2400
G1 X66.37 Y78.773 E0.03211
G1 X67.226 Y78.568 E0.03063
G1 X107.784 Y78.571 E1.41031
G1 X108.623 Y78.771 E0.03001
G1 X109.395 Y79.214 E0.03091
G1 X111.782 Y81.585 E0.11701
G1 X112.264 Y82.388 E0.03255
G1 X112.482 Y83.308 E0.03291
G1 X112.482 Y137.681 E1.89071
G1 X112.345 Y138.392 E0.02517
G1 X112.012 Y139.101 E0.02722
G1 X110.411 Y140.774 E0.08054
G1 X109.738 Y141.178 E0.0273
G1 X109.091 Y141.388 E0.02367
G1 X102.313 Y141.433 E0.23568
G1 X101.388 Y141.214 E0.03305
G1 X100.585 Y140.732 E0.03254
G1 X97.285 Y137.432 E0.16228
G1 X77.715 Y137.432 E0.68054
G1 X74.403 Y140.743 E0.16283
G1 X73.299 Y141.328 E0.04344
G1 X72.671 Y141.432 E0.02215
G1 X66.269 Y141.432 E0.22261
G1 X65.558 Y141.295 E0.02518
G1 X64.845 Y140.96 E0.02737
G1 X63.071 Y139.221 E0.08641
G1 X62.72 Y138.567 E0.02582
G1 X62.518 Y137.724 E0.03014
G1 X62.518 Y83.276 E1.89329
G1 X62.716 Y82.445 E0.02972
G1 X63.025 Y81.841 E0.02359
G1 X65.532 Y79.285 E0.12451
M107
G1 X65.773 Y79.529 F3600000
M107
G1 F2400
G1 X66.478 Y79.105 E0.02863
G1 X67.247 Y78.916 E0.02754
G1 X107.763 Y78.92 E1.40885
G1 X108.516 Y79.104 E0.02696
G1 X109.2 Y79.503 E0.02753
G1 X111.52 Y81.816 E0.11394
G1 X111.95 Y82.542 E0.02934
G1 X112.134 Y83.328 E0.02807
G1 X112.134 Y137.664 E1.88942
G1 X112.007 Y138.303 E0.02264
G1 X111.71 Y138.925 E0.02398
G1 X110.212 Y140.487 E0.07526
G1 X109.576 Y140.869 E0.02579
G1 X109.011 Y141.048 E0.02063
G1 X102.332 Y141.084 E0.23225
G1 X101.543 Y140.9 E0.02817
G1 X100.816 Y140.47 E0.02935
G1 X97.43 Y137.084 E0.16654
G1 X77.57 Y137.084 E0.69058
G1 X74.175 Y140.479 E0.16695
G1 X73.213 Y140.989 E0.03787
G1 X72.656 Y141.084 E0.01965
G1 X66.286 Y141.084 E0.22151
G1 X65.647 Y140.957 E0.02265
G1 X65.022 Y140.658 E0.0241
G1 X63.364 Y139.031 E0.08077
G1 X63.053 Y138.462 E0.02258
G1 X62.866 Y137.703 E0.02717
G1 X62.866 Y83.297 E1.89183
G1 X63.05 Y82.548 E0.02682
G1 X63.322 Y82.025 E0.02052
G1 X65.731 Y79.572 E0.11953
M107
G1 X65.973 Y79.815 F3600000
M107
G1 F2400
G1 X66.59 Y79.437 E0.02515
G1 X67.269 Y79.265 E0.02437
G1 X107.741 Y79.268 E1.40735
G1 X108.406 Y79.436 E0.02384
G1 X109.003 Y79.791 E0.02414
G1 X111.259 Y82.047 E0.11094
G1 X111.617 Y82.649 E0.02436
G1 X111.785 Y83.349 E0.02502
G1 X111.785 Y137.647 E1.88809
G1 X111.67 Y138.212 E0.02005
G1 X111.409 Y138.748 E0.02075
G1 X110.012 Y140.2 E0.07005
G1 X109.415 Y140.56 E0.02425
G1 X108.933 Y140.707 E0.01753
G1 X102.351 Y140.735 E0.22888
G1 X101.649 Y140.567 E0.02509
G1 X101.047 Y140.209 E0.02437
G1 X97.574 Y136.735 E0.17081
G1 X77.426 Y136.735 E0.70062
G1 X73.947 Y140.214 E0.17107
G1 X73.126 Y140.65 E0.03234
G1 X72.641 Y140.735 E0.01712
G1 X66.303 Y140.735 E0.22038
G1 X65.738 Y140.62 E0.02006
G1 X65.2 Y140.357 E0.02083
G1 X63.656 Y138.84 E0.07528
G1 X63.385 Y138.354 E0.01934
G1 X63.215 Y137.681 E0.02414
G1 X63.215 Y83.319 E1.89033
G1 X63.383 Y82.654 E0.02385
G1 X63.618 Y82.21 E0.01746
G1 X65.931 Y79.858 E0.11472
M107
G1 X66.179 Y80.103 F3600000
M107
G1 F2400
G1 X66.207 Y80.075 E0.00137
G1 X66.703 Y79.767 E0.0203
G1 X67.291 Y79.613 E0.02115
G1 X107.72 Y79.617 E1.40583
M73 P1 R68
G1 X108.252 Y79.749 E0.01905
G1 X108.772 Y80.054 E0.02096
G1 X110.996 Y82.278 E0.10939
G1 X111.303 Y82.803 E0.02114
G1 X111.437 Y83.369 E0.02023
G1 X111.437 Y137.629 E1.88676
G1 X111.334 Y138.118 E0.0174
G1 X111.109 Y138.568 E0.0175
G1 X109.778 Y139.941 E0.06647
G1 X109.256 Y140.248 E0.02107
G1 X108.858 Y140.366 E0.01445
G1 X102.37 Y140.387 E0.2256
G1 X101.803 Y140.253 E0.02027
G1 X101.278 Y139.946 E0.02114
G1 X97.718 Y136.387 E0.17505
G1 X77.282 Y136.387 E0.71066
G1 X73.719 Y139.949 E0.17519
G1 X73.037 Y140.312 E0.02686
G1 X72.625 Y140.387 E0.01456
G1 X66.321 Y140.387 E0.21921
G1 X65.832 Y140.284 E0.0174
G1 X65.38 Y140.058 E0.01755
G1 X63.947 Y138.646 E0.06998
G1 X63.716 Y138.244 E0.01612
G1 X63.563 Y137.659 E0.02102
G1 X63.563 Y83.341 E1.88878
G1 X63.714 Y82.763 E0.0208
G1 X63.913 Y82.398 E0.01441
G1 X66.137 Y80.145 E0.11009
M107
G1 X66.384 Y80.391 F3600000
M107
G1 F2400
G1 X66.44 Y80.334 E0.00276
G1 X66.819 Y80.097 E0.01556
G1 X67.315 Y79.962 E0.01785
G1 X107.699 Y79.965 E1.40429
G1 X108.1 Y80.064 E0.01435
G1 X108.542 Y80.316 E0.01771
G1 X110.734 Y82.508 E0.10778
G1 X110.988 Y82.954 E0.01784
G1 X111.088 Y83.389 E0.01553
G1 X111.088 Y137.611 E1.88546
G1 X111.01 Y137.987 E0.01337
G1 X110.839 Y138.346 E0.01383
G1 X109.545 Y139.681 E0.06463
G1 X109.101 Y139.935 E0.01779
G1 X108.786 Y140.024 E0.01139
G1 X102.389 Y140.038 E0.22244
G1 X101.954 Y139.938 E0.01555
G1 X101.508 Y139.684 E0.01784
G1 X97.863 Y136.038 E0.17926
G1 X77.137 Y136.038 E0.72069
G1 X73.491 Y139.685 E0.17931
G1 X72.947 Y139.975 E0.02144
G1 X72.609 Y140.038 E0.01195
G1 X66.339 Y140.038 E0.21802
G1 X65.963 Y139.96 E0.01337
G1 X65.604 Y139.789 E0.01384
G1 X64.235 Y138.449 E0.0666
G1 X64.046 Y138.129 E0.0129
G1 X63.912 Y137.636 E0.0178
G1 X63.912 Y83.364 E1.88717
G1 X64.045 Y82.875 E0.01765
G1 X64.205 Y82.589 E0.01137
G1 X66.342 Y80.433 E0.10556
M107
G1 X66.589 Y80.679 F3600000
M107
G1 F2400
G1 X66.674 Y80.594 E0.00417
G1 X66.94 Y80.425 E0.01096
G1 X67.339 Y80.31 E0.01445
G1 X107.678 Y80.314 E1.40272
G1 X107.951 Y80.38 E0.00977
G1 X108.313 Y80.58 E0.01437
G1 X110.47 Y82.737 E0.10608
G1 X110.671 Y83.101 E0.01445
G1 X110.74 Y83.408 E0.01095
G1 X110.74 Y137.592 E1.88414
G1 X110.674 Y137.892 E0.01068
G1 X110.539 Y138.167 E0.01067
G1 X109.314 Y139.419 E0.06089
G1 X108.951 Y139.62 E0.01442
G1 X108.719 Y139.682 E0.00835
G1 X102.408 Y139.69 E0.21945
G1 X102.101 Y139.621 E0.01095
G1 X101.737 Y139.42 E0.01445
G1 X98.007 Y135.69 E0.18343
G1 X76.993 Y135.69 E0.73073
G1 X73.263 Y139.42 E0.18343
G1 X72.854 Y139.638 E0.01611
G1 X72.592 Y139.69 E0.00928
G1 X66.358 Y139.69 E0.21678
G1 X66.058 Y139.624 E0.01068
G1 X65.783 Y139.489 E0.01067
G1 X64.521 Y138.248 E0.06153
G1 X64.375 Y138.01 E0.0097
G1 X64.26 Y137.611 E0.01445
G1 X64.26 Y83.389 E1.88547
G1 X64.374 Y82.992 E0.01437
G1 X64.495 Y82.784 E0.00835
G1 X66.547 Y80.721 E0.10116
M107
G1 X66.793 Y80.967 F3600000
M107
G1 F2400
G1 X66.907 Y80.853 E0.00562
G1 X67.065 Y80.751 E0.00653
G1 X67.365 Y80.659 E0.01091
G1 X107.658 Y80.662 E1.40111
G1 X107.807 Y80.698 E0.00535
G1 X108.085 Y80.845 E0.01091
G1 X110.205 Y82.965 E0.10428
G1 X110.352 Y83.243 E0.01091
G1 X110.391 Y83.426 E0.00653
G1 X110.391 Y137.574 E1.88287
M73 P2 R68
G1 X110.352 Y137.757 E0.00653
G1 X110.238 Y137.988 E0.00894
G1 X109.085 Y139.155 E0.05706
G1 X108.807 Y139.302 E0.01091
G1 X108.658 Y139.338 E0.00535
G1 X102.426 Y139.341 E0.21669
G1 X102.243 Y139.302 E0.00653
G1 X101.965 Y139.155 E0.01091
G1 X98.152 Y135.341 E0.18755
G1 X76.848 Y135.341 E0.74077
G1 X73.035 Y139.155 E0.18755
G1 X72.757 Y139.302 E0.01091
G1 X72.574 Y139.341 E0.00653
G1 X66.376 Y139.341 E0.2155
G1 X66.193 Y139.302 E0.00653
G1 X65.962 Y139.188 E0.00894
G1 X64.803 Y138.043 E0.05666
G1 X64.701 Y137.885 E0.00653
G1 X64.609 Y137.585 E0.01091
G1 X64.609 Y83.415 E1.88367
G1 X64.701 Y83.115 E0.01091
G1 X64.781 Y82.984 E0.00535
G1 X66.751 Y81.01 E0.09696
M107
G1 X66.997 Y81.256 F3600000
M107
G1 F2400
G1 X67.142 Y81.112 E0.00711
G1 X67.199 Y81.073 E0.00239
G1 X67.393 Y81.007 E0.00715
G1 X107.607 Y81.007 E1.39833
G1 X107.674 Y81.021 E0.00239
G1 X107.858 Y81.112 E0.00715
G1 X109.938 Y83.192 E0.10229
G1 X110.029 Y83.376 E0.00715
G1 X110.043 Y83.443 E0.00239
G1 X110.043 Y137.557 E1.88168
G1 X110.029 Y137.624 E0.00239
G1 X109.938 Y137.808 E0.00715
G1 X108.858 Y138.888 E0.05311
G1 X108.674 Y138.979 E0.00715
G1 X108.607 Y138.993 E0.00239
G1 X102.443 Y138.993 E0.21431
G1 X102.376 Y138.979 E0.00239
G1 X102.192 Y138.888 E0.00715
G1 X98.296 Y134.993 E0.19158
G1 X76.704 Y134.993 E0.75081
G1 X72.808 Y138.888 E0.19158
G1 X72.624 Y138.979 E0.00715
G1 X72.557 Y138.993 E0.00239
G1 X66.393 Y138.993 E0.21431
G1 X66.326 Y138.979 E0.00239
G1 X66.142 Y138.888 E0.00715
G1 X65.062 Y137.808 E0.05311
G1 X65.023 Y137.751 E0.00239
G1 X64.957 Y137.557 E0.00715
G1 X64.957 Y83.443 E1.88168
G1 X65.023 Y83.249 E0.00715
G1 X65.062 Y83.192 E0.00239
G1 X66.955 Y81.299 E0.09309
M107
G1 X67.201 Y81.545 F3600000
M107
G1 F2400
G1 X67.364 Y81.382 E0.008
G1 X67.428 Y81.356 E0.00241
G1 X107.572 Y81.356 E1.39595
G1 X107.636 Y81.382 E0.00241
G1 X109.668 Y83.414 E0.0999
G1 X109.694 Y83.478 E0.00241
G1 X109.694 Y137.522 E1.87929
G1 X109.668 Y137.586 E0.00241
G1 X108.636 Y138.618 E0.05072
G1 X108.572 Y138.644 E0.00241
G1 X102.478 Y138.644 E0.21192
G1 X102.414 Y138.618 E0.00241
G1 X98.44 Y134.644 E0.1954
G1 X76.56 Y134.644 E0.76085
G1 X72.586 Y138.618 E0.1954
G1 X72.522 Y138.644 E0.00241
G1 X66.428 Y138.644 E0.21192
G1 X66.364 Y138.618 E0.00241
G1 X65.332 Y137.586 E0.05072
G1 X65.306 Y137.522 E0.00241
G1 X65.306 Y83.478 E1.87929
G1 X65.332 Y83.414 E0.00241
G1 X67.159 Y81.587 E0.08981
M107
;WIPE_START
G1 F2880000
G1 X65.332 Y83.414 E-0.00256
G1 X65.306 Y83.478 E-0.00007
G1 X65.306 Y137.522 E-0.05348
G1 X65.332 Y137.586 E-0.00007
G1 X66.364 Y138.618 E-0.00144
G1 X66.428 Y138.644 E-0.00007
G1 X72.522 Y138.644 E-0.00603
G1 X72.586 Y138.618 E-0.00007
G1 X76.56 Y134.644 E-0.00556
G1 X98.44 Y134.644 E-0.02165
G1 X102.414 Y138.618 E-0.00556
G1 X102.478 Y138.644 E-0.00007
G1 X108.572 Y138.644 E-0.00603
G1 X108.636 Y138.618 E-0.00007
G1 X109.668 Y137.586 E-0.00144
G1 X109.694 Y137.522 E-0.00007
G1 X109.694 Y83.478 E-0.05348
G1 X109.668 Y83.414 E-0.00007
G1 X107.636 Y81.382 E-0.00284
G1 X107.572 Y81.356 E-0.00007
G1 X67.428 Y81.356 E-0.03973
G1 X67.364 Y81.382 E-0.00007
G1 X67.201 Y81.545 E-0.00023
;WIPE_END
