; generated by SuperSlicer 2.5.59.8 on 2024-03-20 at 00:57:04 UTC


;
;

;
;

;
;

;
;

;
;
; 

; external perimeters extrusion width = 0.40mm
; perimeters extrusion width = 0.40mm
; infill extrusion width = 0.40mm
; solid infill extrusion width = 0.40mm
; top infill extrusion width = 0.40mm
; support material extrusion width = 0.36mm

; object:{"name":"a_EVA_FrontPlate_HD_V-1-1","id":"a_EVA_FrontPlate_HD_V-1-1.stl id:0 copy 0","object_center":[45.653516,165.036966,0.000000],"boundingbox_center":[45.653516,165.036966,4.000000],"boundingbox_size":[44.100002,57.000000,8.000000]}
EXCLUDE_OBJECT_DEFINE NAME=a_EVA_FrontPlate_HD_V_1_1_stl_id_0_copy_0 CENTER=45.653516,165.036966 POLYGON=[[23.60,138.54],[25.60,136.54],[65.70,136.54],[67.70,138.54],[67.70,192.54],[66.70,193.54],[24.60,193.54],[23.60,192.54],[23.60,138.54]]
; plater:{"center":[45.653516,165.036966,0.000000],"boundingbox_center":[45.653516,165.036966,4.000000],"boundingbox_size":[44.100002,57.000000,8.000000]}

M73 P0 R75
M107
;TYPE:Custom
CALCULATE_PA MATERIAL=ABS BOWDEN_LENGTH=6 LAYER_HEIGHT=0.24 NOZZLE_SIZE=0.4 PRINT_SPEED=95


START_PRINT EXTRUDER=270 BED=110

M107
G21 ; set units to millimeters
G90 ; use absolute coordinates
M83 ; use relative distances for extrusion
ACTIVATE_EXTRUDER EXTRUDER=extruder
; Filament gcode
M104 S270 T0 ; set temperature
M109 S270 T0 ; set temperature and wait for it to be reached
M190 S110 ; set bed temperature and wait for it to be reached
;LAYER_CHANGE
;Z:0.24
;HEIGHT:0.24
;BEFORE_LAYER_CHANGE
G92 E0.0

G1 E-1.5 F3000
G1 Z0.2 F3600000
G1 Z0.24
;AFTER_LAYER_CHANGE
;0.24




CALCULATE_PA MATERIAL=ABS BOWDEN_LENGTH=6.0 LAYER_HEIGHT=0.2 NOZZLE_SIZE=0.4 PRINT_SPEED=95


G92 E0
G1 Z0.44
G1 X24.415 Y125.787
G1 Z0.24
G1 E1.5 F3000
;TYPE:Skirt
;WIDTH:0.52
M107
G1 F2400
G1 X22.029 Y126.262 E0.11371
G1 X20.865 Y126.743 E0.05887
G1 X18.843 Y128.095 E0.11371
G1 X15.161 Y131.776 E0.24337
G1 X13.81 Y133.799 E0.11371
G1 X13.328 Y134.962 E0.05887
G1 X12.854 Y137.348 E0.11371
G1 X12.854 Y193.726 E2.63547
G1 X13.328 Y196.112 E0.11371
G1 X13.81 Y197.275 E0.05887
G1 X15.161 Y199.298 E0.11371
G1 X17.843 Y201.979 E0.17726
G1 X19.865 Y203.33 E0.11371
G1 X21.029 Y203.812 E0.05887
G1 X23.415 Y204.287 E0.11371
G1 X67.892 Y204.287 E2.07919
G1 X70.278 Y203.812 E0.11371
G1 X71.442 Y203.33 E0.05887
G1 X73.464 Y201.979 E0.11371
G1 X76.146 Y199.298 E0.17726
G1 X77.497 Y197.275 E0.11371
G1 X77.979 Y196.112 E0.05887
G1 X78.454 Y193.726 E0.11371
G1 X78.454 Y137.348 E2.63547
G1 X77.979 Y134.962 E0.11371
G1 X77.497 Y133.799 E0.05887
G1 X76.146 Y131.776 E0.11371
G1 X72.464 Y128.095 E0.24337
G1 X70.442 Y126.743 E0.11371
G1 X69.278 Y126.262 E0.05887
G1 X66.892 Y125.787 E0.11371
G1 X24.475 Y125.787 E1.98289
M107
;WIPE_START
G1 F2880000
G1 X66.892 Y125.787 E-0.04198
G1 X69.278 Y126.262 E-0.00241
G1 X70.442 Y126.743 E-0.00125
G1 X72.464 Y128.095 E-0.00241
G1 X76.146 Y131.776 E-0.00515
G1 X77.497 Y133.799 E-0.00241
G1 X77.979 Y134.962 E-0.00125
G1 X78.454 Y137.348 E-0.00241
G1 X78.454 Y193.726 E-0.05579
G1 X77.979 Y196.112 E-0.00241
G1 X77.497 Y197.275 E-0.00125
G1 X76.146 Y199.298 E-0.00241
G1 X73.464 Y201.979 E-0.00375
G1 X71.442 Y203.33 E-0.00241
G1 X70.278 Y203.812 E-0.00125
G1 X67.892 Y204.287 E-0.00241
G1 X23.415 Y204.287 E-0.04401
G1 X21.029 Y203.812 E-0.00241
G1 X19.865 Y203.33 E-0.00125
G1 X17.843 Y201.979 E-0.00241
G1 X15.161 Y199.298 E-0.00375
G1 X13.81 Y197.275 E-0.00241
G1 X13.328 Y196.112 E-0.00125
G1 X12.854 Y193.726 E-0.00241
G1 X12.854 Y137.348 E-0.05579
G1 X13.328 Y134.962 E-0.00241
G1 X13.81 Y133.799 E-0.00125
G1 X15.161 Y131.776 E-0.00241
G1 X18.843 Y128.095 E-0.00515
G1 X20.865 Y126.743 E-0.00241
G1 X22.029 Y126.262 E-0.00125
G1 X24.415 Y125.787 E-0.00241
;WIPE_END
G1 E-1.23613 F3000
G1 Z0.44 F3600000
; printing object a_EVA_FrontPlate_HD_V-1-1.stl id:0 copy 0
EXCLUDE_OBJECT_START NAME=a_EVA_FrontPlate_HD_V_1_1_stl_id_0_copy_0
G1 X24.475 Y132.021
G1 Z0.24
G1 E1.5 F3000
;TYPE:Support material
;WIDTH:0.36
M107
G1 F2400
G1 X66.892 Y132.021 E1.3057
G1 X68.056 Y132.503 E0.03877
G1 X71.737 Y136.185 E0.16026
G1 X72.219 Y137.348 E0.03877
G1 X72.219 Y193.726 E1.73541
G1 X71.737 Y194.889 E0.03877
G1 X69.056 Y197.571 E0.11673
G1 X67.892 Y198.053 E0.03877
G1 X59.465 Y198.053 E0.25942
G1 X58.301 Y197.571 E0.03877
G1 X54.783 Y194.053 E0.15315
G1 X36.524 Y194.053 E0.56205
G1 X33.006 Y197.571 E0.15315
G1 X31.842 Y198.053 E0.03877
G1 X23.415 Y198.053 E0.25942
G1 X22.251 Y197.571 E0.03877
G1 X19.57 Y194.889 E0.11673
G1 X19.088 Y193.726 E0.03877
G1 X19.088 Y137.348 E1.73541
G1 X19.57 Y136.185 E0.03877
G1 X23.251 Y132.503 E0.16026
G1 X24.415 Y132.021 E0.03877
M107
;WIPE_START
G1 F2880000
G1 X23.251 Y132.503 E-0.00125
G1 X19.57 Y136.185 E-0.00515
G1 X19.088 Y137.348 E-0.00125
G1 X19.088 Y193.726 E-0.05579
G1 X19.57 Y194.889 E-0.00125
G1 X22.251 Y197.571 E-0.00375
G1 X23.415 Y198.053 E-0.00125
G1 X31.842 Y198.053 E-0.00834
G1 X33.006 Y197.571 E-0.00125
G1 X36.524 Y194.053 E-0.00492
G1 X54.783 Y194.053 E-0.01807
G1 X58.301 Y197.571 E-0.00492
G1 X59.465 Y198.053 E-0.00125
G1 X67.892 Y198.053 E-0.00834
G1 X69.056 Y197.571 E-0.00125
G1 X71.737 Y194.889 E-0.00375
G1 X72.219 Y193.726 E-0.00125
G1 X72.219 Y137.348 E-0.05579
G1 X71.737 Y136.185 E-0.00125
G1 X68.056 Y132.503 E-0.00515
G1 X66.892 Y132.021 E-0.00125
G1 X24.475 Y132.021 E-0.04198
;WIPE_END
G1 E-1.27158 F3000
G1 Z0.44 F3600000
G1 X67.266 Y132.259
G1 Z0.24
G1 E1.5 F3000
M107
G1 F2400
G1 X24.388 Y132.259 E1.31986
G1 X23.457 Y132.645 E0.03102
G1 X67.85 Y132.645 E1.3665
G1 X67.937 Y132.681 E0.0029
G1 X68.287 Y133.031 E0.01522
G1 X23.02 Y133.031 E1.39338
G1 X22.635 Y133.416 E0.01679
G1 X68.672 Y133.416 E1.41712
G1 X69.058 Y133.802 E0.01679
G1 X22.249 Y133.802 E1.44086
M73 P1 R74
G1 X21.863 Y134.187 E0.01679
G1 X69.444 Y134.187 E1.4646
G1 X69.829 Y134.573 E0.01679
G1 X21.478 Y134.573 E1.48834
G1 X21.092 Y134.959 E0.01679
G1 X70.215 Y134.959 E1.51208
G1 X70.6 Y135.344 E0.01679
G1 X20.707 Y135.344 E1.53582
G1 X20.321 Y135.73 E0.01679
G1 X70.986 Y135.73 E1.55956
G1 X71.372 Y136.116 E0.01679
G1 X19.935 Y136.116 E1.5833
G1 X19.748 Y136.303 E0.00818
G1 X19.666 Y136.501 E0.00659
G1 X71.641 Y136.501 E1.59991
G1 X71.801 Y136.887 E0.01285
G1 X19.506 Y136.887 E1.60974
G1 X19.346 Y137.272 E0.01285
G1 X71.961 Y137.272 E1.61958
G1 X72.009 Y137.39 E0.00391
G1 X72.009 Y137.658 E0.00826
G1 X19.298 Y137.658 E1.62257
G1 X19.298 Y138.044 E0.01187
G1 X72.009 Y138.044 E1.62257
G1 X72.009 Y138.429 E0.01187
G1 X19.298 Y138.429 E1.62257
G1 X19.298 Y138.815 E0.01187
G1 X72.009 Y138.815 E1.62257
G1 X72.009 Y139.2 E0.01187
G1 X19.298 Y139.2 E1.62257
G1 X19.298 Y139.586 E0.01187
G1 X72.009 Y139.586 E1.62257
G1 X72.009 Y139.972 E0.01187
G1 X19.298 Y139.972 E1.62257
G1 X19.298 Y140.357 E0.01187
G1 X72.009 Y140.357 E1.62257
G1 X72.009 Y140.743 E0.01187
G1 X19.298 Y140.743 E1.62257
G1 X19.298 Y141.129 E0.01187
G1 X72.009 Y141.129 E1.62257
G1 X72.009 Y141.514 E0.01187
G1 X19.298 Y141.514 E1.62257
G1 X19.298 Y141.9 E0.01187
G1 X72.009 Y141.9 E1.62257
G1 X72.009 Y142.285 E0.01187
G1 X19.298 Y142.285 E1.62257
G1 X19.298 Y142.671 E0.01187
G1 X72.009 Y142.671 E1.62257
G1 X72.009 Y143.057 E0.01187
G1 X19.298 Y143.057 E1.62257
G1 X19.298 Y143.442 E0.01187
G1 X72.009 Y143.442 E1.62257
G1 X72.009 Y143.828 E0.01187
G1 X19.298 Y143.828 E1.62257
G1 X19.298 Y144.214 E0.01187
G1 X72.009 Y144.214 E1.62257
G1 X72.009 Y144.599 E0.01187
G1 X19.298 Y144.599 E1.62257
G1 X19.298 Y144.985 E0.01187
G1 X72.009 Y144.985 E1.62257
G1 X72.009 Y145.37 E0.01187
G1 X19.298 Y145.37 E1.62257
G1 X19.298 Y145.756 E0.01187
G1 X72.009 Y145.756 E1.62257
G1 X72.009 Y146.142 E0.01187
G1 X19.298 Y146.142 E1.62257
G1 X19.298 Y146.527 E0.01187
G1 X72.009 Y146.527 E1.62257
G1 X72.009 Y146.913 E0.01187
G1 X19.298 Y146.913 E1.62257
M73 P2 R74
G1 X19.298 Y147.298 E0.01187
G1 X72.009 Y147.298 E1.62257
G1 X72.009 Y147.684 E0.01187
G1 X19.298 Y147.684 E1.62257
G1 X19.298 Y148.07 E0.01187
G1 X72.009 Y148.07 E1.62257
G1 X72.009 Y148.455 E0.01187
G1 X19.298 Y148.455 E1.62257
G1 X19.298 Y148.841 E0.01187
G1 X72.009 Y148.841 E1.62257
G1 X72.009 Y149.227 E0.01187
G1 X19.298 Y149.227 E1.62257
G1 X19.298 Y149.612 E0.01187
G1 X72.009 Y149.612 E1.62257
G1 X72.009 Y149.998 E0.01187
G1 X19.298 Y149.998 E1.62257
G1 X19.298 Y150.383 E0.01187
G1 X72.009 Y150.383 E1.62257
G1 X72.009 Y150.769 E0.01187
G1 X19.298 Y150.769 E1.62257
G1 X19.298 Y151.155 E0.01187
G1 X72.009 Y151.155 E1.62257
M73 P2 R73
G1 X72.009 Y151.54 E0.01187
G1 X19.298 Y151.54 E1.62257
G1 X19.298 Y151.926 E0.01187
G1 X72.009 Y151.926 E1.62257
G1 X72.009 Y152.312 E0.01187
G1 X19.298 Y152.312 E1.62257
G1 X19.298 Y152.697 E0.01187
G1 X72.009 Y152.697 E1.62257
G1 X72.009 Y153.083 E0.01187
G1 X19.298 Y153.083 E1.62257
G1 X19.298 Y153.468 E0.01187
G1 X72.009 Y153.468 E1.62257
G1 X72.009 Y153.854 E0.01187
G1 X19.298 Y153.854 E1.62257
G1 X19.298 Y154.24 E0.01187
G1 X72.009 Y154.24 E1.62257
G1 X72.009 Y154.625 E0.01187
G1 X19.298 Y154.625 E1.62257
G1 X19.298 Y155.011 E0.01187
G1 X72.009 Y155.011 E1.62257
G1 X72.009 Y155.396 E0.01187
G1 X19.298 Y155.396 E1.62257
G1 X19.298 Y155.782 E0.01187
G1 X72.009 Y155.782 E1.62257
G1 X72.009 Y156.168 E0.01187
G1 X19.298 Y156.168 E1.62257
G1 X19.298 Y156.553 E0.01187
G1 X72.009 Y156.553 E1.62257
G1 X72.009 Y156.939 E0.01187
G1 X19.298 Y156.939 E1.62257
G1 X19.298 Y157.325 E0.01187
G1 X72.009 Y157.325 E1.62257
G1 X72.009 Y157.71 E0.01187
G1 X19.298 Y157.71 E1.62257
G1 X19.298 Y158.096 E0.01187
G1 X72.009 Y158.096 E1.62257
G1 X72.009 Y158.481 E0.01187
G1 X19.298 Y158.481 E1.62257
G1 X19.298 Y158.867 E0.01187
G1 X72.009 Y158.867 E1.62257
G1 X72.009 Y159.253 E0.01187
G1 X19.298 Y159.253 E1.62257
G1 X19.298 Y159.638 E0.01187
G1 X72.009 Y159.638 E1.62257
G1 X72.009 Y160.024 E0.01187
G1 X19.298 Y160.024 E1.62257
M73 P3 R73
G1 X19.298 Y160.41 E0.01187
G1 X72.009 Y160.41 E1.62257
G1 X72.009 Y160.795 E0.01187
G1 X19.298 Y160.795 E1.62257
G1 X19.298 Y161.181 E0.01187
G1 X72.009 Y161.181 E1.62257
G1 X72.009 Y161.566 E0.01187
G1 X19.298 Y161.566 E1.62257
G1 X19.298 Y161.952 E0.01187
G1 X72.009 Y161.952 E1.62257
G1 X72.009 Y162.338 E0.01187
G1 X19.298 Y162.338 E1.62257
G1 X19.298 Y162.723 E0.01187
G1 X72.009 Y162.723 E1.62257
G1 X72.009 Y163.109 E0.01187
G1 X19.298 Y163.109 E1.62257
G1 X19.298 Y163.494 E0.01187
G1 X72.009 Y163.494 E1.62257
G1 X72.009 Y163.88 E0.01187
G1 X19.298 Y163.88 E1.62257
G1 X19.298 Y164.266 E0.01187
G1 X72.009 Y164.266 E1.62257
G1 X72.009 Y164.651 E0.01187
G1 X19.298 Y164.651 E1.62257
G1 X19.298 Y165.037 E0.01187
G1 X72.009 Y165.037 E1.62257
G1 X72.009 Y165.423 E0.01187
G1 X19.298 Y165.423 E1.62257
G1 X19.298 Y165.808 E0.01187
G1 X72.009 Y165.808 E1.62257
G1 X72.009 Y166.194 E0.01187
G1 X19.298 Y166.194 E1.62257
G1 X19.298 Y166.579 E0.01187
G1 X72.009 Y166.579 E1.62257
G1 X72.009 Y166.965 E0.01187
G1 X19.298 Y166.965 E1.62257
G1 X19.298 Y167.351 E0.01187
G1 X72.009 Y167.351 E1.62257
G1 X72.009 Y167.736 E0.01187
G1 X19.298 Y167.736 E1.62257
G1 X19.298 Y168.122 E0.01187
G1 X72.009 Y168.122 E1.62257
M73 P3 R72
G1 X72.009 Y168.508 E0.01187
G1 X19.298 Y168.508 E1.62257
G1 X19.298 Y168.893 E0.01187
G1 X72.009 Y168.893 E1.62257
G1 X72.009 Y169.279 E0.01187
G1 X19.298 Y169.279 E1.62257
G1 X19.298 Y169.664 E0.01187
G1 X72.009 Y169.664 E1.62257
G1 X72.009 Y170.05 E0.01187
G1 X19.298 Y170.05 E1.62257
G1 X19.298 Y170.436 E0.01187
G1 X72.009 Y170.436 E1.62257
G1 X72.009 Y170.821 E0.01187
G1 X19.298 Y170.821 E1.62257
G1 X19.298 Y171.207 E0.01187
G1 X72.009 Y171.207 E1.62257
G1 X72.009 Y171.592 E0.01187
G1 X19.298 Y171.592 E1.62257
G1 X19.298 Y171.978 E0.01187
G1 X72.009 Y171.978 E1.62257
G1 X72.009 Y172.364 E0.01187
G1 X19.298 Y172.364 E1.62257
G1 X19.298 Y172.749 E0.01187
G1 X72.009 Y172.749 E1.62257
M73 P4 R72
G1 X72.009 Y173.135 E0.01187
G1 X19.298 Y173.135 E1.62257
G1 X19.298 Y173.521 E0.01187
G1 X72.009 Y173.521 E1.62257
G1 X72.009 Y173.906 E0.01187
G1 X19.298 Y173.906 E1.62257
G1 X19.298 Y174.292 E0.01187
G1 X72.009 Y174.292 E1.62257
G1 X72.009 Y174.677 E0.01187
G1 X19.298 Y174.677 E1.62257
G1 X19.298 Y175.063 E0.01187
G1 X72.009 Y175.063 E1.62257
G1 X72.009 Y175.449 E0.01187
G1 X19.298 Y175.449 E1.62257
G1 X19.298 Y175.834 E0.01187
G1 X72.009 Y175.834 E1.62257
G1 X72.009 Y176.22 E0.01187
G1 X19.298 Y176.22 E1.62257
G1 X19.298 Y176.606 E0.01187
G1 X72.009 Y176.606 E1.62257
G1 X72.009 Y176.991 E0.01187
G1 X19.298 Y176.991 E1.62257
G1 X19.298 Y177.377 E0.01187
G1 X72.009 Y177.377 E1.62257
G1 X72.009 Y177.762 E0.01187
G1 X19.298 Y177.762 E1.62257
G1 X19.298 Y178.148 E0.01187
G1 X72.009 Y178.148 E1.62257
G1 X72.009 Y178.534 E0.01187
G1 X19.298 Y178.534 E1.62257
G1 X19.298 Y178.919 E0.01187
G1 X72.009 Y178.919 E1.62257
G1 X72.009 Y179.305 E0.01187
G1 X19.298 Y179.305 E1.62257
G1 X19.298 Y179.69 E0.01187
G1 X72.009 Y179.69 E1.62257
G1 X72.009 Y180.076 E0.01187
G1 X19.298 Y180.076 E1.62257
G1 X19.298 Y180.462 E0.01187
G1 X72.009 Y180.462 E1.62257
G1 X72.009 Y180.847 E0.01187
G1 X19.298 Y180.847 E1.62257
G1 X19.298 Y181.233 E0.01187
G1 X72.009 Y181.233 E1.62257
G1 X72.009 Y181.619 E0.01187
G1 X19.298 Y181.619 E1.62257
G1 X19.298 Y182.004 E0.01187
G1 X72.009 Y182.004 E1.62257
G1 X72.009 Y182.39 E0.01187
G1 X19.298 Y182.39 E1.62257
G1 X19.298 Y182.775 E0.01187
G1 X72.009 Y182.775 E1.62257
G1 X72.009 Y183.161 E0.01187
G1 X19.298 Y183.161 E1.62257
G1 X19.298 Y183.547 E0.01187
G1 X72.009 Y183.547 E1.62257
G1 X72.009 Y183.932 E0.01187
G1 X19.298 Y183.932 E1.62257
G1 X19.298 Y184.318 E0.01187
G1 X72.009 Y184.318 E1.62257
G1 X72.009 Y184.704 E0.01187
G1 X19.298 Y184.704 E1.62257
G1 X19.298 Y185.089 E0.01187
G1 X72.009 Y185.089 E1.62257
G1 X72.009 Y185.475 E0.01187
G1 X19.298 Y185.475 E1.62257
M73 P4 R71
G1 X19.298 Y185.86 E0.01187
G1 X72.009 Y185.86 E1.62257
M73 P5 R71
G1 X72.009 Y186.246 E0.01187
G1 X19.298 Y186.246 E1.62257
G1 X19.298 Y186.632 E0.01187
G1 X72.009 Y186.632 E1.62257
G1 X72.009 Y187.017 E0.01187
G1 X19.298 Y187.017 E1.62257
G1 X19.298 Y187.403 E0.01187
G1 X72.009 Y187.403 E1.62257
G1 X72.009 Y187.788 E0.01187
G1 X19.298 Y187.788 E1.62257
G1 X19.298 Y188.174 E0.01187
G1 X72.009 Y188.174 E1.62257
G1 X72.009 Y188.56 E0.01187
G1 X19.298 Y188.56 E1.62257
G1 X19.298 Y188.945 E0.01187
G1 X72.009 Y188.945 E1.62257
G1 X72.009 Y189.331 E0.01187
G1 X19.298 Y189.331 E1.62257
G1 X19.298 Y189.717 E0.01187
G1 X72.009 Y189.717 E1.62257
G1 X72.009 Y190.102 E0.01187
G1 X19.298 Y190.102 E1.62257
G1 X19.298 Y190.488 E0.01187
G1 X72.009 Y190.488 E1.62257
G1 X72.009 Y190.873 E0.01187
G1 X19.298 Y190.873 E1.62257
G1 X19.298 Y191.259 E0.01187
G1 X72.009 Y191.259 E1.62257
G1 X72.009 Y191.645 E0.01187
G1 X19.298 Y191.645 E1.62257
G1 X19.298 Y192.03 E0.01187
G1 X72.009 Y192.03 E1.62257
G1 X72.009 Y192.416 E0.01187
G1 X19.298 Y192.416 E1.62257
G1 X19.298 Y192.802 E0.01187
G1 X72.009 Y192.802 E1.62257
G1 X72.009 Y193.187 E0.01187
G1 X19.298 Y193.187 E1.62257
G1 X19.298 Y193.573 E0.01187
G1 X72.009 Y193.573 E1.62257
G1 X72.009 Y193.684 E0.00343
G1 X71.896 Y193.958 E0.00914
G1 X19.411 Y193.958 E1.61558
G1 X19.571 Y194.344 E0.01285
G1 X35.936 Y194.344 E0.50375
G1 X35.55 Y194.73 E0.01679
G1 X19.731 Y194.73 E0.48696
G1 X19.748 Y194.771 E0.00136
G1 X20.092 Y195.115 E0.015
G1 X35.165 Y195.115 E0.46396
G1 X34.779 Y195.501 E0.01679
G1 X20.478 Y195.501 E0.44022
G1 X20.863 Y195.886 E0.01679
G1 X34.394 Y195.886 E0.41648
G1 X34.008 Y196.272 E0.01679
G1 X21.249 Y196.272 E0.39274
G1 X21.635 Y196.658 E0.01679
G1 X33.622 Y196.658 E0.369
G1 X33.237 Y197.043 E0.01679
G1 X22.02 Y197.043 E0.34526
G1 X22.37 Y197.393 E0.01522
G1 X22.457 Y197.429 E0.0029
G1 X32.8 Y197.429 E0.31838
G1 X31.869 Y197.815 E0.03102
G1 X23.041 Y197.815 E0.27174
M107
;WIPE_START
G1 F2880000
G1 X31.869 Y197.815 E-0.00874
G1 X32.8 Y197.429 E-0.001
G1 X22.457 Y197.429 E-0.01024
G1 X22.37 Y197.393 E-0.00009
G1 X22.02 Y197.043 E-0.00049
G1 X33.237 Y197.043 E-0.0111
G1 X33.622 Y196.658 E-0.00054
G1 X21.635 Y196.658 E-0.01186
G1 X21.249 Y196.272 E-0.00054
G1 X34.008 Y196.272 E-0.01263
G1 X34.394 Y195.886 E-0.00054
G1 X20.863 Y195.886 E-0.01339
G1 X20.478 Y195.501 E-0.00054
G1 X34.779 Y195.501 E-0.01415
G1 X35.165 Y195.115 E-0.00054
G1 X20.092 Y195.115 E-0.01492
