; generated by SuperSlicer 2.5.59.10 on 2024-06-01 at 07:34:50 UTC


;
;

;
;
; 

; external perimeters extrusion width = 0.40mm
; perimeters extrusion width = 0.40mm
; infill extrusion width = 0.40mm
; solid infill extrusion width = 0.40mm
; top infill extrusion width = 0.40mm
; first layer extrusion width = 0.40mm

; external perimeters extrusion width = 0.40mm
; perimeters extrusion width = 0.40mm
; infill extrusion width = 0.40mm
; solid infill extrusion width = 0.40mm
; top infill extrusion width = 0.40mm
; first layer extrusion width = 0.40mm

; object:{"name":"a_FlangeSpacer_pair","id":"a_FlangeSpacer_pair.stl id:0 copy 0","object_center":[70.871408,102.795837,0.000000],"boundingbox_center":[70.871408,102.795837,4.925000],"boundingbox_size":[21.990849,10.396465,9.850000]}
EXCLUDE_OBJECT_DEFINE NAME=a_FlangeSpacer_pair_stl_id_0_copy_0 CENTER=70.871408,102.795837 POLYGON=[[59.88,102.99],[59.89,102.67],[59.89,102.66],[59.92,102.34],[59.92,102.33],[59.97,102.02],[59.97,102.01],[60.05,101.70],[60.05,101.69],[60.14,101.39],[60.15,101.37],[60.26,101.08],[60.26,101.06],[60.39,100.78],[60.40,100.76],[60.55,100.49],[60.56,100.47],[60.72,100.22],[60.74,100.19],[60.91,99.95],[60.93,99.92],[61.12,99.70],[61.14,99.67],[61.34,99.46],[61.37,99.43],[61.58,99.23],[61.61,99.21],[61.83,99.03],[61.87,99.00],[62.10,98.84],[62.14,98.81],[62.38,98.66],[62.42,98.64],[62.66,98.51],[62.72,98.48],[62.96,98.37],[63.02,98.35],[63.27,98.26],[63.33,98.24],[63.58,98.16],[63.65,98.15],[63.90,98.09],[63.97,98.08],[64.22,98.04],[64.30,98.03],[64.55,98.00],[64.63,98.00],[76.62,97.60],[76.87,97.60],[76.95,97.60],[77.19,97.61],[77.28,97.61],[77.52,97.64],[77.61,97.65],[77.84,97.69],[77.93,97.71],[78.16,97.77],[78.25,97.79],[78.47,97.86],[78.57,97.90],[78.78,97.98],[78.88,98.02],[79.08,98.11],[79.17,98.16],[79.37,98.27],[79.46,98.32],[79.64,98.44],[79.74,98.50],[79.91,98.63],[80.00,98.70],[80.16,98.84],[80.25,98.92],[80.40,99.06],[80.49,99.15],[80.63,99.30],[80.71,99.40],[80.83,99.55],[80.91,99.66],[81.02,99.82],[81.10,99.93],[81.20,100.10],[81.26,100.22],[81.35,100.39],[81.41,100.51],[81.49,100.68],[81.54,100.82],[81.60,100.99],[81.65,101.13],[81.70,101.30],[81.73,101.45],[81.77,101.62],[81.80,101.77],[81.82,101.94],[81.84,102.10],[81.86,102.27],[81.86,102.43],[81.87,102.60],[81.86,102.76],[81.86,102.92],[81.84,103.09],[81.82,103.25],[81.80,103.42],[81.77,103.57],[81.73,103.74],[81.70,103.89],[81.65,104.06],[81.60,104.20],[81.54,104.38],[81.49,104.51],[81.41,104.68],[81.35,104.81],[81.26,104.98],[81.20,105.10],[81.10,105.26],[81.02,105.38],[80.91,105.54],[80.83,105.64],[80.71,105.80],[80.63,105.89],[80.49,106.04],[80.40,106.13],[80.25,106.28],[80.16,106.36],[80.00,106.49],[79.91,106.56],[79.74,106.69],[79.64,106.75],[79.46,106.87],[79.37,106.93],[79.17,107.03],[79.08,107.08],[78.88,107.18],[78.78,107.22],[78.57,107.30],[78.47,107.33],[78.25,107.40],[78.16,107.43],[77.93,107.48],[77.84,107.50],[77.61,107.54],[77.52,107.55],[77.28,107.58],[77.19,107.59],[76.95,107.60],[64.96,107.99],[64.88,107.99],[64.63,107.99],[64.55,107.98],[64.30,107.96],[64.22,107.95],[63.97,107.91],[63.90,107.90],[63.65,107.84],[63.58,107.82],[63.33,107.75],[63.27,107.73],[63.02,107.64],[62.96,107.61],[62.72,107.50],[62.66,107.48],[62.42,107.35],[62.38,107.32],[62.14,107.18],[62.10,107.15],[61.87,106.99],[61.83,106.96],[61.61,106.78],[61.58,106.75],[61.37,106.56],[61.34,106.53],[61.14,106.32],[61.12,106.29],[60.93,106.07],[60.91,106.04],[60.74,105.80],[60.72,105.77],[60.56,105.52],[60.55,105.49],[60.40,105.23],[60.39,105.21],[60.26,104.93],[60.26,104.91],[60.15,104.62],[60.14,104.60],[60.05,104.30],[60.05,104.29],[59.97,103.98],[59.97,103.97],[59.92,103.65],[59.92,103.65],[59.89,103.32],[59.89,103.32],[59.88,102.99]]
; object:{"name":"a_Xjoint_8mm_Idler_Spacers","id":"a_Xjoint_8mm_Idler_Spacers.stl id:1 copy 0","object_center":[102.241057,93.037927,0.000000],"boundingbox_center":[102.241057,93.037927,6.425000],"boundingbox_size":[21.000000,20.999268,12.850000]}
EXCLUDE_OBJECT_DEFINE NAME=a_Xjoint_8mm_Idler_Spacers_stl_id_1_copy_0 CENTER=102.241057,93.037927 POLYGON=[[91.74,87.04],[91.74,86.88],[91.75,86.71],[91.77,86.55],[91.79,86.39],[91.81,86.23],[91.85,86.07],[91.88,85.91],[91.93,85.76],[91.98,85.60],[92.03,85.45],[92.09,85.30],[92.16,85.15],[92.23,85.00],[92.30,84.86],[92.39,84.72],[92.47,84.58],[92.56,84.45],[92.66,84.32],[92.76,84.19],[92.86,84.06],[92.97,83.94],[93.09,83.83],[93.21,83.72],[93.33,83.61],[93.45,83.51],[93.58,83.41],[93.72,83.31],[93.85,83.22],[93.99,83.14],[94.13,83.06],[94.28,82.99],[94.43,82.92],[94.58,82.86],[94.63,82.84],[94.64,82.83],[94.65,82.83],[94.66,82.82],[94.68,82.82],[94.70,82.81],[94.72,82.80],[94.73,82.80],[94.75,82.79],[94.80,82.78],[94.81,82.77],[94.82,82.77],[94.83,82.77],[94.84,82.76],[94.85,82.76],[94.86,82.75],[94.88,82.75],[94.90,82.74],[94.92,82.74],[94.94,82.73],[94.99,82.71],[95.03,82.70],[95.07,82.69],[95.10,82.69],[95.13,82.68],[95.15,82.67],[95.18,82.67],[95.19,82.66],[95.24,82.65],[95.26,82.65],[95.31,82.64],[95.36,82.63],[95.38,82.62],[95.41,82.61],[95.45,82.61],[95.47,82.60],[95.50,82.60],[95.52,82.60],[95.53,82.59],[95.55,82.59],[95.58,82.59],[95.60,82.58],[95.62,82.58],[95.66,82.58],[95.70,82.57],[95.71,82.57],[95.75,82.56],[95.77,82.56],[95.78,82.56],[95.81,82.56],[95.83,82.56],[95.86,82.55],[95.88,82.55],[95.90,82.55],[95.91,82.55],[95.95,82.55],[95.96,82.55],[96.00,82.54],[96.03,82.54],[96.06,82.54],[96.07,82.54],[96.10,82.54],[96.11,82.54],[96.14,82.54],[96.16,82.54],[96.17,82.54],[96.19,82.54],[96.22,82.54],[96.23,82.54],[96.23,82.54],[96.23,82.54],[108.24,82.54],[108.29,82.54],[108.32,82.54],[108.34,82.54],[108.39,82.54],[108.43,82.54],[108.48,82.54],[108.51,82.55],[108.55,82.55],[108.59,82.55],[108.62,82.55],[108.65,82.56],[108.68,82.56],[108.70,82.56],[108.72,82.56],[108.73,82.56],[108.74,82.57],[108.81,82.57],[108.97,82.60],[109.13,82.63],[109.29,82.66],[109.44,82.70],[109.60,82.75],[109.75,82.80],[109.91,82.86],[110.06,82.92],[110.20,82.99],[110.35,83.06],[110.49,83.14],[110.63,83.22],[110.77,83.31],[110.90,83.41],[111.03,83.51],[111.15,83.61],[111.28,83.72],[111.39,83.83],[111.51,83.94],[111.62,84.06],[111.72,84.19],[111.82,84.32],[111.92,84.45],[112.01,84.58],[112.10,84.72],[112.18,84.86],[112.25,85.00],[112.33,85.15],[112.39,85.30],[112.45,85.45],[112.51,85.60],[112.55,85.76],[112.60,85.91],[112.64,86.07],[112.67,86.23],[112.69,86.39],[112.71,86.55],[112.73,86.71],[112.74,86.88],[112.74,87.04],[112.74,99.04],[112.74,99.20],[112.73,99.36],[112.71,99.52],[112.69,99.69],[112.67,99.85],[112.64,100.01],[112.60,100.16],[112.55,100.32],[112.51,100.48],[112.45,100.63],[112.39,100.78],[112.33,100.93],[112.25,101.07],[112.18,101.22],[112.10,101.36],[112.01,101.50],[111.92,101.63],[111.82,101.76],[111.72,101.89],[111.62,102.01],[111.51,102.13],[111.39,102.25],[111.28,102.36],[111.15,102.47],[111.03,102.57],[110.90,102.67],[110.77,102.76],[110.63,102.85],[110.49,102.94],[110.35,103.01],[110.20,103.09],[110.06,103.16],[109.91,103.22],[109.75,103.28],[109.60,103.33],[109.44,103.37],[109.29,103.41],[109.13,103.45],[108.97,103.48],[108.81,103.50],[108.65,103.52],[108.48,103.53],[108.32,103.54],[96.16,103.54],[96.00,103.53],[95.84,103.52],[95.67,103.50],[95.51,103.48],[95.35,103.45],[95.19,103.41],[95.04,103.37],[94.88,103.33],[94.73,103.28],[94.58,103.22],[94.43,103.16],[94.28,103.09],[94.13,103.01],[93.99,102.94],[93.85,102.85],[93.72,102.76],[93.58,102.67],[93.45,102.57],[93.33,102.47],[93.21,102.36],[93.09,102.25],[92.97,102.13],[92.86,102.01],[92.76,101.89],[92.66,101.76],[92.56,101.63],[92.47,101.50],[92.39,101.36],[92.30,101.22],[92.23,101.07],[92.16,100.93],[92.09,100.78],[92.03,100.63],[91.98,100.48],[91.93,100.32],[91.88,100.16],[91.85,100.01],[91.81,99.85],[91.79,99.69],[91.77,99.52],[91.75,99.36],[91.74,99.20],[91.74,99.04],[91.74,87.04]]
; plater:{"center":[86.308520,95.266182,0.000000],"boundingbox_center":[86.308520,95.266182,6.425000],"boundingbox_size":[52.865074,25.455777,12.850000]}

M107
;TYPE:Custom
START_PRINT EXTRUDER=250 BED=100
M107
G21 ; set units to millimeters
G90 ; use absolute coordinates
M83 ; use relative distances for extrusion
ACTIVATE_EXTRUDER EXTRUDER=extruder
; Filament gcode
FILAMENT_START MATERIAL=ASA COLOR=#368900 VENDOR=123-3D
SET_PRESSURE_ADVANCE ADVANCE=0.062
M104 S250 T0 ; set temperature
M109 S250 T0 ; set temperature and wait for it to be reached
M190 S100 ; set bed temperature and wait for it to be reached
;LAYER_CHANGE
;Z:0.24
;HEIGHT:0.24
G1 E-1 F3600
G1 Z0.24 F60000
G92 E0
M204 S750
G1 X59.588 Y95.368
G1 E1 F3600
;TYPE:Skirt
;WIDTH:0.4
M107
G1 F2398.83
G1 X58.807 Y95.975 E.03167
G1 X57.721 Y97.081 E0.04958
G1 F2399.816
G1 X57.153 Y97.851 E.03061
G1 X56.706 Y98.591 E.02766
G1 X56.276 Y99.512 E0.03251
G1 X55.99 Y100.316 E.0273
G1 F2398.46
G1 X55.751 Y101.314 E.03285
G1 F2399.394
G1 X55.634 Y102.148 E.02694
G1 X55.595 Y102.84 E0.02216
G1 F2397.919
G1 X55.646 Y103.935 E.03508
G1 X55.787 Y104.867 E0.03014
G1 F2399.894
G1 X56.032 Y105.803 E.03094
G1 F2397.037
G1 X56.346 Y106.648 E.02886
G1 X56.779 Y107.526 E0.0313
G1 F2399.061
G1 X57.518 Y108.647 E.04296
G1 X58.168 Y109.408 E.03202
G1 X58.963 Y110.149 E0.03476
G1 X60.112 Y110.958 E.04495
G1 F2398.827
G1 X61.393 Y111.594 E.04577
G1 X62.671 Y112.007 E0.04296
G1 X64.03 Y112.236 E.0441
G1 X65.027 Y112.275 E0.0319
G1 X69.373 Y112.118 Z.24 E.13914
G1 F2399.246
G1 X73.72 Y111.96 Z.24 E.13914
G1 X78.066 Y111.803 Z.24 E.13914
G1 X82.557 Y111.243 Z.24 E.14479
G1 X87.048 Y110.682 Z.24 E.14479
G1 X91.539 Y110.122 Z.24 E.14479
G1 X96.03 Y109.561 Z.24 E.14479
G1 X100.521 Y109.001 Z.24 E.14479
G1 X105.012 Y108.44 Z.24 E.14479
G1 X109.503 Y107.88 Z.24 E.14479
G1 X111.011 Y107.528 E.04953
G1 X111.926 Y107.172 E0.0314
G1 F2397.309
G1 X112.693 Y106.78 E.02758
G1 F2399.534
G1 X113.376 Y106.345 E.0259
G1 X114.12 Y105.76 E0.03026
G1 F2397.037
G1 X114.738 Y105.166 E.02744
G1 X115.522 Y104.21 E0.03953
G1 F2399.063
G1 X115.983 Y103.488 E.02741
G1 X116.425 Y102.612 E.0314
G1 F2398.779
G1 X116.758 Y101.727 E.03026
G1 X116.966 Y100.944 E0.0259
G1 X117.108 Y100.094 E.02757
G1 X117.171 Y99.198 E0.02873
G1 F2399.67
G1 X117.171 Y95.198 Z.24 E.12796
G1 X117.171 Y91.198 Z.24 E.12796
G1 F2400
G1 X117.171 Y87.198 Z.24 E.12796
G1 F2398.282
G1 X117.082 Y85.776 E.0456
G1 X116.811 Y84.53 E0.04077
G1 X116.501 Y83.642 E.03009
G1 X116.158 Y82.906 E0.02597
G1 F2399.534
G1 X115.246 Y81.5 E.05362
G1 F2398.996
G1 X114.25 Y80.433 E.04671
G1 X112.913 Y79.427 E0.05351
G1 X111.625 Y78.775 E.04619
G1 X110.062 Y78.296 E0.05228
G1 X108.734 Y78.121 E.04287
G1 F2399.889
G1 X104.472 Y78.168 Z.24 E.13635
G1 X100.211 Y78.215 Z.24 E.13635
G1 X95.949 Y78.262 Z.24 E.13635
G1 X94.775 Y78.381 E.03774
G1 X93.435 Y78.719 E0.04419
G1 F2397.736
G1 X92.431 Y79.125 E.03467
G1 X60.344 Y94.897 E1.14378
G1 F2395.596
G1 X59.639 Y95.336 E.02658
M107
G1 X59.823 Y95.631 F60000
M107
G1 F2400
G1 X59.78 Y95.658 E0.00162
G1 F2396.754
G1 X59.027 Y96.246 E.03056
G1 F2399.721
G1 X57.986 Y97.308 E.04758
G1 F2397.096
G1 X57.438 Y98.052 E.02958
G1 X57.009 Y98.764 E0.02656
G1 F2396.258
G1 X56.595 Y99.651 E.03134
G1 X56.321 Y100.424 E0.02623
G1 F2399.885
G1 X56.092 Y101.387 E.03166
G1 X55.98 Y102.189 E0.0259
G1 X55.944 Y102.852 E.02124
G1 X55.994 Y103.912 E.03395
G1 F2398.438
G1 X56.13 Y104.803 E.02885
G1 F2399.63
G1 X56.367 Y105.707 E.02989
G1 X56.669 Y106.518 E0.02767
G1 X57.088 Y107.365 E.03023
G1 X57.788 Y108.427 E0.04069
G1 X58.415 Y109.161 E.03089
G1 X59.19 Y109.884 E0.0339
G1 F2398.749
G1 X60.284 Y110.655 E.04283
G1 F2399.638
G1 X61.533 Y111.275 E.0446
G1 X62.744 Y111.666 E0.04069
G1 X64.071 Y111.89 E.04306
G1 F2398.698
G1 X65.015 Y111.926 E.03024
G1 X78.023 Y111.457 E0.4164
G1 F2399.866
G1 X82.514 Y110.897 Z.24 E.14479
G1 X87.005 Y110.336 Z.24 E.14479
G1 X91.496 Y109.776 Z.24 E.14479
G1 X95.987 Y109.216 Z.24 E.14479
G1 X100.478 Y108.656 Z.24 E.14479
G1 X104.969 Y108.095 Z.24 E.14479
G1 X109.46 Y107.535 Z.24 E.14479
G1 X110.912 Y107.194 E0.0477
G1 F2397.75
G1 X111.79 Y106.851 E.03017
G1 X112.526 Y106.474 E0.02644
G1 F2399.378
G1 X113.182 Y106.055 E.0249
G1 F2397.917
G1 X113.897 Y105.492 E.02913
G1 X114.49 Y104.921 E0.02632
G1 F2398.465
G1 X115.233 Y104.015 E.0375
G1 F2399.121
G1 X115.676 Y103.323 E.02629
G1 X116.102 Y102.481 E0.03017
G1 X116.423 Y101.629 E.02912
G1 F2398.998
G1 X116.624 Y100.877 E.02491
G1 F2399.894
G1 X116.761 Y100.062 E.02644
G1 X116.823 Y99.198 E0.02771
G1 X116.823 Y95.198 Z.24 E.12796
G1 X116.823 Y91.198 Z.24 E.12796
G1 F2400
G1 X116.823 Y87.198 Z.24 E.12796
G1 F2398.063
G1 X116.736 Y85.818 E.04426
G1 X116.48 Y84.637 E0.03864
G1 X116.182 Y83.782 E.02897
G1 X115.853 Y83.074 E0.02496
G1 F2397.603
G1 X114.979 Y81.724 E.05148
G1 F2399.906
G1 X114.009 Y80.684 E.04549
G1 X112.724 Y79.72 E0.05138
G1 X111.502 Y79.1 E.04384
G1 X110.001 Y78.639 E.05024
G1 X108.707 Y78.469 E0.04174
G1 X104.456 Y78.516 Z.24 E.13601
G1 F2398.966
G1 X100.204 Y78.563 Z.24 E.13601
G1 X95.953 Y78.61 Z.24 E.13601
G1 X94.841 Y78.724 E0.03574
G1 F2397.986
G1 X93.538 Y79.052 E.043
G1 X92.584 Y79.438 E0.03291
G1 F2399.066
G1 X88.574 Y81.409 Z.24 E.14294
G1 X84.564 Y83.38 Z.24 E.14294
G1 X80.554 Y85.351 Z.24 E.14294
G1 X76.545 Y87.322 Z.24 E.14294
G1 X72.535 Y89.293 Z.24 E.14294
G1 X68.525 Y91.264 Z.24 E.14294
G1 X64.515 Y93.235 Z.24 E.14294
G1 X60.505 Y95.206 Z.24 E.14294
G1 X59.874 Y95.6 E0.02379
M107
G1 X60.059 Y95.895 F60000
M107
G1 F2390.691
G1 X59.973 Y95.949 E.00326
G1 X59.247 Y96.516 E0.02945
G1 F2399.077
G1 X58.251 Y97.535 E.04559
G1 X57.312 Y98.936 E.05397
G1 X56.914 Y99.791 E.03017
G1 X56.653 Y100.533 E0.02516
G1 F2398.457
G1 X56.433 Y101.459 E.03046
G1 F2399.679
G1 X56.326 Y102.229 E.02486
G1 X56.292 Y102.864 E0.02033
G1 F2396.248
G1 X56.341 Y103.888 E.03283
G1 X56.473 Y104.74 E0.02757
G1 F2399.917
G1 X56.703 Y105.612 E.02884
G1 F2396.968
G1 X56.992 Y106.387 E.02648
G1 X57.397 Y107.204 E0.02915
G1 F2399.041
G1 X58.058 Y108.207 E.03843
G1 X58.661 Y108.915 E.02976
G1 X59.417 Y109.619 E0.03304
G1 F2398.887
G1 X60.457 Y110.352 E.04072
G1 F2399.488
G1 X61.181 Y110.74 E.02628
G1 X62.415 Y111.217 E0.04231
G1 F2398.333
G1 X63.698 Y111.496 E.04202
G1 X65.004 Y111.578 E0.04185
G1 F2399.43
G1 X69.329 Y111.422 Z.24 E.13846
G1 X73.655 Y111.267 Z.24 E.13846
G1 F2400
G1 X77.98 Y111.111 Z.24 E.13846
G1 F2399.953
G1 X82.471 Y110.551 Z.24 E.14479
G1 X86.962 Y109.99 Z.24 E.14479
G1 X91.453 Y109.43 Z.24 E.14479
G1 X95.944 Y108.87 Z.24 E.14479
G1 X100.435 Y108.31 Z.24 E.14479
G1 X104.926 Y107.749 Z.24 E.14479
G1 F2400
G1 X109.417 Y107.189 Z.24 E.14479
G1 F2398.59
G1 X110.812 Y106.86 E.04587
G1 F2399.756
G1 X111.655 Y106.53 E.02895
G1 X112.359 Y106.168 E0.02531
G1 F2395.388
G1 X112.988 Y105.766 E.02391
G1 X113.675 Y105.223 E0.02799
G1 F2396.401
G1 X114.242 Y104.677 E.0252
G1 X114.945 Y103.819 E0.03546
G1 F2399.499
G1 X115.37 Y103.157 E.02516
G1 X115.779 Y102.35 E.02895
G1 F2398.47
G1 X116.088 Y101.532 E.02799
G1 X116.282 Y100.81 E0.02391
G1 F2399.356
G1 X116.474 Y99.198 E.05194
G1 X116.474 Y87.198 E0.38389
G1 X116.39 Y85.859 E.04292
G1 X116.148 Y84.744 E.03651
G1 X115.862 Y83.922 E0.02784
G1 F2397.489
G1 X115.548 Y83.243 E.02395
G1 X114.711 Y81.947 E0.04933
G1 F2398.919
G1 X113.767 Y80.936 E.04426
G1 F2399.487
G1 X112.535 Y80.013 E.04925
G1 X111.378 Y79.426 E0.04149
G1 F2397.957
G1 X109.939 Y78.982 E.0482
G1 X108.68 Y78.816 E0.04061
G1 F2399.245
G1 X104.439 Y78.864 Z.24 E.13568
G1 X100.198 Y78.911 Z.24 E.13568
G1 F2400
G1 X95.957 Y78.959 Z.24 E.13568
G1 F2398.286
G1 X94.908 Y79.066 E.03375
G1 X93.64 Y79.385 E0.04181
G1 X92.738 Y79.751 E.03115
G1 X60.666 Y95.515 E1.14325
G1 F2393.999
G1 X60.11 Y95.863 E.021
M107
G1 X60.295 Y96.158 F60000
M107
G1 F2400
G1 X60.165 Y96.24 E0.0049
G1 F2395.815
G1 X59.467 Y96.786 E.02835
G1 F2399.127
G1 X58.516 Y97.761 E.04359
G1 X57.615 Y99.108 E.05185
G1 X56.984 Y100.641 E0.05303
G1 X56.673 Y102.269 E.05303
G1 X56.689 Y103.865 E.05105
G1 X56.815 Y104.677 E.02628
G1 X57.038 Y105.517 E0.02779
G1 F2397.723
G1 X57.315 Y106.257 E.02529
G1 X57.706 Y107.043 E0.02807
G1 F2395.911
G1 X58.328 Y107.986 E.03617
G1 X58.908 Y108.669 E0.02863
G1 F2396.153
G1 X59.643 Y109.354 E.03217
G1 F2399.892
