; generated by SuperSlicer 2.5.59.10 on 2024-06-01 at 08:00:01 UTC


;
;

;
;
; 

; external perimeters extrusion width = 0.40mm
; perimeters extrusion width = 0.40mm
; infill extrusion width = 0.40mm
; solid infill extrusion width = 0.40mm
; top infill extrusion width = 0.40mm
; first layer extrusion width = 0.40mm

; external perimeters extrusion width = 0.40mm
; perimeters extrusion width = 0.40mm
; infill extrusion width = 0.40mm
; solid infill extrusion width = 0.40mm
; top infill extrusion width = 0.40mm
; first layer extrusion width = 0.40mm

; object:{"name":"a_FlangeSpacer_pair","id":"a_FlangeSpacer_pair.stl id:0 copy 0","object_center":[102.374494,111.949046,0.000000],"boundingbox_center":[102.374494,111.949046,4.925000],"boundingbox_size":[21.990849,10.396465,9.850000]}
EXCLUDE_OBJECT_DEFINE NAME=a_FlangeSpacer_pair_stl_id_0_copy_0 CENTER=102.374494,111.949046 POLYGON=[[91.38,112.15],[91.39,111.82],[91.39,111.82],[91.42,111.49],[91.42,111.49],[91.48,111.17],[91.48,111.16],[91.55,110.85],[91.55,110.84],[91.64,110.54],[91.65,110.52],[91.76,110.23],[91.77,110.21],[91.89,109.94],[91.91,109.91],[92.05,109.65],[92.06,109.62],[92.22,109.37],[92.24,109.34],[92.41,109.10],[92.43,109.08],[92.62,108.85],[92.64,108.82],[92.84,108.61],[92.87,108.58],[93.08,108.39],[93.12,108.36],[93.34,108.18],[93.37,108.15],[93.60,107.99],[93.64,107.96],[93.88,107.82],[93.93,107.79],[94.17,107.66],[94.22,107.64],[94.47,107.53],[94.52,107.50],[94.77,107.41],[94.83,107.39],[95.08,107.32],[95.15,107.30],[95.40,107.24],[95.47,107.23],[95.73,107.19],[95.80,107.18],[96.05,107.16],[96.13,107.15],[108.12,106.76],[108.37,106.75],[108.45,106.75],[108.70,106.76],[108.78,106.77],[109.02,106.79],[109.11,106.81],[109.35,106.85],[109.44,106.87],[109.66,106.92],[109.76,106.95],[109.98,107.02],[110.07,107.05],[110.28,107.13],[110.38,107.17],[110.58,107.27],[110.68,107.31],[110.87,107.42],[110.96,107.48],[111.15,107.59],[111.24,107.66],[111.41,107.78],[111.51,107.86],[111.67,107.99],[111.76,108.07],[111.91,108.22],[111.99,108.30],[112.13,108.45],[112.21,108.55],[112.34,108.71],[112.42,108.81],[112.53,108.97],[112.60,109.09],[112.70,109.25],[112.77,109.37],[112.85,109.54],[112.91,109.67],[112.99,109.84],[113.04,109.97],[113.10,110.14],[113.15,110.28],[113.20,110.46],[113.24,110.60],[113.27,110.78],[113.30,110.93],[113.33,111.10],[113.35,111.26],[113.36,111.42],[113.37,111.59],[113.37,111.75],[113.37,111.92],[113.36,112.08],[113.35,112.25],[113.33,112.40],[113.30,112.57],[113.27,112.73],[113.24,112.90],[113.20,113.04],[113.15,113.22],[113.10,113.36],[113.04,113.53],[112.99,113.66],[112.91,113.83],[112.85,113.96],[112.77,114.13],[112.70,114.25],[112.60,114.42],[112.53,114.53],[112.42,114.69],[112.34,114.79],[112.21,114.95],[112.13,115.05],[111.99,115.20],[111.91,115.29],[111.76,115.43],[111.67,115.51],[111.51,115.65],[111.41,115.72],[111.24,115.84],[111.15,115.91],[110.96,116.02],[110.87,116.08],[110.68,116.19],[110.58,116.24],[110.38,116.33],[110.28,116.37],[110.07,116.45],[109.98,116.49],[109.76,116.55],[109.66,116.58],[109.44,116.64],[109.35,116.65],[109.11,116.70],[109.02,116.71],[108.78,116.73],[108.70,116.74],[108.45,116.75],[96.46,117.15],[96.38,117.15],[96.13,117.14],[96.05,117.14],[95.80,117.11],[95.73,117.10],[95.47,117.06],[95.40,117.05],[95.15,116.99],[95.08,116.98],[94.83,116.90],[94.77,116.88],[94.52,116.79],[94.47,116.77],[94.22,116.66],[94.17,116.63],[93.93,116.50],[93.88,116.48],[93.64,116.33],[93.60,116.30],[93.37,116.14],[93.34,116.11],[93.12,115.94],[93.08,115.91],[92.87,115.71],[92.84,115.68],[92.64,115.47],[92.62,115.44],[92.43,115.22],[92.41,115.19],[92.24,114.95],[92.22,114.93],[92.06,114.67],[92.05,114.65],[91.91,114.38],[91.89,114.36],[91.77,114.08],[91.76,114.06],[91.65,113.77],[91.64,113.75],[91.55,113.45],[91.55,113.44],[91.48,113.13],[91.48,113.12],[91.42,112.81],[91.42,112.80],[91.39,112.48],[91.39,112.47],[91.38,112.15]]
; object:{"name":"a_Xjoint_8mm_Idler_Spacers","id":"a_Xjoint_8mm_Idler_Spacers.stl id:1 copy 0","object_center":[102.241057,93.037927,0.000000],"boundingbox_center":[102.241057,93.037927,6.425000],"boundingbox_size":[21.000000,20.999268,12.850000]}
EXCLUDE_OBJECT_DEFINE NAME=a_Xjoint_8mm_Idler_Spacers_stl_id_1_copy_0 CENTER=102.241057,93.037927 POLYGON=[[91.74,87.04],[91.74,86.88],[91.75,86.71],[91.77,86.55],[91.79,86.39],[91.81,86.23],[91.85,86.07],[91.88,85.91],[91.93,85.76],[91.98,85.60],[92.03,85.45],[92.09,85.30],[92.16,85.15],[92.23,85.00],[92.30,84.86],[92.39,84.72],[92.47,84.58],[92.56,84.45],[92.66,84.32],[92.76,84.19],[92.86,84.06],[92.97,83.94],[93.09,83.83],[93.21,83.72],[93.33,83.61],[93.45,83.51],[93.58,83.41],[93.72,83.31],[93.85,83.22],[93.99,83.14],[94.13,83.06],[94.28,82.99],[94.43,82.92],[94.58,82.86],[94.63,82.84],[94.64,82.83],[94.65,82.83],[94.66,82.82],[94.68,82.82],[94.70,82.81],[94.72,82.80],[94.73,82.80],[94.75,82.79],[94.80,82.78],[94.81,82.77],[94.82,82.77],[94.83,82.77],[94.84,82.76],[94.85,82.76],[94.86,82.75],[94.88,82.75],[94.90,82.74],[94.92,82.74],[94.94,82.73],[94.99,82.71],[95.03,82.70],[95.07,82.69],[95.10,82.69],[95.13,82.68],[95.15,82.67],[95.18,82.67],[95.19,82.66],[95.24,82.65],[95.26,82.65],[95.31,82.64],[95.36,82.63],[95.38,82.62],[95.41,82.61],[95.45,82.61],[95.47,82.60],[95.50,82.60],[95.52,82.60],[95.53,82.59],[95.55,82.59],[95.58,82.59],[95.60,82.58],[95.62,82.58],[95.66,82.58],[95.70,82.57],[95.71,82.57],[95.75,82.56],[95.77,82.56],[95.78,82.56],[95.81,82.56],[95.83,82.56],[95.86,82.55],[95.88,82.55],[95.90,82.55],[95.91,82.55],[95.95,82.55],[95.96,82.55],[96.00,82.54],[96.03,82.54],[96.06,82.54],[96.07,82.54],[96.10,82.54],[96.11,82.54],[96.14,82.54],[96.16,82.54],[96.17,82.54],[96.19,82.54],[96.22,82.54],[96.23,82.54],[96.23,82.54],[96.23,82.54],[108.24,82.54],[108.29,82.54],[108.32,82.54],[108.34,82.54],[108.39,82.54],[108.43,82.54],[108.48,82.54],[108.51,82.55],[108.55,82.55],[108.59,82.55],[108.62,82.55],[108.65,82.56],[108.68,82.56],[108.70,82.56],[108.72,82.56],[108.73,82.56],[108.74,82.57],[108.81,82.57],[108.97,82.60],[109.13,82.63],[109.29,82.66],[109.44,82.70],[109.60,82.75],[109.75,82.80],[109.91,82.86],[110.06,82.92],[110.20,82.99],[110.35,83.06],[110.49,83.14],[110.63,83.22],[110.77,83.31],[110.90,83.41],[111.03,83.51],[111.15,83.61],[111.28,83.72],[111.39,83.83],[111.51,83.94],[111.62,84.06],[111.72,84.19],[111.82,84.32],[111.92,84.45],[112.01,84.58],[112.10,84.72],[112.18,84.86],[112.25,85.00],[112.33,85.15],[112.39,85.30],[112.45,85.45],[112.51,85.60],[112.55,85.76],[112.60,85.91],[112.64,86.07],[112.67,86.23],[112.69,86.39],[112.71,86.55],[112.73,86.71],[112.74,86.88],[112.74,87.04],[112.74,99.04],[112.74,99.20],[112.73,99.36],[112.71,99.52],[112.69,99.69],[112.67,99.85],[112.64,100.01],[112.60,100.16],[112.55,100.32],[112.51,100.48],[112.45,100.63],[112.39,100.78],[112.33,100.93],[112.25,101.07],[112.18,101.22],[112.10,101.36],[112.01,101.50],[111.92,101.63],[111.82,101.76],[111.72,101.89],[111.62,102.01],[111.51,102.13],[111.39,102.25],[111.28,102.36],[111.15,102.47],[111.03,102.57],[110.90,102.67],[110.77,102.76],[110.63,102.85],[110.49,102.94],[110.35,103.01],[110.20,103.09],[110.06,103.16],[109.91,103.22],[109.75,103.28],[109.60,103.33],[109.44,103.37],[109.29,103.41],[109.13,103.45],[108.97,103.48],[108.81,103.50],[108.65,103.52],[108.48,103.53],[108.32,103.54],[96.16,103.54],[96.00,103.53],[95.84,103.52],[95.67,103.50],[95.51,103.48],[95.35,103.45],[95.19,103.41],[95.04,103.37],[94.88,103.33],[94.73,103.28],[94.58,103.22],[94.43,103.16],[94.28,103.09],[94.13,103.01],[93.99,102.94],[93.85,102.85],[93.72,102.76],[93.58,102.67],[93.45,102.57],[93.33,102.47],[93.21,102.36],[93.09,102.25],[92.97,102.13],[92.86,102.01],[92.76,101.89],[92.66,101.76],[92.56,101.63],[92.47,101.50],[92.39,101.36],[92.30,101.22],[92.23,101.07],[92.16,100.93],[92.09,100.78],[92.03,100.63],[91.98,100.48],[91.93,100.32],[91.88,100.16],[91.85,100.01],[91.81,99.85],[91.79,99.69],[91.77,99.52],[91.75,99.36],[91.74,99.20],[91.74,99.04],[91.74,87.04]]
; plater:{"center":[102.374494,99.842786,0.000000],"boundingbox_center":[102.374494,99.842786,6.425000],"boundingbox_size":[21.990849,34.608985,12.850000]}

M107
;TYPE:Custom
START_PRINT EXTRUDER=250 BED=100
M107
G21 ; set units to millimeters
G90 ; use absolute coordinates
M83 ; use relative distances for extrusion
; Filament gcode
FILAMENT_START MATERIAL=ASA COLOR=#368900 VENDOR=123-3D
SET_PRESSURE_ADVANCE ADVANCE=0.062
M104 S250 ; set temperature
M109 S250 ; set temperature and wait for it to be reached
M190 S100 ; set bed temperature and wait for it to be reached
;LAYER_CHANGE
;Z:0.24
;HEIGHT:0.24
G1 E-1 F3600
G1 Z0.24 F60000
G92 E0
M204 S750
G1 X89.547 Y81.143
G1 E1 F3600
;TYPE:Skirt
;WIDTH:0.4
M107
G1 F2400
G1 X90.248 Y80.432 E0.03193
G1 F2399.929
G1 X90.877 Y79.912 E.0261
G1 F2398.033
G1 X91.561 Y79.445 E.02651
G1 X92.339 Y79.017 E0.0284
G1 F2399.81
G1 X93.168 Y78.665 E.02881
G1 X94.019 Y78.4 E.02852
G1 F2398.537
G1 X94.874 Y78.224 E.02794
G1 X95.743 Y78.133 E0.02794
G1 F2399.896
G1 X96.667 Y78.129 E.02955
G1 X97.557 Y78.217 E.02861
G1 X98.433 Y78.392 E.02859
G1 F2397.842
G1 X99.285 Y78.654 E.02854
G1 X100.112 Y79.003 E0.0287
G1 F2398.674
G1 X100.877 Y79.418 E.02784
G1 X101.598 Y79.907 E0.02785
G1 F2396.697
G1 X102.127 Y80.345 E.02199
G1 X102.694 Y79.862 E0.02382
G1 F2399.701
G1 X103.426 Y79.353 E.02852
G1 F2398.662
G1 X104.203 Y78.917 E.02851
G1 X104.999 Y78.568 E0.02779
G1 X105.868 Y78.285 E.02924
G1 X106.797 Y78.084 E0.0304
G1 F2399.999
G1 X107.718 Y77.984 E.02963
G1 X108.647 Y77.978 E.02972
G1 F2397.598
G1 X109.481 Y78.054 E.02681
G1 X110.311 Y78.208 E0.02699
G1 F2398.378
G1 X111.116 Y78.437 E.02679
G1 X111.905 Y78.741 E.02706
G1 F2399.831
G1 X112.843 Y79.223 E.03372
G1 X113.544 Y79.681 E0.02677
G1 F2396.827
G1 X114.203 Y80.204 E.02694
G1 F2399.926
G1 X114.915 Y80.896 E.03176
G1 X115.471 Y81.562 E0.02775
G1 F2398.539
G1 X115.964 Y82.282 E.02793
G1 F2399.191
G1 X116.396 Y83.069 E.02872
G1 X116.732 Y83.85 E0.02718
G1 X116.994 Y84.662 E.02729
G1 F2397.871
G1 X117.179 Y85.499 E.02744
G1 X117.287 Y86.382 E0.02845
G1 F2398.032
G1 X117.307 Y87.306 E.02958
G1 X117.229 Y88.25 E0.03029
G1 F2397.698
G1 X117.07 Y89.112 E.02806
G1 X116.823 Y89.973 E0.02865
G1 F2399.997
G1 X116.468 Y90.856 E.03044
G1 X116.024 Y91.694 E.03035
G1 F2398.729
G1 X115.562 Y92.392 E.02679
G1 X115.033 Y93.049 E0.02697
G1 F2397.937
G1 X115.48 Y93.575 E.02209
G1 X115.955 Y94.269 E0.02689
G1 F2399.178
G1 X116.382 Y95.04 E.0282
G1 F2398.971
G1 X116.733 Y95.853 E.02834
G1 X116.995 Y96.667 E0.02735
G1 F2397.041
G1 X117.182 Y97.521 E.02799
G1 X117.289 Y98.406 E0.0285
G1 F2399.32
G1 X117.305 Y99.349 E.03017
G1 F2397.723
G1 X117.226 Y100.274 E.02972
G1 X117.068 Y101.12 E0.02752
G1 F2398.338
G1 X116.821 Y101.979 E.0286
G1 X116.459 Y102.875 E0.0309
G1 F2399.871
G1 X116.041 Y103.666 E.02861
G1 F2398.021
G1 X115.571 Y104.379 E.02734
G1 X115.004 Y105.08 E0.02885
G1 X115.397 Y105.478 E.0179
G1 X115.945 Y106.153 E0.0278
G1 F2399.196
G1 X116.453 Y106.914 E.02927
G1 X116.887 Y107.73 E0.02956
G1 F2398.472
G1 X117.239 Y108.578 E.02939
G1 F2399.323
G1 X117.529 Y109.558 E.0327
G1 X117.702 Y110.467 E0.02959
G1 X117.775 Y111.246 E.02503
G1 X117.769 Y112.366 E.03583
G1 X117.665 Y113.269 E.02909
G1 X117.479 Y114.151 E.02885
G1 X117.191 Y115.051 E0.03023
G1 F2398.406
G1 X116.788 Y115.977 E.03231
G1 X116.29 Y116.848 E0.03206
G1 F2396.57
G1 X115.736 Y117.621 E.03045
G1 X115.223 Y118.213 E0.02506
G1 F2399.276
G1 X114.63 Y118.788 E.02643
G1 X113.985 Y119.313 E0.0266
G1 X113.291 Y119.783 E.02682
G1 X112.411 Y120.258 E.03199
G1 X111.493 Y120.638 E0.03178
G1 F2398.625
G1 X110.526 Y120.919 E.03223
G1 F2399.339
G1 X109.592 Y121.091 E.03038
G1 X108.485 Y121.169 E0.03548
G1 F2398.984
G1 X107.719 Y121.148 E.02452
G1 F2399.431
G1 X106.873 Y121.049 E.02726
G1 X105.903 Y120.841 E.03174
G1 X105.016 Y120.552 E0.02983
G1 F2398.949
G1 X104.172 Y120.183 E.02948
G1 F2399.274
G1 X103.357 Y119.725 E.02992
G1 X102.615 Y119.204 E.029
G1 X101.994 Y119.71 E0.02562
G1 F2397.731
G1 X101.236 Y120.218 E.02921
G1 X100.405 Y120.662 E0.03013
G1 F2399.621
G1 X99.565 Y121.012 E.02911
G1 X98.578 Y121.305 E.03294
G1 X97.643 Y121.482 E0.03043
G1 X96.542 Y121.564 E.03532
G1 X95.738 Y121.545 E0.02572
G1 X94.83 Y121.437 E.02926
G1 F2398.33
G1 X93.949 Y121.248 E.02884
G1 X93.078 Y120.968 E0.02925
G1 F2399.146
G1 X92.236 Y120.607 E.02931
G1 X91.419 Y120.154 E.0299
G1 X90.628 Y119.606 E.03079
G1 X90.021 Y119.096 E0.02535
G1 F2398.947
G1 X89.46 Y118.539 E.02529
G1 X88.853 Y117.811 E0.03031
G1 F2399.917
G1 X88.268 Y116.936 E.03366
G1 X87.863 Y116.169 E.02775
G1 X87.528 Y115.371 E.0277
G1 X87.235 Y114.4 E0.03245
G1 X87.047 Y113.433 E.03152
G1 X86.962 Y112.314 E0.03589
G1 F2398.413
G1 X86.983 Y111.479 E.02673
G1 X87.089 Y110.602 E0.02825
G1 F2399.071
G1 X87.283 Y109.701 E.02949
G1 X87.577 Y108.796 E.03044
G1 X87.955 Y107.933 E0.03013
G1 F2398.542
G1 X88.423 Y107.106 E.03041
G1 X88.934 Y106.378 E0.02845
G1 F2399.428
G1 X89.478 Y105.737 E.0269
G1 F2398.31
G1 X89.912 Y105.309 E.0195
G1 X89.592 Y104.984 E0.01457
G1 X89.055 Y104.322 E.02727
G1 F2399.49
G1 X88.564 Y103.58 E.02847
G1 F2398.937
G1 X88.149 Y102.791 E.02852
G1 X87.835 Y102.022 E0.02655
G1 F2396.561
G1 X87.591 Y101.212 E.02709
G1 X87.418 Y100.347 E0.02822
G1 F2398.347
G1 X87.33 Y99.419 E.02983
G1 X87.33 Y98.641 E0.02487
G1 X87.399 Y97.868 E.02484
G1 X87.562 Y96.979 E.02892
G1 X87.811 Y96.123 E0.0285
G1 F2397.886
G1 X88.147 Y95.29 E.02875
G1 F2399.895
G1 X88.573 Y94.482 E.02922
G1 X89.067 Y93.739 E0.02854
G1 F2396.61
G1 X89.646 Y93.037 E.02912
G1 X89.553 Y92.94 E0.00429
G1 F2398.013
G1 X89.052 Y92.318 E.02554
G1 X88.556 Y91.566 E.02883
G1 X88.137 Y90.763 E.02898
G1 X87.825 Y89.993 E0.02656
G1 F2399.098
G1 X87.587 Y89.197 E.02658
G1 F2398.322
G1 X87.421 Y88.366 E.02713
G1 F2399.04
G1 X87.332 Y87.468 E.02887
G1 X87.331 Y86.619 E0.02714
G1 X87.409 Y85.797 E.02641
G1 F2397.872
G1 X87.563 Y84.975 E.02677
G1 X87.836 Y84.052 E0.03078
G1 F2399.635
G1 X88.173 Y83.234 E.0283
G1 F2396.566
G1 X88.603 Y82.431 E.02916
G1 X89.046 Y81.767 E0.0255
G1 F2397.517
G1 X89.51 Y81.19 E.0237
M107
G1 X89.781 Y81.408 F60000
M107
G1 F2398.943
G1 X89.813 Y81.368 E.00164
G1 X90.477 Y80.695 E0.03024
G1 F2399.99
G1 X91.093 Y80.186 E.02556
G1 X91.751 Y79.738 E.02547
G1 X92.499 Y79.327 E.0273
G1 X93.296 Y78.989 E0.02769
G1 X94.114 Y78.735 E.0274
G1 X94.936 Y78.567 E.02684
G1 F2396.919
G1 X95.77 Y78.48 E.02685
G1 X96.659 Y78.477 E0.02842
G1 F2397.552
G1 X97.513 Y78.563 E.02748
G1 F2399.623
G1 X98.355 Y78.732 E.02748
G1 X99.174 Y78.985 E.02742
G1 X99.954 Y79.313 E0.02706
G1 X100.689 Y79.711 E.02674
G1 F2398.816
G1 X101.395 Y80.19 E.0273
G1 X102.027 Y80.714 E0.02625
G1 F2389.842
G1 X102.135 Y80.824 E.00495
G1 X102.285 Y80.668 E0.00692
G1 F2399.98
G1 X102.901 Y80.143 E.02588
G1 X103.604 Y79.652 E.02743
G1 X104.352 Y79.233 E.02743
G1 F2396.461
G1 X105.115 Y78.897 E.0267
G1 X105.951 Y78.624 E0.02811
G1 F2397.897
G1 X106.844 Y78.43 E.02925
G1 F2399.24
G1 X107.729 Y78.332 E.02849
G1 X108.624 Y78.326 E0.02862
G1 F2398.131
G1 X109.426 Y78.398 E.02577
G1 X110.224 Y78.545 E0.02595
G1 F2397.786
G1 X110.998 Y78.765 E.02576
G1 X111.771 Y79.063 E0.0265
G1 F2399.689
G1 X112.66 Y79.519 E.03196
G1 X113.346 Y79.968 E0.02622
G1 X113.98 Y80.471 E.02589
G1 X114.653 Y81.127 E0.03005
G1 F2398.44
G1 X115.198 Y81.779 E.0272
G1 F2399.299
G1 X115.671 Y82.472 E.02685
G1 X116.079 Y83.215 E0.02711
G1 X116.403 Y83.965 E.02613
G1 F2397.654
G1 X116.655 Y84.745 E.02624
G1 X116.834 Y85.55 E0.02637
G1 F2399.927
G1 X116.94 Y86.416 E.0279
G1 F2397.062
G1 X116.958 Y87.304 E.02844
G1 X116.883 Y88.212 E0.02914
G1 F2398.004
G1 X116.729 Y89.04 E.02695
G1 X116.496 Y89.852 E0.027
G1 F2396.769
G1 X116.156 Y90.701 E.02928
G1 X115.729 Y91.509 E0.02923
G1 F2399.326
G1 X115.276 Y92.193 E.02625
G1 F2396.847
G1 X114.771 Y92.819 E.02573
G1 X114.562 Y93.035 E0.00959
G1 X115.198 Y93.779 E.03132
G1 F2399.781
G1 X115.663 Y94.458 E.02633
G1 X116.072 Y95.201 E0.02713
G1 F2398.267
G1 X116.41 Y95.983 E.02726
G1 X116.661 Y96.766 E0.02628
G1 X116.838 Y97.572 E.0264
G1 F2397.859
G1 X116.94 Y98.421 E.02738
G1 F2399.97
