; generated by SuperSlicer 2.5.59.8 on 2024-03-29 at 19:54:47 UTC


;
;

;
;

;
;

;
;

;
;
; 

; external perimeters extrusion width = 0.40mm
; perimeters extrusion width = 0.40mm
; infill extrusion width = 0.40mm
; solid infill extrusion width = 0.40mm
; top infill extrusion width = 0.40mm

; object:{"name":"a_X_Limit_Stop_Block","id":"a_X_Limit_Stop_Block.stl id:0 copy 0","object_center":[87.500000,110.000000,0.000000],"boundingbox_center":[87.500000,110.000000,5.000000],"boundingbox_size":[32.299999,34.587631,10.000000]}
EXCLUDE_OBJECT_DEFINE NAME=a_X_Limit_Stop_Block_stl_id_0_copy_0 CENTER=87.500000,110.000000 POLYGON=[[71.35,94.86],[71.37,94.66],[71.38,94.63],[71.43,94.47],[71.46,94.41],[71.52,94.29],[71.58,94.21],[72.55,93.06],[72.71,92.91],[72.89,92.80],[73.10,92.73],[73.32,92.71],[101.68,92.71],[101.88,92.72],[101.90,92.73],[102.06,92.78],[102.11,92.80],[102.23,92.87],[102.29,92.91],[102.38,92.99],[102.45,93.06],[103.42,94.21],[103.53,94.38],[103.54,94.41],[103.61,94.56],[103.62,94.63],[103.65,94.76],[103.65,94.86],[103.65,111.57],[103.65,111.71],[103.64,111.87],[103.62,112.20],[103.61,112.29],[103.54,112.71],[103.52,112.82],[103.52,112.82],[103.45,113.12],[103.41,113.25],[103.36,113.42],[103.36,113.42],[103.27,113.68],[103.13,114.01],[103.13,114.01],[103.09,114.10],[102.87,114.52],[102.85,114.57],[96.08,126.29],[95.95,126.49],[95.94,126.50],[95.83,126.63],[95.80,126.67],[95.80,126.67],[95.68,126.78],[95.68,126.78],[95.64,126.82],[95.63,126.83],[95.52,126.91],[95.47,126.95],[95.44,126.96],[95.35,127.03],[95.29,127.06],[95.24,127.08],[95.16,127.12],[95.11,127.14],[95.03,127.17],[94.96,127.20],[94.92,127.21],[94.81,127.24],[94.76,127.25],[94.73,127.26],[94.58,127.28],[94.54,127.28],[94.35,127.29],[80.65,127.29],[80.54,127.29],[80.45,127.28],[80.42,127.28],[80.35,127.27],[80.24,127.25],[80.19,127.24],[80.16,127.23],[80.04,127.20],[79.97,127.17],[79.97,127.17],[79.84,127.12],[79.78,127.09],[79.76,127.08],[79.65,127.03],[79.65,127.03],[79.60,127.00],[79.56,126.96],[79.48,126.91],[79.48,126.91],[79.43,126.88],[79.37,126.83],[79.32,126.78],[79.32,126.78],[79.27,126.73],[79.20,126.67],[79.19,126.66],[79.17,126.63],[79.05,126.49],[79.05,126.49],[79.04,126.47],[78.92,126.29],[72.15,114.57],[72.13,114.52],[71.91,114.10],[71.87,114.01],[71.87,114.01],[71.73,113.68],[71.64,113.42],[71.64,113.42],[71.59,113.25],[71.55,113.12],[71.48,112.82],[71.48,112.82],[71.46,112.71],[71.39,112.29],[71.38,112.20],[71.36,111.87],[71.35,111.71],[71.35,111.57],[71.35,94.86]]
; plater:{"center":[87.500000,110.000000,0.000000],"boundingbox_center":[87.500000,110.000000,5.000000],"boundingbox_size":[32.299999,34.587631,10.000000]}

M73 P0 R25
M107
;TYPE:Custom
CALCULATE_PA MATERIAL=ABS BOWDEN_LENGTH=6 LAYER_HEIGHT=0.24 NOZZLE_SIZE=0.4 PRINT_SPEED=95


START_PRINT EXTRUDER=270 BED=100

M107
G21 ; set units to millimeters
G90 ; use absolute coordinates
M83 ; use relative distances for extrusion
ACTIVATE_EXTRUDER EXTRUDER=extruder
; Filament gcode
M104 S270 T0 ; set temperature
M109 S270 T0 ; set temperature and wait for it to be reached
M190 S100 ; set bed temperature and wait for it to be reached
;LAYER_CHANGE
;Z:0.24
;HEIGHT:0.24
;BEFORE_LAYER_CHANGE
G92 E0.0

G1 E-1.5 F3000
M73 P1 R25
G1 Z0.2 F3600000
G1 Z0.24
;AFTER_LAYER_CHANGE
;0.24




CALCULATE_PA MATERIAL=ABS BOWDEN_LENGTH=6.0 LAYER_HEIGHT=0.2 NOZZLE_SIZE=0.4 PRINT_SPEED=95


G92 E0
G1 Z0.44
G1 X69.924 Y89.156
G1 Z0.24
G1 E1.5 F3000
;TYPE:Skirt
;WIDTH:0.4
M107
G1 F2400
G1 X70.917 Y88.562 E0.04025
G1 X72.164 Y88.148 E0.04568
G1 X73.131 Y88.034 E0.03386
G1 X76.35 Y88.033 E0.11194
G1 X77.223 Y88.126 E0.03053
G1 X78.476 Y88.514 E0.04561
G1 X79.335 Y88.984 E0.03404
G1 X80.106 Y89.601 E0.03433
G1 X80.807 Y90.302 E0.03447
G1 X81.396 Y91.099 E0.03447
G1 X82.025 Y93.067 E0.07186
G1 X82.028 Y103.983 E0.37957
G1 X82.312 Y104.045 E0.01011
G1 X83.181 Y104.397 E0.03259
G1 X84.24 Y105.126 E0.0447
G1 X84.915 Y105.857 E0.03461
G1 X85.438 Y106.692 E0.03428
G1 X85.802 Y107.672 E0.03635
G1 X85.969 Y108.727 E0.03714
G1 X85.974 Y112.016 E0.11435
G1 X89.022 Y112.013 E0.10597
G1 X89.029 Y108.747 E0.11355
G1 X89.181 Y107.749 E0.03513
G1 X89.509 Y106.798 E0.03497
G1 X90.331 Y105.555 E0.05182
G1 X91.324 Y104.698 E0.04561
G1 X92.42 Y104.132 E0.04289
G1 X92.971 Y104 E0.01969
G1 X92.975 Y93.112 E0.37863
G1 X93.456 Y91.382 E0.06243
G1 X94.078 Y90.433 E0.03948
G1 X94.895 Y89.602 E0.04052
G1 X95.51 Y89.092 E0.02778
G1 X96.373 Y88.583 E0.03482
G1 X97.477 Y88.19 E0.04077
G1 X98.598 Y88.036 E0.03933
G1 X101.835 Y88.033 E0.11258
G1 X102.449 Y88.084 E0.02143
G1 X103.057 Y88.198 E0.02151
G1 X104.195 Y88.615 E0.04214
G1 X105.529 Y89.536 E0.05634
G1 X107.242 Y91.527 E0.09135
G1 X107.807 Y92.49 E0.03883
G1 X108.2 Y93.664 E0.04306
G1 X108.325 Y94.718 E0.03691
G1 X108.324 Y111.656 E0.58896
G1 X108.26 Y112.744 E0.0379
G1 X108.087 Y113.809 E0.03754
G1 X107.82 Y114.815 E0.03619
G1 X107.454 Y115.792 E0.03626
G1 X106.97 Y116.772 E0.03803
G1 X100.055 Y128.75 E0.48095
G1 X99.564 Y129.455 E0.02986
G1 X98.992 Y130.084 E0.02958
G1 X98.311 Y130.662 E0.03103
G1 X97.585 Y131.129 E0.03002
G1 X96.863 Y131.475 E0.02787
G1 X96.102 Y131.734 E0.02795
G1 X95.307 Y131.899 E0.02824
G1 X94.518 Y131.965 E0.02752
G1 X80.431 Y131.964 E0.48984
G1 X79.788 Y131.912 E0.02245
G1 X79.134 Y131.793 E0.0231
G1 X78.372 Y131.566 E0.02766
G1 X77.596 Y131.226 E0.02946
G1 X76.814 Y130.752 E0.0318
G1 X76.003 Y130.078 E0.03667
G1 X75.413 Y129.426 E0.03059
G1 X74.933 Y128.731 E0.02934
G1 X68.064 Y116.835 E0.47767
G1 X67.549 Y115.8 E0.04023
G1 X67.189 Y114.843 E0.03555
G1 X66.926 Y113.868 E0.03511
G1 X66.743 Y112.769 E0.03873
G1 X66.676 Y111.666 E0.03844
G1 X66.675 Y94.704 E0.58983
G1 X66.872 Y93.372 E0.04681
G1 X67.352 Y92.166 E0.04514
G1 X67.924 Y91.304 E0.03597
G1 X69.222 Y89.78 E0.06961
G1 X69.879 Y89.196 E0.03056
M107
G1 X70.11 Y89.457 F3600000
M107
G1 F2400
G1 X70.143 Y89.428 E0.00152
G1 X71.046 Y88.887 E0.03661
G1 X72.223 Y88.492 E0.04316
G1 X73.141 Y88.382 E0.03216
G1 X76.341 Y88.382 E0.11126
G1 X77.17 Y88.47 E0.02898
G1 X78.324 Y88.828 E0.04202
G1 X79.154 Y89.283 E0.0329
G1 X79.866 Y89.854 E0.03176
G1 X80.551 Y90.539 E0.03368
G1 X81.099 Y91.282 E0.03211
G1 X81.676 Y93.094 E0.06613
G1 X81.68 Y104.266 E0.38848
G1 X82.196 Y104.374 E0.01833
G1 X83.033 Y104.713 E0.03138
G1 X84.026 Y105.401 E0.04201
G1 X84.647 Y106.08 E0.03202
G1 X85.133 Y106.861 E0.03198
G1 X85.469 Y107.776 E0.03389
G1 X85.622 Y108.767 E0.03488
G1 X85.626 Y112.364 E0.12508
G1 X89.369 Y112.361 E0.13017
G1 X89.376 Y108.786 E0.12431
G1 X89.516 Y107.846 E0.03306
G1 X89.812 Y106.972 E0.0321
G1 X90.608 Y105.767 E0.05019
G1 X91.535 Y104.976 E0.04236
G1 X92.559 Y104.452 E0.04002
G1 X93.319 Y104.278 E0.0271
G1 X93.324 Y93.136 E0.38746
G1 X93.762 Y91.55 E0.05719
G1 X94.36 Y90.638 E0.03793
G1 X95.137 Y89.853 E0.03841
G1 X95.7 Y89.384 E0.02547
G1 X96.505 Y88.905 E0.03258
G1 X97.577 Y88.524 E0.03954
G1 X98.633 Y88.383 E0.03704
G1 X101.814 Y88.381 E0.11063
G1 X102.412 Y88.43 E0.02086
G1 X102.978 Y88.538 E0.02004
G1 X104.054 Y88.935 E0.03987
G1 X105.311 Y89.809 E0.05327
G1 X106.95 Y91.718 E0.08746
G1 X107.483 Y92.619 E0.0364
G1 X107.856 Y93.724 E0.04055
G1 X107.976 Y94.729 E0.0352
G1 X107.976 Y111.64 E0.58807
G1 X107.915 Y112.697 E0.03679
G1 X107.748 Y113.728 E0.03633
G1 X107.485 Y114.717 E0.03558
G1 X107.131 Y115.661 E0.03506
G1 X106.665 Y116.603 E0.03653
G1 X99.764 Y128.558 E0.48
G1 X99.298 Y129.229 E0.02843
G1 X98.757 Y129.826 E0.02801
G1 X98.112 Y130.375 E0.02945
G1 X97.425 Y130.82 E0.02846
G1 X96.722 Y131.157 E0.02711
G1 X96 Y131.4 E0.02648
G1 X95.246 Y131.556 E0.02677
G1 X94.511 Y131.617 E0.02567
G1 X80.452 Y131.616 E0.48888
G1 X79.841 Y131.568 E0.0213
G1 X79.224 Y131.456 E0.0218
G1 X78.501 Y131.243 E0.0262
M73 P1 R24
G1 X77.766 Y130.921 E0.0279
G1 X77.026 Y130.476 E0.03003
G1 X76.235 Y129.818 E0.03577
G1 X75.679 Y129.201 E0.02888
G1 X75.232 Y128.551 E0.02745
G1 X68.369 Y116.666 E0.47725
G1 X67.872 Y115.668 E0.03874
G1 X67.524 Y114.743 E0.03437
G1 X67.264 Y113.785 E0.03451
G1 X67.088 Y112.721 E0.0375
G1 X67.025 Y111.661 E0.03695
G1 X67.024 Y94.717 E0.5892
G1 X67.214 Y93.443 E0.04477
G1 X67.652 Y92.343 E0.04119
G1 X68.196 Y91.522 E0.03425
G1 X69.479 Y90.015 E0.06882
G1 X70.065 Y89.496 E0.0272
M107
G1 X70.295 Y89.754 F3600000
M107
G1 F2400
G1 X70.336 Y89.718 E0.0019
G1 X71.209 Y89.196 E0.03538
G1 X72.316 Y88.828 E0.04056
G1 X73.171 Y88.73 E0.02994
G1 X76.314 Y88.73 E0.1093
G1 X77.083 Y88.808 E0.02687
G1 X78.204 Y89.155 E0.0408
G1 X78.972 Y89.58 E0.03052
G1 X79.626 Y90.107 E0.02922
G1 X80.296 Y90.777 E0.03293
G1 X80.776 Y91.417 E0.02783
M73 P2 R24
G1 X81.328 Y93.122 E0.0623
G1 X81.332 Y104.551 E0.39743
G1 X82.08 Y104.703 E0.02657
G1 X82.884 Y105.028 E0.03014
G1 X83.81 Y105.675 E0.03929
G1 X84.378 Y106.302 E0.02943
G1 X84.827 Y107.029 E0.02969
G1 X85.135 Y107.879 E0.03143
G1 X85.276 Y108.807 E0.03264
G1 X85.278 Y112.713 E0.13584
G1 X89.718 Y112.709 E0.15439
G1 X89.722 Y108.824 E0.1351
G1 X89.851 Y107.941 E0.03103
G1 X90.116 Y107.145 E0.02918
G1 X90.885 Y105.98 E0.04853
G1 X91.744 Y105.256 E0.03907
G1 X92.697 Y104.773 E0.03715
G1 X93.667 Y104.558 E0.03456
G1 X93.672 Y93.159 E0.39636
G1 X94.069 Y91.719 E0.05195
G1 X94.642 Y90.844 E0.03637
G1 X95.367 Y90.115 E0.03575
G1 X95.89 Y89.677 E0.02374
G1 X96.669 Y89.213 E0.0315
G1 X97.641 Y88.867 E0.0359
G1 X98.644 Y88.732 E0.03519
G1 X101.807 Y88.73 E0.10997
G1 X102.374 Y88.777 E0.01978
G1 X102.899 Y88.878 E0.01858
G1 X103.874 Y89.234 E0.03611
G1 X105.062 Y90.053 E0.05017
G1 X106.675 Y91.933 E0.08615
G1 X107.173 Y92.78 E0.03416
G1 X107.52 Y93.817 E0.03802
G1 X107.628 Y94.739 E0.03227
G1 X107.627 Y111.635 E0.58755
G1 X107.569 Y112.65 E0.03535
G1 X107.409 Y113.647 E0.03511
G1 X107.156 Y114.603 E0.03438
G1 X106.808 Y115.531 E0.03445
G1 X106.361 Y116.433 E0.03503
G1 X99.466 Y128.377 E0.47956
G1 X99.032 Y129.004 E0.02651
G1 X98.522 Y129.569 E0.02645
G1 X97.913 Y130.089 E0.02787
G1 X97.264 Y130.511 E0.02691
G1 X96.6 Y130.83 E0.02561
G1 X95.899 Y131.066 E0.02573
G1 X95.187 Y131.212 E0.02529
G1 X94.504 Y131.268 E0.02383
G1 X80.472 Y131.268 E0.48793
G1 X79.894 Y131.223 E0.02016
G1 X79.313 Y131.119 E0.02051
G1 X78.631 Y130.919 E0.02472
G1 X77.916 Y130.607 E0.02713
G1 X77.239 Y130.199 E0.02748
G1 X76.468 Y129.559 E0.03486
G1 X75.947 Y128.977 E0.02715
G1 X75.523 Y128.36 E0.02604
G1 X68.673 Y116.496 E0.47635
G1 X68.188 Y115.521 E0.03787
G1 X67.853 Y114.629 E0.03314
G1 X67.607 Y113.72 E0.03275
G1 X67.435 Y112.691 E0.03625
G1 X67.373 Y111.656 E0.03608
G1 X67.372 Y94.729 E0.58857
G1 X67.545 Y93.554 E0.04133
G1 X67.969 Y92.489 E0.03985
G1 X68.468 Y91.74 E0.0313
G1 X69.72 Y90.267 E0.06721
G1 X70.25 Y89.794 E0.02469
M107
G1 X70.481 Y90.055 F3600000
M107
G1 F2400
G1 X70.555 Y89.99 E0.00342
G1 X71.338 Y89.52 E0.03173
G1 X72.374 Y89.172 E0.03802
G1 X73.181 Y89.078 E0.02826
G1 X76.305 Y89.078 E0.10863
G1 X77.03 Y89.153 E0.02534
G1 X78.051 Y89.469 E0.03718
G1 X78.765 Y89.861 E0.02832
G1 X79.386 Y90.361 E0.02771
G1 X80.041 Y91.014 E0.03216
G1 X80.48 Y91.603 E0.02552
G1 X80.979 Y93.149 E0.05651
G1 X80.983 Y104.885 E0.40811
G1 X81.265 Y104.893 E0.00979
G1 X81.965 Y105.033 E0.02483
G1 X82.734 Y105.344 E0.02887
G1 X83.593 Y105.949 E0.03652
G1 X84.109 Y106.524 E0.02685
G1 X84.505 Y107.165 E0.02622
G1 X84.801 Y107.981 E0.0302
G1 X84.929 Y108.845 E0.03037
G1 X84.929 Y113.062 E0.14663
G1 X90.066 Y113.057 E0.17861
G1 X90.071 Y108.837 E0.14676
G1 X90.187 Y108.034 E0.0282
G1 X90.42 Y107.317 E0.02622
G1 X91.162 Y106.194 E0.04682
G1 X91.951 Y105.536 E0.03573
G1 X92.834 Y105.095 E0.03431
G1 X93.794 Y104.887 E0.03419
G1 X94.016 Y104.88 E0.00769
G1 X94.021 Y93.183 E0.40675
G1 X94.375 Y91.887 E0.04671
G1 X94.924 Y91.05 E0.03479
G1 X95.608 Y90.367 E0.03362
G1 X96.082 Y89.968 E0.02152
G1 X96.803 Y89.536 E0.02926
G1 X97.706 Y89.21 E0.03339
G1 X98.679 Y89.079 E0.03415
G1 X101.785 Y89.078 E0.108
G1 X102.335 Y89.123 E0.0192
G1 X102.818 Y89.217 E0.01711
G1 X103.733 Y89.553 E0.03388
G1 X104.844 Y90.327 E0.04708
G1 X106.383 Y92.124 E0.08228
G1 X106.849 Y92.909 E0.03173
G1 X107.176 Y93.876 E0.0355
G1 X107.279 Y94.749 E0.03057
G1 X107.279 Y111.621 E0.58668
G1 X107.224 Y112.604 E0.03425
G1 X107.07 Y113.567 E0.03389
G1 X106.821 Y114.505 E0.03377
G1 X106.485 Y115.4 E0.03323
G1 X106.056 Y116.264 E0.03354
G1 X99.175 Y128.185 E0.47864
G1 X98.765 Y128.779 E0.02509
G1 X98.287 Y129.311 E0.02489
G1 X97.713 Y129.803 E0.02628
G1 X97.102 Y130.201 E0.02534
G1 X96.459 Y130.511 E0.02484
G1 X95.798 Y130.732 E0.02422
G1 X95.127 Y130.869 E0.02381
G1 X94.497 Y130.92 E0.02201
G1 X80.491 Y130.92 E0.487
G1 X79.946 Y130.878 E0.01903
G1 X79.401 Y130.782 E0.01923
G1 X78.76 Y130.595 E0.02324
G1 X78.085 Y130.302 E0.02558
G1 X77.451 Y129.923 E0.02569
G1 X76.7 Y129.299 E0.03394
G1 X76.214 Y128.753 E0.02541
G1 X75.821 Y128.18 E0.02418
G1 X68.978 Y116.326 E0.47594
G1 X68.511 Y115.39 E0.03639
G1 X68.187 Y114.53 E0.03197
G1 X67.945 Y113.637 E0.03216
G1 X67.783 Y112.661 E0.03439
G1 X67.722 Y111.65 E0.03522
G1 X67.721 Y94.742 E0.58795
G1 X67.877 Y93.663 E0.03792
G1 X68.27 Y92.666 E0.03724
G1 X68.74 Y91.957 E0.02958
G1 X69.978 Y90.502 E0.06643
G1 X70.437 Y90.095 E0.02133
M107
G1 X70.667 Y90.352 F3600000
M107
G1 F2400
G1 X70.748 Y90.28 E0.00379
G1 X71.5 Y89.829 E0.03049
G1 X72.466 Y89.509 E0.03538
G1 X73.21 Y89.426 E0.02603
G1 X76.28 Y89.426 E0.10673
G1 X76.944 Y89.491 E0.02321
G1 X77.931 Y89.797 E0.03594
G1 X78.583 Y90.159 E0.02592
G1 X79.147 Y90.614 E0.02518
G1 X79.786 Y91.253 E0.03144
G1 X80.158 Y91.739 E0.02129
G1 X80.631 Y93.177 E0.05263
G1 X80.635 Y105.228 E0.41905
G1 X81.212 Y105.238 E0.02006
G1 X81.881 Y105.371 E0.02372
G1 X82.551 Y105.641 E0.02513
G1 X83.348 Y106.197 E0.03378
G1 X83.821 Y106.72 E0.02452
G1 X84.199 Y107.332 E0.02503
G1 X84.467 Y108.082 E0.02769
G1 X84.581 Y108.858 E0.02726
G1 X84.581 Y113.411 E0.15832
G1 X90.414 Y113.406 E0.20283
G1 X90.419 Y108.85 E0.15841
G1 X90.53 Y108.1 E0.02636
G1 X90.743 Y107.448 E0.02385
G1 X91.437 Y106.409 E0.04346
G1 X92.157 Y105.818 E0.03239
G1 X92.929 Y105.431 E0.03001
G1 X93.851 Y105.231 E0.03282
G1 X94.364 Y105.223 E0.01783
G1 X94.369 Y93.206 E0.41788
G1 X94.682 Y92.054 E0.0415
G1 X95.183 Y91.284 E0.03195
G1 X95.839 Y90.628 E0.03224
G1 X96.273 Y90.26 E0.0198
G1 X96.968 Y89.843 E0.02818
G1 X97.772 Y89.553 E0.02972
G1 X98.691 Y89.427 E0.03228
G1 X101.778 Y89.426 E0.10733
G1 X102.297 Y89.47 E0.0181
G1 X102.738 Y89.557 E0.01564
G1 X103.553 Y89.853 E0.03017
G1 X104.594 Y90.571 E0.04396
G1 X106.108 Y92.339 E0.08096
G1 X106.54 Y93.07 E0.0295
G1 X106.84 Y93.969 E0.03296
G1 X106.931 Y94.759 E0.02765
G1 X106.931 Y111.616 E0.58616
G1 X106.878 Y112.558 E0.03282
G1 X106.731 Y113.486 E0.03267
G1 X106.492 Y114.391 E0.03254
G1 X106.162 Y115.269 E0.03261
G1 X105.752 Y116.094 E0.03206
G1 X98.877 Y128.005 E0.47822
G1 X98.498 Y128.555 E0.02321
G1 X98.051 Y129.054 E0.02331
G1 X97.495 Y129.532 E0.02549
G1 X96.941 Y129.892 E0.02298
G1 X96.318 Y130.192 E0.02406
G1 X95.698 Y130.398 E0.0227
G1 X95.069 Y130.525 E0.02233
G1 X94.49 Y130.571 E0.02021
G1 X80.511 Y130.572 E0.48609
G1 X79.997 Y130.534 E0.0179
G1 X79.489 Y130.445 E0.01794
G1 X78.889 Y130.271 E0.02174
G1 X78.234 Y129.986 E0.02481
G1 X77.663 Y129.646 E0.02312
G1 X76.933 Y129.039 E0.03301
G1 X76.482 Y128.531 E0.02364
G1 X76.113 Y127.989 E0.0228
G1 X69.287 Y116.166 E0.47471
G1 X68.834 Y115.259 E0.03526
G1 X68.516 Y114.415 E0.03136
G1 X68.284 Y113.554 E0.03099
G1 X68.128 Y112.613 E0.03317
G1 X68.07 Y111.635 E0.03408
G1 X68.069 Y94.755 E0.58698
G1 X68.219 Y93.733 E0.03589
G1 X68.587 Y92.812 E0.03448
G1 X69.012 Y92.175 E0.02665
G1 X70.219 Y90.754 E0.06484
G1 X70.623 Y90.392 E0.01883
M107
G1 X70.854 Y90.652 F3600000
M107
G1 F2400
G1 X70.968 Y90.551 E0.00531
G1 X71.629 Y90.153 E0.02682
G1 X72.524 Y89.853 E0.03281
G1 X73.22 Y89.774 E0.02437
G1 X76.271 Y89.774 E0.10608
G1 X76.892 Y89.836 E0.0217
G1 X77.779 Y90.111 E0.03228
G1 X78.376 Y90.44 E0.02373
G1 X78.907 Y90.867 E0.02368
G1 X79.531 Y91.491 E0.0307
G1 X79.863 Y91.927 E0.01905
G1 X80.282 Y93.205 E0.04677
G1 X80.286 Y105.572 E0.43006
G1 X81.159 Y105.583 E0.03036
G1 X81.797 Y105.71 E0.0226
G1 X82.369 Y105.939 E0.02143
G1 X83.103 Y106.446 E0.03101
G1 X83.551 Y106.942 E0.02326
G1 X83.893 Y107.499 E0.02272
