; generated by SuperSlicer 2.5.59.8 on 2024-04-09 at 20:44:43 UTC


;
;

;
;

;
;

;
;

;
;
; 

; external perimeters extrusion width = 0.40mm
; perimeters extrusion width = 0.40mm
; infill extrusion width = 0.40mm
; solid infill extrusion width = 0.40mm
; top infill extrusion width = 0.40mm

; object:{"name":"a_Xjoint_8mm_Idler_Spacers","id":"a_Xjoint_8mm_Idler_Spacers.stl id:0 copy 0","object_center":[87.500000,110.000000,0.000000],"boundingbox_center":[87.500000,110.000000,6.425000],"boundingbox_size":[21.000000,20.999268,12.850000]}
EXCLUDE_OBJECT_DEFINE NAME=a_Xjoint_8mm_Idler_Spacers_stl_id_0_copy_0 CENTER=87.500000,110.000000 POLYGON=[[77.00,104.00],[77.00,103.84],[77.01,103.68],[77.03,103.51],[77.05,103.35],[77.07,103.19],[77.11,103.03],[77.14,102.87],[77.19,102.72],[77.24,102.56],[77.29,102.41],[77.35,102.26],[77.42,102.11],[77.49,101.96],[77.56,101.82],[77.64,101.68],[77.73,101.54],[77.82,101.41],[77.92,101.28],[78.02,101.15],[78.12,101.03],[78.23,100.91],[78.35,100.79],[78.46,100.68],[78.59,100.57],[78.71,100.47],[78.84,100.37],[78.97,100.28],[79.11,100.19],[79.25,100.10],[79.39,100.02],[79.54,99.95],[79.68,99.88],[79.83,99.82],[79.88,99.80],[79.88,99.80],[79.90,99.79],[79.91,99.79],[79.92,99.79],[79.94,99.78],[79.96,99.77],[79.98,99.76],[79.99,99.76],[80.01,99.75],[80.06,99.74],[80.07,99.73],[80.08,99.73],[80.09,99.73],[80.10,99.72],[80.11,99.72],[80.12,99.72],[80.14,99.71],[80.16,99.70],[80.18,99.70],[80.20,99.69],[80.25,99.68],[80.29,99.67],[80.33,99.66],[80.36,99.65],[80.39,99.64],[80.44,99.63],[80.50,99.61],[80.52,99.61],[80.57,99.60],[80.62,99.59],[80.64,99.58],[80.67,99.58],[80.70,99.57],[80.73,99.57],[80.76,99.56],[80.78,99.56],[80.79,99.56],[80.81,99.55],[80.84,99.55],[80.86,99.55],[80.88,99.54],[80.92,99.54],[80.96,99.53],[80.97,99.53],[81.01,99.53],[81.03,99.53],[81.04,99.52],[81.06,99.52],[81.09,99.52],[81.12,99.52],[81.13,99.52],[81.16,99.51],[81.17,99.51],[81.21,99.51],[81.21,99.51],[81.22,99.51],[81.26,99.51],[81.29,99.51],[81.32,99.50],[81.33,99.50],[81.36,99.50],[81.37,99.50],[81.40,99.50],[81.42,99.50],[81.43,99.50],[81.45,99.50],[81.47,99.50],[81.48,99.50],[81.49,99.50],[93.50,99.50],[93.55,99.50],[93.58,99.50],[93.60,99.50],[93.64,99.50],[93.69,99.50],[93.74,99.51],[93.77,99.51],[93.81,99.51],[93.85,99.51],[93.88,99.52],[93.91,99.52],[93.94,99.52],[93.96,99.52],[93.97,99.53],[93.99,99.53],[94.00,99.53],[94.07,99.54],[94.23,99.56],[94.39,99.59],[94.55,99.62],[94.70,99.66],[94.86,99.71],[95.01,99.76],[95.17,99.82],[95.32,99.88],[95.46,99.95],[95.61,100.02],[95.75,100.10],[95.89,100.19],[96.03,100.28],[96.16,100.37],[96.29,100.47],[96.41,100.57],[96.54,100.68],[96.65,100.79],[96.77,100.91],[96.88,101.03],[96.98,101.15],[97.08,101.28],[97.18,101.41],[97.27,101.54],[97.36,101.68],[97.44,101.82],[97.51,101.96],[97.58,102.11],[97.65,102.26],[97.71,102.41],[97.76,102.56],[97.81,102.72],[97.86,102.87],[97.89,103.03],[97.93,103.19],[97.95,103.35],[97.97,103.51],[97.99,103.68],[98.00,103.84],[98.00,104.00],[98.00,116.00],[98.00,116.16],[97.99,116.33],[97.97,116.49],[97.95,116.65],[97.93,116.81],[97.89,116.97],[97.86,117.13],[97.81,117.28],[97.76,117.44],[97.71,117.59],[97.65,117.74],[97.58,117.89],[97.51,118.04],[97.44,118.18],[97.36,118.32],[97.27,118.46],[97.18,118.59],[97.08,118.72],[96.98,118.85],[96.88,118.98],[96.77,119.10],[96.65,119.21],[96.54,119.32],[96.41,119.43],[96.29,119.53],[96.16,119.63],[96.03,119.72],[95.89,119.81],[95.75,119.90],[95.61,119.98],[95.46,120.05],[95.32,120.12],[95.17,120.18],[95.01,120.24],[94.86,120.29],[94.70,120.34],[94.55,120.38],[94.39,120.41],[94.23,120.44],[94.07,120.46],[93.91,120.48],[93.74,120.49],[93.58,120.50],[81.42,120.50],[81.26,120.49],[81.09,120.48],[80.93,120.46],[80.77,120.44],[80.61,120.41],[80.45,120.38],[80.30,120.34],[80.14,120.29],[79.99,120.24],[79.83,120.18],[79.68,120.12],[79.54,120.05],[79.39,119.98],[79.25,119.90],[79.11,119.81],[78.97,119.72],[78.84,119.63],[78.71,119.53],[78.59,119.43],[78.46,119.32],[78.35,119.21],[78.23,119.10],[78.12,118.98],[78.02,118.85],[77.92,118.72],[77.82,118.59],[77.73,118.46],[77.64,118.32],[77.56,118.18],[77.49,118.04],[77.42,117.89],[77.35,117.74],[77.29,117.59],[77.24,117.44],[77.19,117.28],[77.14,117.13],[77.11,116.97],[77.07,116.81],[77.05,116.65],[77.03,116.49],[77.01,116.33],[77.00,116.16],[77.00,116.00],[77.00,104.00]]
; plater:{"center":[87.500000,110.000000,0.000000],"boundingbox_center":[87.500000,110.000000,6.425000],"boundingbox_size":[21.000000,20.999268,12.850000]}

M73 P0 R9
M107
;TYPE:Custom
CALCULATE_PA MATERIAL=ABS BOWDEN_LENGTH=6 LAYER_HEIGHT=0.24 NOZZLE_SIZE=0.4 PRINT_SPEED=95


START_PRINT EXTRUDER=270 BED=100

M107
G21 ; set units to millimeters
G90 ; use absolute coordinates
M83 ; use relative distances for extrusion
ACTIVATE_EXTRUDER EXTRUDER=extruder
; Filament gcode
M104 S270 T0 ; set temperature
M109 S270 T0 ; set temperature and wait for it to be reached
M190 S100 ; set bed temperature and wait for it to be reached
;LAYER_CHANGE
;Z:0.24
;HEIGHT:0.24
;BEFORE_LAYER_CHANGE
G92 E0.0

G1 E-1.5 F3000
M73 P3 R9
G1 Z0.2 F3600000
G1 Z0.24
;AFTER_LAYER_CHANGE
;0.24




CALCULATE_PA MATERIAL=ABS BOWDEN_LENGTH=6.0 LAYER_HEIGHT=0.2 NOZZLE_SIZE=0.4 PRINT_SPEED=95


G92 E0
G1 Z0.44
G1 X76.144 Y96.737
G1 Z0.24
G1 E1.5 F3000
;TYPE:Skirt
;WIDTH:0.4
M107
G1 F2400
G1 X76.862 Y96.258 E0.03001
G1 X77.658 Y95.834 E0.03135
G1 X78.5 Y95.489 E0.03167
G1 X79.362 Y95.232 E0.03125
G1 X80.156 Y95.077 E0.02812
G1 X80.977 Y94.991 E0.02873
G1 X81.911 Y94.985 E0.03248
G1 X82.831 Y95.075 E0.03215
G1 X83.735 Y95.257 E0.03206
G1 X84.577 Y95.517 E0.03064
G1 X85.382 Y95.853 E0.03032
G1 X86.175 Y96.281 E0.03135
G1 X86.935 Y96.796 E0.03192
G1 X87.388 Y97.176 E0.02055
G1 X87.872 Y96.755 E0.02231
G1 X88.612 Y96.236 E0.03144
G1 X89.399 Y95.794 E0.03136
G1 X90.216 Y95.433 E0.03107
G1 X91.076 Y95.152 E0.03147
G1 X92.033 Y94.943 E0.03405
G1 X92.967 Y94.841 E0.03266
G1 X93.908 Y94.835 E0.03273
G1 X94.753 Y94.912 E0.02952
G1 X95.593 Y95.067 E0.02969
G1 X96.407 Y95.299 E0.02945
G1 X97.206 Y95.607 E0.02978
G1 X98.152 Y96.092 E0.03696
G1 X98.844 Y96.543 E0.02871
G1 X99.484 Y97.046 E0.02831
G1 X100.232 Y97.767 E0.03611
G1 X100.786 Y98.425 E0.02993
G1 X101.27 Y99.121 E0.02948
G1 X101.699 Y99.884 E0.03042
G1 X102.056 Y100.689 E0.03063
G1 X102.361 Y101.62 E0.03406
G1 X102.543 Y102.453 E0.02965
G1 X102.649 Y103.305 E0.02985
G1 X102.67 Y104.296 E0.03449
G1 X102.589 Y105.253 E0.03339
G1 X102.422 Y106.139 E0.03135
G1 X102.174 Y106.989 E0.03079
G1 X101.83 Y107.845 E0.03207
G1 X101.381 Y108.697 E0.03347
G1 X100.881 Y109.449 E0.03143
G1 X100.431 Y110.004 E0.02484
G1 X100.811 Y110.457 E0.02055
G1 X101.302 Y111.172 E0.03015
G1 X101.726 Y111.937 E0.03042
G1 X102.071 Y112.726 E0.02993
G1 X102.355 Y113.597 E0.03187
G1 X102.545 Y114.464 E0.03084
G1 X102.652 Y115.357 E0.0313
G1 X102.67 Y116.292 E0.03249
G1 X102.594 Y117.213 E0.03216
G1 X102.43 Y118.105 E0.03153
G1 X102.18 Y118.973 E0.03141
G1 X101.845 Y119.814 E0.03147
G1 X101.351 Y120.748 E0.03676
G1 X100.851 Y121.491 E0.03113
G1 X100.361 Y122.091 E0.02692
G1 X99.821 Y122.651 E0.02705
G1 X99.091 Y123.275 E0.0334
G1 X98.305 Y123.816 E0.03317
G1 X97.479 Y124.268 E0.03275
G1 X96.61 Y124.632 E0.03277
G1 X95.693 Y124.909 E0.03329
G1 X94.933 Y125.063 E0.02698
G1 X94.174 Y125.15 E0.02657
G1 X93.233 Y125.171 E0.03272
G1 X92.404 Y125.109 E0.02892
G1 X91.54 Y124.963 E0.03048
G1 X90.664 Y124.726 E0.03156
G1 X89.792 Y124.392 E0.03245
G1 X88.951 Y123.968 E0.03277
G1 X88.22 Y123.504 E0.03009
G1 X87.562 Y122.995 E0.02892
G1 X87.388 Y122.831 E0.00832
G1 X86.87 Y123.253 E0.02323
G1 X86.137 Y123.743 E0.03066
M73 P4 R9
G1 X85.374 Y124.151 E0.03008
G1 X84.568 Y124.488 E0.03037
G1 X83.703 Y124.752 E0.03144
G1 X82.782 Y124.933 E0.03264
G1 X81.915 Y125.016 E0.03029
G1 X81.016 Y125.012 E0.03125
G1 X80.142 Y124.922 E0.03055
G1 X79.276 Y124.747 E0.03072
G1 X78.346 Y124.456 E0.03389
G1 X77.56 Y124.119 E0.02975
G1 X76.802 Y123.706 E0.03002
G1 X76.059 Y123.2 E0.03124
G1 X75.369 Y122.623 E0.0313
G1 X74.743 Y121.983 E0.03113
G1 X74.184 Y121.284 E0.03111
G1 X73.702 Y120.543 E0.03075
G1 X73.275 Y119.714 E0.03241
G1 X72.984 Y118.986 E0.02727
G1 X72.76 Y118.247 E0.02686
G1 X72.567 Y117.287 E0.03405
G1 X72.485 Y116.417 E0.0304
G1 X72.487 Y115.545 E0.03031
G1 X72.563 Y114.75 E0.02778
G1 X72.71 Y113.957 E0.02805
G1 X72.956 Y113.095 E0.03117
G1 X73.301 Y112.23 E0.03237
G1 X73.731 Y111.407 E0.0323
G1 X74.23 Y110.654 E0.0314
G1 X74.759 Y110.001 E0.02923
G1 X74.219 Y109.332 E0.02989
G1 X73.744 Y108.614 E0.02994
G1 X73.338 Y107.85 E0.03009
G1 X73.009 Y107.058 E0.02983
G1 X72.752 Y106.217 E0.03057
G1 X72.576 Y105.343 E0.03101
G1 X72.488 Y104.473 E0.03039
G1 X72.483 Y103.635 E0.02915
G1 X72.558 Y102.785 E0.02968
G1 X72.718 Y101.919 E0.03063
G1 X72.965 Y101.069 E0.03076
G1 X73.297 Y100.239 E0.03111
G1 X73.763 Y99.353 E0.0348
G1 X74.254 Y98.621 E0.03066
G1 X74.816 Y97.936 E0.0308
G1 X75.454 Y97.299 E0.03135
G1 X76.098 Y96.775 E0.02885
M107
G1 X76.318 Y97.045 F3600000
M107
G1 F2400
G1 X76.345 Y97.022 E0.00122
G1 X77.034 Y96.562 E0.02883
G1 X77.798 Y96.153 E0.03014
G1 X78.609 Y95.82 E0.03046
G1 X79.437 Y95.573 E0.03008
G1 X80.215 Y95.42 E0.02756
G1 X81.005 Y95.338 E0.02761
G1 X81.904 Y95.333 E0.03127
G1 X82.788 Y95.421 E0.0309
G1 X83.658 Y95.597 E0.03084
G1 X84.451 Y95.841 E0.02887
G1 X85.224 Y96.164 E0.02913
G1 X85.987 Y96.574 E0.03012
G1 X86.732 Y97.08 E0.03129
G1 X87.392 Y97.635 E0.03
G1 X88.08 Y97.035 E0.03173
G1 X88.791 Y96.535 E0.03022
G1 X89.562 Y96.102 E0.03077
G1 X90.333 Y95.762 E0.0293
G1 X91.16 Y95.49 E0.03025
G1 X92.081 Y95.289 E0.03278
G1 X92.978 Y95.19 E0.03141
G1 X93.885 Y95.183 E0.03154
G1 X94.698 Y95.256 E0.02838
G1 X95.506 Y95.405 E0.02856
G1 X96.289 Y95.627 E0.02833
G1 X97.072 Y95.929 E0.02918
G1 X97.97 Y96.389 E0.03507
G1 X98.635 Y96.822 E0.02759
G1 X99.262 Y97.314 E0.02773
G1 X99.971 Y97.998 E0.03425
G1 X100.505 Y98.631 E0.02877
G1 X100.979 Y99.313 E0.02891
G1 X101.391 Y100.047 E0.02926
G1 X101.734 Y100.822 E0.02946
G1 X102.026 Y101.72 E0.03283
G1 X102.201 Y102.519 E0.02846
G1 X102.302 Y103.339 E0.02871
G1 X102.322 Y104.294 E0.03324
G1 X102.242 Y105.214 E0.03211
G1 X102.081 Y106.066 E0.03014
G1 X101.848 Y106.868 E0.02904
G1 X101.518 Y107.691 E0.03083
G1 X101.086 Y108.511 E0.03223
G1 X100.596 Y109.25 E0.03083
G1 X100.09 Y109.872 E0.02788
G1 X99.969 Y109.995 E0.00602
G1 X100.528 Y110.662 E0.03027
G1 X101.001 Y111.349 E0.02899
G1 X101.41 Y112.084 E0.02927
G1 X101.748 Y112.858 E0.02935
M73 P4 R8
G1 X102.016 Y113.681 E0.03009
G1 X102.202 Y114.53 E0.03025
G1 X102.305 Y115.39 E0.03011
G1 X102.322 Y116.272 E0.03066
G1 X102.248 Y117.176 E0.03155
G1 X102.092 Y118.017 E0.02973
G1 X101.847 Y118.868 E0.03082
G1 X101.525 Y119.676 E0.03024
G1 X101.047 Y120.577 E0.03546
G1 X100.575 Y121.277 E0.02935
G1 X100.096 Y121.865 E0.02639
G1 X99.577 Y122.402 E0.02599
G1 X98.872 Y123.004 E0.03221
G1 X98.115 Y123.523 E0.03192
G1 X97.32 Y123.957 E0.03151
G1 X96.484 Y124.307 E0.03152
G1 X95.601 Y124.573 E0.03206
G1 X94.885 Y124.717 E0.02538
G1 X94.158 Y124.802 E0.02547
G1 X93.234 Y124.823 E0.03214
G1 X92.438 Y124.762 E0.02775
G1 X91.623 Y124.625 E0.02876
G1 X90.764 Y124.392 E0.03095
G1 X89.925 Y124.07 E0.03122
G1 X89.13 Y123.669 E0.03096
G1 X88.427 Y123.223 E0.02895
G1 X87.782 Y122.724 E0.02835
G1 X87.396 Y122.36 E0.01848
G1 X87.306 Y122.448 E0.00436
G1 X86.669 Y122.968 E0.02861
G1 X85.964 Y123.44 E0.02949
G1 X85.232 Y123.833 E0.0289
G1 X84.441 Y124.163 E0.02978
G1 X83.627 Y124.412 E0.02961
G1 X82.723 Y124.59 E0.03203
G1 X81.891 Y124.668 E0.02908
G1 X81.043 Y124.665 E0.02947
G1 X80.203 Y124.579 E0.02938
G1 X79.372 Y124.412 E0.02949
G1 X78.475 Y124.132 E0.03265
G1 X77.704 Y123.802 E0.02915
G1 X76.977 Y123.404 E0.02885
G1 X76.263 Y122.917 E0.03005
G1 X75.612 Y122.373 E0.02951
G1 X75.009 Y121.758 E0.02993
G1 X74.471 Y121.087 E0.02992
G1 X74.007 Y120.375 E0.02953
G1 X73.595 Y119.577 E0.03124
G1 X73.315 Y118.878 E0.02618
G1 X73.096 Y118.154 E0.0263
G1 X72.913 Y117.245 E0.03224
G1 X72.834 Y116.409 E0.02922
G1 X72.834 Y115.57 E0.02916
G1 X72.909 Y114.791 E0.02723
G1 X73.051 Y114.029 E0.02696
G1 X73.288 Y113.199 E0.03
G1 X73.621 Y112.368 E0.03114
G1 X74.036 Y111.577 E0.03105
G1 X74.516 Y110.854 E0.03018
G1 X75.033 Y110.217 E0.02852
G1 X75.246 Y110.001 E0.01057
G1 X75.015 Y109.764 E0.0115
G1 X74.496 Y109.12 E0.02878
G1 X74.039 Y108.429 E0.02879
G1 X73.65 Y107.694 E0.02893
G1 X73.334 Y106.932 E0.02868
G1 X73.092 Y106.14 E0.02881
G1 X72.919 Y105.283 E0.03041
G1 X72.835 Y104.447 E0.0292
G1 X72.831 Y103.642 E0.02801
G1 X72.904 Y102.824 E0.02854
G1 X73.056 Y102.008 E0.02888
G1 X73.297 Y101.175 E0.03016
G1 X73.617 Y100.377 E0.02989
G1 X74.067 Y99.524 E0.03352
G1 X74.539 Y98.822 E0.02942
G1 X75.069 Y98.177 E0.02904
G1 X75.682 Y97.564 E0.03014
G1 X76.271 Y97.082 E0.02646
M107
G1 X76.491 Y97.352 F3600000
M107
G1 F2400
G1 X76.546 Y97.307 E0.00244
G1 X77.206 Y96.865 E0.02764
G1 X77.939 Y96.472 E0.02893
G1 X78.717 Y96.152 E0.02924
G1 X79.513 Y95.913 E0.0289
G1 X80.259 Y95.766 E0.02644
G1 X81.032 Y95.686 E0.02703
G1 X81.896 Y95.682 E0.03006
G1 X82.728 Y95.764 E0.02906
G1 X83.563 Y95.932 E0.02962
G1 X84.34 Y96.172 E0.02827
G1 X85.082 Y96.482 E0.02796
G1 X85.814 Y96.877 E0.02893
G1 X86.516 Y97.353 E0.02949
G1 X87.115 Y97.85 E0.02705
G1 X87.395 Y98.132 E0.01384
G1 X87.704 Y97.814 E0.01539
G1 X88.3 Y97.305 E0.02726
G1 X88.984 Y96.826 E0.02904
G1 X89.725 Y96.41 E0.02957
G1 X90.45 Y96.09 E0.02754
G1 X91.243 Y95.829 E0.02903
G1 X92.128 Y95.634 E0.03152
G1 X92.99 Y95.538 E0.03016
G1 X93.862 Y95.531 E0.03033
G1 X94.659 Y95.602 E0.0278
G1 X95.434 Y95.746 E0.02742
G1 X96.186 Y95.96 E0.0272
G1 X96.938 Y96.251 E0.02803
G1 X97.787 Y96.686 E0.03319
G1 X98.438 Y97.11 E0.02701
G1 X99.04 Y97.583 E0.02661
G1 X99.711 Y98.23 E0.0324
G1 X100.233 Y98.849 E0.02818
G1 X100.688 Y99.505 E0.02777
G1 X101.083 Y100.21 E0.02811
G1 X101.412 Y100.955 E0.02829
G1 X101.692 Y101.819 E0.0316
G1 X101.858 Y102.585 E0.02727
G1 X101.955 Y103.372 E0.02757
G1 X101.973 Y104.292 E0.03199
G1 X101.896 Y105.175 E0.03083
G1 X101.744 Y105.977 E0.02837
G1 X101.521 Y106.746 E0.02785
G1 X101.198 Y107.553 E0.03022
G1 X100.782 Y108.341 E0.03097
G1 X100.32 Y109.036 E0.02904
G1 X99.825 Y109.645 E0.02728
G1 X99.474 Y109.999 E0.01733
G1 X99.712 Y110.231 E0.01158
G1 X100.256 Y110.879 E0.02941
G1 X100.709 Y111.539 E0.02782
G1 X101.101 Y112.246 E0.02811
G1 X101.425 Y112.989 E0.0282
G1 X101.677 Y113.764 E0.02832
G1 X101.86 Y114.597 E0.02965
G1 X101.958 Y115.423 E0.02892
G1 X101.974 Y116.252 E0.02884
G1 X101.901 Y117.139 E0.03094
G1 X101.755 Y117.929 E0.02795
G1 X101.52 Y118.747 E0.02961
G1 X101.205 Y119.538 E0.0296
G1 X100.744 Y120.405 E0.03416
G1 X100.3 Y121.063 E0.02758
G1 X99.84 Y121.628 E0.02534
G1 X99.332 Y122.154 E0.02543
G1 X98.653 Y122.732 E0.03102
G1 X97.926 Y123.231 E0.03066
G1 X97.161 Y123.647 E0.03026
G1 X96.358 Y123.982 E0.03027
G1 X95.508 Y124.237 E0.03084
G1 X94.838 Y124.372 E0.02379
G1 X94.142 Y124.454 E0.02437
G1 X93.235 Y124.474 E0.03155
G1 X92.473 Y124.415 E0.02657
G1 X91.706 Y124.286 E0.02706
G1 X90.863 Y124.058 E0.03035
G1 X90.074 Y123.755 E0.02939
G1 X89.309 Y123.37 E0.02977
G1 X88.634 Y122.942 E0.02781
G1 X88.002 Y122.454 E0.02776
G1 X87.389 Y121.874 E0.02935
G1 X87.079 Y122.183 E0.01524
G1 X86.468 Y122.683 E0.02745
G1 X85.792 Y123.137 E0.02831
G1 X85.075 Y123.522 E0.02831
G1 X84.316 Y123.838 E0.02859
G1 X83.534 Y124.076 E0.02841
G1 X82.682 Y124.243 E0.03019
G1 X81.867 Y124.32 E0.02848
M73 P5 R8
G1 X81.053 Y124.316 E0.02828
G1 X80.247 Y124.233 E0.02819
G1 X79.449 Y124.072 E0.0283
G1 X78.604 Y123.808 E0.03079
G1 X77.864 Y123.492 E0.02796
G1 X77.151 Y123.103 E0.02825
G1 X76.467 Y122.634 E0.02885
G1 X75.842 Y122.111 E0.02832
G1 X75.265 Y121.52 E0.02873
G1 X74.758 Y120.889 E0.02814
G1 X74.313 Y120.207 E0.02832
G1 X73.916 Y119.439 E0.03006
G1 X73.641 Y118.756 E0.02562
G1 X73.432 Y118.061 E0.02521
G1 X73.259 Y117.203 E0.03045
G1 X73.182 Y116.4 E0.02804
G1 X73.182 Y115.595 E0.02801
G1 X73.253 Y114.847 E0.02613
G1 X73.392 Y114.1 E0.02639
G1 X73.621 Y113.304 E0.02882
G1 X73.934 Y112.522 E0.0293
G1 X74.331 Y111.762 E0.02982
G1 X74.791 Y111.067 E0.02899
G1 X75.298 Y110.443 E0.02792
