; generated by SuperSlicer 2.5.59.8 on 2024-04-08 at 23:09:59 UTC


;
;

;
;

;
;

;
;

;
;
; 

; external perimeters extrusion width = 0.40mm
; perimeters extrusion width = 0.40mm
; infill extrusion width = 0.40mm
; solid infill extrusion width = 0.40mm
; top infill extrusion width = 0.40mm
; support material extrusion width = 0.36mm

; object:{"name":"a_Xjoint_8mm_Idler_Spacers","id":"a_Xjoint_8mm_Idler_Spacers.stl id:0 copy 0","object_center":[87.500000,110.000000,0.000000],"boundingbox_center":[87.500000,110.000000,6.425000],"boundingbox_size":[21.000000,20.999268,12.850000]}
EXCLUDE_OBJECT_DEFINE NAME=a_Xjoint_8mm_Idler_Spacers_stl_id_0_copy_0 CENTER=87.500000,110.000000 POLYGON=[[77.00,104.00],[77.00,103.84],[77.01,103.68],[77.03,103.51],[77.05,103.35],[77.07,103.19],[77.11,103.03],[77.14,102.87],[77.19,102.72],[77.24,102.56],[77.29,102.41],[77.35,102.26],[77.42,102.11],[77.49,101.96],[77.56,101.82],[77.64,101.68],[77.73,101.54],[77.82,101.41],[77.92,101.28],[78.02,101.15],[78.12,101.03],[78.23,100.91],[78.35,100.79],[78.46,100.68],[78.59,100.57],[78.71,100.47],[78.84,100.37],[78.97,100.28],[79.11,100.19],[79.25,100.10],[79.39,100.02],[79.54,99.95],[79.68,99.88],[79.83,99.82],[79.88,99.80],[79.88,99.80],[79.90,99.79],[79.91,99.79],[79.92,99.79],[79.94,99.78],[79.96,99.77],[79.98,99.76],[79.99,99.76],[80.01,99.75],[80.06,99.74],[80.07,99.73],[80.08,99.73],[80.09,99.73],[80.10,99.72],[80.11,99.72],[80.12,99.72],[80.14,99.71],[80.16,99.70],[80.18,99.70],[80.20,99.69],[80.25,99.68],[80.29,99.67],[80.33,99.66],[80.36,99.65],[80.39,99.64],[80.44,99.63],[80.50,99.61],[80.52,99.61],[80.57,99.60],[80.62,99.59],[80.64,99.58],[80.67,99.58],[80.70,99.57],[80.73,99.57],[80.76,99.56],[80.78,99.56],[80.79,99.56],[80.81,99.55],[80.84,99.55],[80.86,99.55],[80.88,99.54],[80.92,99.54],[80.96,99.53],[80.97,99.53],[81.01,99.53],[81.03,99.53],[81.04,99.52],[81.06,99.52],[81.09,99.52],[81.12,99.52],[81.13,99.52],[81.16,99.51],[81.17,99.51],[81.21,99.51],[81.21,99.51],[81.22,99.51],[81.26,99.51],[81.29,99.51],[81.32,99.50],[81.33,99.50],[81.36,99.50],[81.37,99.50],[81.40,99.50],[81.42,99.50],[81.43,99.50],[81.45,99.50],[81.47,99.50],[81.48,99.50],[81.49,99.50],[93.50,99.50],[93.55,99.50],[93.58,99.50],[93.60,99.50],[93.64,99.50],[93.69,99.50],[93.74,99.51],[93.77,99.51],[93.81,99.51],[93.85,99.51],[93.88,99.52],[93.91,99.52],[93.94,99.52],[93.96,99.52],[93.97,99.53],[93.99,99.53],[94.00,99.53],[94.07,99.54],[94.23,99.56],[94.39,99.59],[94.55,99.62],[94.70,99.66],[94.86,99.71],[95.01,99.76],[95.17,99.82],[95.32,99.88],[95.46,99.95],[95.61,100.02],[95.75,100.10],[95.89,100.19],[96.03,100.28],[96.16,100.37],[96.29,100.47],[96.41,100.57],[96.54,100.68],[96.65,100.79],[96.77,100.91],[96.88,101.03],[96.98,101.15],[97.08,101.28],[97.18,101.41],[97.27,101.54],[97.36,101.68],[97.44,101.82],[97.51,101.96],[97.58,102.11],[97.65,102.26],[97.71,102.41],[97.76,102.56],[97.81,102.72],[97.86,102.87],[97.89,103.03],[97.93,103.19],[97.95,103.35],[97.97,103.51],[97.99,103.68],[98.00,103.84],[98.00,104.00],[98.00,116.00],[98.00,116.16],[97.99,116.33],[97.97,116.49],[97.95,116.65],[97.93,116.81],[97.89,116.97],[97.86,117.13],[97.81,117.28],[97.76,117.44],[97.71,117.59],[97.65,117.74],[97.58,117.89],[97.51,118.04],[97.44,118.18],[97.36,118.32],[97.27,118.46],[97.18,118.59],[97.08,118.72],[96.98,118.85],[96.88,118.98],[96.77,119.10],[96.65,119.21],[96.54,119.32],[96.41,119.43],[96.29,119.53],[96.16,119.63],[96.03,119.72],[95.89,119.81],[95.75,119.90],[95.61,119.98],[95.46,120.05],[95.32,120.12],[95.17,120.18],[95.01,120.24],[94.86,120.29],[94.70,120.34],[94.55,120.38],[94.39,120.41],[94.23,120.44],[94.07,120.46],[93.91,120.48],[93.74,120.49],[93.58,120.50],[81.42,120.50],[81.26,120.49],[81.09,120.48],[80.93,120.46],[80.77,120.44],[80.61,120.41],[80.45,120.38],[80.30,120.34],[80.14,120.29],[79.99,120.24],[79.83,120.18],[79.68,120.12],[79.54,120.05],[79.39,119.98],[79.25,119.90],[79.11,119.81],[78.97,119.72],[78.84,119.63],[78.71,119.53],[78.59,119.43],[78.46,119.32],[78.35,119.21],[78.23,119.10],[78.12,118.98],[78.02,118.85],[77.92,118.72],[77.82,118.59],[77.73,118.46],[77.64,118.32],[77.56,118.18],[77.49,118.04],[77.42,117.89],[77.35,117.74],[77.29,117.59],[77.24,117.44],[77.19,117.28],[77.14,117.13],[77.11,116.97],[77.07,116.81],[77.05,116.65],[77.03,116.49],[77.01,116.33],[77.00,116.16],[77.00,116.00],[77.00,104.00]]
; plater:{"center":[87.500000,110.000000,0.000000],"boundingbox_center":[87.500000,110.000000,6.425000],"boundingbox_size":[21.000000,20.999268,12.850000]}

M73 P0 R13
M107
;TYPE:Custom
CALCULATE_PA MATERIAL=ABS BOWDEN_LENGTH=6 LAYER_HEIGHT=0.24 NOZZLE_SIZE=0.4 PRINT_SPEED=95


START_PRINT EXTRUDER=270 BED=100

M107
G21 ; set units to millimeters
G90 ; use absolute coordinates
M83 ; use relative distances for extrusion
; Filament gcode
M104 S270 ; set temperature
M109 S270 ; set temperature and wait for it to be reached
M190 S100 ; set bed temperature and wait for it to be reached
;LAYER_CHANGE
;Z:0.24
;HEIGHT:0.24
;BEFORE_LAYER_CHANGE
G92 E0.0

G1 E-1.5 F3000
M73 P2 R13
G1 Z0.2 F3600000
G1 Z0.24
;AFTER_LAYER_CHANGE
;0.24




CALCULATE_PA MATERIAL=ABS BOWDEN_LENGTH=6.0 LAYER_HEIGHT=0.2 NOZZLE_SIZE=0.4 PRINT_SPEED=95


G92 E0
G1 Z0.44
G1 X73.24 Y92.913
G1 Z0.24
G1 E1.5 F3000
;TYPE:Skirt
;WIDTH:0.4
M107
G1 F2400
G1 X74.414 Y92.127 E0.04911
G1 X75.664 Y91.465 E0.04918
G1 X76.988 Y90.931 E0.04964
G1 X78.228 Y90.566 E0.04497
G1 X79.479 Y90.323 E0.0443
G1 X80.687 Y90.197 E0.04225
G1 X82.072 Y90.186 E0.04816
G1 X83.424 Y90.308 E0.04719
G1 X84.767 Y90.564 E0.04753
G1 X86.151 Y90.98 E0.05027
G1 X87.322 Y91.469 E0.04411
G1 X88.528 Y90.938 E0.04581
G1 X89.831 Y90.514 E0.04765
G1 X91.37 Y90.186 E0.05474
G1 X92.778 Y90.042 E0.0492
G1 X94.182 Y90.041 E0.04882
G1 X95.448 Y90.16 E0.04422
G1 X96.645 Y90.382 E0.04233
G1 X97.802 Y90.702 E0.04175
G1 X98.872 Y91.098 E0.03969
G1 X99.469 Y91.364 E0.02272
G1 X100.602 Y91.962 E0.04455
G1 X101.675 Y92.665 E0.04461
G1 X102.561 Y93.358 E0.03911
G1 X103.493 Y94.23 E0.04438
G1 X103.931 Y94.698 E0.02228
G1 X104.613 Y95.524 E0.03725
G1 X105.381 Y96.639 E0.04706
G1 X106.08 Y97.912 E0.05053
G1 X106.612 Y99.16 E0.04717
G1 X106.985 Y100.327 E0.04258
G1 X107.289 Y101.725 E0.04977
G1 X107.452 Y103.18 E0.0509
G1 X107.461 Y104.673 E0.05194
G1 X107.336 Y105.977 E0.04555
G1 X107.088 Y107.268 E0.04569
G1 X106.647 Y108.747 E0.05367
G1 X106.114 Y110.018 E0.04791
G1 X106.522 Y110.922 E0.03448
G1 X107.042 Y112.54 E0.05912
G1 X107.279 Y113.66 E0.03981
G1 X107.426 Y114.8 E0.03995
G1 X107.474 Y116.265 E0.05097
G1 X107.456 Y116.763 E0.01733
G1 X107.355 Y117.845 E0.0378
G1 X107.102 Y119.212 E0.04833
G1 X106.671 Y120.676 E0.05309
G1 X106.084 Y122.084 E0.05304
G1 X105.477 Y123.204 E0.04427
G1 X104.766 Y124.273 E0.04466
G1 X103.842 Y125.401 E0.0507
G1 X102.832 Y126.405 E0.04954
G1 X101.743 Y127.288 E0.04874
G1 X100.81 Y127.912 E0.03904
G1 X99.818 Y128.468 E0.03954
G1 X98.472 Y129.063 E0.05117
G1 X97.032 Y129.523 E0.05255
G1 X95.618 Y129.815 E0.05024
G1 X94.423 Y129.946 E0.04177
G1 X93.208 Y129.974 E0.04228
G1 X91.962 Y129.892 E0.04342
G1 X90.69 Y129.692 E0.04478
G1 X89.252 Y129.315 E0.05168
G1 X87.938 Y128.823 E0.0488
G1 X87.344 Y128.524 E0.02311
G1 X86.346 Y128.95 E0.03773
G1 X85.143 Y129.337 E0.04397
G1 X84.562 Y129.483 E0.02083
G1 X83.556 Y129.673 E0.03559
G1 X82.279 Y129.805 E0.04463
G1 X80.557 Y129.796 E0.05989
G1 X79.421 Y129.669 E0.03976
G1 X78.296 Y129.452 E0.03983
G1 X76.693 Y128.964 E0.05826
G1 X75.429 Y128.423 E0.04783
G1 X74.34 Y127.829 E0.04313
G1 X73.089 Y126.974 E0.05268
G1 X71.98 Y126.027 E0.05072
G1 X70.988 Y124.983 E0.05009
G1 X70.315 Y124.127 E0.03785
G1 X69.703 Y123.214 E0.03823
G1 X69.016 Y121.943 E0.05023
G1 X68.464 Y120.609 E0.05021
G1 X68.058 Y119.235 E0.0498
G1 X67.808 Y117.923 E0.04644
G1 X67.687 Y116.608 E0.04593
G1 X67.685 Y115.455 E0.04008
G1 X67.778 Y114.309 E0.03998
G1 X68.005 Y112.986 E0.04668
G1 X68.359 Y111.7 E0.04639
G1 X68.841 Y110.438 E0.04697
G1 X69.059 Y110.001 E0.01698
G1 X68.853 Y109.59 E0.01599
G1 X68.413 Y108.462 E0.0421
G1 X68.018 Y107.068 E0.0504
G1 X67.801 Y105.873 E0.04221
G1 X67.692 Y104.713 E0.04054
G1 X67.681 Y103.563 E0.03997
G1 X67.765 Y102.412 E0.04012
G1 X68.042 Y100.827 E0.05595
G1 X68.401 Y99.573 E0.04538
G1 X68.875 Y98.362 E0.0452
G1 X69.562 Y97.025 E0.05229
G1 X70.338 Y95.841 E0.04922
G1 X71.18 Y94.799 E0.04659
G1 X72.143 Y93.82 E0.04775
G1 X73.194 Y92.951 E0.04743
M107
G1 X73.416 Y93.219 F3600000
M107
G1 F2400
G1 X73.456 Y93.187 E0.00178
G1 X74.6 Y92.422 E0.04788
G1 X75.819 Y91.778 E0.04793
G1 X77.094 Y91.263 E0.04782
G1 X78.319 Y90.902 E0.04438
M73 P3 R13
G1 X79.523 Y90.669 E0.04265
G1 X80.699 Y90.546 E0.04112
G1 X82.05 Y90.534 E0.04698
G1 X83.367 Y90.652 E0.046
G1 X84.693 Y90.905 E0.04692
G1 X86.042 Y91.311 E0.04901
G1 X87.34 Y91.854 E0.04893
G1 X87.587 Y91.722 E0.00971
G1 X88.658 Y91.262 E0.04056
G1 X89.93 Y90.848 E0.04649
G1 X91.434 Y90.529 E0.05346
G1 X92.804 Y90.389 E0.04791
G1 X94.157 Y90.388 E0.04705
G1 X95.392 Y90.504 E0.04312
G1 X96.559 Y90.72 E0.04128
G1 X97.688 Y91.031 E0.04071
G1 X98.746 Y91.423 E0.03923
G1 X99.312 Y91.675 E0.02153
G1 X100.418 Y92.258 E0.0435
G1 X101.466 Y92.944 E0.04355
G1 X102.328 Y93.618 E0.03805
G1 X103.25 Y94.481 E0.04391
G1 X103.665 Y94.924 E0.02112
G1 X104.339 Y95.74 E0.0368
G1 X105.079 Y96.814 E0.04536
G1 X105.771 Y98.073 E0.04993
G1 X106.283 Y99.274 E0.04542
G1 X106.647 Y100.409 E0.04143
G1 X106.944 Y101.773 E0.04855
G1 X107.104 Y103.191 E0.04962
G1 X107.113 Y104.649 E0.0507
G1 X106.992 Y105.92 E0.04438
G1 X106.752 Y107.176 E0.04449
G1 X106.315 Y108.638 E0.05304
G1 X105.785 Y109.901 E0.04764
G1 X105.728 Y110.009 E0.00425
G1 X106.193 Y111.038 E0.03926
G1 X106.703 Y112.621 E0.05784
G1 X106.936 Y113.726 E0.03925
G1 X107.079 Y114.836 E0.03893
G1 X107.126 Y116.258 E0.04948
G1 X107.108 Y116.735 E0.0166
G1 X107.008 Y117.805 E0.03736
G1 X106.765 Y119.122 E0.04658
G1 X106.346 Y120.551 E0.05179
G1 X105.773 Y121.926 E0.05179
G1 X105.183 Y123.017 E0.04314
G1 X104.49 Y124.059 E0.04349
G1 X103.578 Y125.174 E0.05009
G1 X102.605 Y126.14 E0.04769
G1 X101.543 Y127.003 E0.0476
G1 X100.622 Y127.619 E0.03852
G1 X99.655 Y128.16 E0.03854
G1 X98.357 Y128.734 E0.04934
G1 X96.953 Y129.183 E0.05126
G1 X95.555 Y129.472 E0.04963
G1 X94.393 Y129.599 E0.04065
G1 X93.223 Y129.625 E0.0407
G1 X91.992 Y129.544 E0.04288
G1 X90.77 Y129.353 E0.04305
G1 X89.349 Y128.981 E0.05106
G1 X88.069 Y128.5 E0.04754
G1 X87.357 Y128.139 E0.02778
G1 X86.232 Y128.621 E0.04254
G1 X85.041 Y129.004 E0.04349
G1 X84.492 Y129.142 E0.01969
G1 X83.498 Y129.329 E0.03516
G1 X82.272 Y129.457 E0.04289
G1 X80.568 Y129.447 E0.05924
G1 X79.48 Y129.326 E0.03808
G1 X78.389 Y129.116 E0.03864
G1 X76.804 Y128.634 E0.05761
G1 X75.588 Y128.113 E0.04598
G1 X74.529 Y127.536 E0.04193
G1 X73.308 Y126.703 E0.05141
G1 X72.226 Y125.78 E0.04945
G1 X71.256 Y124.761 E0.04892
G1 X70.593 Y123.917 E0.03733
G1 X69.997 Y123.027 E0.03725
G1 X69.327 Y121.785 E0.04906
G1 X68.795 Y120.501 E0.04833
G1 X68.398 Y119.161 E0.04859
G1 X68.154 Y117.883 E0.04526
G1 X68.035 Y116.584 E0.04537
G1 X68.033 Y115.462 E0.03901
G1 X68.125 Y114.345 E0.03896
G1 X68.347 Y113.054 E0.04557
G1 X68.693 Y111.801 E0.0452
G1 X69.164 Y110.571 E0.0458
G1 X69.449 Y110.001 E0.02217
G1 X69.175 Y109.456 E0.02122
G1 X68.741 Y108.343 E0.04152
G1 X68.359 Y106.997 E0.04866
G1 X68.147 Y105.833 E0.04113
G1 X68.041 Y104.702 E0.03953
G1 X68.029 Y103.581 E0.03896
G1 X68.11 Y102.464 E0.03897
G1 X68.38 Y100.914 E0.05468
G1 X68.729 Y99.692 E0.04421
G1 X69.189 Y98.514 E0.04399
G1 X69.868 Y97.192 E0.05165
G1 X70.624 Y96.039 E0.04795
G1 X71.445 Y95.024 E0.04539
G1 X72.385 Y94.071 E0.04655
G1 X73.37 Y93.258 E0.04441
M107
G1 X73.592 Y93.526 F3600000
M107
G1 F2400
G1 X73.671 Y93.461 E0.00356
G1 X74.786 Y92.716 E0.04665
G1 X75.958 Y92.097 E0.04607
G1 X77.201 Y91.595 E0.04663
G1 X78.409 Y91.239 E0.0438
G1 X79.567 Y91.014 E0.041
G1 X80.71 Y90.894 E0.03999
G1 X82.027 Y90.882 E0.04579
G1 X83.311 Y90.996 E0.0448
G1 X84.601 Y91.241 E0.04568
G1 X85.917 Y91.636 E0.04776
G1 X87.168 Y92.157 E0.04713
G1 X87.34 Y92.25 E0.00681
G1 X87.731 Y92.04 E0.01543
G1 X88.788 Y91.585 E0.04002
G1 X90.011 Y91.187 E0.04471
G1 X91.478 Y90.874 E0.05216
G1 X92.814 Y90.738 E0.04667
G1 X94.133 Y90.736 E0.04589
G1 X95.336 Y90.848 E0.04201
G1 X96.474 Y91.058 E0.04023
G1 X97.574 Y91.361 E0.03967
G1 X98.62 Y91.748 E0.03878
G1 X99.154 Y91.986 E0.02034
G1 X100.248 Y92.563 E0.04301
G1 X101.258 Y93.223 E0.04194
G1 X102.096 Y93.878 E0.03699
G1 X103.008 Y94.731 E0.04344
G1 X103.4 Y95.15 E0.01995
G1 X104.066 Y95.956 E0.03635
G1 X104.778 Y96.99 E0.04365
G1 X105.461 Y98.233 E0.04932
G1 X105.953 Y99.389 E0.04368
G1 X106.308 Y100.492 E0.04029
G1 X106.599 Y101.821 E0.04733
G1 X106.756 Y103.203 E0.04835
G1 X106.766 Y104.625 E0.04946
G1 X106.649 Y105.863 E0.04322
G1 X106.415 Y107.085 E0.04328
G1 X105.99 Y108.512 E0.05176
G1 X105.467 Y109.758 E0.04702
G1 X105.339 Y109.996 E0.00937
G1 X105.864 Y111.154 E0.04423
G1 X106.364 Y112.702 E0.05656
G1 X106.591 Y113.777 E0.03821
G1 X106.733 Y114.872 E0.0384
G1 X106.777 Y116.252 E0.04799
G1 X106.761 Y116.708 E0.01587
G1 X106.662 Y117.765 E0.03691
G1 X106.428 Y119.033 E0.04484
G1 X106.02 Y120.426 E0.05048
G1 X105.463 Y121.768 E0.05054
G1 X104.888 Y122.831 E0.042
G1 X104.205 Y123.859 E0.04291
G1 X103.314 Y124.946 E0.04888
G1 X102.366 Y125.887 E0.04645
G1 X101.329 Y126.727 E0.04641
G1 X100.434 Y127.325 E0.03745
G1 X99.492 Y127.852 E0.03753
G1 X98.225 Y128.412 E0.04816
G1 X96.856 Y128.849 E0.04997
G1 X95.493 Y129.129 E0.04838
G1 X94.377 Y129.25 E0.03902
G1 X93.238 Y129.277 E0.03963
G1 X92.039 Y129.199 E0.04179
G1 X90.832 Y129.01 E0.04247
G1 X89.463 Y128.651 E0.04921
G1 X88.201 Y128.177 E0.04689
G1 X87.353 Y127.747 E0.03307
G1 X87.195 Y127.831 E0.00623
G1 X86.118 Y128.292 E0.04074
G1 X84.94 Y128.67 E0.04301
G1 X84.422 Y128.8 E0.01856
G1 X83.455 Y128.983 E0.03423
G1 X82.245 Y129.109 E0.04231
G1 X80.598 Y129.1 E0.05729
G1 X79.539 Y128.982 E0.03705
G1 X78.481 Y128.78 E0.03744
G1 X76.914 Y128.303 E0.05696
G1 X75.747 Y127.803 E0.04414
G1 X74.718 Y127.244 E0.04073
G1 X73.527 Y126.431 E0.05014
G1 X72.472 Y125.533 E0.04817
G1 X71.525 Y124.539 E0.04775
G1 X70.879 Y123.718 E0.03634
G1 X70.291 Y122.84 E0.03673
G1 X69.638 Y121.628 E0.04789
G1 X69.121 Y120.376 E0.04708
G1 X68.739 Y119.087 E0.04674
G1 X68.498 Y117.826 E0.04466
G1 X68.382 Y116.56 E0.0442
G1 X68.382 Y115.469 E0.03793
G1 X68.471 Y114.382 E0.03794
G1 X68.689 Y113.122 E0.04446
G1 X69.027 Y111.902 E0.04402
G1 X69.486 Y110.703 E0.04462
G1 X69.839 Y110 E0.02737
G1 X69.496 Y109.321 E0.02645
G1 X69.069 Y108.224 E0.04094
G1 X68.701 Y106.926 E0.04692
G1 X68.493 Y105.793 E0.04005
G1 X68.389 Y104.69 E0.03851
G1 X68.377 Y103.599 E0.03796
G1 X68.455 Y102.514 E0.03781
G1 X68.717 Y101.001 E0.05341
G1 X69.057 Y99.811 E0.04303
G1 X69.503 Y98.665 E0.04278
G1 X70.173 Y97.36 E0.05102
G1 X70.911 Y96.238 E0.04667
G1 X71.711 Y95.25 E0.0442
G1 X72.627 Y94.322 E0.04535
G1 X73.545 Y93.565 E0.0414
M107
G1 X73.766 Y93.833 F3600000
M107
G1 F2400
G1 X73.872 Y93.746 E0.00474
G1 X74.957 Y93.02 E0.04541
G1 X76.097 Y92.417 E0.04484
G1 X77.307 Y91.927 E0.04542
G1 X78.5 Y91.576 E0.04321
G1 X79.611 Y91.36 E0.03935
G1 X80.722 Y91.243 E0.03887
G1 X82.005 Y91.229 E0.04461
G1 X83.254 Y91.34 E0.04361
G1 X84.51 Y91.578 E0.04444
G1 X85.791 Y91.961 E0.0465
G1 X87.026 Y92.475 E0.04651
G1 X87.34 Y92.646 E0.01244
G1 X87.876 Y92.357 E0.02119
G1 X88.919 Y91.908 E0.03947
G1 X90.093 Y91.526 E0.04294
G1 X91.523 Y91.22 E0.05087
G1 X92.823 Y91.086 E0.04543
G1 X94.109 Y91.084 E0.04473
G1 X95.281 Y91.192 E0.04091
G1 X96.389 Y91.396 E0.03918
G1 X97.46 Y91.69 E0.03863
G1 X98.494 Y92.073 E0.03832
G1 X98.997 Y92.297 E0.01916
G1 X100.079 Y92.867 E0.04252
G1 X101.049 Y93.502 E0.04033
G1 X101.863 Y94.137 E0.03592
G1 X102.766 Y94.982 E0.04297
G1 X103.135 Y95.376 E0.01879
G1 X103.792 Y96.172 E0.0359
G1 X104.477 Y97.165 E0.04194
G1 X105.152 Y98.393 E0.04871
G1 X105.624 Y99.503 E0.04195
G1 X105.969 Y100.575 E0.03915
G1 X106.254 Y101.87 E0.04611
G1 X106.407 Y103.215 E0.04708
G1 X106.418 Y104.601 E0.04822
G1 X106.305 Y105.806 E0.04206
G1 X106.079 Y106.994 E0.04208
G1 X105.665 Y108.386 E0.05047
