; generated by SuperSlicer 2.5.59.10 on 2024-06-01 at 19:33:59 UTC


;
;

;
;
; 

; external perimeters extrusion width = 0.40mm
; perimeters extrusion width = 0.40mm
; infill extrusion width = 0.40mm
; solid infill extrusion width = 0.40mm
; top infill extrusion width = 0.40mm
; first layer extrusion width = 0.40mm

; object:{"name":"abl_bl_touch_uhf","id":"abl_bl_touch_uhf.stl id:0 copy 0","object_center":[90.000000,92.500000,0.000000],"boundingbox_center":[90.000000,92.500000,12.717831],"boundingbox_size":[26.204430,24.523678,25.435661]}
EXCLUDE_OBJECT_DEFINE NAME=abl_bl_touch_uhf_stl_id_0_copy_0 CENTER=90.000000,92.500000 POLYGON=[[76.90,102.16],[84.40,80.64],[84.80,80.24],[91.00,80.24],[91.40,80.64],[103.10,102.16],[103.10,104.76],[76.90,104.76],[76.90,102.16]]
; plater:{"center":[90.000000,92.500000,0.000000],"boundingbox_center":[90.000000,92.500000,12.717831],"boundingbox_size":[26.204430,24.523678,25.435661]}

M107
;TYPE:Custom
START_PRINT EXTRUDER=250 BED=100
M107
G21 ; set units to millimeters
G90 ; use absolute coordinates
M83 ; use relative distances for extrusion
ACTIVATE_EXTRUDER EXTRUDER=extruder
; Filament gcode
FILAMENT_START MATERIAL=ASA COLOR=#368900 VENDOR=123-3D
SET_PRESSURE_ADVANCE ADVANCE=0.062
M104 S250 T0 ; set temperature
M109 S250 T0 ; set temperature and wait for it to be reached
M190 S100 ; set bed temperature and wait for it to be reached
;LAYER_CHANGE
;Z:0.24
;HEIGHT:0.24
G1 E-1 F3600
G1 Z0.24 F60000
G92 E0
M204 S750
G1 X81.374 Y85.451
G1 E1 F3600
;TYPE:Skirt
;WIDTH:0.4
M107
G1 F2399.206
G1 X82.191 Y84.761 E.03422
G1 X83.111 Y84.286 E0.03311
G1 X84.112 Y84.022 E.03312
G1 X91.588 Y84.008 E0.23918
G1 F2398.659
G1 X92.404 Y84.187 E.02673
G1 X93.186 Y84.508 E0.02702
G1 F2397.946
G1 X94.176 Y85.203 E.03871
G1 X95.217 Y86.515 E0.05357
G1 F2399.876
G1 X95.615 Y87.444 E.03233
G1 X95.792 Y88.283 E.02743
G1 X95.803 Y92.813 Z.24 E.14493
G1 F2400
G1 X95.815 Y97.343 Z.24 E.14493
G1 F2399.271
G1 X100.194 Y97.346 E.14011
G1 X101.709 Y97.534 E0.04882
G1 X103.267 Y98.13 E.05337
G1 X104.219 Y98.897 E.03911
G1 X104.948 Y99.88 E0.03915
G1 F2387.953
G1 X105.023 Y100.041 E.00571
G1 X105.525 Y101.742 E0.05672
G1 F2399.702
G1 X105.51 Y105.275 E.11302
G1 F2397.959
G1 X105.286 Y106.308 E.03382
G1 X105.041 Y106.88 E0.01988
G1 F2394.017
G1 X104.74 Y107.398 E.0192
G1 F2399.731
G1 X103.987 Y108.247 E.0363
G1 X103.185 Y108.849 E0.03207
G1 F2397.756
G1 X102.222 Y109.269 E.03363
G1 X101.18 Y109.462 E0.03389
G1 F2399.174
G1 X96.707 Y109.462 Z.24 E.14309
G1 X92.234 Y109.462 Z.24 E.14309
G1 X87.762 Y109.462 Z.24 E.14309
G1 X83.289 Y109.462 Z.24 E.14309
G1 X78.816 Y109.462 Z.24 E.14309
G1 X77.636 Y109.226 E0.03849
G1 X77.077 Y108.988 E.01944
G1 X76.539 Y108.677 E.01988
G1 X75.699 Y107.932 E0.03591
G1 F2397.781
G1 X75.218 Y107.335 E.02454
G1 X74.754 Y106.41 E0.03309
G1 X74.52 Y105.528 E.02922
G1 X74.512 Y101.531 E0.12786
G1 F2395.903
G1 X74.536 Y101.356 E.00566
G1 F2399.614
G1 X75.142 Y99.717 E.0559
G1 X75.782 Y98.896 E0.03329
G1 X76.603 Y98.209 E.03425
G1 X78.247 Y97.54 E0.05678
G1 F2398.117
G1 X79.513 Y97.366 E.04091
G1 X79.98 Y97.347 E0.01495
G1 F2399.542
G1 X79.98 Y92.939 Z.24 E.141
G1 X79.98 Y88.532 Z.24 E.141
G1 X80.209 Y87.367 E.03797
G1 X80.715 Y86.298 E0.03782
G1 F2395.346
G1 X81.337 Y85.499 E.0324
M107
G1 X81.611 Y85.714 F60000
M107
G1 F2400
G1 X81.637 Y85.681 E0.00134
G1 F2396.365
G1 X82.4 Y85.041 E.03186
G1 F2399.358
G1 X83.252 Y84.605 E.03062
G1 X84.178 Y84.365 E0.03059
G1 F2398.958
G1 X87.855 Y84.359 Z.24 E.11764
G1 F2399.026
G1 X91.532 Y84.353 Z.24 E.11763
G1 X92.315 Y84.524 E0.02563
G1 F2397.328
G1 X93.034 Y84.822 E.02492
G1 X93.954 Y85.473 E0.03605
G1 F2399.2
G1 X94.928 Y86.712 E.05043
G1 X95.278 Y87.533 E.02855
G1 X95.443 Y88.302 E0.02515
G1 X95.455 Y92.997 Z.24 E.15019
G1 X95.467 Y97.692 Z.24 E.1502
G1 X100.184 Y97.694 E0.15089
G1 F2398.269
G1 X101.605 Y97.867 E.04582
G1 F2399.904
G1 X103.071 Y98.419 E.0501
G1 X103.953 Y99.123 E0.03609
G1 F2394.592
G1 X104.641 Y100.046 E.03684
G1 X104.693 Y100.155 E0.00385
G1 X105.176 Y101.766 E.05382
G1 F2399.77
G1 X105.161 Y105.255 E.11161
G1 X104.959 Y106.187 E0.0305
G1 X104.734 Y106.714 E.01833
G1 F2398.485
G1 X104.447 Y107.208 E.01829
G1 F2399.103
G1 X103.739 Y108.002 E.03404
G1 X102.993 Y108.557 E0.02973
G1 F2396.988
G1 X102.102 Y108.941 E.03106
G1 X101.164 Y109.113 E0.03049
G1 F2398.683
G1 X96.698 Y109.113 Z.24 E.14288
G1 X92.232 Y109.113 Z.24 E.14288
G1 F2399.268
G1 X87.765 Y109.113 Z.24 E.14288
G1 X83.299 Y109.113 Z.24 E.14288
G1 F2400
G1 X78.833 Y109.113 Z.24 E.14288
G1 F2398.773
G1 X77.756 Y108.898 E.03514
G1 X77.223 Y108.671 E0.01852
G1 F2397.882
G1 X76.729 Y108.384 E.01829
G1 F2398.615
G1 X75.942 Y107.682 E.03375
G1 X75.502 Y107.131 E0.02254
G1 F2397.447
G1 X75.086 Y106.302 E.02969
G1 X74.868 Y105.504 E0.02646
G1 F2399.965
G1 X74.86 Y101.543 E.1267
G1 F2392.969
G1 X74.878 Y101.425 E.00383
G1 F2398.801
G1 X75.433 Y99.91 E.05163
G1 X76.045 Y99.125 E0.03182
G1 F2399.537
G1 X76.805 Y98.494 E.03159
G1 X78.316 Y97.883 E.05215
G1 X79.553 Y97.712 E0.03995
G1 F2397.43
G1 X80.309 Y97.682 E.02422
G1 X80.329 Y97.536 E0.00471
G1 F2398.304
G1 X80.329 Y93.043 Z.24 E.14376
G1 F2400
G1 X80.329 Y88.549 Z.24 E.14376
G1 F2399.564
G1 X80.547 Y87.457 E.03563
G1 X81.021 Y86.466 E.03514
G1 X81.574 Y85.761 E0.02866
M107
G1 X81.847 Y85.977 F60000
M107
G1 F2398.249
G1 X81.899 Y85.911 E.00269
G1 F2399.068
G1 X82.577 Y85.342 E.02832
G1 X83.359 Y84.938 E0.02814
G1 F2398.605
G1 X84.244 Y84.708 E.02926
G1 F2399.748
G1 X87.861 Y84.702 Z.24 E.11569
G1 F2398.991
G1 X91.477 Y84.697 Z.24 E.11569
G1 X92.196 Y84.852 E0.02352
G1 F2397.918
G1 X92.882 Y85.137 E.02378
G1 X93.731 Y85.742 E0.03335
G1 F2398.387
G1 X94.639 Y86.908 E.04729
G1 X94.941 Y87.624 E0.02484
G1 F2397.46
G1 X95.095 Y88.321 E.02285
G1 X95.119 Y98.04 E0.31091
G1 F2399.831
G1 X97.646 Y98.042 Z.24 E.08084
G1 X100.173 Y98.043 Z.24 E.08084
G1 X101.504 Y98.201 E0.04287
G1 X102.877 Y98.71 E.04684
G1 X103.688 Y99.35 E.03305
G1 X104.337 Y100.218 E.03468
G1 F2390.844
G1 X104.364 Y100.271 E.00191
G1 X104.828 Y101.791 E0.05083
G1 F2399.261
G1 X104.813 Y105.235 E.11019
G1 X104.631 Y106.066 E0.02721
G1 F2397.979
G1 X104.427 Y106.548 E.01675
G1 X104.155 Y107.018 E0.01736
G1 F2399.63
G1 X103.491 Y107.757 E.03177
G1 F2395.213
G1 X102.836 Y108.245 E.02617
G1 F2399.765
G1 X102.019 Y108.603 E.02852
G1 X101.148 Y108.765 E0.02832
G1 F2398.278
G1 X96.688 Y108.765 Z.24 E.14267
G1 X92.229 Y108.765 Z.24 E.14267
G1 X87.769 Y108.765 Z.24 E.14267
G1 X83.31 Y108.765 Z.24 E.14267
G1 F2399.335
G1 X78.85 Y108.765 Z.24 E.14267
G1 X77.875 Y108.57 E0.0318
G1 F2396.918
G1 X77.389 Y108.364 E.0169
G1 X76.919 Y108.092 E0.01736
G1 F2398.067
G1 X76.185 Y107.433 E.03156
G1 X75.786 Y106.929 E0.02055
G1 X75.406 Y106.162 E.02739
G1 F2396.925
G1 X75.211 Y105.436 E.02408
G1 X75.209 Y101.558 E0.12404
G1 F2378.122
G1 X75.219 Y101.5 E.0019
G1 X75.725 Y100.101 E0.04758
G1 F2399.313
G1 X76.282 Y99.381 E.02913
G1 X77.006 Y98.78 E.03011
G1 X78.384 Y98.225 E.04752
G1 X79.591 Y98.059 E0.03897
G1 F2395.149
G1 X80.282 Y98.036 E.02213
G1 F2393.634
G1 X80.445 Y98.018 E.00524
G1 X80.566 Y97.958 E0.0043
G1 F2385.309
G1 X80.637 Y97.86 E.00388
G1 F2394.043
G1 X80.677 Y97.56 E.00969
G1 F2399.935
G1 X80.677 Y93.063 Z.24 E.14386
G1 X80.677 Y88.566 Z.24 E.14386
G1 X80.884 Y87.547 E0.03326
G1 X81.327 Y86.635 E.03244
G1 F2398.347
G1 X81.81 Y86.024 E.02493
M107
G1 X82.082 Y86.241 F60000
M107
G1 F2400
G1 X82.161 Y86.142 E0.00405
G1 F2396.235
G1 X82.785 Y85.622 E.02601
G1 X83.5 Y85.257 E0.02566
G1 F2398.69
G1 X84.309 Y85.051 E.02671
G1 F2399.939
G1 X87.865 Y85.047 Z.24 E.11377
G1 X91.422 Y85.042 Z.24 E.11378
G1 X92.107 Y85.189 E0.02241
G1 F2396.919
G1 X92.729 Y85.45 E.0216
G1 X93.507 Y86.01 E0.03065
G1 F2399.321
G1 X94.349 Y87.103 E.04414
G1 F2397.352
G1 X94.604 Y87.715 E.02122
G1 X94.746 Y88.342 E0.02054
G1 X94.755 Y91.691 Z.24 E.10714
G1 F2398.23
G1 X94.763 Y95.039 Z.24 E.10714
G1 F2399.74
G1 X94.772 Y98.388 Z.24 E.10714
G1 X100.163 Y98.391 E0.17246
G1 F2398.748
G1 X101.442 Y98.545 E.04123
G1 F2399.997
G1 X102.684 Y99.001 E.04232
G1 X103.423 Y99.577 E.02997
G1 X104.041 Y100.403 E0.03299
G1 X104.479 Y101.816 E.04733
G1 X104.464 Y105.215 E0.10874
G1 X104.304 Y105.945 E.02391
G1 F2398.349
G1 X104.111 Y106.402 E.01588
G1 X103.863 Y106.826 E0.01571
G1 F2399.137
G1 X103.244 Y107.51 E.02951
G1 X102.676 Y107.935 E0.02268
G1 F2397.817
G1 X101.934 Y108.264 E.02598
G1 X101.132 Y108.416 E0.02611
G1 F2399.729
G1 X96.679 Y108.416 Z.24 E.14245
G1 X92.226 Y108.416 Z.24 E.14245
G1 X87.773 Y108.416 Z.24 E.14245
G1 X83.32 Y108.416 Z.24 E.14245
G1 F2400
G1 X78.867 Y108.416 Z.24 E.14245
G1 F2397.892
G1 X77.995 Y108.242 E.02847
G1 F2399.74
G1 X77.535 Y108.048 E.01597
G1 X77.111 Y107.8 E0.01571
G1 X76.43 Y107.184 E.02937
G1 F2398.606
G1 X76.072 Y106.728 E.01855
G1 X75.726 Y106.024 E0.02508
G1 F2395.988
G1 X75.553 Y105.369 E.0217
G1 X75.557 Y101.588 E0.12093
G1 F2398.492
G1 X76.018 Y100.293 E.044
G1 F2399.589
G1 X76.546 Y99.61 E.02762
G1 X77.207 Y99.066 E0.02738
G1 X78.453 Y98.567 E.04293
G1 X79.63 Y98.405 E0.038
G1 F2397.159
G1 X80.307 Y98.384 E.02169
G1 F2398.898
G1 X80.535 Y98.358 E.00734
G1 F2397.942
G1 X80.726 Y98.277 E.00663
G1 F2386.631
G1 X80.809 Y98.211 E.0034
G1 X80.901 Y98.103 E0.00452
G1 F2395.07
G1 X80.959 Y97.997 E.00386
G1 F2392.169
G1 X80.995 Y97.882 E.00386
G1 F2399.594
G1 X81.026 Y97.577 E.0098
G1 F2398.516
G1 X81.026 Y93.081 Z.24 E.14386
G1 F2400
G1 X81.026 Y88.584 Z.24 E.14386
G1 F2398.629
G1 X81.221 Y87.64 E.03085
G1 X81.631 Y86.806 E0.02972
G1 F2395.337
G1 X82.044 Y86.288 E.0212
M107
G1 X82.315 Y86.506 F60000
M107
G1 F2400
G1 X82.421 Y86.374 E0.0054
G1 F2394.557
G1 X82.992 Y85.903 E.0237
G1 F2398.869
G1 X83.639 Y85.577 E.02318
G1 X84.373 Y85.394 E0.02418
G1 X87.87 Y85.391 Z.24 E.1119
G1 F2400
G1 X91.368 Y85.387 Z.24 E.11189
G1 F2397.475
G1 X91.987 Y85.517 E.02025
G1 X92.576 Y85.764 E0.02042
G1 X93.281 Y86.277 E.02791
G1 X94.058 Y87.296 E0.04099
G1 F2398.736
G1 X94.268 Y87.808 E.01771
G1 X94.398 Y88.362 E0.0182
G1 F2399.385
G1 X94.407 Y91.82 Z.24 E.11063
G1 X94.415 Y95.278 Z.24 E.11063
G1 X94.424 Y98.736 Z.24 E.11063
G1 X100.152 Y98.74 E0.18324
G1 X101.38 Y98.888 E.03957
G1 F2398.224
G1 X102.536 Y99.318 E.03948
G1 X103.188 Y99.837 E0.02665
G1 F2397.673
G1 X103.717 Y100.536 E.02806
G1 X104.131 Y101.842 E0.04381
G1 F2399.548
G1 X104.12 Y105.16 E.10614
G1 X103.976 Y105.825 E.02178
G1 F2396.815
G1 X103.804 Y106.236 E.01426
G1 X103.571 Y106.635 E0.01475
G1 X102.998 Y107.263 E.02721
G1 F2398.89
G1 X102.485 Y107.643 E.02044
G1 F2399.334
G1 X101.813 Y107.937 E.02347
G1 X101.116 Y108.068 E0.02268
G1 X96.67 Y108.068 Z.24 E.14224
G1 X92.223 Y108.068 Z.24 E.14224
G1 X87.777 Y108.068 Z.24 E.14224
G1 X83.33 Y108.068 Z.24 E.14224
G1 F2400
G1 X78.884 Y108.068 Z.24 E.14224
G1 F2399.622
G1 X78.113 Y107.914 E.02516
G1 F2395.331
G1 X77.701 Y107.741 E.01431
G1 X77.302 Y107.508 E0.01475
G1 F2394.576
G1 X76.676 Y106.937 E.02714
G1 F2398.706
G1 X76.358 Y106.529 E.01655
G1 X76.047 Y105.888 E0.02277
G1 X75.896 Y105.303 E.01933
G1 X75.896 Y101.675 E0.11605
G1 F2399.842
G1 X76.312 Y100.482 E.04042
G1 X76.783 Y99.866 E.02482
G1 X77.407 Y99.352 E.02588
G1 X78.521 Y98.91 E.03834
G1 X79.668 Y98.752 E0.03703
G1 X80.332 Y98.732 E.02125
G1 F2393.182
G1 X80.605 Y98.701 E.0088
G1 X80.739 Y98.661 E0.00446
G1 F2396.467
G1 X80.915 Y98.571 E.00632
G1 F2388.684
G1 X81.052 Y98.463 E.0056
G1 X81.189 Y98.302 E0.00675
G1 F2387.285
G1 X81.281 Y98.135 E.00612
G1 X81.338 Y97.952 E0.00612
G1 F2395.551
G1 X81.374 Y97.595 E.01149
G1 F2399.992
G1 X81.374 Y93.098 Z.24 E.14385
G1 X81.374 Y88.602 Z.24 E.14385
G1 X81.557 Y87.733 E.02841
G1 X81.934 Y86.978 E0.02699
G1 F2397.977
G1 X82.277 Y86.553 E.01749
M107
G1 X82.548 Y86.769 F60000
M107
G1 F2398.354
G1 X82.658 Y86.631 E.00565
G1 X83.167 Y86.205 E0.02122
G1 F2397.204
G1 X83.778 Y85.897 E.0219
G1 X84.435 Y85.738 E0.02161
G1 F2398.502
G1 X87.874 Y85.735 Z.24 E.11004
G1 F2399.274
G1 X91.314 Y85.732 Z.24 E.11004
G1 X91.899 Y85.855 E.01912
G1 X92.421 Y86.077 E0.01814
G1 F2398.678
G1 X93.055 Y86.543 E.02518
G1 X93.745 Y87.449 E0.03643
G1 X93.94 Y87.927 E.01653
G1 F2399.859
G1 X94.054 Y88.421 E.01622
G1 X94.076 Y99.085 E0.34114
G1 X97.108 Y99.087 Z.24 E.09701
G1 X100.141 Y99.088 Z.24 E.09701
G1 X101.317 Y99.232 E0.03789
G1 F2398.596
G1 X102.387 Y99.635 E.03659
G1 X102.953 Y100.094 E0.02331
G1 F2399.498
G1 X103.395 Y100.672 E.02328
G1 X103.782 Y101.869 E0.04024
G1 F2398.568
G1 X103.775 Y105.105 E.10354
G1 X103.649 Y105.706 E0.01963
G1 F2399.454
G1 X103.487 Y106.091 E.01336
G1 F2397.641
G1 X103.281 Y106.442 E.01303
G1 X102.753 Y107.015 E0.02492
G1 F2396.223
G1 X102.326 Y107.332 E.01703
G1 X101.727 Y107.598 E0.02095
G1 F2399.025
G1 X101.099 Y107.719 E.02046
G1 X96.66 Y107.719 Z.24 E.14203
G1 X92.22 Y107.719 Z.24 E.14202
G1 X87.781 Y107.719 Z.24 E.14203
G1 X83.341 Y107.719 Z.24 E.14202
G1 X78.902 Y107.719 Z.24 E.14203
G1 X78.232 Y107.586 E.02185
G1 X77.846 Y107.424 E0.01338
G1 F2397.094
G1 X77.495 Y107.218 E.01303
G1 F2399.992
G1 X76.923 Y106.69 E.0249
G1 X76.645 Y106.33 E0.01455
G1 X76.369 Y105.753 E.02046
G1 X76.239 Y105.238 E0.01699
G1 X76.235 Y101.76 E.11127
G1 X76.606 Y100.671 E0.0368
G1 F2398.091
G1 X77.047 Y100.094 E.02325
G1 X77.606 Y99.639 E0.02306
G1 F2399.419
G1 X78.589 Y99.252 E.0338
G1 X79.706 Y99.098 E0.03606
G1 X80.356 Y99.08 E.0208
G1 X80.675 Y99.044 E.01027
G1 F2396.451
G1 X80.869 Y98.986 E.00648
G1 X81.104 Y98.866 E0.00842
G1 X81.295 Y98.715 E.00779
G1 X81.477 Y98.501 E0.00898
G1 F2397.179
G1 X81.603 Y98.272 E.00837
G1 X81.681 Y98.022 E0.00838
G1 F2395.559
G1 X81.723 Y97.613 E.01318
G1 X81.723 Y88.62 E0.28769
G1 F2398.502
G1 X81.88 Y87.868 E.02459
G1 X82.218 Y87.181 E0.02449
G1 F2393.627
G1 X82.51 Y86.816 E.01497
M107
G1 X82.78 Y87.034 F60000
M107
G1 F2400
G1 X82.918 Y86.863 E0.00701
G1 F2397.736
G1 X83.374 Y86.486 E.01891
G1 X83.915 Y86.218 E.01933
G1 F2399.804
G1 X84.495 Y86.082 E.01906
G1 X91.262 Y86.077 E0.21647
G1 X91.779 Y86.182 E.01688
G1 F2396.375
G1 X92.265 Y86.389 E.01692
G1 X92.827 Y86.808 E0.02241
G1 F2394.967
G1 X93.431 Y87.603 E.03196
G1 X93.604 Y88.02 E0.01441
G1 X93.71 Y88.48 E.01512
G1 X93.728 Y99.433 E0.3504
G1 F2399.65
G1 X96.919 Y99.434 Z.24 E.10209
G1 F2398.66
G1 X100.11 Y99.435 Z.24 E.10209
G1 X101.216 Y99.566 E0.03561
G1 X102.19 Y99.923 E.03319
G1 X102.717 Y100.351 E0.02171
G1 F2396.827
G1 X103.099 Y100.858 E.02032
G1 X103.434 Y101.896 E0.03486
G1 X103.43 Y105.052 E.10099
G1 X103.32 Y105.588 E0.01748
G1 F2398.649
G1 X103.181 Y105.925 E.01166
G1 F2399.973
G1 X102.99 Y106.249 E.01203
G1 X102.508 Y106.766 E.02261
G1 F2398.676
G1 X102.165 Y107.023 E.01372
G1 F2399.102
G1 X101.64 Y107.26 E.01843
G1 X101.082 Y107.371 E0.01819
G1 F2398.394
G1 X96.649 Y107.371 Z.24 E.14181
G1 F2397.994
G1 X92.217 Y107.371 Z.24 E.14181
G1 X87.784 Y107.371 Z.24 E.14181
G1 X83.352 Y107.371 Z.24 E.14181
G1 F2396.595
G1 X78.919 Y107.371 Z.24 E.14181
G1 X78.349 Y107.257 E0.01857
G1 F2398.571
G1 X78.012 Y107.118 E.01166
G1 F2399.974
G1 X77.688 Y106.927 E.01203
G1 X77.171 Y106.445 E.02261
G1 F2398.005
G1 X76.933 Y106.134 E.01254
G1 F2399.676
G1 X76.692 Y105.621 E.01814
G1 X76.583 Y105.176 E.01466
G1 X76.575 Y101.843 E0.10661
G1 F2397.045
G1 X76.901 Y100.859 E.03319
G1 X77.283 Y100.351 E0.02032
G1 F2398.855
G1 X77.805 Y99.927 E.02152
G1 F2399.564
G1 X78.657 Y99.595 E.02926
G1 X79.744 Y99.445 E.0351
G1 X80.38 Y99.428 E0.02035
G1 F2396.848
G1 X80.745 Y99.387 E.01175
G1 X81 Y99.31 E0.0085
G1 F2394.837
G1 X81.293 Y99.161 E.01052
G1 X81.538 Y98.967 E0.00999
G1 F2395.375
G1 X81.765 Y98.701 E.0112
G1 X81.926 Y98.41 E0.01063
G1 F2396.488
G1 X82.025 Y98.093 E.01063
G1 X82.071 Y97.63 E0.01487
G1 F2398.174
G1 X82.071 Y93.134 Z.24 E.14383
G1 F2400
G1 X82.071 Y88.638 Z.24 E.14383
G1 F2399.903
G1 X82.216 Y87.962 E.02212
G1 F2397.872
G1 X82.521 Y87.354 E.02177
G1 F2398.327
G1 X82.743 Y87.08 E.01127
M107
G1 X83.011 Y87.3 F60000
M107
G1 F2400
G1 X83.177 Y87.097 E0.00837
G1 F2394.477
G1 X83.578 Y86.769 E.01659
G1 X84.049 Y86.54 E0.01675
G1 F2399.835
G1 X84.553 Y86.426 E.01653
G1 X87.882 Y86.424 Z.24 E.10649
G1 X91.211 Y86.422 Z.24 E.10649
G1 X91.659 Y86.51 E0.0146
G1 F2396.893
G1 X92.109 Y86.701 E.01565
