; generated by SuperSlicer 2.5.59.10 on 2024-06-01 at 22:32:08 UTC


;
;

;
;
; 

; external perimeters extrusion width = 0.40mm
; perimeters extrusion width = 0.40mm
; infill extrusion width = 0.40mm
; solid infill extrusion width = 0.40mm
; top infill extrusion width = 0.40mm
; first layer extrusion width = 0.40mm

; object:{"name":"abl_bl_touch_uhf","id":"abl_bl_touch_uhf.stl id:0 copy 0","object_center":[84.245354,50.486506,0.000000],"boundingbox_center":[84.245354,50.486506,12.717831],"boundingbox_size":[26.204430,24.523678,25.435661]}
EXCLUDE_OBJECT_DEFINE NAME=abl_bl_touch_uhf_stl_id_0_copy_0 CENTER=84.245354,50.486506 POLYGON=[[71.14,60.15],[78.65,38.62],[79.05,38.22],[85.25,38.22],[85.65,38.62],[97.35,60.15],[97.35,62.75],[71.14,62.75],[71.14,60.15]]
; plater:{"center":[84.245354,50.486506,0.000000],"boundingbox_center":[84.245354,50.486506,12.717831],"boundingbox_size":[26.204430,24.523678,25.435661]}

M107
;TYPE:Custom
START_PRINT EXTRUDER=250 BED=100
M107
G21 ; set units to millimeters
G90 ; use absolute coordinates
M83 ; use relative distances for extrusion
ACTIVATE_EXTRUDER EXTRUDER=extruder
; Filament gcode
FILAMENT_START MATERIAL=ASA COLOR=#368900 VENDOR=123-3D
SET_PRESSURE_ADVANCE ADVANCE=0.062
M104 S250 T0 ; set temperature
M109 S250 T0 ; set temperature and wait for it to be reached
M190 S100 ; set bed temperature and wait for it to be reached
;LAYER_CHANGE
;Z:0.24
;HEIGHT:0.24
G1 E-1 F3600
G1 Z0.24 F60000
G92 E0
M204 S750
G1 X74.961 Y44.285
G1 E1 F3600
;TYPE:Skirt
;WIDTH:0.4
M107
G1 F2400
G1 X75.619 Y43.438 E0.03432
G1 F2399.135
G1 X76.436 Y42.748 E.03422
G1 X77.356 Y42.273 E0.03311
G1 X78.357 Y42.009 E.03312
G1 X82.095 Y42.002 Z.24 E.11959
G1 F2398.066
G1 X85.833 Y41.995 Z.24 E.11959
G1 X86.65 Y42.173 E0.02673
G1 X87.431 Y42.494 E.02702
G1 X88.421 Y43.19 E0.03871
G1 F2399.066
G1 X89.462 Y44.501 E.05357
G1 X89.86 Y45.43 E0.03233
G1 X90.037 Y46.269 E.02743
G1 X90.049 Y50.799 Z.24 E.14493
G1 X90.06 Y55.33 Z.24 E.14493
G1 X94.44 Y55.332 E0.14011
G1 X95.954 Y55.52 E.04882
G1 X97.512 Y56.116 E.05337
G1 X98.464 Y56.883 E.03911
G1 F2396.991
G1 X99.193 Y57.866 E.03915
G1 X99.269 Y58.028 E0.00571
G1 F2395.934
G1 X99.77 Y59.728 E.05672
G1 F2399.136
G1 X99.755 Y63.261 E.11302
G1 X99.531 Y64.295 E0.03382
G1 F2398.911
G1 X99.286 Y64.866 E.01988
G1 F2399.773
G1 X98.985 Y65.385 E.0192
G1 F2398.615
G1 X98.233 Y66.234 E.0363
G1 X97.43 Y66.835 E0.03207
G1 F2399.101
G1 X96.467 Y67.256 E.03363
G1 F2398.412
G1 X95.426 Y67.448 E.03389
G1 F2399.963
G1 X90.953 Y67.448 Z.24 E.14309
G1 X86.48 Y67.448 Z.24 E.14309
G1 X82.007 Y67.448 Z.24 E.14309
G1 X77.534 Y67.448 Z.24 E.14309
G1 X73.061 Y67.448 Z.24 E.14309
G1 X71.881 Y67.212 E0.03849
G1 X71.322 Y66.974 E.01944
G1 X70.784 Y66.663 E0.01988
G1 X69.944 Y65.919 E.03591
G1 X69.464 Y65.321 E.02454
G1 X69 Y64.397 E.03309
G1 X68.765 Y63.514 E0.02922
G1 X68.757 Y59.517 E.12786
G1 F2395.938
G1 X68.781 Y59.342 E.00566
G1 X69.387 Y57.703 E0.0559
G1 F2398.391
G1 X70.027 Y56.883 E.03329
G1 X70.848 Y56.195 E0.03425
G1 X72.492 Y55.527 E.05678
G1 F2399.83
G1 X73.759 Y55.353 E.04091
G1 X74.226 Y55.333 E0.01495
G1 X74.226 Y50.925 Z.24 E.141
G1 X74.226 Y46.518 Z.24 E.141
G1 X74.455 Y45.353 E0.03797
G1 F2392.436
G1 X74.935 Y44.339 E.03591
M107
G1 X75.249 Y44.489 F60000
M107
G1 F2400
G1 X75.267 Y44.452 E0.00131
G1 F2392.903
G1 X75.882 Y43.667 E.03192
G1 F2399.497
G1 X76.645 Y43.027 E.03186
G1 X77.498 Y42.592 E0.03062
G1 F2398.105
G1 X78.423 Y42.352 E.03059
G1 F2399.764
G1 X82.1 Y42.346 Z.24 E.11764
G1 X85.777 Y42.339 Z.24 E.11763
G1 X86.56 Y42.51 E.02563
G1 X87.28 Y42.809 E0.02492
G1 F2397.405
G1 X88.199 Y43.46 E.03605
G1 X89.174 Y44.699 E0.05043
G1 F2399.343
G1 X89.523 Y45.52 E.02855
G1 X89.689 Y46.288 E.02515
G1 X89.701 Y50.983 Z.24 E.15019
G1 X89.712 Y55.678 Z.24 E.1502
G1 X94.429 Y55.681 E.15089
G1 X95.851 Y55.854 E0.04582
G1 X97.316 Y56.406 E.0501
G1 X98.198 Y57.109 E.03609
G1 X98.886 Y58.033 E0.03684
G1 F2398.361
G1 X98.939 Y58.141 E.00385
G1 X99.422 Y59.753 E0.05382
G1 F2399.762
G1 X99.407 Y63.242 E.11161
G1 X99.204 Y64.173 E.0305
G1 F2398.234
G1 X98.98 Y64.7 E.01833
G1 X98.693 Y65.195 E0.01829
G1 F2399.514
G1 X97.984 Y65.989 E.03404
G1 F2396.387
G1 X97.239 Y66.543 E.02973
G1 X96.347 Y66.928 E0.03106
G1 F2398.122
G1 X95.41 Y67.1 E.03049
G1 X73.078 Y67.1 E0.71441
G1 F2399.957
G1 X72.001 Y66.884 E.03514
G1 X71.468 Y66.658 E0.01852
G1 F2398.684
G1 X70.974 Y66.371 E.01829
G1 X70.187 Y65.669 E.03375
G1 X69.747 Y65.118 E0.02254
G1 F2399.513
G1 X69.331 Y64.288 E.02969
G1 X69.113 Y63.49 E.02646
G1 X69.105 Y59.53 E.1267
G1 F2392.65
G1 X69.123 Y59.412 E.00383
G1 X69.678 Y57.896 E0.05163
G1 F2399.054
G1 X70.29 Y57.112 E.03182
G1 X71.05 Y56.481 E0.03159
G1 X72.561 Y55.869 E.05215
G1 X73.798 Y55.699 E.03995
G1 F2397.565
G1 X74.554 Y55.669 E.02422
G1 X74.574 Y55.523 E0.00471
G1 F2398.47
G1 X74.574 Y51.029 Z.24 E.14376
G1 F2400
G1 X74.574 Y46.535 Z.24 E.14376
G1 F2399.028
G1 X74.792 Y45.443 E.03563
G1 X75.223 Y44.543 E0.03191
M107
G1 X75.536 Y44.695 F60000
M107
G1 F2383.512
G1 X75.572 Y44.622 E.00262
G1 X76.145 Y43.897 E0.02954
G1 F2398.917
G1 X76.823 Y43.328 E.02832
G1 F2399.593
G1 X77.604 Y42.924 E.02814
G1 X78.489 Y42.694 E.02926
G1 X82.105 Y42.689 Z.24 E.11569
G1 X85.722 Y42.684 Z.24 E.11569
G1 X86.441 Y42.838 E.02352
G1 X87.128 Y43.123 E0.02378
G1 F2398.631
G1 X87.976 Y43.729 E.03335
G1 X88.885 Y44.895 E0.04729
G1 F2396.797
G1 X89.186 Y45.61 E.02484
G1 X89.34 Y46.308 E0.02285
G1 F2398.574
G1 X89.352 Y51.167 Z.24 E.15546
G1 F2400
G1 X89.365 Y56.026 Z.24 E.15545
G1 F2399.492
G1 X91.891 Y56.028 Z.24 E.08084
G1 F2398.82
G1 X94.418 Y56.029 Z.24 E.08084
G1 X95.749 Y56.188 E0.04287
G1 F2399.3
G1 X97.122 Y56.696 E.04684
G1 X97.933 Y57.336 E.03305
G1 F2387.17
G1 X98.583 Y58.204 E.03468
G1 X98.61 Y58.258 E0.00191
G1 F2385.26
G1 X99.073 Y59.777 E.05083
G1 X99.058 Y63.222 E0.11019
G1 F2395.172
G1 X98.877 Y64.052 E.02721
G1 X98.673 Y64.535 E0.01675
G1 F2398.388
G1 X98.4 Y65.004 E.01736
G1 F2399.073
G1 X97.737 Y65.743 E.03177
G1 X97.081 Y66.232 E0.02617
G1 X96.264 Y66.589 E.02852
G1 X95.394 Y66.751 E.02832
G1 X90.934 Y66.751 Z.24 E.14267
G1 X86.475 Y66.751 Z.24 E.14267
G1 X82.015 Y66.751 Z.24 E.14267
G1 X77.556 Y66.751 Z.24 E.14267
G1 X73.096 Y66.751 Z.24 E.14267
G1 F2398.951
G1 X72.121 Y66.557 E.0318
G1 X71.634 Y66.351 E0.0169
G1 X71.165 Y66.078 E.01736
G1 F2399.831
G1 X70.431 Y65.419 E.03156
G1 F2398.55
G1 X70.032 Y64.916 E.02055
G1 X69.651 Y64.149 E0.02739
G1 F2399.615
G1 X69.456 Y63.422 E.02408
G1 F2390.693
G1 X69.454 Y59.545 E.12404
G1 X69.464 Y59.486 E0.0019
G1 X69.971 Y58.088 E.04758
G1 F2398.981
G1 X70.528 Y57.368 E.02913
G1 X71.252 Y56.766 E0.03011
G1 X72.63 Y56.212 E.04752
G1 X73.837 Y56.045 E0.03897
G1 F2397.03
G1 X74.528 Y56.022 E.02213
G1 X74.691 Y56.004 E.00524
G1 F2378.434
G1 X74.811 Y55.945 E.0043
G1 X74.882 Y55.846 E0.00388
G1 F2392.417
G1 X74.923 Y55.546 E.00969
G1 F2398.163
G1 X74.923 Y51.049 Z.24 E.14386
G1 F2399.94
G1 X74.923 Y46.553 Z.24 E.14386
G1 F2398.879
G1 X75.129 Y45.534 E.03326
G1 X75.51 Y44.749 E.02789
M107
G1 X75.822 Y44.903 F60000
M107
G1 F2400
G1 X75.876 Y44.792 E0.00394
G1 F2394.796
G1 X76.406 Y44.129 E.02717
G1 X77.031 Y43.608 E0.02601
G1 F2398.753
G1 X77.745 Y43.243 E.02566
G1 F2399.301
G1 X78.554 Y43.038 E.02671
G1 X82.111 Y43.034 Z.24 E.11378
G1 X85.667 Y43.029 Z.24 E.11377
G1 X86.352 Y43.176 E.02241
G1 X86.975 Y43.437 E0.0216
G1 F2398.913
G1 X87.752 Y43.997 E.03065
G1 X88.595 Y45.089 E.04414
G1 X88.85 Y45.702 E0.02122
G1 X88.992 Y46.328 E.02054
G1 F2399.997
G1 X89 Y49.677 Z.24 E.10714
G1 X89.009 Y53.026 Z.24 E.10714
G1 X89.017 Y56.375 Z.24 E.10714
G1 X94.408 Y56.378 E0.17246
G1 F2398.207
G1 X95.687 Y56.531 E.04123
G1 X96.929 Y56.988 E0.04232
G1 F2399.681
G1 X97.668 Y57.564 E.02997
G1 F2398.695
G1 X98.286 Y58.389 E.03299
G1 F2399.781
G1 X98.725 Y59.802 E.04733
G1 X98.71 Y63.202 E0.10874
G1 X98.549 Y63.932 E.02391
G1 F2397.995
G1 X98.356 Y64.389 E.01588
G1 X98.108 Y64.813 E0.01571
G1 F2399.768
G1 X97.489 Y65.497 E.02951
G1 F2395.955
G1 X96.922 Y65.921 E.02268
G1 X96.179 Y66.25 E0.02598
G1 F2399.749
G1 X95.377 Y66.403 E.02611
G1 X90.924 Y66.403 Z.24 E.14245
G1 X86.471 Y66.403 Z.24 E.14245
G1 X82.019 Y66.403 Z.24 E.14245
G1 X77.566 Y66.403 Z.24 E.14245
G1 X73.113 Y66.403 Z.24 E.14245
G1 X72.24 Y66.229 E.02847
G1 X71.78 Y66.034 E0.01597
G1 F2396.901
G1 X71.356 Y65.787 E.01571
G1 X70.675 Y65.171 E0.02937
G1 F2398.606
G1 X70.317 Y64.715 E.01855
G1 X69.971 Y64.011 E0.02508
G1 X69.799 Y63.355 E.0217
G1 F2399.811
G1 X69.802 Y59.575 E.12093
G1 X70.263 Y58.279 E0.044
G1 X70.791 Y57.596 E.02762
G1 X71.452 Y57.052 E0.02738
G1 X72.698 Y56.554 E.04293
G1 X73.875 Y56.392 E.038
G1 X74.553 Y56.37 E0.02169
G1 F2398.922
G1 X74.781 Y56.345 E.00734
G1 X74.971 Y56.263 E.00663
G1 F2397.038
G1 X75.054 Y56.197 E.0034
G1 F2395.775
G1 X75.146 Y56.09 E.00452
G1 X75.204 Y55.984 E0.00386
G1 F2394.144
G1 X75.24 Y55.869 E.00386
G1 X75.271 Y55.564 E0.0098
G1 F2398.711
G1 X75.271 Y51.067 Z.24 E.14386
G1 F2400
G1 X75.271 Y46.57 Z.24 E.14386
G1 F2398.692
G1 X75.466 Y45.626 E.03085
G1 F2399.198
G1 X75.796 Y44.957 E.02386
M107
G1 X76.106 Y45.112 F60000
M107
G1 F2400
G1 X76.18 Y44.965 E0.00526
G1 F2396.895
G1 X76.666 Y44.361 E.02481
G1 X77.238 Y43.889 E0.0237
G1 F2398.608
G1 X77.885 Y43.563 E.02318
G1 X78.618 Y43.381 E.02418
G1 F2399.312
G1 X82.115 Y43.377 Z.24 E.11189
G1 F2397.246
G1 X85.613 Y43.373 Z.24 E.1119
G1 X86.233 Y43.504 E0.02025
G1 F2394.053
G1 X86.821 Y43.75 E.02042
G1 X87.527 Y44.264 E0.02791
G1 F2398.972
G1 X88.304 Y45.283 E.04099
G1 F2399.2
G1 X88.514 Y45.795 E.01771
G1 X88.643 Y46.349 E.0182
G1 X88.652 Y49.807 Z.24 E.11063
G1 X88.66 Y53.265 Z.24 E.11063
G1 X88.669 Y56.723 Z.24 E.11063
G1 X91.533 Y56.725 Z.24 E.09162
G1 X94.397 Y56.726 Z.24 E.09162
G1 X95.625 Y56.875 E.03957
G1 X96.782 Y57.305 E0.03948
G1 F2398.437
G1 X97.434 Y57.823 E.02665
G1 X97.963 Y58.523 E0.02806
G1 X98.376 Y59.828 E.04381
G1 F2399.437
G1 X98.365 Y63.146 E.10614
G1 X98.222 Y63.812 E0.02178
G1 X98.049 Y64.223 E.01426
G1 F2397.306
G1 X97.817 Y64.621 E.01475
G1 X97.243 Y65.249 E0.02721
G1 F2399.782
G1 X96.73 Y65.63 E.02044
G1 F2397.697
G1 X96.058 Y65.923 E.02347
G1 X95.361 Y66.054 E0.02268
G1 F2399.199
G1 X90.915 Y66.054 Z.24 E.14224
G1 X86.469 Y66.054 Z.24 E.14224
G1 X82.022 Y66.054 Z.24 E.14224
G1 X77.576 Y66.054 Z.24 E.14224
G1 F2400
G1 X73.13 Y66.054 Z.24 E.14224
G1 F2399.086
G1 X72.359 Y65.9 E.02516
G1 X71.946 Y65.728 E.01431
G1 X71.548 Y65.495 E.01475
G1 X70.921 Y64.923 E0.02714
G1 F2398.822
G1 X70.603 Y64.515 E.01655
G1 X70.293 Y63.874 E0.02277
G1 F2399.437
G1 X70.142 Y63.289 E.01933
G1 X70.141 Y59.662 E.11605
G1 X70.557 Y58.469 E0.04042
G1 F2398.373
G1 X71.028 Y57.853 E.02482
G1 F2399.951
G1 X71.653 Y57.339 E.02588
G1 X72.767 Y56.896 E0.03834
G1 F2398.151
G1 X73.913 Y56.738 E.03703
G1 F2397.764
G1 X74.577 Y56.718 E.02125
G1 X74.851 Y56.688 E0.0088
G1 F2388.375
G1 X74.984 Y56.648 E.00446
G1 X75.16 Y56.558 E0.00632
G1 F2398.333
G1 X75.297 Y56.449 E.0056
G1 F2390.205
G1 X75.434 Y56.289 E.00675
G1 X75.527 Y56.121 E0.00612
G1 F2386.376
G1 X75.584 Y55.939 E.00612
G1 F2396.07
G1 X75.62 Y55.582 E.01149
G1 F2399.99
G1 X75.62 Y51.086 Z.24 E.14385
G1 X75.62 Y46.589 Z.24 E.14385
G1 X75.803 Y45.72 E0.02841
G1 X76.08 Y45.166 E.01982
M107
G1 X76.389 Y45.318 F60000
M107
G1 F2393.387
G1 X76.464 Y45.168 E.00538
G1 X76.903 Y44.617 E0.02254
G1 F2398.429
G1 X77.412 Y44.192 E.02122
G1 X78.024 Y43.884 E0.0219
G1 X78.68 Y43.724 E.02161
G1 F2399.818
G1 X82.119 Y43.721 Z.24 E.11004
G1 X85.559 Y43.718 Z.24 E.11004
G1 X86.144 Y43.841 E.01912
G1 X86.666 Y44.063 E.01814
G1 X87.3 Y44.53 E0.02518
G1 X87.99 Y45.436 E.03643
G1 X88.186 Y45.914 E.01653
G1 F2398.967
G1 X88.299 Y46.408 E.01622
G1 X88.322 Y57.071 E0.34114
G1 F2399.646
G1 X91.354 Y57.073 Z.24 E.09701
G1 X94.386 Y57.075 Z.24 E.09701
G1 X95.562 Y57.218 E.03789
G1 X96.633 Y57.621 E0.03659
G1 X97.198 Y58.081 E.02331
G1 F2397.158
G1 X97.64 Y58.658 E.02328
G1 F2399.994
G1 X98.027 Y59.855 E.04024
G1 X98.02 Y63.092 E0.10354
G1 F2398.546
G1 X97.894 Y63.692 E.01963
G1 X97.733 Y64.077 E.01336
G1 X97.526 Y64.428 E0.01303
G1 F2399.698
G1 X96.998 Y65.001 E.02492
G1 F2398.91
G1 X96.571 Y65.319 E.01703
G1 X95.972 Y65.585 E0.02095
G1 F2395.316
G1 X95.345 Y65.706 E.02046
G1 F2399.913
G1 X90.905 Y65.706 Z.24 E.14203
G1 X86.466 Y65.706 Z.24 E.14202
G1 X82.026 Y65.706 Z.24 E.14203
G1 X77.587 Y65.706 Z.24 E.14202
G1 X73.147 Y65.706 Z.24 E.14203
G1 X72.477 Y65.572 E0.02185
G1 X72.091 Y65.411 E.01338
G1 F2396.093
G1 X71.741 Y65.204 E.01303
G1 X71.168 Y64.677 E0.0249
G1 F2399.927
G1 X70.89 Y64.317 E.01455
G1 F2398.336
G1 X70.615 Y63.74 E.02046
G1 X70.485 Y63.225 E0.01699
G1 F2399.625
G1 X70.48 Y59.747 E.11127
G1 X70.851 Y58.658 E0.0368
G1 X71.293 Y58.081 E.02325
G1 X71.852 Y57.626 E.02306
G1 X72.835 Y57.239 E.0338
G1 X73.952 Y57.085 E0.03606
G1 X74.602 Y57.066 E.0208
G1 F2397.753
G1 X74.921 Y57.031 E.01027
G1 X75.115 Y56.972 E0.00648
G1 F2392.204
G1 X75.349 Y56.853 E.00842
G1 F2398.957
G1 X75.54 Y56.702 E.00779
G1 F2399.882
G1 X75.722 Y56.488 E.00898
G1 X75.849 Y56.259 E0.00837
G1 F2397.9
G1 X75.927 Y56.009 E.00838
G1 X75.968 Y55.599 E0.01318
G1 F2399.771
G1 X75.968 Y51.103 Z.24 E.14384
G1 F2400
G1 X75.968 Y46.606 Z.24 E.14384
G1 F2398.225
G1 X76.125 Y45.854 E.02459
G1 X76.363 Y45.372 E0.01719
M107
G1 X76.673 Y45.528 F60000
M107
G1 F2397.887
G1 X76.767 Y45.341 E.0067
G1 X77.164 Y44.85 E0.0202
G1 F2399.661
G1 X77.619 Y44.473 E.01891
G1 F2398.24
G1 X78.16 Y44.205 E.01933
G1 X78.74 Y44.068 E0.01906
G1 F2399.544
G1 X82.124 Y44.065 Z.24 E.10823
G1 X85.507 Y44.063 Z.24 E.10824
G1 X86.024 Y44.169 E.01688
G1 X86.511 Y44.376 E0.01692
G1 F2395.377
G1 X87.072 Y44.794 E.02241
G1 X87.677 Y45.59 E0.03196
G1 F2396.474
G1 X87.849 Y46.006 E.01441
G1 X87.955 Y46.467 E0.01512
G1 F2398.25
G1 X87.961 Y50.118 Z.24 E.1168
G1 X87.968 Y53.769 Z.24 E.1168
G1 F2400
G1 X87.974 Y57.42 Z.24 E.1168
G1 F2399.984
G1 X91.165 Y57.421 Z.24 E.10209
G1 F2400
G1 X94.356 Y57.422 Z.24 E.10209
G1 F2398.636
G1 X95.461 Y57.552 E.03561
G1 F2399.75
G1 X96.435 Y57.91 E.03319
G1 X96.962 Y58.338 E0.02171
G1 F2397.883
G1 X97.344 Y58.845 E.02032
G1 X97.679 Y59.882 E0.03486
G1 F2399.991
G1 X97.676 Y63.039 E.10099
G1 F2397.389
G1 X97.566 Y63.574 E.01748
G1 X97.426 Y63.911 E0.01166
G1 F2398.749
G1 X97.235 Y64.235 E.01203
G1 F2396.203
G1 X96.754 Y64.752 E.02261
G1 X96.41 Y65.009 E0.01372
G1 F2399.126
G1 X95.885 Y65.247 E.01843
G1 F2395.733
G1 X95.328 Y65.357 E.01819
G1 X73.164 Y65.357 E0.70903
G1 F2396.966
G1 X72.595 Y65.244 E.01857
G1 X72.258 Y65.104 E0.01166
G1 F2398.738
G1 X71.934 Y64.913 E.01203
G1 F2399.979
G1 X71.416 Y64.432 E.02261
G1 F2398.17
G1 X71.179 Y64.12 E.01254
G1 X70.937 Y63.607 E0.01814
G1 F2399.321
G1 X70.828 Y63.162 E.01466
G1 X70.82 Y59.83 E.10661
G1 X71.146 Y58.845 E.03319
G1 X71.529 Y58.338 E0.02032
G1 F2398.764
G1 X72.051 Y57.914 E.02152
G1 X72.903 Y57.581 E0.02926
G1 F2399.804
G1 X73.99 Y57.431 E.0351
G1 X74.626 Y57.414 E0.02035
G1 X74.991 Y57.373 E.01175
G1 F2393.962
G1 X75.245 Y57.297 E.0085
G1 X75.538 Y57.147 E0.01052
G1 F2394.537
G1 X75.783 Y56.954 E.00999
G1 X76.01 Y56.687 E0.0112
G1 F2399.842
G1 X76.171 Y56.396 E.01063
G1 F2398.317
G1 X76.27 Y56.079 E.01063
G1 X76.317 Y55.617 E.01487
G1 X76.317 Y46.625 E0.28766
G1 X76.461 Y45.949 E.02212
G1 F2399.161
G1 X76.646 Y45.582 E.01314
M107
G1 X76.954 Y45.74 F60000
M107
G1 F2400
G1 X77.068 Y45.516 E0.00803
G1 F2396.204
G1 X77.422 Y45.084 E.01788
G1 X77.824 Y44.756 E0.01659
G1 F2399.353
G1 X78.295 Y44.527 E.01675
G1 X78.799 Y44.412 E0.01653
G1 F2398.529
G1 X82.128 Y44.41 Z.24 E.10649
G1 X85.456 Y44.408 Z.24 E.10649
G1 X85.904 Y44.496 E0.0146
G1 X86.354 Y44.688 E.01565
G1 X86.843 Y45.058 E0.0196
G1 F2396.385
G1 X87.363 Y45.744 E.02755
G1 X87.522 Y46.126 E0.01322
G1 F2394.309
G1 X87.611 Y46.524 E.01307
G1 F2399.063
G1 X87.616 Y50.216 Z.24 E.11811
G1 F2397.187
G1 X87.621 Y53.908 Z.24 E.11811
G1 F2394.375
G1 X87.626 Y57.6 Z.24 E.11811
G1 F2384.256
G1 X87.645 Y57.748 E.00479
G1 X87.794 Y57.768 E0.00479
G1 F2392.205
G1 X91.06 Y57.769 Z.24 E.10449
G1 F2399.8
G1 X94.326 Y57.769 Z.24 E.1045
G1 X95.363 Y57.887 E0.03339
G1 F2398.61
G1 X96.24 Y58.2 E.02979
G1 X96.697 Y58.565 E0.01869
