; generated by SuperSlicer 2.5.59.10 on 2024-06-01 at 20:25:44 UTC


;
;

;
;
; 

; external perimeters extrusion width = 0.40mm
; perimeters extrusion width = 0.40mm
; infill extrusion width = 0.40mm
; solid infill extrusion width = 0.40mm
; top infill extrusion width = 0.40mm
; first layer extrusion width = 0.40mm

; object:{"name":"abl_bl_touch_uhf","id":"abl_bl_touch_uhf.stl id:0 copy 0","object_center":[72.213736,110.729855,0.000000],"boundingbox_center":[72.213736,110.729855,12.717831],"boundingbox_size":[26.204430,24.523678,25.435661]}
EXCLUDE_OBJECT_DEFINE NAME=abl_bl_touch_uhf_stl_id_0_copy_0 CENTER=72.213736,110.729855 POLYGON=[[59.11,120.39],[66.61,98.87],[67.01,98.47],[73.21,98.47],[73.61,98.87],[85.32,120.39],[85.32,122.99],[59.11,122.99],[59.11,120.39]]
; plater:{"center":[72.213736,110.729855,0.000000],"boundingbox_center":[72.213736,110.729855,12.717831],"boundingbox_size":[26.204430,24.523678,25.435661]}

M107
;TYPE:Custom
START_PRINT EXTRUDER=250 BED=100
M107
G21 ; set units to millimeters
G90 ; use absolute coordinates
M83 ; use relative distances for extrusion
ACTIVATE_EXTRUDER EXTRUDER=extruder
; Filament gcode
FILAMENT_START MATERIAL=ASA COLOR=#368900 VENDOR=123-3D
SET_PRESSURE_ADVANCE ADVANCE=0.062
M104 S250 T0 ; set temperature
M109 S250 T0 ; set temperature and wait for it to be reached
M190 S100 ; set bed temperature and wait for it to be reached
;LAYER_CHANGE
;Z:0.24
;HEIGHT:0.24
G1 E-1 F3600
G1 Z0.24 F60000
G92 E0
M204 S750
G1 X64.967 Y102.83
G1 E1 F3600
;TYPE:Skirt
;WIDTH:0.4
M107
G1 F2399.941
G1 X63.365 Y104.161 E.06663
G1 X62.676 Y105.313 E0.04294
G1 X60.841 Y109.76 Z.24 E.15388
G1 X59.006 Y114.206 Z.24 E.15388
G1 F2400
G1 X57.171 Y118.653 Z.24 E.15388
G1 F2398.974
G1 X56.826 Y120.395 E.05683
G1 X56.826 Y122.987 E0.08291
G1 F2399.795
G1 X57.048 Y124.394 E.04557
G1 X57.997 Y126.041 E.06082
G1 X59.534 Y127.159 E.06082
G1 X61.394 Y127.555 E0.06082
G1 X65.722 Y127.555 Z.24 E.13846
G1 X70.05 Y127.555 Z.24 E.13846
G1 X74.378 Y127.555 Z.24 E.13846
G1 X78.706 Y127.555 Z.24 E.13846
G1 F2400
G1 X83.034 Y127.555 Z.24 E.13846
G1 F2397.904
G1 X84.44 Y127.333 E.04557
G1 X86.088 Y126.384 E0.06082
G1 F2399.817
G1 X87.206 Y124.846 E.06082
G1 X87.602 Y122.987 E.06082
G1 X87.602 Y120.395 E0.08291
G1 X87.502 Y119.444 E.03059
G1 X86.728 Y117.708 E.06082
G1 X84.262 Y114.321 Z.24 E.13402
G1 X81.796 Y110.935 Z.24 E.13403
G1 X79.329 Y107.548 Z.24 E.13403
G1 X76.863 Y104.161 Z.24 E.13402
G1 X75.071 Y102.74 E.07316
G1 X73.211 Y102.344 E0.06082
G1 X70.113 Y102.344 Z.24 E.09909
G1 X67.016 Y102.344 Z.24 E.0991
G1 X65.025 Y102.816 E0.06546
M107
G1 X65.187 Y103.11 F60000
M107
G1 F2399.822
G1 X63.634 Y104.382 E.06423
G1 X62.998 Y105.446 E.03967
G1 X61.163 Y109.892 Z.24 E.15388
G1 X59.328 Y114.339 Z.24 E.15388
G1 X57.493 Y118.785 Z.24 E.15388
G1 X57.174 Y120.395 E0.0525
G1 F2400
G1 X57.174 Y122.987 E.08291
G1 F2398.107
G1 X57.318 Y124.079 E.03526
G1 X58.162 Y125.699 E0.05843
G1 F2399.898
G1 X59.611 Y126.811 E.05843
G1 X61.394 Y127.206 E.05843
G1 X83.034 Y127.206 E0.69228
G1 F2398.553
G1 X84.126 Y127.062 E.03526
G1 F2399.8
G1 X85.746 Y126.219 E.05843
G1 X86.858 Y124.77 E0.05843
G1 X87.253 Y122.987 E.05843
G1 X87.253 Y120.395 E0.08291
G1 X86.446 Y117.913 E.08351
G1 X83.983 Y114.53 Z.24 E.13386
G1 X81.52 Y111.148 Z.24 E.13386
G1 X79.056 Y107.765 Z.24 E.13387
G1 X76.593 Y104.382 Z.24 E.13386
G1 X74.994 Y103.088 E0.06579
G1 X73.211 Y102.693 E.05843
G1 X67.016 Y102.693 E0.19819
G1 X65.246 Y103.096 E.05808
M107
G1 X65.406 Y103.392 F60000
M107
G1 F2400
G1 X63.904 Y104.603 E0.06172
G1 F2399.718
G1 X63.32 Y105.579 E.03639
G1 X61.485 Y110.025 Z.24 E.15388
G1 X59.65 Y114.472 Z.24 E.15388
G1 X57.815 Y118.918 Z.24 E.15388
G1 X57.523 Y120.395 E.04816
G1 X57.523 Y122.987 E0.08291
G1 X58.335 Y125.359 E.08022
G1 X59.691 Y126.463 E0.05593
G1 X61.394 Y126.858 E.05593
G1 X83.034 Y126.858 E0.69228
G1 X85.406 Y126.046 E.08022
G1 X86.51 Y124.69 E0.05593
G1 X86.905 Y122.987 E.05593
G1 X86.905 Y120.395 E0.08291
G1 X86.164 Y118.118 E.07662
G1 X76.459 Y104.778 E0.52773
G1 F2396.238
G1 X76.206 Y104.46 E.01302
G1 F2399.521
G1 X74.915 Y103.436 E.05271
G1 X73.211 Y103.041 E0.05593
G1 X70.113 Y103.041 Z.24 E.09909
G1 F2400
G1 X67.016 Y103.041 Z.24 E.0991
G1 F2399.796
G1 X65.465 Y103.379 E.05079
M107
G1 X65.622 Y103.677 F60000
M107
G1 F2400
G1 X64.174 Y104.824 E0.0591
G1 F2399.865
G1 X63.642 Y105.712 E.03312
G1 X61.807 Y110.158 Z.24 E.15388
G1 X59.973 Y114.605 Z.24 E.15388
G1 X58.138 Y119.051 Z.24 E.15388
G1 X57.871 Y120.395 E0.04383
G1 X57.871 Y122.987 E.08291
G1 X58.518 Y125.02 E.06827
G1 X59.774 Y126.115 E.05332
G1 X61.394 Y126.509 E0.05332
G1 X65.722 Y126.509 Z.24 E.13846
G1 X70.05 Y126.509 Z.24 E.13846
G1 X74.378 Y126.509 Z.24 E.13846
G1 X78.706 Y126.509 Z.24 E.13846
G1 F2400
G1 X83.034 Y126.509 Z.24 E.13846
G1 F2398.786
G1 X85.067 Y125.863 E.06827
G1 X86.162 Y124.606 E0.05332
G1 X86.556 Y122.987 E.05332
G1 X86.556 Y120.395 E0.08291
G1 F2399.24
G1 X85.882 Y118.323 E.06972
G1 X76.177 Y104.983 E0.52773
G1 F2397.127
G1 X75.937 Y104.68 E.01238
G1 F2399.777
G1 X74.831 Y103.784 E.04553
G1 X73.211 Y103.39 E0.05332
G1 X70.113 Y103.39 Z.24 E.0991
G1 F2400
G1 X67.016 Y103.39 Z.24 E.09909
G1 F2399.897
G1 X65.681 Y103.665 E.04361
M107
G1 X65.835 Y103.966 F60000
M107
G1 F2398.735
G1 X64.561 Y104.901 E.05058
G1 X64.443 Y105.044 E0.00593
G1 F2399.802
G1 X63.965 Y105.845 E.02984
G1 X62.13 Y110.291 Z.24 E.15388
G1 X60.295 Y114.738 Z.24 E.15388
G1 X58.46 Y119.184 Z.24 E.15388
G1 X58.22 Y120.395 E.03949
G1 X58.22 Y122.987 E0.08291
G1 X58.711 Y124.684 E.05653
G1 X59.863 Y125.767 E0.05058
G1 X61.394 Y126.161 E.05058
G1 X83.034 Y126.161 E0.69228
G1 X84.731 Y125.669 E.05653
G1 X85.814 Y124.518 E.05058
G1 X86.208 Y122.987 E.05058
G1 X86.208 Y120.395 E0.08291
G1 X85.6 Y118.528 E.06282
G1 X75.896 Y105.188 E0.52773
G1 X75.667 Y104.901 E.01175
G1 X74.743 Y104.132 E.03847
G1 X73.211 Y103.738 E0.05058
G1 F2398.887
G1 X70.113 Y103.738 Z.24 E.09909
G1 F2399.306
G1 X67.016 Y103.738 Z.24 E.0991
G1 X65.894 Y103.955 E0.03655
M107
;WIPE_START
G1 F48000
G1 X67.016 Y103.738 E-0.0814
G1 X73.211 Y103.738 E-0.44141
G1 X74.743 Y104.132 E-0.11264
G1 X75.667 Y104.901 E-0.08568
G1 X75.896 Y105.188 E-0.02616
G1 X77.569 Y107.489 E-0.2027
;WIPE_END
G1 E-0.05 F3600
; printing object abl_bl_touch_uhf.stl id:0 copy 0
EXCLUDE_OBJECT_START NAME=abl_bl_touch_uhf_stl_id_0_copy_0
G1 X67.099 Y107.127 F60000
G1 E1 F3600
;TYPE:External perimeter
M107
G1 F2400
G1 X67.111 Y107.113 E0.00061
G1 X73.117 Y107.113 E0.19213
G1 X73.129 Y107.127 E0.00061
G1 X73.129 Y118.005 E0.34799
G1 X73.212 Y118.635 E0.02033
G1 X73.46 Y119.235 E0.02077
G1 X73.855 Y119.75 E0.02077
G1 X74.113 Y119.948 E0.01038
G1 X74.37 Y120.145 E0.01038
G1 X74.97 Y120.394 E0.02077
G1 X75.6 Y120.477 E0.02033
G1 X82.201 Y120.477 E0.21117
G1 X82.834 Y120.554 E0.02038
G1 X82.834 Y122.787 E0.07143
G1 X61.594 Y122.787 E0.67948
G1 X61.594 Y120.554 E0.07143
G1 X62.228 Y120.477 E0.02043
G1 X62.773 Y120.468 E0.01746
G1 X63.546 Y120.378 E0.0249
G1 X64.2 Y120.182 E0.02184
G1 X64.456 Y120.076 E0.00885
G1 X65.008 Y119.781 E0.02002
G1 X65.235 Y119.623 E0.00885
G1 X65.722 Y119.223 E0.02016
G1 X66.305 Y118.539 E0.02876
G1 X66.74 Y117.749 E0.02884
G1 X67.009 Y116.889 E0.02884
G1 X67.099 Y116.002 E0.02851
G1 X67.099 Y107.187 E0.28199
M107
;WIPE_START
M204 S1500
G1 X67.498 Y107.101 F60000
;WIPE_END
M204 S750
G1 X67.447 Y107.461
;TYPE:Internal perimeter
M107
G1 F2399.881
G1 X70.113 Y107.461 Z.24 E.0853
G1 X72.78 Y107.461 Z.24 E.08531
G1 X72.78 Y118.028 E0.33804
G1 F2398.129
G1 X72.872 Y118.726 E.02253
G1 X73.156 Y119.411 E0.0237
G1 F2399.191
G1 X73.607 Y119.999 E.0237
G1 X74.195 Y120.45 E.0237
G1 F2398.038
G1 X74.879 Y120.733 E.0237
G1 F2399.608
G1 X75.577 Y120.825 E.02253
G1 X82.18 Y120.825 E0.21123
G1 X82.485 Y120.862 E.00983
G1 X82.485 Y122.438 E0.05041
G1 X78.376 Y122.438 Z.24 E.13144
G1 X74.268 Y122.438 Z.24 E.13144
G1 X70.159 Y122.438 Z.24 E.13144
G1 X66.051 Y122.438 Z.24 E.13144
G1 X61.942 Y122.438 Z.24 E.13144
G1 F2398.064
G1 X61.942 Y120.862 E.05041
G1 X62.252 Y120.825 E0.00997
G1 F2395.889
G1 X62.796 Y120.816 E.01742
G1 F2398.973
G1 X63.617 Y120.721 E.02644
G1 X64.318 Y120.51 E0.0234
G1 F2393.12
G1 X64.605 Y120.391 E.00996
G1 X65.19 Y120.078 E0.02121
G1 F2397.296
G1 X65.445 Y119.901 E.00994
G1 F2399.458
G1 X65.967 Y119.473 E.0216
G1 X66.593 Y118.738 E0.03088
G1 X67.063 Y117.887 E.0311
G1 X67.352 Y116.959 E.0311
G1 X67.447 Y116.02 E.0302
G1 X67.447 Y107.521 E0.27188
M107
G1 X67.796 Y107.81 F60000
M107
G1 F2399.952
G1 X72.432 Y107.81 E.14831
G1 X72.432 Y111.224 Z.24 E.10921
G1 X72.432 Y114.637 Z.24 E.10921
G1 F2400
G1 X72.432 Y118.051 Z.24 E.10921
G1 F2398.223
G1 X72.533 Y118.817 E.02473
G1 X72.851 Y119.587 E0.02664
G1 F2397.696
G1 X73.358 Y120.247 E.02664
G1 X74.019 Y120.754 E0.02664
G1 F2398.128
G1 X74.788 Y121.073 E.02664
G1 X75.555 Y121.174 E0.02473
G1 X78.846 Y121.174 Z.24 E.10528
G1 F2399.715
G1 X82.137 Y121.174 Z.24 E.10529
G1 X82.137 Y122.09 E0.0293
G1 X77.175 Y122.09 Z.24 E.15872
G1 X72.214 Y122.09 Z.24 E.15872
G1 X67.253 Y122.09 Z.24 E.15872
G1 F2400
G1 X62.291 Y122.09 Z.24 E.15872
G1 F2399.788
G1 X62.291 Y121.173 E.02934
G1 X62.819 Y121.164 E.0169
G1 X63.688 Y121.064 E.02799
G1 F2398.661
G1 X64.435 Y120.839 E.02495
G1 X64.755 Y120.706 E0.01107
G1 F2393.727
G1 X65.372 Y120.376 E.02241
G1 X65.656 Y120.179 E0.01104
G1 F2396.59
G1 X66.212 Y119.722 E.02304
G1 F2399.355
G1 X66.881 Y118.937 E.033
G1 X67.385 Y118.024 E0.03335
G1 F2398.541
G1 X67.695 Y117.029 E.03335
G1 X67.796 Y116.037 E0.03189
G1 F2399.356
G1 X67.796 Y111.954 Z.24 E.13064
G1 X67.796 Y107.87 Z.24 E.13065
M107
G1 X68.144 Y108.158 F60000
M107
G1 F2399.966
G1 X72.083 Y108.158 E.12601
G1 X72.083 Y118.074 E0.31721
G1 F2398.117
G1 X72.193 Y118.908 E.02693
G1 F2399.232
G1 X72.547 Y119.762 E.02957
G1 X73.11 Y120.496 E0.02957
G1 F2398.965
G1 X73.843 Y121.059 E.02957
G1 F2399.519
G1 X74.697 Y121.412 E.02957
G1 X75.216 Y121.481 E0.01675
G1 F2395.716
G1 X75.199 Y121.741 E.00835
G1 F2399.695
G1 X71.183 Y121.741 Z.24 E.12848
G1 X67.167 Y121.741 Z.24 E.12848
G1 F2398.172
G1 X63.151 Y121.741 Z.24 E.12848
G1 X63.136 Y121.478 E0.00842
G1 F2399.293
G1 X63.759 Y121.406 E.02006
G1 F2397.504
G1 X64.552 Y121.168 E.0265
G1 X64.904 Y121.022 E0.01218
G1 F2394.975
G1 X65.554 Y120.674 E.0236
G1 X65.866 Y120.457 E0.01213
G1 X66.457 Y119.972 E.02448
G1 X67.169 Y119.136 E0.03512
G1 F2398.213
G1 X67.707 Y118.162 E.03561
G1 X68.039 Y117.099 E0.03561
G1 X68.144 Y116.055 E.03358
G1 X68.144 Y108.218 E0.2507
M107
G1 X68.493 Y108.507 F60000
M107
G1 F2399.81
G1 X71.735 Y108.507 E.10372
G1 X71.735 Y118.097 E0.30679
G1 F2398.205
G1 X71.854 Y118.999 E.02913
G1 F2399.692
G1 X72.242 Y119.938 E.03251
G1 F2398.472
G1 X72.861 Y120.744 E.03251
G1 X73.46 Y121.204 E0.02413
G1 F2399.225
G1 X73.395 Y121.393 E.00639
G1 F2398.602
G1 X69.396 Y121.393 Z.24 E.12794
G1 F2399.811
G1 X65.397 Y121.393 Z.24 E.12794
G1 X65.344 Y121.182 E.00696
G1 X65.737 Y120.972 E0.01425
G1 F2397.202
G1 X66.076 Y120.736 E.01323
G1 F2398.932
G1 X66.702 Y120.222 E.02592
G1 X67.458 Y119.336 E0.03724
G1 F2399.653
G1 X68.029 Y118.299 E.03786
G1 X68.382 Y117.169 E.03787
G1 X68.493 Y116.072 E0.03527
G1 X68.493 Y112.32 Z.24 E.12006
G1 F2400
G1 X68.493 Y108.567 Z.24 E.12006
M107
G1 E-1 F3600
G1 X70.926 Y108.611 F60000
G1 E1 F3600
;TYPE:Solid infill
;WIDTH:0.372091
M107
G1 F2588.395
G1 X71.48 Y109.166 E.02334
G1 F2602.989
G1 X71.48 Y109.659 E.01467
G1 F2621.395
G1 X70.583 Y108.761 E.03778
G1 F2641.761
G1 X70.09 Y108.761 E.01467
G1 F2668.912
G1 X71.48 Y110.152 E.05852
G1 F2691.261
G1 X71.48 Y110.644 E.01467
G1 F2732.026
G1 X69.597 Y108.761 E.07926
G1 F2769.034
G1 X69.104 Y108.761 E.01467
G1 F2813.891
G1 X71.48 Y111.137 E.1
G1 F2859.889
G1 X71.48 Y111.63 E.01467
G1 F2912.388
G1 X68.747 Y108.897 E.11503
G1 F2966.296
G1 X68.747 Y109.39 E.01467
G1 F2985.608
G1 X71.48 Y112.123 E.11503
G1 X71.48 Y112.616 E0.01467
G1 F2999.936
G1 X68.747 Y109.882 E.11503
G1 X68.747 Y110.375 E0.01467
G1 X71.48 Y113.109 E.11503
G1 F2994.251
G1 X71.48 Y113.601 E.01467
G1 F2999.673
G1 X68.747 Y110.868 E.11503
G1 X68.747 Y111.361 E0.01467
G1 X71.48 Y114.094 E.11503
G1 X71.48 Y114.587 E0.01467
G1 X68.747 Y111.854 E.11503
G1 X68.747 Y112.347 E0.01467
G1 X71.48 Y115.08 E.11503
G1 X71.48 Y115.573 E0.01467
G1 X68.747 Y112.84 E.11503
G1 F2994.297
G1 X68.747 Y113.332 E.01467
G1 F2999.97
G1 X71.48 Y116.066 E.11503
G1 X71.48 Y116.559 E0.01467
G1 X68.747 Y113.825 E.11503
G1 X68.747 Y114.318 E0.01467
G1 X71.48 Y117.051 E.11503
G1 X71.48 Y117.544 E0.01467
G1 X68.747 Y114.811 E.11503
G1 X68.747 Y115.304 E0.01467
G1 F2998.999
G1 X71.48 Y118.037 E.11503
G1 X71.544 Y118.593 E0.01665
G1 F2999.502
G1 X68.747 Y115.797 E.11769
G1 X68.728 Y116.271 E.01412
G1 F2998.548
G1 X71.664 Y119.206 E.12355
G1 X72.013 Y120.048 E0.0271
G1 F2997.925
G1 X68.683 Y116.718 E.14013
G1 X68.638 Y117.166 E0.01339
G1 X70.624 Y119.152 Z.24 E.0836
G1 F2999.137
G1 X72.61 Y121.138 Z.24 E.0836
G1 X72.117 Y121.138 E0.01467
G1 F2998.964
G1 X70.323 Y119.344 Z.24 E.0755
G1 F2997.462
G1 X68.529 Y117.55 Z.24 E.07551
G1 X68.412 Y117.926 E0.01171
G1 F2998.622
G1 X71.625 Y121.138 E.1352
G1 X71.132 Y121.138 E0.01467
G1 F2999.647
G1 X68.295 Y118.302 E.11939
G1 X68.264 Y118.4 E.00306
G1 F2989.469
G1 X68.135 Y118.634 E.00798
G1 F2999.875
G1 X70.639 Y121.138 E.10538
G1 X70.146 Y121.138 E0.01467
G1 F2997.168
G1 X67.96 Y118.952 E.09201
G1 X67.784 Y119.27 E0.0108
G1 X69.653 Y121.138 E.07865
G1 X69.16 Y121.138 E0.01467
G1 F2998.551
G1 X67.592 Y119.57 E.066
G1 X67.365 Y119.836 E0.0104
G1 F2999.354
G1 X68.668 Y121.138 E.05481
G1 X68.175 Y121.138 E.01467
G1 F2998.408
G1 X67.139 Y120.102 E.04361
G1 X66.912 Y120.368 E0.0104
G1 X67.682 Y121.138 E.03241
G1 X67.189 Y121.138 E0.01467
G1 F2999.098
G1 X66.647 Y120.596 E.02281
G1 X66.376 Y120.818 E.01042
G1 X66.696 Y121.138 E0.01346
G1 X66.203 Y121.138 E.01467
G1 F2998.933
G1 X65.999 Y120.934 E.00859
M107
G1 E-1 F3600
G1 X72.089 Y120.206 F60000
G1 E1 F3600
;TYPE:Gap fill
;WIDTH:0.254286
M107
G1 F2400
G1 X72.292 Y120.442 E0.00588
M107
;WIDTH:0.213004
M107
G1 X72.426 Y120.595 E0.00309
M107
;WIDTH:0.179967
M107
G1 X72.56 Y120.748 E0.00247
M107
;WIDTH:0.146931
M107
G1 X72.784 Y120.98 E0.00293
M107
;WIDTH:0.172626
M107
G1 X72.863 Y121.05 E0.00121
M107
;WIDTH:0.199904
M107
G1 X72.909 Y121.122 E0.00119
G1 X72.98 Y121.146 E0.00105
M107
;WIDTH:0.152207
M107
G1 X73.051 Y121.17 E0.00072
M107
;WIDTH:0.090935
M107
G1 X73.097 Y121.186 E0.00019
M107
G1 X73.589 Y121.364 F60000
;WIDTH:0.42186
M107
G1 F2400
G1 X73.673 Y121.382 E0.00291
M107
;WIDTH:0.390654
M107
G1 X73.839 Y121.413 E0.00526
M107
;WIDTH:0.356297
M107
G1 X73.92 Y121.429 E0.00231
M107
;WIDTH:0.320127
M107
G1 X74.001 Y121.445 E0.00203
M107
;WIDTH:0.283957
M107
G1 X74.081 Y121.461 E0.00176
M107
;WIDTH:0.247787
M107
G1 X74.162 Y121.477 E0.00148
M107
;WIDTH:0.211618
M107
G1 X74.243 Y121.493 E0.00121
M107
;WIDTH:0.175448
M107
G1 X74.324 Y121.509 E0.00094
M107
;WIDTH:0.097677
M107
G1 X74.486 Y121.541 E0.0007
M107
G1 X75.381 Y121.627 F60000
;WIDTH:0.610272
M107
G1 F2400
G1 X81.962 Y121.632 E0.33756
M107
G1 E-1 F3600
G1 X65.203 Y121.335 F60000
G1 E1 F3600
;WIDTH:0.515607
M107
G1 F2400
G1 X65.131 Y121.35 E0.0031
M107
;WIDTH:0.444448
M107
G1 X64.942 Y121.388 E0.00696
M107
;WIDTH:0.402166
M107
G1 X64.871 Y121.402 E0.00233
M107
;WIDTH:0.366732
M107
G1 X64.8 Y121.416 E0.0021
M107
;WIDTH:0.331298
M107
G1 X64.729 Y121.431 E0.00186
M107
;WIDTH:0.295564
M107
G1 X64.539 Y121.463 E0.00432
M107
;WIDTH:0.253921
M107
G1 X64.432 Y121.478 E0.002
M107
;WIDTH:0.216218
M107
G1 X64.325 Y121.494 E0.00163
M107
;WIDTH:0.178515
M107
G1 X64.219 Y121.51 E0.00126
M107
;WIDTH:0.098213
M107
G1 X64.005 Y121.541 E0.00093
M107
;LAYER_CHANGE
;Z:0.44
;HEIGHT:0.2
;WIPE_START
G1 F48000
M204 S1500
G1 X64.219 Y121.51 E-0.01537
G1 X64.325 Y121.494 E-0.00769
G1 X64.432 Y121.478 E-0.00769
G1 X64.539 Y121.463 E-0.00769
G1 X64.729 Y121.431 E-0.01374
G1 X64.8 Y121.416 E-0.00517
G1 X64.871 Y121.402 E-0.00517
G1 X64.942 Y121.388 E-0.00517
G1 X65.131 Y121.35 E-0.01375
G1 X65.203 Y121.335 E-0.00519
;WIPE_END
G1 E-0.91339 F3600
; stop printing object abl_bl_touch_uhf.stl id:0 copy 0
