; generated by SuperSlicer 2.5.59.12 on 2024-06-23 at 17:09:58 UTC


;
;

;
;
; 

; external perimeters extrusion width = 0.48mm
; perimeters extrusion width = 0.48mm
; infill extrusion width = 0.48mm
; solid infill extrusion width = 0.48mm
; top infill extrusion width = 0.48mm
; first layer extrusion width = 0.48mm

; external perimeters extrusion width = 0.48mm
; perimeters extrusion width = 0.48mm
; infill extrusion width = 0.48mm
; solid infill extrusion width = 0.48mm
; top infill extrusion width = 0.48mm
; first layer extrusion width = 0.48mm

; object:{"name":"Ambi Selector Lever V3","id":"Ambi Selector Lever V3.stl id:0 copy 0","object_center":[70.406998,90.367498,0.000000],"boundingbox_center":[70.406998,90.367498,4.489347],"boundingbox_size":[12.199257,21.595131,8.978695]}
EXCLUDE_OBJECT_DEFINE NAME=Ambi_Selector_Lever_V3_stl_id_0_copy_0 CENTER=70.406998,90.367498 POLYGON=[[64.31,95.14],[64.31,94.88],[64.32,94.61],[64.35,94.34],[64.39,94.08],[64.44,93.81],[64.50,93.55],[67.32,81.99],[67.37,81.80],[67.43,81.62],[67.50,81.44],[67.59,81.27],[67.68,81.10],[67.79,80.94],[67.90,80.79],[68.02,80.64],[68.15,80.50],[68.29,80.37],[68.44,80.25],[68.60,80.13],[68.76,80.03],[68.92,79.93],[69.10,79.85],[69.27,79.78],[69.45,79.71],[69.64,79.66],[69.83,79.62],[70.02,79.59],[70.21,79.58],[70.40,79.57],[70.59,79.58],[70.78,79.59],[70.97,79.62],[71.16,79.66],[71.34,79.71],[71.53,79.78],[71.70,79.85],[71.87,79.93],[72.04,80.03],[72.20,80.13],[72.36,80.25],[72.51,80.37],[72.64,80.50],[72.78,80.64],[72.90,80.79],[73.01,80.94],[73.12,81.10],[73.21,81.27],[73.29,81.44],[73.37,81.62],[73.43,81.80],[73.48,81.99],[76.31,93.55],[76.38,93.81],[76.43,94.07],[76.46,94.33],[76.49,94.60],[76.49,94.60],[76.50,94.87],[76.51,95.14],[76.50,95.41],[76.48,95.67],[76.44,95.94],[76.40,96.20],[76.34,96.46],[76.28,96.72],[76.20,96.98],[76.11,97.23],[76.01,97.48],[75.90,97.72],[75.78,97.96],[75.64,98.20],[75.50,98.42],[75.35,98.64],[75.19,98.86],[75.02,99.06],[74.84,99.26],[74.65,99.45],[74.45,99.63],[74.25,99.81],[74.04,99.97],[73.82,100.12],[73.59,100.27],[73.36,100.40],[73.12,100.53],[72.88,100.64],[72.63,100.75],[72.38,100.84],[72.13,100.92],[71.87,100.99],[71.61,101.05],[71.34,101.09],[71.08,101.13],[70.81,101.15],[70.54,101.16],[70.28,101.17],[70.01,101.15],[69.74,101.13],[69.48,101.10],[69.21,101.05],[68.95,100.99],[68.69,100.92],[68.44,100.84],[68.19,100.75],[67.94,100.65],[67.70,100.53],[67.46,100.41],[67.23,100.27],[67.00,100.13],[66.78,99.97],[66.57,99.81],[66.37,99.64],[66.17,99.46],[65.98,99.27],[65.80,99.07],[65.63,98.86],[65.47,98.65],[65.32,98.43],[65.17,98.20],[65.04,97.97],[64.92,97.73],[64.81,97.49],[64.71,97.24],[64.62,96.99],[64.54,96.73],[64.47,96.47],[64.42,96.21],[64.37,95.95],[64.34,95.68],[64.34,95.68],[64.32,95.41],[64.31,95.14]]
; object:{"name":"Select Fire Selector Drum V4","id":"Select Fire Selector Drum V4.stl id:1 copy 0","object_center":[90.000000,92.500000,0.000000],"boundingbox_center":[90.000000,92.500000,4.505145],"boundingbox_size":[22.697052,9.474297,9.010289]}
EXCLUDE_OBJECT_DEFINE NAME=Select_Fire_Selector_Drum_V4_stl_id_1_copy_0 CENTER=90.000000,92.500000 POLYGON=[[78.65,95.28],[78.65,90.27],[78.65,88.24],[78.84,88.15],[79.03,88.07],[79.22,88.00],[79.42,87.94],[79.62,87.89],[79.82,87.85],[80.02,87.81],[80.23,87.79],[84.80,87.76],[99.29,87.76],[99.42,87.76],[99.55,87.77],[99.69,87.78],[99.82,87.79],[99.95,87.81],[100.08,87.83],[100.21,87.85],[100.34,87.88],[100.47,87.91],[100.60,87.95],[100.73,87.99],[100.86,88.03],[100.98,88.08],[101.11,88.13],[101.23,88.18],[101.35,88.24],[101.35,89.23],[101.35,96.66],[101.35,96.76],[101.23,96.82],[101.11,96.87],[100.98,96.92],[100.86,96.97],[100.73,97.01],[100.60,97.05],[100.47,97.09],[100.34,97.12],[100.21,97.15],[100.08,97.17],[99.95,97.19],[99.82,97.21],[99.69,97.22],[99.55,97.23],[99.42,97.24],[99.29,97.24],[87.73,97.24],[84.80,97.24],[80.23,97.21],[80.02,97.19],[79.82,97.15],[79.62,97.11],[79.42,97.06],[79.22,97.00],[79.03,96.93],[78.84,96.85],[78.65,96.76],[78.65,95.28]]
; plater:{"center":[82.827948,90.367498,0.000000],"boundingbox_center":[82.827948,90.367498,4.505145],"boundingbox_size":[37.041157,21.595131,9.010289]}

M107
;TYPE:Custom
START_PRINT EXTRUDER=220 BED=65
M107
G21 ; set units to millimeters
G90 ; use absolute coordinates
M83 ; use relative distances for extrusion
; Filament gcode
M104 S220 ; set temperature
M109 S220 ; set temperature and wait for it to be reached
M190 S65 ; set bed temperature and wait for it to be reached
;LAYER_CHANGE
;Z:0.24
;HEIGHT:0.24
G1 E-0.4 F3900
G1 Z0.24 F60000
G92 E0
M204 S1000
G1 X66.446 Y77.822
G1 E0.4 F3900
;TYPE:Skirt
;WIDTH:0.48
M107
G1 F2400
G1 X67.563 Y77.105 E0.05674
G1 F2398.375
G1 X68.696 Y76.672 E.05187
G1 X69.483 Y76.503 E0.03439
G1 F2399.1
G1 X71.104 Y76.471 E.06932
G1 X72.006 Y76.645 E.03929
G1 F2398.874
G1 X72.686 Y76.863 E.03055
G1 F2399.857
G1 X74.037 Y77.583 E.06545
G1 X74.805 Y78.229 E0.0429
G1 X75.303 Y78.773 E.03154
G1 X76.03 Y79.892 E0.05705
G1 F2398.3
G1 X76.338 Y80.62 E.03381
G1 X76.672 Y82.013 E0.06121
G1 F2399.111
G1 X76.7 Y86.161 E.17738
G1 F2398.391
G1 X77.33 Y85.902 E.02914
G1 X78.242 Y85.732 E0.03965
G1 F2399.244
G1 X82.958 Y85.733 Z.24 E.20163
G1 X87.674 Y85.734 Z.24 E.20163
G1 X92.39 Y85.736 Z.24 E.20163
G1 X97.106 Y85.737 Z.24 E.20163
G1 F2400
G1 X101.822 Y85.738 Z.24 E.20163
G1 F2397.925
G1 X102.698 Y85.911 E.0382
G1 X103.507 Y86.254 E0.03755
G1 X104.192 Y86.725 E.03556
G1 X104.887 Y87.429 E0.04227
G1 F2398.115
G1 X105.345 Y88.115 E.03528
G1 X105.641 Y88.814 E0.03245
G1 F2399.985
G1 X105.814 Y89.562 E.03282
G1 X105.826 Y92.382 Z.24 E.12055
G1 F2400
G1 X105.839 Y95.201 Z.24 E.12055
G1 F2398.624
G1 X105.663 Y96.117 E.0399
G1 F2399.626
G1 X105.288 Y96.986 E.04046
G1 X104.747 Y97.736 E0.03952
G1 F2398.368
G1 X103.882 Y98.518 E.04986
G1 X103.314 Y98.844 E0.02798
G1 X102.722 Y99.083 E.0273
G1 X101.716 Y99.271 E0.04376
G1 F2399.837
G1 X97.576 Y99.271 Z.24 E.17701
G1 X93.437 Y99.272 Z.24 E.177
G1 X92.585 Y99.156 E.03676
G1 X91.941 Y98.963 E0.02874
G1 X91.503 Y98.756 E.02072
G1 X90.407 Y98.755 E.04686
G1 X89.796 Y99.028 E0.0286
G1 X88.542 Y99.272 E.05461
G1 X84.331 Y99.271 Z.24 E.18008
G1 F2398.873
G1 X80.119 Y99.271 Z.24 E.18008
G1 X79.973 Y99.617 E0.01605
G1 F2399.421
G1 X79.515 Y100.474 E.04155
G1 F2398.854
G1 X78.977 Y101.292 E.04187
G1 X78.391 Y102.028 E0.0402
G1 X77.731 Y102.719 E.04086
G1 X76.85 Y103.473 E0.04956
G1 F2397.05
G1 X75.96 Y104.086 E.04624
G1 X74.993 Y104.614 E0.04708
G1 F2398.003
G1 X73.937 Y105.052 E.0489
G1 X72.947 Y105.349 E0.04418
G1 X71.95 Y105.545 E.04346
G1 X70.69 Y105.654 E0.05407
G1 F2397.3
G1 X69.728 Y105.636 E.04116
G1 X68.832 Y105.541 E0.03848
G1 F2398.133
G1 X67.933 Y105.366 E.03917
G1 F2399.589
G1 X66.866 Y105.048 E.04761
G1 X65.791 Y104.599 E0.0498
G1 F2396.833
G1 X64.947 Y104.143 E.04105
G1 X64.11 Y103.584 E0.043
G1 F2397.143
G1 X63.331 Y102.948 E.04303
G1 F2399.857
G1 X62.466 Y102.076 E.05251
G1 X61.863 Y101.328 E.04107
G1 X61.331 Y100.529 E0.04103
G1 F2398.729
G1 X60.876 Y99.691 E.04078
G1 X60.498 Y98.814 E0.04082
G1 X60.119 Y97.591 E.05477
G1 F2399.163
G1 X59.928 Y96.625 E.0421
G1 X59.829 Y95.65 E0.04187
G1 F2396.877
G1 X59.819 Y94.688 E.04116
G1 X59.944 Y93.403 E0.05517
G1 F2397.784
G1 X60.139 Y92.446 E.04178
G1 X60.463 Y91.397 E0.04693
G1 F2399.865
G1 X61.046 Y90.099 E.06083
G1 X61.808 Y89.09 E.05407
G1 X62.935 Y88.257 E0.05991
G1 F2393.611
G1 X63.93 Y87.868 E.0457
G1 X64.081 Y87.844 E0.00651
G1 F2392.701
G1 X64.085 Y85.215 Z.24 E.11239
G1 F2400
G1 X64.089 Y82.586 Z.24 E.11239
G1 F2399.104
G1 X64.159 Y81.786 E.03434
G1 X64.351 Y80.976 E0.03558
G1 X64.588 Y80.285 E.03124
G1 X64.909 Y79.636 E.03096
G1 X65.486 Y78.785 E0.04395
G1 F2398.948
G1 X66.404 Y77.865 E.05559
M107
G1 X66.699 Y78.17 F60000
M107
G1 F2400
G1 X67.737 Y77.497 E0.0529
G1 F2399.254
G1 X68.833 Y77.078 E.05018
G1 X69.551 Y76.926 E.03137
G1 X71.045 Y76.896 E0.06387
G1 F2398.488
G1 X71.912 Y77.063 E.03776
G1 X72.537 Y77.265 E0.02807
G1 F2399.522
G1 X73.779 Y77.926 E.06015
G1 F2398.861
G1 X74.518 Y78.548 E.04132
G1 F2399.42
G1 X74.974 Y79.049 E.02897
G1 X75.661 Y80.109 E.05399
G1 X75.926 Y80.739 E0.02921
G1 X76.243 Y82.041 E.0573
G1 X76.277 Y86.915 E0.20841
G1 F2397.98
G1 X76.731 Y86.613 E.02333
G1 X77.433 Y86.319 E0.03253
G1 F2398.444
G1 X78.262 Y86.161 E.0361
G1 X101.801 Y86.167 E1.00641
G1 F2399.832
G1 X102.553 Y86.315 E.03277
G1 X103.284 Y86.621 E0.03388
G1 F2398.996
G1 X103.903 Y87.042 E.03202
G1 F2399.53
G1 X104.543 Y87.685 E.03879
G1 X104.959 Y88.301 E.03177
G1 X105.239 Y88.964 E0.03076
G1 F2397.304
G1 X105.391 Y89.633 E.02936
G1 X105.41 Y95.181 E0.2372
G1 X105.247 Y96.012 E.03622
G1 X104.926 Y96.756 E0.03461
G1 F2398.427
G1 X104.441 Y97.434 E.03565
G1 X103.647 Y98.158 E0.04595
G1 F2397.693
G1 X103.14 Y98.452 E.02508
G1 F2399.678
G1 X102.582 Y98.678 E.02573
G1 X101.696 Y98.842 E0.0385
G1 F2398.408
G1 X97.574 Y98.842 Z.24 E.17627
G1 X93.451 Y98.843 Z.24 E.17627
G1 X92.691 Y98.741 E0.03277
G1 F2395.559
G1 X92.08 Y98.557 E.02731
G1 X91.6 Y98.327 E0.02273
G1 F2397.807
G1 X90.313 Y98.326 E.05503
G1 X89.688 Y98.613 E0.02939
G1 X88.522 Y98.843 E.05086
G1 F2399.531
G1 X84.178 Y98.842 Z.24 E.18573
G1 F2398.124
G1 X79.834 Y98.842 Z.24 E.18573
G1 X79.59 Y99.424 E0.02696
G1 F2399.122
G1 X79.142 Y100.264 E.0407
G1 X78.636 Y101.033 E.03937
G1 X78.075 Y101.739 E.03855
G1 X77.428 Y102.415 E0.03998
G1 F2397.745
G1 X76.581 Y103.14 E.04769
G1 X75.726 Y103.727 E0.04433
G1 F2398.505
G1 X74.818 Y104.222 E.04423
G1 X73.803 Y104.645 E0.047
G1 F2399.848
G1 X72.834 Y104.936 E.04325
G1 F2398.796
G1 X71.879 Y105.122 E.04162
G1 X70.665 Y105.227 E.05211
G1 X69.745 Y105.208 E0.03931
G1 F2395.308
G1 X68.888 Y105.116 E.03689
G1 X68.025 Y104.947 E0.03756
G1 F2398.723
G1 X67.02 Y104.649 E.04482
G1 X65.966 Y104.208 E0.04885
G1 F2396.717
G1 X65.16 Y103.771 E.03924
G1 X64.373 Y103.246 E0.04042
G1 F2399.292
G1 X63.61 Y102.623 E.04211
G1 X62.792 Y101.798 E.04967
G1 X62.214 Y101.082 E.03935
G1 X61.703 Y100.316 E0.03937
G1 X61.266 Y99.512 E.03913
G1 X60.896 Y98.655 E.03991
G1 X60.537 Y97.496 E0.05187
G1 F2398.688
G1 X60.353 Y96.571 E.04034
G1 F2399.448
G1 X60.257 Y95.636 E.04018
G1 X60.247 Y94.717 E0.03927
G1 F2397.44
G1 X60.369 Y93.456 E.05419
G1 X60.557 Y92.542 E0.03987
G1 X60.86 Y91.561 E.04393
G1 X61.427 Y90.297 E0.05922
G1 F2399.471
G1 X62.131 Y89.375 E.04961
G1 X63.117 Y88.646 E.05244
G1 X64.061 Y88.277 E0.04331
G1 X64.509 Y88.225 E.01928
G1 X64.514 Y85.41 Z.24 E.12033
G1 X64.518 Y82.596 Z.24 E.12034
G1 X64.584 Y81.839 E0.03248
G1 X64.765 Y81.086 E.03311
G1 F2397.275
G1 X64.979 Y80.462 E.02823
G1 X65.272 Y79.864 E0.02846
G1 F2399.85
G1 X65.829 Y79.042 E.04244
G1 X66.656 Y78.212 E.05012
M107
G1 X66.986 Y78.488 F60000
M107
G1 F2398.147
G1 X67.949 Y77.87 E.04896
G1 X68.969 Y77.485 E0.04659
G1 F2399.541
G1 X69.619 Y77.35 E.02838
G1 X70.986 Y77.321 E.05846
G1 X71.818 Y77.482 E0.03623
G1 F2398.238
G1 X72.386 Y77.667 E.02556
G1 F2399.255
G1 X73.52 Y78.268 E.05488
G1 X74.231 Y78.867 E0.03973
G1 F2398.932
G1 X74.645 Y79.324 E.02637
G1 X75.274 Y80.294 E0.04943
G1 F2397.4
G1 X75.514 Y80.858 E.02623
G1 X75.815 Y82.069 E0.05333
G1 F2399.136
G1 X75.835 Y84.982 Z.24 E.12458
G1 F2400
G1 X75.855 Y87.896 Z.24 E.12458
G1 F2399.716
G1 X76.389 Y87.356 E.03248
G1 X76.916 Y87 E0.0272
G1 F2398.571
G1 X77.577 Y86.723 E.03066
G1 X78.282 Y86.589 E0.03067
G1 F2399.042
G1 X82.981 Y86.59 Z.24 E.20092
G1 F2398.955
G1 X87.681 Y86.591 Z.24 E.20092
G1 X92.38 Y86.593 Z.24 E.20092
G1 X97.08 Y86.594 Z.24 E.20092
G1 X101.779 Y86.595 Z.24 E.20092
G1 X102.447 Y86.731 E0.02913
G1 F2397.265
G1 X103.062 Y86.988 E.02852
G1 X103.615 Y87.36 E0.02849
G1 F2398.05
G1 X104.2 Y87.943 E.03533
G1 X104.573 Y88.489 E0.02826
G1 F2399.896
G1 X104.826 Y89.077 E.02736
G1 X104.968 Y89.705 E.02752
G1 F2398.638
G1 X104.975 Y92.433 Z.24 E.11664
G1 F2397.134
G1 X104.982 Y95.161 Z.24 E.11664
G1 X104.844 Y95.866 E0.03068
G1 X104.563 Y96.527 E.03073
G1 F2399.755
G1 X104.134 Y97.134 E.03178
G1 X103.412 Y97.799 E0.04196
G1 F2393.734
G1 X102.939 Y98.073 E.02341
G1 X102.442 Y98.272 E0.02285
G1 F2396.868
G1 X101.677 Y98.414 E.03328
G1 X93.465 Y98.415 E0.35109
G1 F2399.788
G1 X92.798 Y98.325 E.02878
G1 F2398.653
G1 X92.219 Y98.152 E.02585
G1 X91.699 Y97.899 E0.02472
G1 F2399.039
G1 X90.218 Y97.897 E.06334
G1 X89.579 Y98.198 E.0302
G1 X88.5 Y98.415 E0.04702
G1 F2398.572
G1 X84.024 Y98.415 Z.24 E.19137
G1 F2400
G1 X79.548 Y98.414 Z.24 E.19137
G1 F2398.194
G1 X79.207 Y99.231 E.03787
G1 X78.769 Y100.054 E0.03984
G1 X78.294 Y100.774 E.03689
G1 X77.758 Y101.45 E0.03688
G1 F2399.847
G1 X77.126 Y102.111 E.0391
G1 F2398.981
G1 X76.311 Y102.806 E.04581
G1 F2399.858
G1 X75.511 Y103.356 E.0415
G1 X74.642 Y103.831 E0.04233
G1 F2398.497
G1 X73.67 Y104.238 E.04508
G1 F2399.991
G1 X72.722 Y104.522 E.04232
G1 X71.809 Y104.699 E.03977
G1 X70.64 Y104.799 E.05015
G1 X69.764 Y104.78 E0.03745
G1 X68.943 Y104.691 E.03531
G1 X68.118 Y104.529 E.03595
G1 X67.175 Y104.249 E0.04205
G1 F2398.561
G1 X66.142 Y103.817 E.04789
G1 F2399.751
G1 X65.373 Y103.399 E.03741
G1 X64.62 Y102.895 E0.03872
G1 X63.89 Y102.298 E.04033
G1 X63.119 Y101.521 E.04683
G1 X62.554 Y100.821 E.03847
G1 X62.065 Y100.087 E0.03769
G1 F2397.974
G1 X61.656 Y99.334 E.03665
G1 X61.294 Y98.496 E0.03901
G1 F2398.974
G1 X60.955 Y97.402 E.04897
G1 X60.776 Y96.497 E0.03943
G1 X60.686 Y95.621 E.03767
G1 F2399.981
G1 X60.675 Y94.747 E.03736
G1 X60.794 Y93.508 E0.0532
G1 X60.975 Y92.639 E.03796
G1 X61.256 Y91.724 E.04094
G1 X61.807 Y90.495 E0.05757
G1 X62.452 Y89.66 E.04512
G1 F2398.661
G1 X63.299 Y89.035 E.04503
G1 X64.189 Y88.687 E.04085
G1 X64.937 Y88.613 E0.0321
G1 F2397.731
G1 X64.941 Y85.609 Z.24 E.12843
G1 F2399.522
G1 X64.946 Y82.606 Z.24 E.12842
G1 X65.009 Y81.893 E.0306
G1 X65.179 Y81.197 E0.03062
G1 F2396.563
G1 X65.38 Y80.614 E.02639
G1 X65.636 Y80.091 E0.02488
G1 F2398.951
G1 X66.147 Y79.33 E.0392
G1 F2399.672
G1 X66.943 Y78.531 E.04824
M107
G1 X67.273 Y78.808 F60000
M107
G1 F2399.017
G1 X68.16 Y78.243 E.04498
G1 X69.103 Y77.892 E0.043
G1 F2397.414
G1 X69.685 Y77.774 E.02541
G1 F2399.994
G1 X70.927 Y77.746 E.05311
G1 X71.723 Y77.9 E0.03466
G1 F2398.002
G1 X72.235 Y78.068 E.02305
G1 X73.262 Y78.611 E0.04964
G1 X73.944 Y79.185 E.03813
G1 F2399.447
G1 X74.315 Y79.598 E.02374
G1 X74.887 Y80.481 E0.04497
G1 F2395.738
G1 X75.103 Y80.98 E.02328
G1 X75.387 Y82.098 E0.04929
G1 F2397.929
G1 X75.41 Y85.562 Z.24 E.14812
G1 F2396.501
G1 X75.434 Y89.026 Z.24 E.14812
G1 X75.667 Y89.021 E0.00995
G1 F2399.968
G1 X75.795 Y88.711 E.01432
G1 F2398.881
G1 X76.074 Y88.284 E.0218
G1 F2396.006
G1 X76.678 Y87.673 E.03677
G1 X77.137 Y87.368 E0.02354
G1 F2397.043
G1 X77.681 Y87.139 E.02525
G1 X78.303 Y87.018 E0.02708
G1 F2399.063
G1 X82.994 Y87.019 Z.24 E.20056
G1 X87.685 Y87.02 Z.24 E.20057
G1 X92.376 Y87.022 Z.24 E.20056
G1 X97.067 Y87.023 Z.24 E.20057
G1 F2400
G1 X101.758 Y87.024 Z.24 E.20056
G1 F2398.786
G1 X102.303 Y87.135 E.02379
G1 X102.843 Y87.357 E0.02496
G1 X103.329 Y87.679 E.02494
G1 F2399.836
G1 X103.859 Y88.204 E.0319
G1 X104.188 Y88.678 E.02467
G1 X104.424 Y89.228 E0.02557
G1 X104.544 Y89.775 E.02394
G1 X104.549 Y92.458 Z.24 E.11471
G1 X104.553 Y95.14 Z.24 E.11471
G1 F2398.412
G1 X104.428 Y95.759 E.027
G1 X104.198 Y96.301 E0.02514
G1 F2394.754
G1 X103.826 Y96.836 E.0279
G1 X103.176 Y97.441 E0.03796
G1 F2398.025
G1 X102.765 Y97.681 E.02036
G1 F2399.774
G1 X102.303 Y97.866 E.02127
G1 X101.657 Y97.985 E0.02807
G1 X97.568 Y97.986 Z.24 E.17482
G1 F2400
G1 X93.479 Y97.986 Z.24 E.17482
G1 F2395.393
G1 X92.905 Y97.91 E.02479
G1 X92.359 Y97.746 E0.02435
G1 F2398.901
G1 X91.799 Y97.47 E.02669
G1 X90.12 Y97.469 E.0718
G1 X89.466 Y97.784 E0.03101
G1 F2396.491
G1 X88.479 Y97.986 E.04312
G1 F2398.906
G1 X83.856 Y97.986 Z.24 E.19766
G1 F2395.625
G1 X79.233 Y97.985 Z.24 E.19766
G1 X79.137 Y98.294 E0.01381
G1 F2397.882
G1 X78.816 Y99.056 E.03535
G1 F2399.902
G1 X78.405 Y99.826 E.03732
G1 F2398.199
G1 X77.942 Y100.53 E.03605
G1 F2399.038
G1 X77.429 Y101.175 E.03523
G1 X76.824 Y101.807 E0.03737
G1 F2396.809
G1 X76.042 Y102.473 E.04395
G1 F2399.733
G1 X75.296 Y102.986 E.0387
G1 X74.466 Y103.44 E0.04043
G1 F2398.071
G1 X73.536 Y103.831 E.04316
G1 F2399.696
