; generated by SuperSlicer 2.5.59.12 on 2024-06-23 at 17:14:09 UTC


;
;

;
;
; 

; external perimeters extrusion width = 0.48mm
; perimeters extrusion width = 0.48mm
; infill extrusion width = 0.48mm
; solid infill extrusion width = 0.48mm
; top infill extrusion width = 0.48mm
; first layer extrusion width = 0.48mm

; external perimeters extrusion width = 0.48mm
; perimeters extrusion width = 0.48mm
; infill extrusion width = 0.48mm
; solid infill extrusion width = 0.48mm
; top infill extrusion width = 0.48mm
; first layer extrusion width = 0.48mm

; object:{"name":"Ambi Selector Lever V3","id":"Ambi Selector Lever V3.stl id:0 copy 0","object_center":[70.406998,90.367498,0.000000],"boundingbox_center":[70.406998,90.367498,4.489347],"boundingbox_size":[12.199257,21.595131,8.978695]}
EXCLUDE_OBJECT_DEFINE NAME=Ambi_Selector_Lever_V3_stl_id_0_copy_0 CENTER=70.406998,90.367498 POLYGON=[[64.31,95.14],[64.31,94.88],[64.32,94.61],[64.35,94.34],[64.39,94.08],[64.44,93.81],[64.50,93.55],[67.32,81.99],[67.37,81.80],[67.43,81.62],[67.50,81.44],[67.59,81.27],[67.68,81.10],[67.79,80.94],[67.90,80.79],[68.02,80.64],[68.15,80.50],[68.29,80.37],[68.44,80.25],[68.60,80.13],[68.76,80.03],[68.92,79.93],[69.10,79.85],[69.27,79.78],[69.45,79.71],[69.64,79.66],[69.83,79.62],[70.02,79.59],[70.21,79.58],[70.40,79.57],[70.59,79.58],[70.78,79.59],[70.97,79.62],[71.16,79.66],[71.34,79.71],[71.53,79.78],[71.70,79.85],[71.87,79.93],[72.04,80.03],[72.20,80.13],[72.36,80.25],[72.51,80.37],[72.64,80.50],[72.78,80.64],[72.90,80.79],[73.01,80.94],[73.12,81.10],[73.21,81.27],[73.29,81.44],[73.37,81.62],[73.43,81.80],[73.48,81.99],[76.31,93.55],[76.38,93.81],[76.43,94.07],[76.46,94.33],[76.49,94.60],[76.49,94.60],[76.50,94.87],[76.51,95.14],[76.50,95.41],[76.48,95.67],[76.44,95.94],[76.40,96.20],[76.34,96.46],[76.28,96.72],[76.20,96.98],[76.11,97.23],[76.01,97.48],[75.90,97.72],[75.78,97.96],[75.64,98.20],[75.50,98.42],[75.35,98.64],[75.19,98.86],[75.02,99.06],[74.84,99.26],[74.65,99.45],[74.45,99.63],[74.25,99.81],[74.04,99.97],[73.82,100.12],[73.59,100.27],[73.36,100.40],[73.12,100.53],[72.88,100.64],[72.63,100.75],[72.38,100.84],[72.13,100.92],[71.87,100.99],[71.61,101.05],[71.34,101.09],[71.08,101.13],[70.81,101.15],[70.54,101.16],[70.28,101.17],[70.01,101.15],[69.74,101.13],[69.48,101.10],[69.21,101.05],[68.95,100.99],[68.69,100.92],[68.44,100.84],[68.19,100.75],[67.94,100.65],[67.70,100.53],[67.46,100.41],[67.23,100.27],[67.00,100.13],[66.78,99.97],[66.57,99.81],[66.37,99.64],[66.17,99.46],[65.98,99.27],[65.80,99.07],[65.63,98.86],[65.47,98.65],[65.32,98.43],[65.17,98.20],[65.04,97.97],[64.92,97.73],[64.81,97.49],[64.71,97.24],[64.62,96.99],[64.54,96.73],[64.47,96.47],[64.42,96.21],[64.37,95.95],[64.34,95.68],[64.34,95.68],[64.32,95.41],[64.31,95.14]]
; object:{"name":"Select Fire Selector Drum V4","id":"Select Fire Selector Drum V4.stl id:1 copy 0","object_center":[90.000000,92.500000,0.000000],"boundingbox_center":[90.000000,92.500000,4.505145],"boundingbox_size":[22.697052,9.474297,9.010289]}
EXCLUDE_OBJECT_DEFINE NAME=Select_Fire_Selector_Drum_V4_stl_id_1_copy_0 CENTER=90.000000,92.500000 POLYGON=[[78.65,95.28],[78.65,90.27],[78.65,88.24],[78.84,88.15],[79.03,88.07],[79.22,88.00],[79.42,87.94],[79.62,87.89],[79.82,87.85],[80.02,87.81],[80.23,87.79],[84.80,87.76],[99.29,87.76],[99.42,87.76],[99.55,87.77],[99.69,87.78],[99.82,87.79],[99.95,87.81],[100.08,87.83],[100.21,87.85],[100.34,87.88],[100.47,87.91],[100.60,87.95],[100.73,87.99],[100.86,88.03],[100.98,88.08],[101.11,88.13],[101.23,88.18],[101.35,88.24],[101.35,89.23],[101.35,96.66],[101.35,96.76],[101.23,96.82],[101.11,96.87],[100.98,96.92],[100.86,96.97],[100.73,97.01],[100.60,97.05],[100.47,97.09],[100.34,97.12],[100.21,97.15],[100.08,97.17],[99.95,97.19],[99.82,97.21],[99.69,97.22],[99.55,97.23],[99.42,97.24],[99.29,97.24],[87.73,97.24],[84.80,97.24],[80.23,97.21],[80.02,97.19],[79.82,97.15],[79.62,97.11],[79.42,97.06],[79.22,97.00],[79.03,96.93],[78.84,96.85],[78.65,96.76],[78.65,95.28]]
; plater:{"center":[82.827948,90.367498,0.000000],"boundingbox_center":[82.827948,90.367498,4.505145],"boundingbox_size":[37.041157,21.595131,9.010289]}

M107
;TYPE:Custom
START_PRINT EXTRUDER=250 BED=100
M107
G21 ; set units to millimeters
G90 ; use absolute coordinates
M83 ; use relative distances for extrusion
; Filament gcode
FILAMENT_START MATERIAL=ASA COLOR=#E8FEF0 VENDOR=123-3D
SET_PRESSURE_ADVANCE ADVANCE=0.062
M104 S250 ; set temperature
M109 S250 ; set temperature and wait for it to be reached
M190 S100 ; set bed temperature and wait for it to be reached
;LAYER_CHANGE
;Z:0.24
;HEIGHT:0.24
G1 E-1.000000 F3600
G1 Z0.24 F60000
G92 E0
M204 S1000
G1 X66.444 Y77.8
G1 E1.000000 F3600
;TYPE:Skirt
;WIDTH:0.48
M107
G1 F2400
G1 X67.561 Y77.081 E0.05225
G1 F2398.755
G1 X68.695 Y76.648 E.04776
G1 X69.482 Y76.48 E0.03164
G1 F2399.154
G1 X71.104 Y76.448 E.06383
G1 F2398.083
G1 X72.007 Y76.622 E.03619
G1 X72.688 Y76.84 E0.0281
G1 X74.04 Y77.561 E.06027
G1 F2396.764
G1 X74.808 Y78.207 E.03951
G1 X75.307 Y78.751 E0.02901
G1 F2398.983
G1 X76.035 Y79.871 E.05254
G1 X76.342 Y80.599 E.0311
G1 X76.676 Y81.993 E0.05638
G1 F2399.953
G1 X76.704 Y86.138 E.16304
G1 F2398.334
G1 X77.221 Y85.923 E.02203
G1 X78.193 Y85.727 E0.03897
G1 X82.961 Y85.732 Z.24 E.18755
G1 X87.729 Y85.737 Z.24 E.18755
G1 X92.497 Y85.742 Z.24 E.18755
G1 F2399.392
G1 X97.265 Y85.747 Z.24 E.18755
G1 F2400
G1 X102.033 Y85.752 Z.24 E.18755
G1 F2397.23
G1 X102.765 Y85.919 E.02957
G1 F2399.161
G1 X103.49 Y86.225 E.03096
G1 X104.283 Y86.77 E0.03783
G1 F2396.742
G1 X104.799 Y87.287 E.02875
G1 X105.199 Y87.807 E0.02578
G1 F2398.143
G1 X105.612 Y88.65 E.03693
G1 X105.819 Y89.379 E0.0298
G1 F2399.088
G1 X105.846 Y92.262 Z.24 E.11342
G1 X105.872 Y95.145 Z.24 E.11342
G1 X105.699 Y96.099 E.03813
G1 X105.318 Y96.99 E0.0381
G1 F2398.898
G1 X104.776 Y97.741 E.03644
G1 X103.917 Y98.519 E0.04559
G1 X103.396 Y98.824 E.02375
G1 X102.83 Y99.063 E0.02415
G1 F2399.349
G1 X101.757 Y99.277 E.04303
G1 X97.602 Y99.277 Z.24 E.16347
G1 X93.446 Y99.278 Z.24 E.16347
G1 X92.594 Y99.162 E.03382
G1 X91.949 Y98.969 E0.02646
G1 X91.509 Y98.76 E.01915
G1 F2396.773
G1 X90.405 Y98.759 E.04345
G1 X89.792 Y99.034 E0.0264
G1 F2398.321
G1 X88.538 Y99.278 E.05026
G1 X80.136 Y99.277 E0.33049
G1 F2399.525
G1 X79.976 Y99.658 E.01626
G1 X79.528 Y100.494 E.03732
G1 X78.992 Y101.309 E0.03836
G1 X78.421 Y102.029 E.03616
G1 X77.763 Y102.721 E.03757
G1 X76.844 Y103.508 E0.04758
G1 X75.971 Y104.11 E.04172
G1 X75.025 Y104.627 E.04241
G1 X73.944 Y105.078 E0.04605
G1 X72.951 Y105.376 E.04078
G1 X71.952 Y105.572 E.04005
G1 X70.691 Y105.681 E.0498
G1 X69.729 Y105.663 E.03784
G1 X68.835 Y105.568 E0.03535
G1 X67.954 Y105.398 E.0353
G1 X66.86 Y105.074 E0.04488
G1 X65.759 Y104.613 E.04696
G1 X64.936 Y104.166 E.03685
G1 X64.103 Y103.609 E.03942
G1 X63.322 Y102.972 E0.03964
G1 F2398.346
G1 X62.455 Y102.099 E.04841
G1 X61.84 Y101.335 E0.03855
G1 F2397.731
G1 X61.31 Y100.536 E.03773
G1 X60.862 Y99.708 E0.03702
G1 X60.475 Y98.806 E.03863
G1 X60.103 Y97.602 E0.04955
G1 F2399.879
G1 X59.912 Y96.634 E.0388
G1 F2397.087
G1 X59.813 Y95.66 E.03854
G1 X59.804 Y94.698 E0.03782
G1 F2398.602
G1 X59.928 Y93.414 E.05075
G1 F2399.822
G1 X60.118 Y92.478 E.03756
G1 X60.432 Y91.448 E0.04234
G1 F2398.599
G1 X60.989 Y90.177 E.05459
G1 X61.789 Y89.101 E0.05271
G1 F2397.383
G1 X62.917 Y88.265 E.05527
G1 X64.076 Y87.836 E0.04861
G1 F2399.928
G1 X64.08 Y85.201 Z.24 E.10363
G1 X64.085 Y82.567 Z.24 E.10362
G1 X64.154 Y81.766 E0.03162
G1 F2398.055
G1 X64.346 Y80.956 E.03276
G1 X64.584 Y80.264 E0.02877
G1 F2399.397
G1 X64.905 Y79.615 E.02848
G1 F2398.838
G1 X65.482 Y78.764 E.04046
G1 X66.401 Y77.842 E0.0512
M107
G1 X66.696 Y78.147 F60000
M107
G1 F2399.201
G1 X67.735 Y77.474 E.04871
G1 X68.832 Y77.054 E.04621
G1 X69.55 Y76.903 E.02886
G1 X71.045 Y76.873 E0.05881
G1 F2397.634
G1 X71.913 Y77.04 E.03479
G1 X72.538 Y77.242 E0.02582
G1 F2398.023
G1 X73.781 Y77.903 E.05539
G1 X74.522 Y78.526 E0.03806
G1 F2399.138
G1 X74.978 Y79.027 E.02665
G1 X75.665 Y80.088 E.04972
G1 X75.93 Y80.718 E0.02687
G1 F2398.809
G1 X76.248 Y82.021 E.05277
G1 X76.281 Y86.888 E0.19145
G1 X76.724 Y86.595 E.0209
G1 X77.329 Y86.338 E0.02584
G1 X78.214 Y86.156 E.03555
G1 F2399.63
G1 X82.973 Y86.161 Z.24 E.18718
G1 F2398.89
G1 X87.731 Y86.166 Z.24 E.18718
G1 X92.49 Y86.17 Z.24 E.18718
G1 F2397.411
G1 X97.248 Y86.175 Z.24 E.18718
G1 F2396.302
G1 X102.007 Y86.18 Z.24 E.18718
G1 X102.65 Y86.332 E0.02595
G1 F2392.593
G1 X103.266 Y86.591 E.02633
G1 X103.994 Y87.088 E0.03463
G1 F2393.518
G1 X104.486 Y87.58 E.02741
G1 X104.846 Y88.05 E0.02326
G1 F2397.446
G1 X105.218 Y88.819 E.03362
G1 F2399.69
G1 X105.399 Y89.466 E.02643
G1 X105.443 Y95.129 E0.22273
G1 X105.295 Y95.955 E.03301
G1 X104.955 Y96.76 E.03437
G1 X104.47 Y97.44 E0.03285
G1 X103.681 Y98.161 E.04204
G1 F2397.433
G1 X103.192 Y98.447 E.0223
G1 X102.684 Y98.659 E0.02164
G1 F2398.913
G1 X101.736 Y98.848 E.03803
G1 F2399.645
G1 X97.598 Y98.848 Z.24 E.16277
G1 F2398.581
G1 X93.46 Y98.849 Z.24 E.16277
G1 X92.7 Y98.746 E0.03015
G1 X92.088 Y98.563 E.02514
G1 F2399.167
G1 X91.607 Y98.332 E.021
G1 X90.311 Y98.33 E0.05097
G1 F2398.344
G1 X89.685 Y98.619 E.02713
G1 X88.517 Y98.849 E0.0468
G1 X84.184 Y98.848 Z.24 E.17045
G1 F2397.512
G1 X79.851 Y98.848 Z.24 E.17045
G1 X79.593 Y99.465 E0.02628
G1 F2398.609
G1 X79.155 Y100.284 E.03654
G1 F2397.727
G1 X78.651 Y101.05 E.03609
G1 X78.103 Y101.741 E0.03466
G1 X77.46 Y102.418 E.03675
G1 X76.592 Y103.162 E0.04496
G1 F2398.858
G1 X75.755 Y103.739 E.04
G1 F2399.767
G1 X74.849 Y104.236 E.04064
G1 X73.81 Y104.671 E0.04429
G1 F2398.799
G1 X72.838 Y104.962 E.03992
G1 F2399.95
G1 X71.881 Y105.149 E.03835
G1 X70.665 Y105.254 E0.048
G1 F2397.739
G1 X69.747 Y105.235 E.03614
G1 X68.89 Y105.143 E0.03389
G1 F2398.207
G1 X68.046 Y104.98 E.03383
G1 X67.015 Y104.675 E0.04229
G1 F2399.334
G1 X65.935 Y104.222 E.04607
G1 X65.149 Y103.794 E0.03519
G1 F2396.125
G1 X64.366 Y103.271 E.03707
G1 X63.601 Y102.647 E0.03879
G1 F2398.749
G1 X62.781 Y101.821 E.04578
G1 F2397.414
G1 X62.192 Y101.09 E.03696
G1 F2399.917
G1 X61.682 Y100.323 E.03622
G1 X61.252 Y99.53 E0.03547
G1 F2398.348
G1 X60.873 Y98.647 E.03781
G1 X60.521 Y97.508 E0.04688
G1 F2399.721
G1 X60.335 Y96.561 E.03796
G1 X60.241 Y95.626 E.03697
G1 X60.232 Y94.728 E.03533
G1 X60.354 Y93.466 E0.04986
G1 F2398.364
G1 X60.536 Y92.574 E.03583
G1 F2399.958
G1 X60.83 Y91.609 E.03968
G1 X61.372 Y90.372 E0.05312
G1 F2398.391
G1 X62.112 Y89.384 E.04857
G1 X63.146 Y88.628 E0.05035
G1 F2399.088
G1 X64.163 Y88.256 E.0426
G1 F2396.652
G1 X64.504 Y88.217 E.01352
G1 X64.513 Y82.577 E0.22186
G1 F2398.617
G1 X64.58 Y81.82 E.02991
G1 X64.76 Y81.066 E0.03049
G1 F2399.129
G1 X64.975 Y80.441 E.026
G1 X65.268 Y79.843 E0.02618
G1 F2397.441
G1 X65.825 Y79.021 E.03908
G1 X66.653 Y78.189 E0.04615
M107
G1 X66.983 Y78.466 F60000
M107
G1 F2399.904
G1 X67.948 Y77.846 E.0451
G1 F2398.897
G1 X68.968 Y77.461 E.0429
G1 F2399.96
G1 X69.618 Y77.327 E.02611
G1 X70.986 Y77.298 E0.05383
G1 F2397.858
G1 X71.819 Y77.458 E.03338
G1 X72.388 Y77.643 E0.02351
G1 F2399.086
G1 X73.523 Y78.246 E.05054
G1 X74.235 Y78.845 E.0366
G1 X74.649 Y79.302 E.02426
G1 X75.278 Y80.273 E.04552
G1 F2398.031
G1 X75.518 Y80.837 E.02413
G1 X75.82 Y82.049 E0.04912
G1 F2399.352
G1 X75.84 Y84.954 Z.24 E.11425
G1 F2398.177
G1 X75.859 Y87.859 Z.24 E.11425
G1 X76.36 Y87.351 E0.02804
G1 F2397.65
G1 X76.911 Y86.982 E.0261
G1 X77.477 Y86.741 E0.0242
G1 F2398.469
G1 X78.235 Y86.584 E.03047
G1 F2399.937
G1 X82.984 Y86.589 Z.24 E.18681
G1 X87.733 Y86.594 Z.24 E.18681
G1 X92.483 Y86.599 Z.24 E.18681
G1 X97.232 Y86.604 Z.24 E.18681
G1 X101.981 Y86.609 Z.24 E.18681
G1 X102.531 Y86.744 E0.02227
G1 X103.044 Y86.958 E.02187
G1 X103.705 Y87.405 E.03139
G1 X104.173 Y87.873 E.02603
G1 X104.491 Y88.292 E0.02068
G1 X104.823 Y88.987 E.03029
G1 F2396.099
G1 X104.978 Y89.552 E.02308
G1 F2399.99
G1 X104.996 Y92.331 Z.24 E.10933
G1 X105.014 Y95.111 Z.24 E.10933
G1 X104.878 Y95.854 E.02971
G1 X104.592 Y96.532 E0.02893
G1 F2398.223
G1 X104.163 Y97.14 E.02928
G1 X103.444 Y97.803 E0.03846
G1 F2394.787
G1 X103.013 Y98.057 E.0197
G1 X102.538 Y98.256 E0.02022
G1 F2396.233
G1 X101.715 Y98.42 E.03303
G1 X93.474 Y98.421 E0.32414
G1 F2399.675
G1 X92.807 Y98.331 E.02648
G1 X92.228 Y98.157 E.02379
G1 X91.706 Y97.903 E.02283
G1 X90.215 Y97.902 E0.05863
G1 F2397.005
G1 X89.575 Y98.204 E.02786
G1 X88.496 Y98.421 E0.04327
G1 F2398.845
G1 X84.031 Y98.421 Z.24 E.17566
G1 F2399.422
G1 X79.565 Y98.42 Z.24 E.17566
G1 X79.21 Y99.272 E0.0363
G1 F2398.185
G1 X78.782 Y100.073 E.03574
G1 X78.309 Y100.792 E0.03384
G1 F2399.725
G1 X77.786 Y101.453 E.03315
G1 F2398.568
G1 X77.157 Y102.115 E.03594
G1 F2399.763
G1 X76.322 Y102.829 E.04322
G1 X75.539 Y103.369 E0.03741
G1 F2398.604
G1 X74.673 Y103.845 E.03888
G1 X73.676 Y104.263 E0.0425
G1 F2399.405
G1 X72.725 Y104.549 E.03906
G1 F2397.839
G1 X71.811 Y104.726 E.03664
G1 X70.64 Y104.826 E0.0462
G1 F2398.14
G1 X69.765 Y104.807 E.03444
G1 X68.945 Y104.718 E0.03244
G1 X68.138 Y104.561 E.03236
G1 X67.17 Y104.275 E0.0397
G1 F2399.853
G1 X66.111 Y103.831 E.04517
G1 F2398.714
G1 X65.363 Y103.423 E.03352
G1 X64.628 Y102.932 E0.03474
G1 F2397.931
G1 X63.881 Y102.322 E.03795
G1 X63.108 Y101.543 E0.04316
G1 F2398.994
G1 X62.543 Y100.844 E.03537
G1 F2399.515
G1 X62.054 Y100.11 E.0347
G1 X61.642 Y99.352 E.03393
G1 X61.271 Y98.488 E0.03696
G1 X60.939 Y97.414 E.04422
G1 F2397.922
G1 X60.757 Y96.489 E.03711
G1 X60.669 Y95.612 E0.03466
G1 F2398.17
G1 X60.659 Y94.758 E.03361
G1 X60.779 Y93.519 E0.04895
G1 F2399.103
G1 X60.954 Y92.67 E.0341
G1 X61.227 Y91.769 E0.03702
G1 X61.754 Y90.567 E.05163
G1 X62.435 Y89.667 E0.04438
G1 F2398.966
G1 X63.321 Y89.02 E.04316
G1 X64.284 Y88.668 E0.04032
G1 F2399.123
G1 X64.932 Y88.609 E.0256
G1 X64.942 Y82.587 E0.23687
G1 F2397.054
G1 X65.005 Y81.874 E.02818
G1 X65.174 Y81.177 E0.02819
G1 F2399.027
G1 X65.376 Y80.593 E.02431
G1 F2398.851
G1 X65.631 Y80.07 E.0229
G1 F2399.5
G1 X66.143 Y79.309 E.03608
G1 X66.94 Y78.508 E0.04443
M107
G1 X67.27 Y78.785 F60000
M107
G1 F2396.959
G1 X68.158 Y78.22 E.04143
G1 X69.102 Y77.868 E0.0396
G1 X69.684 Y77.75 E.02338
G1 X70.928 Y77.723 E0.04891
G1 F2397.338
G1 X71.725 Y77.876 E.03194
G1 X72.237 Y78.045 E0.0212
G1 X73.264 Y78.588 E.04572
G1 X73.948 Y79.163 E0.03512
G1 F2398.915
G1 X74.319 Y79.576 E.02184
G1 X74.891 Y80.46 E0.04142
G1 F2396.303
G1 X75.107 Y80.959 E.02142
G1 X75.391 Y82.078 E0.0454
G1 F2399.713
G1 X75.415 Y85.555 Z.24 E.13678
G1 F2400
G1 X75.439 Y89.033 Z.24 E.13678
G1 F2394.636
G1 X75.634 Y89.02 E.0077
G1 X75.743 Y88.75 E0.01144
G1 F2395.757
G1 X76.041 Y88.284 E.02178
G1 X76.65 Y87.668 E0.03406
G1 F2398.137
G1 X77.099 Y87.367 E.02127
G1 X77.587 Y87.155 E0.02092
G1 F2399.883
G1 X78.258 Y87.013 E.02697
G1 X82.997 Y87.018 Z.24 E.18642
G1 X87.736 Y87.023 Z.24 E.18642
G1 X92.476 Y87.027 Z.24 E.18642
G1 X97.215 Y87.032 Z.24 E.18642
G1 F2400
G1 X101.954 Y87.037 Z.24 E.18642
G1 F2396.104
G1 X102.409 Y87.155 E.01851
G1 X102.824 Y87.326 E0.01764
G1 F2397.837
G1 X103.417 Y87.723 E.02808
G1 X103.86 Y88.165 E0.02461
G1 F2399.536
G1 X104.136 Y88.532 E.01806
G1 X104.427 Y89.152 E0.02693
G1 F2396.158
G1 X104.557 Y89.636 E.01974
G1 X104.586 Y95.094 E0.21466
G1 X104.473 Y95.711 E.0247
G1 X104.227 Y96.306 E0.02532
G1 F2399.446
G1 X103.854 Y96.842 E.02568
G1 X103.206 Y97.446 E0.03482
G1 F2394.963
G1 X102.808 Y97.68 E.01819
G1 X102.394 Y97.852 E0.01763
G1 F2398.917
G1 X101.694 Y97.991 E.02808
G1 X93.488 Y97.992 E0.32276
G1 F2397.037
G1 X92.914 Y97.916 E.0228
G1 F2399.913
G1 X92.368 Y97.752 E.02242
G1 X91.806 Y97.475 E0.02464
G1 X90.118 Y97.473 E.06641
G1 F2398.834
G1 X89.463 Y97.789 E.02861
G1 X88.474 Y97.992 E0.03968
G1 X83.861 Y97.992 Z.24 E.18143
G1 F2400
G1 X79.249 Y97.991 Z.24 E.18143
G1 F2398.829
G1 X79.142 Y98.336 E.01422
G1 X78.82 Y99.095 E.03245
G1 X78.418 Y99.846 E0.03347
G1 F2397.731
G1 X77.967 Y100.533 E.03234
G1 X77.456 Y101.179 E0.0324
G1 F2398.073
G1 X76.854 Y101.811 E.03435
G1 X76.052 Y102.496 E0.04146
G1 F2397.717
G1 X75.305 Y103.01 E.03568
G1 X74.496 Y103.455 E0.0363
G1 F2398.543
G1 X73.542 Y103.856 E.04072
G1 X72.612 Y104.135 E0.03819
G1 F2399.982
