; generated by SuperSlicer 2.5.59.12 on 2024-06-21 at 10:47:12 UTC


;
;

;
;
; 

; external perimeters extrusion width = 0.48mm
; perimeters extrusion width = 0.48mm
; infill extrusion width = 0.48mm
; solid infill extrusion width = 0.48mm
; top infill extrusion width = 0.48mm
; first layer extrusion width = 0.48mm

; object:{"name":"AR15 Housing (With Supports) V12","id":"AR15 Housing (With Supports) V12.stl id:0 copy 0","object_center":[90.000000,92.500000,0.000000],"boundingbox_center":[90.000000,92.500000,13.227446],"boundingbox_size":[70.930115,18.414986,26.454891]}
EXCLUDE_OBJECT_DEFINE NAME=AR15_Housing_With_Supports_V12_stl_id_0_copy_0 CENTER=90.000000,92.500000 POLYGON=[[54.53,86.41],[54.54,86.25],[54.56,86.09],[54.59,85.94],[54.63,85.78],[54.68,85.63],[54.74,85.48],[54.81,85.33],[54.89,85.20],[54.98,85.06],[55.08,84.94],[55.19,84.82],[55.31,84.71],[55.44,84.61],[55.57,84.52],[55.71,84.44],[55.85,84.37],[56.00,84.31],[56.15,84.25],[56.31,84.21],[56.46,84.19],[56.62,84.17],[56.78,84.16],[105.81,83.30],[106.13,83.29],[115.46,83.29],[115.79,83.30],[115.79,83.30],[116.12,83.32],[116.12,83.32],[116.44,83.35],[116.45,83.35],[116.77,83.39],[116.78,83.39],[117.10,83.44],[117.10,83.44],[117.42,83.50],[117.43,83.50],[117.74,83.58],[117.75,83.58],[118.05,83.67],[118.06,83.67],[118.37,83.76],[118.38,83.77],[118.68,83.87],[118.69,83.88],[118.98,83.99],[124.72,86.30],[124.82,86.35],[124.91,86.40],[124.99,86.46],[125.07,86.52],[125.11,86.57],[125.14,86.60],[125.19,86.65],[125.21,86.68],[125.26,86.75],[125.27,86.76],[125.32,86.85],[125.37,86.94],[125.37,86.96],[125.40,87.03],[125.41,87.07],[125.43,87.12],[125.44,87.18],[125.45,87.22],[125.46,87.30],[125.46,87.32],[125.47,87.42],[125.47,97.59],[125.46,97.66],[125.46,97.70],[125.45,97.75],[125.44,97.82],[125.43,97.85],[125.41,97.93],[125.41,97.95],[125.37,98.05],[125.37,98.05],[125.33,98.14],[125.32,98.15],[125.28,98.22],[125.26,98.25],[125.23,98.30],[125.19,98.35],[125.17,98.38],[125.10,98.45],[125.03,98.52],[124.95,98.57],[124.87,98.63],[124.77,98.67],[124.72,98.70],[124.68,98.71],[118.98,101.01],[118.68,101.13],[118.67,101.13],[118.37,101.24],[118.36,101.24],[118.05,101.33],[118.05,101.34],[117.74,101.42],[117.73,101.42],[117.42,101.50],[117.41,101.50],[117.10,101.56],[117.09,101.56],[116.77,101.61],[116.77,101.61],[116.44,101.65],[116.44,101.65],[116.12,101.68],[116.12,101.68],[115.79,101.70],[115.46,101.71],[106.13,101.71],[56.78,100.86],[56.62,100.85],[56.46,100.84],[56.31,100.81],[56.15,100.77],[56.00,100.72],[55.85,100.66],[55.71,100.58],[55.57,100.50],[55.44,100.41],[55.31,100.31],[55.19,100.20],[55.08,100.08],[54.98,99.96],[54.89,99.83],[54.81,99.69],[54.74,99.54],[54.68,99.40],[54.63,99.24],[54.59,99.09],[54.56,98.93],[54.54,98.77],[54.53,98.61],[54.53,86.41]]
; plater:{"center":[90.000000,92.500000,0.000000],"boundingbox_center":[90.000000,92.500000,13.227446],"boundingbox_size":[70.930115,18.414986,26.454891]}

M107
;TYPE:Custom
START_PRINT EXTRUDER=250 BED=100
M107
G21 ; set units to millimeters
G90 ; use absolute coordinates
M83 ; use relative distances for extrusion
; Filament gcode
FILAMENT_START MATERIAL=ASA COLOR=#E8FEF0 VENDOR=123-3D
SET_PRESSURE_ADVANCE ADVANCE=0.062
M104 S250 ; set temperature
M109 S250 ; set temperature and wait for it to be reached
M190 S100 ; set bed temperature and wait for it to be reached
;LAYER_CHANGE
;Z:0.24
;HEIGHT:0.24
G1 E-1.000000 F3600
G1 Z0.24 F60000
G92 E0
M204 S1000
G1 X53.071 Y80.708
G1 E1.000000 F3600
;TYPE:Skirt
;WIDTH:0.48
M107
G1 F2399.989
G1 X54.192 Y80.133 E.04956
G1 X55.178 Y79.822 E.04067
G1 X56.341 Y79.657 E0.04619
G1 X61.284 Y79.656 Z.24 E.19443
G1 X66.227 Y79.654 Z.24 E.19443
G1 X71.17 Y79.653 Z.24 E.19443
G1 X76.113 Y79.652 Z.24 E.19443
G1 X81.055 Y79.65 Z.24 E.19443
G1 X85.998 Y79.649 Z.24 E.19443
G1 X90.941 Y79.648 Z.24 E.19443
G1 X95.884 Y79.646 Z.24 E.19443
G1 X100.827 Y79.645 Z.24 E.19443
G1 X101.204 Y79.719 E0.01511
G1 F2395.201
G1 X101.598 Y79.558 E.01677
G1 X102.931 Y79.162 E0.05467
G1 F2399.514
G1 X104.252 Y78.909 E.0529
G1 F2398.748
G1 X105.572 Y78.789 E.05216
G1 X116.055 Y78.786 E0.41234
G1 F2399.781
G1 X117.061 Y78.862 E.03969
G1 X118.049 Y79.009 E.0393
G1 X119.003 Y79.223 E0.03845
G1 X119.884 Y79.486 E.03616
G1 F2398.918
G1 X120.747 Y79.808 E.03624
G1 X121.676 Y80.231 E0.04014
G1 F2399.056
G1 X122.579 Y80.727 E.04053
G1 X123.407 Y81.264 E0.03881
G1 F2398.777
G1 X124.148 Y81.823 E.03652
G1 X124.842 Y82.422 E0.03605
G1 F2399.509
G1 X125.572 Y83.15 E.04055
G1 X126.252 Y83.94 E0.04099
G1 X126.793 Y84.665 E.03559
G1 F2398.639
G1 X127.285 Y85.425 E.03563
G1 F2399.938
G1 X127.778 Y86.318 E.04011
G1 X128.185 Y87.201 E0.03823
G1 F2398.277
G1 X128.527 Y88.107 E.03811
G1 X128.813 Y89.07 E0.03951
G1 X129.026 Y90.038 E.039
G1 F2399.366
G1 X129.167 Y91.001 E.03828
G1 X129.24 Y92.02 E0.04016
G1 F2397.18
G1 X129.239 Y93.021 E.03941
G1 F2399.51
G1 X129.172 Y93.949 E.0366
G1 X129.041 Y94.879 E0.03693
G1 X128.831 Y95.863 E.03958
G1 X128.542 Y96.848 E0.04038
G1 F2398.698
G1 X128.177 Y97.816 E.0407
G1 X127.792 Y98.653 E0.03621
G1 F2396.309
G1 X127.355 Y99.457 E.03603
G1 X126.814 Y100.304 E0.03952
G1 F2399.895
G1 X126.166 Y101.167 E.04244
G1 F2398.924
G1 X125.463 Y101.965 E.04184
G1 X124.475 Y102.904 E0.0536
G1 X123.402 Y103.739 E.0535
G1 X122.233 Y104.472 E0.05426
G1 F2399.277
G1 X121.275 Y104.962 E.04233
G1 X120.191 Y105.406 E0.04607
G1 X119.002 Y105.777 E.049
G1 X117.531 Y106.077 E0.05906
G1 X115.989 Y106.217 E.06092
G1 X106.131 Y106.225 E0.38775
G1 X105.244 Y106.194 E.03491
G1 F2398.151
G1 X104.361 Y106.106 E.03492
G1 X103.437 Y105.951 E0.03683
G1 X102.431 Y105.707 E.04073
G1 X101.532 Y105.419 E.03713
G1 X101.259 Y105.309 E0.01156
G1 F2395.661
G1 X100.764 Y105.378 E.01968
G1 F2399.987
G1 X95.828 Y105.377 Z.24 E.19416
G1 X90.892 Y105.375 Z.24 E.19416
G1 X85.955 Y105.374 Z.24 E.19416
G1 X81.019 Y105.373 Z.24 E.19416
G1 X76.083 Y105.371 Z.24 E.19416
G1 X71.147 Y105.37 Z.24 E.19416
G1 X66.21 Y105.369 Z.24 E.19416
G1 X61.274 Y105.367 Z.24 E.19416
G1 X56.338 Y105.366 Z.24 E.19416
G1 X55.174 Y105.199 E0.04625
G1 F2398.315
G1 X54.062 Y104.837 E.04603
G1 F2399.918
G1 X52.942 Y104.23 E.05011
G1 X51.989 Y103.458 E0.04824
G1 X50.984 Y102.213 E.06294
G1 X50.452 Y101.174 E0.04589
G1 X50.116 Y100.108 E.04395
G1 X49.952 Y98.759 E.05345
G1 F2397.49
G1 X49.958 Y96.63 E.08379
G1 X50.085 Y95.878 E0.02997
G1 X50.359 Y95.135 E.03117
G1 F2399.695
G1 X50.876 Y94.302 E.03856
G1 X51.708 Y93.476 E0.0461
G1 F2398.054
G1 X52.473 Y92.994 E.03558
G1 F2399.624
G1 X53.111 Y92.744 E.02694
G1 X53.79 Y92.594 E0.02733
G1 F2398.143
G1 X58.686 Y92.591 Z.24 E.19258
G1 X63.582 Y92.588 Z.24 E.19258
G1 X68.478 Y92.585 Z.24 E.19258
G1 X73.374 Y92.582 Z.24 E.19258
G1 F2399.017
G1 X78.269 Y92.578 Z.24 E.19258
G1 X83.165 Y92.575 Z.24 E.19258
G1 X88.061 Y92.572 Z.24 E.19258
G1 X92.957 Y92.569 Z.24 E.19258
G1 F2400
G1 X97.853 Y92.566 Z.24 E.19258
G1 F2395.543
G1 X98.016 Y92.456 E.00775
G1 X54.1 Y92.456 E1.72745
G1 F2398.943
G1 X53.314 Y92.338 E.03127
G1 X52.474 Y92.026 E0.03523
G1 F2396.927
G1 X51.745 Y91.578 E.03368
G1 X50.97 Y90.831 E0.04231
G1 F2398.32
G1 X50.395 Y89.966 E.04087
G1 F2399.58
G1 X50.108 Y89.229 E.03111
G1 X49.964 Y88.458 E0.03084
G1 F2398.683
G1 X49.97 Y85.897 E.10076
G1 X50.243 Y84.437 E0.05841
G1 X50.769 Y83.177 E.05372
G1 X51.361 Y82.271 E0.04255
G1 F2399.331
G1 X52.085 Y81.477 E.04227
G1 X53.024 Y80.745 E.04684
M107
G1 X53.318 Y81.058 F60000
M107
G1 F2400
G1 X54.339 Y80.536 E0.04509
G1 F2399.638
G1 X55.257 Y80.244 E.03789
G1 X56.356 Y80.085 E.04369
G1 X61.295 Y80.084 Z.24 E.19427
G1 X66.234 Y80.082 Z.24 E.19427
G1 X71.172 Y80.081 Z.24 E.19427
G1 X76.111 Y80.08 Z.24 E.19427
G1 X81.05 Y80.078 Z.24 E.19427
G1 X85.989 Y80.077 Z.24 E.19427
G1 X90.927 Y80.076 Z.24 E.19427
G1 X95.866 Y80.074 Z.24 E.19427
G1 X100.805 Y80.073 Z.24 E.19427
G1 X101.245 Y80.166 E.01769
G1 X101.731 Y79.965 E0.02067
G1 F2398.525
G1 X103.022 Y79.581 E.05299
G1 F2399.593
G1 X104.301 Y79.335 E.05123
G1 X105.602 Y79.216 E0.05137
G1 X109.078 Y79.215 Z.24 E.13674
G1 X112.555 Y79.214 Z.24 E.13674
G1 X116.031 Y79.213 Z.24 E.13674
G1 X117.006 Y79.286 E0.03845
G1 F2397.152
G1 X117.963 Y79.429 E.03809
G1 X118.888 Y79.636 E0.03726
G1 F2399.63
G1 X119.755 Y79.895 E.03558
G1 X120.591 Y80.207 E.0351
G1 X121.491 Y80.618 E.03892
G1 F2397.347
G1 X122.352 Y81.091 E.03868
G1 F2399.536
G1 X123.155 Y81.611 E.03762
G1 X123.874 Y82.152 E0.03537
G1 X124.556 Y82.742 E.03546
G1 F2398.529
G1 X125.263 Y83.448 E.03932
G1 X125.913 Y84.202 E0.03916
G1 F2399.177
G1 X126.445 Y84.915 E.035
G1 X126.921 Y85.652 E0.0345
G1 F2398.867
G1 X127.399 Y86.518 E.03892
G1 X127.787 Y87.359 E0.03643
G1 F2399.385
G1 X128.118 Y88.237 E.03691
G1 X128.397 Y89.17 E0.03829
G1 F2398.46
G1 X128.603 Y90.108 E.03779
G1 X128.74 Y91.04 E0.03705
G1 F2399.774
G1 X128.812 Y92.027 E.03893
G1 X128.811 Y92.998 E.0382
G1 X128.745 Y93.911 E.03601
G1 X128.618 Y94.812 E0.03577
G1 F2398.115
G1 X128.417 Y95.75 E.03775
G1 X128.138 Y96.705 E0.03913
G1 X127.785 Y97.644 E.03948
G1 F2399.443
G1 X127.413 Y98.454 E.03506
G1 X126.982 Y99.246 E.03545
G1 X126.466 Y100.054 E0.03769
G1 F2398.467
G1 X125.839 Y100.89 E.04112
G1 X125.16 Y101.661 E0.04041
G1 X124.204 Y102.572 E.05196
G1 X123.147 Y103.394 E0.05265
G1 F2397.873
G1 X122.014 Y104.104 E.05262
G1 X121.104 Y104.569 E0.04018
G1 F2398.349
G1 X120.055 Y105 E.04463
G1 F2399.524
G1 X118.906 Y105.359 E.04735
G1 X117.457 Y105.655 E0.05815
G1 X115.96 Y105.79 E.05913
G1 X106.134 Y105.796 E0.38648
G1 F2397.363
G1 X105.266 Y105.766 E.03419
G1 X104.41 Y105.68 E0.03382
G1 X103.516 Y105.529 E.03569
G1 F2399.764
G1 X102.554 Y105.296 E.03892
G1 X101.67 Y105.013 E0.03649
G1 F2398.311
G1 X101.313 Y104.868 E.01517
G1 X100.749 Y104.949 E.02244
G1 F2399.961
G1 X95.816 Y104.948 Z.24 E.19403
G1 X90.883 Y104.946 Z.24 E.19403
G1 X85.951 Y104.945 Z.24 E.19403
G1 X81.018 Y104.944 Z.24 E.19403
G1 X76.085 Y104.942 Z.24 E.19403
G1 X71.152 Y104.941 Z.24 E.19403
G1 X66.22 Y104.94 Z.24 E.19403
G1 X61.287 Y104.938 Z.24 E.19403
G1 X56.354 Y104.937 Z.24 E.19403
G1 X55.254 Y104.777 E0.04371
G1 F2397.934
G1 X54.214 Y104.436 E.04308
G1 X53.195 Y103.884 E0.04558
G1 F2399.155
G1 X52.308 Y103.171 E.04477
G1 X51.331 Y101.961 E0.06115
G1 X50.855 Y101.027 E.04123
G1 X50.539 Y100.036 E.04091
G1 F2398.645
G1 X50.381 Y98.747 E.05111
G1 F2399.281
G1 X50.383 Y96.684 E.08115
G1 X50.504 Y95.97 E0.02847
G1 F2398.243
G1 X50.753 Y95.305 E.02794
G1 F2399.645
G1 X51.197 Y94.587 E.0332
G1 X51.958 Y93.825 E0.04234
G1 F2396.038
G1 X52.649 Y93.386 E.03223
G1 X53.252 Y93.149 E0.02546
G1 F2397.38
G1 X53.858 Y93.017 E.02441
G1 F2399.906
G1 X58.761 Y93.015 Z.24 E.19285
G1 X63.664 Y93.012 Z.24 E.19285
G1 X68.567 Y93.01 Z.24 E.19286
G1 X73.47 Y93.007 Z.24 E.19285
G1 X78.372 Y93.005 Z.24 E.19285
G1 F2398.968
G1 X83.275 Y93.002 Z.24 E.19285
G1 X88.178 Y93 Z.24 E.19286
G1 X93.081 Y92.997 Z.24 E.19285
G1 X97.984 Y92.995 Z.24 E.19285
G1 X98.527 Y92.629 E0.02574
G1 F2396.619
G1 X99.041 Y92.375 E.02256
G1 X98.688 Y92.193 E0.0156
G1 F2397.58
G1 X98.44 Y92.028 E.01172
G1 F2399.948
G1 X93.515 Y92.028 Z.24 E.19372
G1 X88.59 Y92.028 Z.24 E.19372
G1 X83.665 Y92.028 Z.24 E.19372
G1 X78.74 Y92.028 Z.24 E.19372
G1 X73.816 Y92.028 Z.24 E.19372
G1 X68.891 Y92.028 Z.24 E.19372
G1 X63.966 Y92.028 Z.24 E.19372
G1 X59.041 Y92.028 Z.24 E.19372
G1 X54.116 Y92.028 Z.24 E.19372
G1 X53.441 Y91.928 E0.02683
G1 X52.679 Y91.648 E.03194
G1 F2398.548
G1 X52.024 Y91.252 E.03012
G1 X51.313 Y90.573 E0.03865
G1 X50.785 Y89.787 E.03725
G1 X50.525 Y89.13 E0.02778
G1 F2399.659
G1 X50.388 Y88.399 E.02925
G1 F2398.763
G1 X50.398 Y85.918 E.09761
G1 X50.647 Y84.581 E0.05347
G1 X51.157 Y83.361 E.05203
G1 X51.709 Y82.52 E0.03956
G1 F2399.854
G1 X52.363 Y81.804 E.03814
G1 X53.271 Y81.095 E.04532
M107
G1 X53.566 Y81.409 F60000
M107
G1 F2399.409
G1 X54.487 Y80.939 E.04067
G1 X55.337 Y80.665 E0.03511
G1 F2398.326
G1 X56.372 Y80.514 E.04116
G1 F2399.987
G1 X61.306 Y80.513 Z.24 E.1941
G1 X66.241 Y80.511 Z.24 E.1941
G1 X71.175 Y80.51 Z.24 E.1941
G1 X76.11 Y80.509 Z.24 E.1941
G1 X81.044 Y80.507 Z.24 E.1941
G1 X85.979 Y80.506 Z.24 E.1941
G1 X90.913 Y80.505 Z.24 E.1941
G1 X95.848 Y80.503 Z.24 E.1941
G1 X100.782 Y80.502 Z.24 E.1941
G1 X101.285 Y80.613 E0.02026
G1 F2398.165
G1 X101.864 Y80.372 E.02469
G1 X103.113 Y80 E.05128
G1 X104.372 Y79.758 E0.05039
G1 X105.631 Y79.644 E.04973
G1 X116.007 Y79.641 E0.40816
G1 F2397.582
G1 X116.95 Y79.711 E.03721
G1 X117.878 Y79.849 E0.03686
G1 X118.773 Y80.049 E.03608
G1 X119.612 Y80.299 E0.03443
G1 F2399.956
G1 X120.434 Y80.606 E.03451
G1 F2397.076
G1 X121.291 Y80.997 E.03709
G1 X122.126 Y81.455 E0.03745
G1 F2398.392
G1 X122.903 Y81.958 E.03642
G1 X123.61 Y82.49 E0.03479
G1 F2399.357
G1 X124.269 Y83.061 E.0343
G1 X124.944 Y83.734 E0.03749
G1 F2398.982
G1 X125.574 Y84.464 E.03794
G1 X126.089 Y85.154 E0.03386
G1 X126.557 Y85.878 E.03392
G1 X127.02 Y86.718 E0.03772
G1 F2399.927
G1 X127.394 Y87.532 E.03523
G1 X127.71 Y88.367 E.03512
G1 X127.98 Y89.27 E0.03707
G1 X128.181 Y90.178 E.03658
G1 F2398.108
G1 X128.313 Y91.079 E.03584
G1 X128.383 Y92.035 E0.03769
G1 F2397.842
G1 X128.383 Y92.975 E.03699
G1 X128.32 Y93.859 E0.03484
G1 F2399.668
G1 X128.197 Y94.73 E.03459
G1 F2398.762
G1 X128.004 Y95.638 E.03653
G1 X127.734 Y96.562 E0.03787
G1 X127.392 Y97.472 E.03825
G1 X127.026 Y98.269 E0.03447
G1 F2397.113
G1 X126.609 Y99.034 E.0343
G1 X126.119 Y99.803 E0.03587
G1 F2398.559
G1 X125.512 Y100.613 E.03982
G1 X124.857 Y101.358 E0.03898
G1 F2397.541
G1 X123.932 Y102.241 E.05032
G1 X122.91 Y103.037 E0.05094
G1 F2398.781
G1 X121.794 Y103.736 E.05182
G1 F2399.859
G1 X120.933 Y104.176 E.03804
G1 X119.918 Y104.594 E.04318
G1 X118.809 Y104.941 E0.0457
G1 X117.383 Y105.233 E.05725
G1 X115.931 Y105.362 E0.05733
G1 X111.035 Y105.365 Z.24 E.19261
G1 F2400
G1 X106.138 Y105.368 Z.24 E.19261
G1 F2398.612
G1 X105.302 Y105.339 E.03291
G1 X104.46 Y105.254 E0.03326
G1 F2395.652
G1 X103.595 Y105.108 E.03454
G1 X102.677 Y104.886 E0.03712
G1 F2398.753
G1 X101.809 Y104.608 E.03586
G1 F2396.051
G1 X101.337 Y104.414 E.02008
G1 X101.234 Y104.446 E0.00423
G1 X100.733 Y104.521 E.01993
G1 F2399.921
G1 X95.804 Y104.52 Z.24 E.19389
G1 X90.875 Y104.518 Z.24 E.19389
G1 X85.945 Y104.517 Z.24 E.19389
G1 X81.016 Y104.516 Z.24 E.19389
G1 X76.087 Y104.514 Z.24 E.19389
G1 X71.158 Y104.513 Z.24 E.19389
G1 F2398.975
G1 X66.228 Y104.512 Z.24 E.19389
G1 X61.299 Y104.51 Z.24 E.19389
G1 X56.37 Y104.509 Z.24 E.19389
G1 X55.335 Y104.356 E0.04113
G1 F2397.504
G1 X54.367 Y104.035 E.04014
G1 F2399.763
G1 X53.447 Y103.537 E.04114
G1 X52.626 Y102.883 E0.04127
G1 F2398.846
G1 X51.679 Y101.709 E.05934
G1 X51.258 Y100.879 E0.0366
G1 F2399.306
G1 X50.962 Y99.963 E.03787
G1 X50.809 Y98.733 E0.04875
G1 F2398.998
G1 X50.809 Y96.736 E.07858
G1 X50.913 Y96.101 E.02531
G1 X51.147 Y95.474 E0.0263
G1 F2397.304
G1 X51.519 Y94.871 E.02789
G1 F2399.905
G1 X52.209 Y94.173 E.03861
G1 F2398.385
G1 X52.826 Y93.776 E.02886
G1 X53.36 Y93.564 E0.02257
G1 F2397.628
G1 X53.927 Y93.441 E.02283
G1 X98.115 Y93.423 E1.73814
G1 F2398.982
G1 X98.754 Y92.993 E.03031
G1 F2399.709
G1 X99.51 Y92.622 E.03313
G1 X100.507 Y92.398 E0.04019
G1 F2398.176
G1 X99.598 Y92.18 E.03678
G1 X98.895 Y91.818 E0.03108
G1 F2399.18
G1 X98.571 Y91.599 E.01538
G1 X93.633 Y91.599 Z.24 E.19423
G1 X88.695 Y91.599 Z.24 E.19423
G1 X83.758 Y91.599 Z.24 E.19423
G1 X78.82 Y91.599 Z.24 E.19423
G1 X73.882 Y91.599 Z.24 E.19423
G1 X68.944 Y91.599 Z.24 E.19423
G1 X64.007 Y91.599 Z.24 E.19423
G1 X59.069 Y91.599 Z.24 E.19423
G1 F2400
G1 X54.131 Y91.599 Z.24 E.19423
G1 F2399.801
G1 X53.566 Y91.517 E.02246
G1 F2398.094
G1 X52.881 Y91.27 E.02866
G1 X52.301 Y90.924 E0.02655
G1 F2399.867
G1 X51.654 Y90.313 E.03499
G1 X51.175 Y89.607 E.03357
G1 F2397.804
G1 X50.932 Y88.992 E.02603
G1 X50.814 Y88.342 E0.02597
G1 F2398.493
G1 X50.826 Y85.939 E.09453
G1 X51.051 Y84.725 E0.04854
G1 X51.545 Y83.545 E.05034
G1 F2399.75
G1 X52.058 Y82.771 E.03652
G1 X52.641 Y82.13 E0.03407
G1 X53.519 Y81.445 E.0438
M107
G1 X53.813 Y81.759 F60000
M107
G1 F2399.893
G1 X54.665 Y81.329 E.03754
G1 X55.45 Y81.079 E.03241
G1 X56.388 Y80.942 E0.03727
G1 F2398.791
G1 X61.318 Y80.941 Z.24 E.19392
G1 X66.248 Y80.939 Z.24 E.19392
