; generated by SuperSlicer 2.5.59 on 2024-02-12 at 22:37:44 UTC


;
;

;
;
; 

; external perimeters extrusion width = 0.56mm
; perimeters extrusion width = 0.56mm
; infill extrusion width = 0.56mm
; solid infill extrusion width = 0.56mm
; top infill extrusion width = 0.56mm
; first layer extrusion width = 0.56mm


M73 P0 R5
;TYPE:Custom
CALCULATE_PA MATERIAL=PLA BOWDEN_LENGTH=6 LAYER_HEIGHT=0.2 NOZZLE_SIZE=0.4 PRINT_SPEED=50
START_PRINT EXTRUDER=225 BED=60 CHAMBER=0 FILAMENT=PLA
; Filament gcode
;_TOOLCHANGE 0
M107
;LAYER_CHANGE
;Z:0.2
;HEIGHT:0.2
;print_cfg variables
SET_GCODE_VARIABLE MACRO=_printcfg VARIABLE=material_type VALUE="'PLA'"
SET_GCODE_VARIABLE MACRO=_printcfg VARIABLE=material_color VALUE=16726422
SET_GCODE_VARIABLE MACRO=_printcfg VARIABLE=layer_count VALUE=14
SET_GCODE_VARIABLE MACRO=_printcfg VARIABLE=layer_num VALUE=0
SET_GCODE_VARIABLE MACRO=_printcfg VARIABLE=layer_z VALUE=0.2
G1 Z0.2 F180000
;print_cfg variables
SET_GCODE_VARIABLE MACRO=_printcfg VARIABLE=material_type VALUE="'PLA'"
SET_GCODE_VARIABLE MACRO=_printcfg VARIABLE=material_color VALUE=16726422
SET_GCODE_VARIABLE MACRO=_printcfg VARIABLE=layer_count VALUE=14
SET_GCODE_VARIABLE MACRO=_printcfg VARIABLE=layer_num VALUE=0
SET_GCODE_VARIABLE MACRO=_printcfg VARIABLE=layer_z VALUE=0.2

; Increment layer in Klipper
SET_PRINT_STATS_INFO TOTAL_LAYER=14 CURRENT_LAYER=0
_BEGIN_LAYER
M73 P6 R4
G1 E-2 F2400
M204 S1500
G1 Z1 F180000
G1 X15.272 Y37.768
G1 Z0.2
G1 E0 F3600
;TYPE:Skirt
;WIDTH:0.48
M107
G1 F1200
G1 X15.161 Y37.813 E0.00462
G1 X14.545 Y38.197 E0.03275
G1 X13.804 Y38.831 E0.07048
G1 X13.113 Y39.672 E0.11262
G1 X12.691 Y40.4 E0.14518
G1 X12.348 Y41.312 E0.18291
G1 X12.172 Y42.135 E0.21547
G1 X12.12 Y42.86 E0.2436
G1 X12.197 Y43.832 E0.28133
G1 X12.389 Y44.651 E0.31389
G1 X12.762 Y45.551 E0.35161
G1 X13.197 Y46.271 E0.38418
G1 X13.825 Y47.014 E0.4218
G1 X154.871 Y186.822 E8.10859
M73 P9 R4
G1 X156.889 Y187.839 E8.19608
G1 X158.582 Y187.7 E8.26182
G1 X160.029 Y186.811 E8.32755
G1 X161.811 Y185.029 E8.4251
G1 X162.837 Y183.015 E8.51259
G1 X162.705 Y181.322 E8.57832
G1 X161.822 Y179.871 E8.64406
M73 P10 R4
G1 X22.014 Y38.825 E16.33085
M73 P13 R4
G1 X21.438 Y38.325 E16.36035
G1 X20.517 Y37.745 E16.40249
G1 X19.503 Y37.348 E16.44463
G1 X18.224 Y37.128 E16.49488
G1 X17.383 Y37.147 E16.52744
G1 X16.312 Y37.348 E16.56958
G1 X15.272 Y37.768 E16.61302
M107
G1 X15.435 Y38.172 F180000
M107
G1 F1200
G1 X15.36 Y38.202 E16.61616
G1 X14.79 Y38.559 E16.64217
G1 X14.103 Y39.15 E16.67724
G1 X13.466 Y39.929 E16.7162
G1 X13.081 Y40.599 E16.74611
G1 X12.763 Y41.448 E16.78118
G1 X12.603 Y42.203 E16.81109
G1 X12.557 Y42.874 E16.8371
G1 X12.631 Y43.777 E16.87217
G1 X12.808 Y44.529 E16.90208
G1 X13.158 Y45.365 E16.93715
G1 X13.559 Y46.025 E16.96706
G1 X14.132 Y46.703 E17.00142
G1 X155.178 Y186.512 E24.68821
M73 P16 R4
G1 X156.76 Y187.371 E24.75787
G1 X158.351 Y187.314 E24.81949
G1 X159.72 Y186.502 E24.88111
G1 X161.502 Y184.72 E24.97866
G1 X162.368 Y183.143 E25.04831
G1 X162.318 Y181.551 E25.10993
G1 X161.512 Y180.178 E25.17156
G1 X21.703 Y39.132 E32.85835
M73 P19 R4
G1 X21.159 Y38.662 E32.88618
G1 X20.306 Y38.128 E32.92514
G1 X19.368 Y37.763 E32.9641
G1 X18.21 Y37.565 E33.00958
G1 X17.437 Y37.581 E33.03948
G1 X16.448 Y37.763 E33.07844
G1 X15.435 Y38.172 E33.12071
M107
M104 S225 ; set temperature
G92 E0
;WIPE_START
G1 F144000
G1 X16.448 Y37.763 E-0.01729
G1 X17.437 Y37.581 E-0.03323
G1 X18.21 Y37.565 E-0.04546
G1 X19.368 Y37.763 E-0.06406
G1 X20.306 Y38.128 E-0.08
M73 P20 R4
G1 X21.159 Y38.662 E-0.09594
G1 X21.703 Y39.132 E-0.10732
G1 X101.41 Y119.544 E-1.9
;WIPE_END
G1 E-2 F2400
G1 Z1 F180000
G1 X16.712 Y41.501
G1 Z0.2
G1 E0 F3600
;TYPE:External perimeter
;WIDTH:0.56292
M107
G1 F1200
G1 X16.965 Y41.313 E0.01452
G1 X17.168 Y41.209 E0.02503
G1 X17.504 Y41.1 E0.04129
G1 X17.854 Y41.056 E0.05755
G1 X18.082 Y41.063 E0.06806
G1 X18.308 Y41.099 E0.07857
G1 X18.643 Y41.208 E0.09483
G1 X18.949 Y41.376 E0.11089
G1 X19.101 Y41.501 E0.11996
G1 X16.712 Y41.501 E0.22996
M107
;WIPE_START
G1 X17.076 Y41.336 F180000
;WIPE_END
G1 X16.501 Y41.706
M107
G1 F1200
G1 X16.501 Y44.109 E0.3406
G1 X16.315 Y43.855 E0.35511
G1 X16.163 Y43.531 E0.37157
G1 X16.101 Y43.316 E0.38188
G1 X16.056 Y42.962 E0.39834
G1 X16.063 Y42.733 E0.40885
G1 X16.099 Y42.508 E0.41936
G1 X16.209 Y42.168 E0.43583
G1 X16.311 Y41.969 E0.44613
G1 X16.501 Y41.706 E0.46106
M107
;WIPE_START
G1 X16.418 Y42.098 F180000
;WIPE_END
G92 E0
;WIPE_START
G1 F144000
G1 X16.301 Y43.29 E-0.01897
G1 X16.297 Y43.276 E-0.01921
G1 X16.256 Y42.952 E-0.02437
G1 X16.263 Y42.752 E-0.02754
G1 X16.294 Y42.555 E-0.0307
;WIPE_END
G1 E-2 F2400
G1 X19.834 Y44.834 F180000
G1 E0 F3600
;TYPE:Internal perimeter
M107
G1 F1200
G1 X19.834 Y44.186 E0.02986
G1 X158.093 Y182.444 E9.03361
M73 P23 R4
G1 X157.444 Y183.093 E9.07585
G1 X19.186 Y44.834 E18.0796
M73 P26 R3
G1 X19.834 Y44.834 E18.10946
M107
G1 X19.314 Y44.314 F180000
;TYPE:External perimeter
M107
G1 F1200
G1 X19.314 Y41.707 E18.22953
G1 X19.372 Y41.772 E18.23355
G1 X19.5 Y41.961 E18.24406
G1 X19.653 Y42.284 E18.26053
G1 X19.716 Y42.504 E18.27104
G1 X19.753 Y42.733 E18.28175
G1 X19.76 Y42.966 E18.29247
G1 X19.725 Y43.341 E18.30981
G1 X158.828 Y182.444 E27.36858
M73 P30 R3
G1 X157.444 Y183.828 E27.4587
G1 X18.341 Y44.725 E36.51748
M73 P33 R3
G1 X17.966 Y44.76 E36.53481
G1 X17.733 Y44.753 E36.54553
G1 X17.504 Y44.716 E36.55624
G1 X17.28 Y44.651 E36.56696
G1 X17.067 Y44.559 E36.57768
G1 X16.87 Y44.443 E36.58819
G1 X16.715 Y44.314 E36.59746
G1 X19.314 Y44.314 E36.71716
M107
;WIPE_START
G1 X19.714 Y44.314 F180000
;WIPE_END
G1 X20.074 Y45.074
;TYPE:Gap fill
;WIDTH:0.480532
M107
G1 F1200
G1 X157.599 Y182.599 E44.25417
M107
M106 S68.85
;LAYER_CHANGE
;Z:0.4
;HEIGHT:0.2
;print_cfg variables
SET_GCODE_VARIABLE MACRO=_printcfg VARIABLE=material_type VALUE="'PLA'"
SET_GCODE_VARIABLE MACRO=_printcfg VARIABLE=material_color VALUE=16726422
SET_GCODE_VARIABLE MACRO=_printcfg VARIABLE=layer_count VALUE=14
SET_GCODE_VARIABLE MACRO=_printcfg VARIABLE=layer_num VALUE=1
SET_GCODE_VARIABLE MACRO=_printcfg VARIABLE=layer_z VALUE=0.4
M73 P36 R3
G1 Z0.4 F180000
;print_cfg variables
SET_GCODE_VARIABLE MACRO=_printcfg VARIABLE=material_type VALUE="'PLA'"
SET_GCODE_VARIABLE MACRO=_printcfg VARIABLE=material_color VALUE=16726422
SET_GCODE_VARIABLE MACRO=_printcfg VARIABLE=layer_count VALUE=14
SET_GCODE_VARIABLE MACRO=_printcfg VARIABLE=layer_num VALUE=1
SET_GCODE_VARIABLE MACRO=_printcfg VARIABLE=layer_z VALUE=0.4

; Increment layer in Klipper
SET_PRINT_STATS_INFO TOTAL_LAYER=14 CURRENT_LAYER=1
_BEGIN_LAYER
M104 S200 ; set temperature
M140 S60 ; set bed temperature
G92 E0
G1 E-2 F2400
G1 Z1 F180000
G1 X160.92 Y185.92
G1 Z0.4
G1 E0 F3600
;TYPE:Skirt
;WIDTH:0.48
M106 S89.25
G1 F3000
G1 X161.811 Y185.029 E0.04877
G1 X162.837 Y183.015 E0.13626
G1 X162.705 Y181.322 E0.202
G1 X161.822 Y179.871 E0.26774
G1 X22.014 Y38.825 E7.95452
M73 P37 R3
G1 X21.438 Y38.325 E7.98402
G1 X20.517 Y37.745 E8.02616
G1 X19.503 Y37.348 E8.0683
G1 X18.224 Y37.128 E8.11855
G1 X17.383 Y37.147 E8.15111
G1 X16.312 Y37.348 E8.19326
G1 X15.161 Y37.813 E8.24131
G1 X14.545 Y38.197 E8.26944
G1 X13.804 Y38.831 E8.30717
G1 X13.113 Y39.672 E8.34931
G1 X12.691 Y40.4 E8.38187
G1 X12.348 Y41.312 E8.4196
G1 X12.172 Y42.135 E8.45216
G1 X12.12 Y42.86 E8.48029
G1 X12.197 Y43.832 E8.51802
G1 X12.389 Y44.651 E8.55058
G1 X12.762 Y45.551 E8.58831
G1 X13.197 Y46.271 E8.62087
G1 X13.825 Y47.014 E8.65849
G1 X154.871 Y186.822 E16.34528
M73 P39 R3
G1 X156.889 Y187.839 E16.43277
G1 X158.582 Y187.7 E16.49851
G1 X160.029 Y186.811 E16.56425
G1 X160.92 Y185.92 E16.61302
M106 S68.85
G1 X160.611 Y185.611 F180000
M106 S89.25
G1 F3000
G1 X161.502 Y184.72 E16.66179
G1 X162.368 Y183.143 E16.73144
G1 X162.318 Y181.551 E16.79307
G1 X161.512 Y180.178 E16.85469
G1 X21.703 Y39.132 E24.54148
M73 P40 R3
G1 X21.159 Y38.662 E24.56931
G1 X20.306 Y38.128 E24.60827
G1 X19.368 Y37.763 E24.64723
G1 X18.21 Y37.565 E24.69271
G1 X17.437 Y37.581 E24.72262
G1 X16.448 Y37.763 E24.76158
G1 X15.36 Y38.202 E24.80698
G1 X14.79 Y38.559 E24.83298
G1 X14.103 Y39.15 E24.86806
G1 X13.466 Y39.929 E24.90702
G1 X13.081 Y40.599 E24.93692
G1 X12.763 Y41.448 E24.972
G1 X12.603 Y42.203 E25.00191
G1 X12.557 Y42.874 E25.02791
G1 X12.631 Y43.777 E25.06299
G1 X12.808 Y44.529 E25.09289
G1 X13.158 Y45.365 E25.12797
G1 X13.559 Y46.025 E25.15788
G1 X14.132 Y46.703 E25.19224
G1 X155.178 Y186.512 E32.87903
M73 P41 R3
G1 X156.76 Y187.371 E32.94869
G1 X158.351 Y187.314 E33.01031
G1 X159.72 Y186.502 E33.07193
G1 X160.611 Y185.611 E33.12071
M106 S68.85
G92 E0
;WIPE_START
G1 F144000
G1 X159.72 Y186.502 E-0.01995
G1 X158.351 Y187.314 E-0.04516
G1 X156.76 Y187.371 E-0.07037
G1 X155.178 Y186.512 E-0.09886
G1 X74.387 Y106.429 E-1.9
;WIPE_END
M73 P42 R3
G1 E-2 F2400
G1 Z1 F180000
G1 X158.319 Y182.444
G1 Z0.4
G1 E0 F3600
;TYPE:Internal perimeter
;WIDTH:0.48292
M106 S89.25
G1 F3000
G1 X157.444 Y183.319 E0.04821
G1 X18.8 Y44.674 E7.68805
M73 P43 R2
G1 X19.674 Y44.674 E7.72213
G1 X19.674 Y43.8 E7.75622
G1 X158.319 Y182.444 E15.39606
M106 S68.85
G92 E0
;WIPE_START
M73 P44 R2
G1 F144000
G1 X73.466 Y97.591 E-1.9
;WIPE_END
M73 P45 R2
G1 E-2 F2400
G1 X19.254 Y44.254 F180000
G1 E0 F3600
;TYPE:External perimeter
;WIDTH:0.44292
M106 S89.25
G1 F2011.2515
G1 X19.254 Y41.561 E0.09539
G1 X16.561 Y41.561 E0.19078
G1 X16.561 Y44.254 E0.28617
G1 X19.254 Y44.254 E0.38155
M106 S68.85
;WIPE_START
G1 X19.654 Y44.254 F180000
;WIPE_END
G1 X18.318 Y44.787
M106 S89.25
G1 F3000
G1 X17.968 Y44.82 E0.39402
G1 X17.728 Y44.812 E0.40253
G1 X17.491 Y44.775 E0.41104
G1 X17.26 Y44.708 E0.41956
G1 X17.039 Y44.612 E0.42807
G1 X16.836 Y44.492 E0.43645
G1 X16.553 Y44.258 E0.44945
G1 X16.396 Y44.08 E0.45784
G1 X16.263 Y43.885 E0.46622
G1 X16.107 Y43.552 E0.47922
G1 X16.042 Y43.328 E0.48749
G1 X15.996 Y42.964 E0.50048
G1 X16.003 Y42.728 E0.50887
G1 X16.04 Y42.494 E0.51726
G1 X16.154 Y42.145 E0.53026
G1 X16.26 Y41.937 E0.53852
G1 X16.473 Y41.643 E0.55139
G1 X16.738 Y41.394 E0.56427
G1 X16.934 Y41.261 E0.57266
G1 X17.145 Y41.154 E0.58104
G1 X17.491 Y41.041 E0.59392
G1 X17.851 Y40.996 E0.60679
G1 X18.088 Y41.003 E0.61518
G1 X18.322 Y41.04 E0.62356
G1 X18.667 Y41.153 E0.63644
G1 X18.983 Y41.326 E0.64919
G1 X19.263 Y41.558 E0.66207
G1 X19.419 Y41.735 E0.67045
G1 X19.553 Y41.931 E0.67884
G1 X19.709 Y42.263 E0.69184
G1 X19.775 Y42.49 E0.70022
G1 X19.812 Y42.728 E0.70873
G1 X19.82 Y42.968 E0.71725
G1 X19.787 Y43.318 E0.72971
G1 X158.913 Y182.444 E7.69913
M73 P46 R2
G1 X157.444 Y183.913 E7.77271
G1 X18.318 Y44.787 E14.74212
M106 S68.85
;WIPE_START
M73 P47 R2
G1 X18.191 Y44.408 F180000
;WIPE_END
G92 E0
;WIPE_START
G1 F144000
G1 X17.962 Y44.62 E-0.00494
G1 X17.747 Y44.613 E-0.00835
G1 X17.534 Y44.579 E-0.01175
G1 X17.328 Y44.519 E-0.01516
G1 X17.13 Y44.434 E-0.01857
G1 X16.951 Y44.328 E-0.02187
G1 X16.692 Y44.114 E-0.02718
G1 X16.555 Y43.958 E-0.03048
G1 X16.437 Y43.785 E-0.03378
G1 X16.295 Y43.482 E-0.03909
G1 X16.238 Y43.288 E-0.04228
G1 X16.196 Y42.955 E-0.0476
M73 P48 R2
G1 X16.203 Y42.747 E-0.0509
G1 X16.235 Y42.541 E-0.0542
G1 X16.339 Y42.222 E-0.05951
G1 X16.431 Y42.042 E-0.0627
G1 X16.624 Y41.776 E-0.06791
G1 X16.864 Y41.551 E-0.07312
G1 X17.036 Y41.434 E-0.07642
G1 X17.222 Y41.339 E-0.07972
G1 X17.534 Y41.237 E-0.08492
G1 X17.861 Y41.196 E-0.09013
G1 X18.069 Y41.203 E-0.09343
G1 X18.275 Y41.235 E-0.09673
G1 X18.588 Y41.337 E-0.10194
G1 X18.87 Y41.492 E-0.10704
G1 X19.123 Y41.702 E-0.11225
G1 X19.261 Y41.858 E-0.11555
G1 X19.378 Y42.03 E-0.11885
G1 X19.521 Y42.334 E-0.12416
G1 X19.579 Y42.534 E-0.12746
G1 X19.613 Y42.747 E-0.13086
G1 X19.62 Y42.962 E-0.13427
G1 X19.579 Y43.393 E-0.14113
G1 X98.129 Y121.943 E-1.9
;WIPE_END
G1 E-2 F2400
G1 X20.196 Y44.51 F180000
G1 E0 F3600
;TYPE:Solid infill
;WIDTH:0.455392
M106 S89.25
G1 F3000
G1 X19.637 Y45.068 E0.02889
G1 X19.934 Y45.365 E0.04425
G1 X20.365 Y44.934 E0.06653
G1 X20.662 Y45.231 E0.0819
G1 X20.231 Y45.662 E0.10418
G1 X20.528 Y45.959 E0.11955
G1 X20.959 Y45.528 E0.14182
G1 X21.256 Y45.825 E0.15719
G1 X20.825 Y46.256 E0.17947
G1 X21.122 Y46.553 E0.19484
G1 X21.553 Y46.122 E0.21712
G1 X21.85 Y46.419 E0.23248
G1 X21.419 Y46.85 E0.25476
G1 X21.716 Y47.147 E0.27013
G1 X22.147 Y46.716 E0.29241
G1 X22.444 Y47.013 E0.30777
G1 X22.013 Y47.444 E0.33005
G1 X22.31 Y47.741 E0.34542
G1 X22.741 Y47.31 E0.3677
G1 X23.038 Y47.607 E0.38307
G1 X22.607 Y48.038 E0.40534
G1 X22.904 Y48.335 E0.42071
G1 X23.335 Y47.904 E0.44299
G1 X23.632 Y48.201 E0.45836
G1 X23.201 Y48.632 E0.48064
G1 X23.498 Y48.929 E0.496
G1 X23.929 Y48.498 E0.51828
G1 X24.226 Y48.795 E0.53365
G1 X23.795 Y49.226 E0.55593
G1 X24.092 Y49.523 E0.5713
G1 X24.523 Y49.092 E0.59357
G1 X24.82 Y49.389 E0.60894
G1 X24.389 Y49.82 E0.63122
G1 X24.686 Y50.117 E0.64659
G1 X25.117 Y49.686 E0.66887
G1 X25.414 Y49.983 E0.68423
G1 X24.983 Y50.413 E0.70651
G1 X25.28 Y50.71 E0.72188
G1 X25.711 Y50.28 E0.74416
G1 X26.008 Y50.577 E0.75952
G1 X25.577 Y51.007 E0.7818
G1 X25.874 Y51.304 E0.79717
G1 X26.304 Y50.874 E0.81945
G1 X26.601 Y51.171 E0.83482
G1 X26.171 Y51.601 E0.8571
G1 X26.468 Y51.898 E0.87246
G1 X26.898 Y51.468 E0.89474
G1 X27.195 Y51.765 E0.91011
G1 X26.765 Y52.195 E0.93239
G1 X27.062 Y52.492 E0.94775
G1 X27.492 Y52.062 E0.97003
G1 X27.789 Y52.359 E0.9854
G1 X27.359 Y52.789 E1.00768
G1 X27.656 Y53.086 E1.02305
G1 X28.086 Y52.656 E1.04533
G1 X28.383 Y52.953 E1.06069
G1 X27.953 Y53.383 E1.08297
G1 X28.25 Y53.68 E1.09834
G1 X28.68 Y53.25 E1.12062
G1 X28.977 Y53.547 E1.13598
G1 X28.547 Y53.977 E1.15826
G1 X28.844 Y54.274 E1.17363
G1 X29.274 Y53.844 E1.19591
G1 X29.571 Y54.141 E1.21128
G1 X29.141 Y54.571 E1.23356
G1 X29.438 Y54.868 E1.24892
G1 X29.868 Y54.438 E1.2712
G1 X30.165 Y54.735 E1.28657
G1 X29.735 Y55.165 E1.30885
G1 X30.032 Y55.462 E1.32422
G1 X30.462 Y55.032 E1.34649
G1 X30.759 Y55.329 E1.36186
G1 X30.329 Y55.759 E1.38414
G1 X30.626 Y56.056 E1.39951
G1 X31.056 Y55.626 E1.42179
G1 X31.353 Y55.923 E1.43715
M73 P49 R2
G1 X30.923 Y56.353 E1.45943
G1 X31.22 Y56.65 E1.4748
G1 X31.65 Y56.22 E1.49708
G1 X31.947 Y56.517 E1.51245
G1 X31.517 Y56.947 E1.53472
G1 X31.814 Y57.244 E1.55009
G1 X32.244 Y56.814 E1.57237
G1 X32.541 Y57.111 E1.58774
G1 X32.111 Y57.541 E1.61002
G1 X32.408 Y57.838 E1.62538
G1 X32.838 Y57.408 E1.64766
G1 X33.135 Y57.705 E1.66303
G1 X32.705 Y58.135 E1.68531
G1 X33.002 Y58.432 E1.70068
G1 X33.432 Y58.002 E1.72296
G1 X33.729 Y58.299 E1.73832
G1 X33.299 Y58.729 E1.7606
G1 X33.596 Y59.026 E1.77597
G1 X34.026 Y58.595 E1.79825
G1 X34.323 Y58.892 E1.81362
G1 X33.893 Y59.323 E1.83589
G1 X34.189 Y59.62 E1.85126
G1 X34.62 Y59.189 E1.87354
G1 X34.917 Y59.486 E1.88891
G1 X34.486 Y59.917 E1.91119
G1 X34.783 Y60.214 E1.92655
G1 X35.214 Y59.783 E1.94883
G1 X35.511 Y60.08 E1.9642
G1 X35.08 Y60.511 E1.98648
G1 X35.377 Y60.808 E2.00185
G1 X35.808 Y60.377 E2.02413
G1 X36.105 Y60.674 E2.03949
G1 X35.674 Y61.105 E2.06177
G1 X35.971 Y61.402 E2.07714
G1 X36.402 Y60.971 E2.09942
G1 X36.699 Y61.268 E2.11479
G1 X36.268 Y61.699 E2.13706
G1 X36.565 Y61.996 E2.15243
G1 X36.996 Y61.565 E2.17471
G1 X37.293 Y61.862 E2.19008
G1 X36.862 Y62.293 E2.21236
G1 X37.159 Y62.59 E2.22772
G1 X37.59 Y62.159 E2.25
G1 X37.887 Y62.456 E2.26537
G1 X37.456 Y62.887 E2.28765
G1 X37.753 Y63.184 E2.30302
G1 X38.184 Y62.753 E2.3253
G1 X38.481 Y63.05 E2.34066
G1 X38.05 Y63.481 E2.36294
G1 X38.347 Y63.778 E2.37831
G1 X38.778 Y63.347 E2.40059
G1 X39.075 Y63.644 E2.41596
G1 X38.644 Y64.075 E2.43824
G1 X38.941 Y64.372 E2.4536
G1 X39.372 Y63.941 E2.47588
G1 X39.669 Y64.238 E2.49125
G1 X39.238 Y64.669 E2.51353
G1 X39.535 Y64.966 E2.5289
G1 X39.966 Y64.535 E2.55117
G1 X40.263 Y64.832 E2.56654
G1 X39.832 Y65.263 E2.58882
G1 X40.129 Y65.56 E2.60419
G1 X40.56 Y65.129 E2.62647
G1 X40.857 Y65.426 E2.64183
G1 X40.426 Y65.857 E2.66411
G1 X40.723 Y66.154 E2.67948
G1 X41.154 Y65.723 E2.70176
G1 X41.451 Y66.02 E2.71713
G1 X41.02 Y66.451 E2.73941
G1 X41.317 Y66.748 E2.75477
G1 X41.748 Y66.317 E2.77705
G1 X42.045 Y66.614 E2.79242
G1 X41.614 Y67.045 E2.8147
G1 X41.911 Y67.342 E2.83007
G1 X42.342 Y66.911 E2.85235
G1 X42.639 Y67.208 E2.86771
G1 X42.208 Y67.639 E2.88999
G1 X42.505 Y67.936 E2.90536
G1 X42.936 Y67.505 E2.92764
