; generated by SuperSlicer 2.5.59.8 on 2024-03-30 at 22:38:50 UTC


;
;

;
;

;
;

;
;

;
;
; 

; external perimeters extrusion width = 0.40mm
; perimeters extrusion width = 0.40mm
; infill extrusion width = 0.40mm
; solid infill extrusion width = 0.40mm
; top infill extrusion width = 0.40mm

; object:{"name":"Belt_clamp_2","id":"Belt_clamp_2.stl id:0 copy 0","object_center":[87.500000,110.000000,0.000000],"boundingbox_center":[87.500000,110.000000,2.400000],"boundingbox_size":[9.000000,17.200005,4.800000]}
EXCLUDE_OBJECT_DEFINE NAME=Belt_clamp_2_stl_id_0_copy_0 CENTER=87.500000,110.000000 POLYGON=[[83.00,101.80],[83.00,101.78],[83.00,101.77],[83.00,101.75],[83.01,101.73],[83.01,101.71],[83.01,101.70],[83.02,101.68],[83.02,101.66],[83.03,101.65],[83.04,101.63],[83.05,101.62],[83.05,101.60],[83.06,101.59],[83.07,101.57],[83.08,101.56],[83.09,101.54],[83.11,101.53],[83.12,101.52],[83.13,101.51],[83.14,101.49],[83.16,101.48],[83.17,101.47],[83.19,101.46],[83.20,101.45],[83.22,101.45],[83.23,101.44],[83.25,101.43],[83.26,101.42],[83.28,101.42],[83.30,101.41],[83.31,101.41],[83.33,101.41],[83.35,101.40],[83.37,101.40],[83.38,101.40],[83.40,101.40],[91.60,101.40],[91.62,101.40],[91.63,101.40],[91.65,101.40],[91.67,101.41],[91.69,101.41],[91.70,101.41],[91.72,101.42],[91.74,101.42],[91.75,101.43],[91.77,101.44],[91.78,101.45],[91.80,101.45],[91.81,101.46],[91.83,101.47],[91.84,101.48],[91.86,101.49],[91.87,101.51],[91.88,101.52],[91.89,101.53],[91.91,101.54],[91.92,101.56],[91.93,101.57],[91.94,101.59],[91.95,101.60],[91.95,101.62],[91.96,101.63],[91.97,101.65],[91.98,101.66],[91.98,101.68],[91.99,101.70],[91.99,101.71],[91.99,101.73],[92.00,101.75],[92.00,101.77],[92.00,101.78],[92.00,101.80],[92.00,118.20],[92.00,118.22],[92.00,118.22],[92.00,118.23],[92.00,118.23],[92.00,118.25],[92.00,118.25],[91.99,118.27],[91.99,118.27],[91.99,118.28],[91.99,118.29],[91.99,118.30],[91.99,118.30],[91.98,118.32],[91.98,118.32],[91.98,118.33],[91.98,118.34],[91.97,118.35],[91.97,118.35],[91.96,118.36],[91.96,118.37],[91.96,118.38],[91.95,118.38],[91.95,118.40],[91.95,118.40],[91.94,118.41],[91.94,118.41],[91.93,118.42],[91.93,118.43],[91.92,118.44],[91.92,118.44],[91.91,118.45],[91.91,118.46],[91.90,118.46],[91.89,118.47],[91.89,118.48],[91.88,118.48],[91.88,118.49],[91.87,118.49],[91.86,118.50],[91.86,118.51],[91.85,118.51],[91.84,118.52],[91.84,118.52],[91.83,118.53],[91.82,118.53],[91.81,118.54],[91.81,118.54],[91.80,118.55],[91.80,118.55],[91.78,118.55],[91.78,118.56],[91.77,118.56],[91.76,118.56],[91.75,118.57],[91.75,118.57],[91.74,118.58],[91.73,118.58],[91.72,118.58],[91.72,118.58],[91.70,118.59],[91.70,118.59],[91.69,118.59],[91.68,118.59],[91.67,118.59],[91.67,118.59],[91.65,118.60],[91.65,118.60],[91.63,118.60],[91.63,118.60],[91.62,118.60],[91.62,118.60],[91.60,118.60],[83.40,118.60],[83.38,118.60],[83.38,118.60],[83.37,118.60],[83.37,118.60],[83.35,118.60],[83.35,118.60],[83.33,118.59],[83.33,118.59],[83.32,118.59],[83.31,118.59],[83.30,118.59],[83.30,118.59],[83.28,118.58],[83.28,118.58],[83.27,118.58],[83.26,118.58],[83.25,118.57],[83.25,118.57],[83.24,118.56],[83.23,118.56],[83.22,118.56],[83.22,118.55],[83.20,118.55],[83.20,118.55],[83.19,118.54],[83.19,118.54],[83.18,118.53],[83.17,118.53],[83.16,118.52],[83.16,118.52],[83.15,118.51],[83.14,118.51],[83.14,118.50],[83.13,118.49],[83.12,118.49],[83.12,118.48],[83.11,118.48],[83.11,118.47],[83.10,118.46],[83.09,118.46],[83.09,118.45],[83.08,118.44],[83.08,118.44],[83.07,118.43],[83.07,118.42],[83.06,118.41],[83.06,118.41],[83.05,118.40],[83.05,118.40],[83.05,118.38],[83.04,118.38],[83.04,118.37],[83.04,118.36],[83.03,118.35],[83.03,118.35],[83.02,118.34],[83.02,118.33],[83.02,118.32],[83.02,118.32],[83.01,118.30],[83.01,118.30],[83.01,118.29],[83.01,118.28],[83.01,118.27],[83.01,118.27],[83.00,118.25],[83.00,118.25],[83.00,118.23],[83.00,118.23],[83.00,118.22],[83.00,118.22],[83.00,118.20],[83.00,101.80]]
; plater:{"center":[87.500000,110.000000,0.000000],"boundingbox_center":[87.500000,110.000000,2.400000],"boundingbox_size":[9.000000,17.200005,4.800000]}

M73 P0 R5
M107
;TYPE:Custom
CALCULATE_PA MATERIAL=ABS BOWDEN_LENGTH=6 LAYER_HEIGHT=0.24 NOZZLE_SIZE=0.4 PRINT_SPEED=95


START_PRINT EXTRUDER=270 BED=100

M107
G21 ; set units to millimeters
G90 ; use absolute coordinates
M83 ; use relative distances for extrusion
ACTIVATE_EXTRUDER EXTRUDER=extruder
; Filament gcode
M104 S270 T0 ; set temperature
M109 S270 T0 ; set temperature and wait for it to be reached
M190 S100 ; set bed temperature and wait for it to be reached
;LAYER_CHANGE
;Z:0.24
;HEIGHT:0.24
;BEFORE_LAYER_CHANGE
G92 E0.0

G1 E-1.5 F3000
M73 P5 R5
G1 Z0.2 F3600000
G1 Z0.24
;AFTER_LAYER_CHANGE
;0.24




CALCULATE_PA MATERIAL=ABS BOWDEN_LENGTH=6.0 LAYER_HEIGHT=0.2 NOZZLE_SIZE=0.4 PRINT_SPEED=95


G92 E0
G1 Z0.44
G1 X80.463 Y97.632
G1 Z0.24
G1 E1.5 F3000
;TYPE:Skirt
;WIDTH:0.4
M107
G1 F2400
G1 X81.501 Y97.077 E0.04094
G1 X82.278 Y96.841 E0.02824
G1 X82.954 Y96.729 E0.02381
G1 X92.085 Y96.731 E0.31754
G1 X93.773 Y97.186 E0.06076
G1 X94.527 Y97.637 E0.03057
G1 X95.212 Y98.207 E0.03098
G1 X95.776 Y98.893 E0.03088
G1 X96.229 Y99.674 E0.03141
G1 X96.525 Y100.52 E0.03116
G1 X96.669 Y101.34 E0.02895
G1 X96.69 Y118.473 E0.59578
M73 P6 R5
G1 X96.275 Y120.232 E0.06282
G1 X95.557 Y121.393 E0.04748
G1 X94.536 Y122.369 E0.04911
G1 X93.403 Y122.961 E0.04446
G1 X92.751 Y123.153 E0.02363
G1 X92.094 Y123.267 E0.02318
G1 X83.125 Y123.291 E0.31187
G1 X81.401 Y122.888 E0.06156
G1 X80.177 Y122.134 E0.05
G1 X79.18 Y121.063 E0.05088
G1 X78.618 Y119.946 E0.0435
G1 X78.425 Y119.254 E0.02497
G1 X78.32 Y118.531 E0.02539
G1 X78.31 Y101.525 E0.59135
G1 X78.725 Y99.768 E0.06279
G1 X79.443 Y98.607 E0.04747
G1 X80.419 Y97.673 E0.04697
M107
G1 X80.659 Y97.926 F3600000
M107
G1 F2400
G1 X80.685 Y97.901 E0.00125
G1 X81.649 Y97.393 E0.03788
G1 X82.347 Y97.183 E0.02536
G1 X82.968 Y97.078 E0.02191
G1 X92.062 Y97.08 E0.31623
G1 X93.615 Y97.497 E0.0559
G1 X94.314 Y97.914 E0.02831
G1 X94.976 Y98.464 E0.02992
G1 X95.497 Y99.102 E0.02865
G1 X95.919 Y99.834 E0.02937
G1 X96.185 Y100.595 E0.02801
G1 X96.32 Y101.356 E0.02688
G1 X96.342 Y118.453 E0.59454
G1 X95.943 Y120.123 E0.0597
G1 X95.273 Y121.189 E0.04377
G1 X94.314 Y122.099 E0.04598
G1 X93.258 Y122.643 E0.04131
G1 X92.681 Y122.811 E0.0209
G1 X92.078 Y122.918 E0.02129
G1 X83.145 Y122.942 E0.31063
G1 X81.509 Y122.556 E0.05845
G1 X80.382 Y121.85 E0.04624
G1 X79.453 Y120.845 E0.04761
G1 X78.949 Y119.836 E0.0392
G1 X78.764 Y119.171 E0.02399
G1 X78.667 Y118.494 E0.02379
G1 X78.658 Y101.546 E0.58935
G1 X79.057 Y99.877 E0.05967
G1 X79.727 Y98.811 E0.04377
G1 X80.616 Y97.967 E0.04261
M107
G1 X80.854 Y98.221 F3600000
M107
G1 F2400
G1 X80.907 Y98.171 E0.0025
G1 X81.795 Y97.71 E0.0348
G1 X82.417 Y97.524 E0.02257
G1 X82.983 Y97.426 E0.01999
G1 X92.039 Y97.428 E0.31491
M73 P7 R5
G1 X93.458 Y97.809 E0.05107
G1 X94.102 Y98.191 E0.02604
G1 X94.74 Y98.721 E0.02884
G1 X95.217 Y99.311 E0.02638
G1 X95.609 Y99.993 E0.02735
G1 X95.851 Y100.695 E0.02582
G1 X95.975 Y101.401 E0.02492
G1 X95.993 Y118.433 E0.59225
G1 X95.611 Y120.013 E0.05653
G1 X94.991 Y120.983 E0.04004
G1 X94.093 Y121.829 E0.04288
G1 X93.145 Y122.313 E0.03703
G1 X92.593 Y122.474 E0.02
G1 X92.032 Y122.573 E0.01978
G1 X83.165 Y122.593 E0.30836
G1 X81.618 Y122.223 E0.05529
G1 X80.588 Y121.569 E0.04245
G1 X79.726 Y120.627 E0.04438
G1 X79.28 Y119.726 E0.03496
G1 X79.107 Y119.11 E0.02224
G1 X79.013 Y118.457 E0.02296
G1 X79.007 Y101.566 E0.58733
G1 X79.389 Y99.987 E0.05651
G1 X80.009 Y99.016 E0.04004
G1 X80.811 Y98.262 E0.03828
M107
G1 X81.048 Y98.516 F3600000
M107
G1 F2400
G1 X81.127 Y98.443 E0.00374
G1 X81.939 Y98.028 E0.03172
G1 X82.487 Y97.866 E0.01989
G1 X82.999 Y97.775 E0.01805
G1 X92.016 Y97.777 E0.31358
G1 X93.301 Y98.122 E0.04627
G1 X93.89 Y98.468 E0.02375
G1 X94.504 Y98.978 E0.02775
G1 X94.922 Y99.496 E0.02315
G1 X95.298 Y100.152 E0.02629
G1 X95.516 Y100.794 E0.02359
G1 X95.629 Y101.446 E0.02298
G1 X95.645 Y118.412 E0.58998
G1 X95.279 Y119.901 E0.05332
G1 X94.711 Y120.776 E0.03626
G1 X93.874 Y121.557 E0.03983
G1 X93.032 Y121.983 E0.03281
G1 X92.523 Y122.132 E0.01844
G1 X91.987 Y122.227 E0.01892
G1 X83.185 Y122.245 E0.30607
G1 X81.729 Y121.892 E0.0521
G1 X80.796 Y121.288 E0.03863
G1 X80.001 Y120.411 E0.04117
G1 X79.611 Y119.617 E0.03077
G1 X79.446 Y119.027 E0.02129
G1 X79.36 Y118.42 E0.02133
G1 X79.355 Y101.587 E0.58533
G1 X79.721 Y100.098 E0.05331
G1 X80.289 Y99.224 E0.03627
G1 X81.004 Y98.557 E0.03399
M107
M73 P8 R5
G1 X81.242 Y98.812 F3600000
M107
G1 F2400
G1 X81.346 Y98.715 E0.00496
G1 X82.081 Y98.347 E0.02858
G1 X82.559 Y98.207 E0.01732
G1 X83.014 Y98.123 E0.01609
G1 X91.994 Y98.125 E0.31224
G1 X93.146 Y98.435 E0.04149
G1 X93.679 Y98.745 E0.02144
G1 X94.268 Y99.235 E0.02664
G1 X94.626 Y99.681 E0.01992
G1 X94.987 Y100.31 E0.02521
G1 X95.182 Y100.892 E0.02133
G1 X95.283 Y101.489 E0.02107
G1 X95.296 Y118.391 E0.58772
G1 X94.948 Y119.789 E0.05008
G1 X94.458 Y120.535 E0.03106
G1 X93.654 Y121.285 E0.03823
G1 X92.919 Y121.653 E0.02859
G1 X92.434 Y121.795 E0.01755
G1 X91.942 Y121.881 E0.01739
G1 X83.206 Y121.896 E0.30378
G1 X81.841 Y121.56 E0.04887
G1 X81.04 Y121.038 E0.03327
G1 X80.276 Y120.196 E0.03953
G1 X79.943 Y119.508 E0.02658
G1 X79.785 Y118.945 E0.02034
G1 X79.707 Y118.384 E0.01968
G1 X79.704 Y101.608 E0.58334
G1 X80.052 Y100.211 E0.05007
G1 X80.542 Y99.465 E0.03106
G1 X81.198 Y98.853 E0.03119
M107
G1 X81.436 Y99.108 F3600000
M107
G1 F2400
G1 X81.565 Y98.987 E0.00615
G1 X82.193 Y98.677 E0.02436
G1 X82.648 Y98.544 E0.01648
G1 X83.061 Y98.469 E0.01459
G1 X91.927 Y98.468 E0.30828
G1 X92.992 Y98.748 E0.0383
G1 X93.468 Y99.023 E0.01913
G1 X94.008 Y99.468 E0.02431
G1 X94.332 Y99.868 E0.0179
G1 X94.663 Y100.438 E0.02293
G1 X94.84 Y100.964 E0.01928
G1 X94.937 Y101.533 E0.02008
G1 X94.948 Y118.37 E0.58546
G1 X94.618 Y119.674 E0.0468
G1 X94.205 Y120.294 E0.02589
G1 X93.435 Y121.013 E0.03664
G1 X92.807 Y121.323 E0.02436
G1 X92.346 Y121.458 E0.01668
G1 X91.897 Y121.535 E0.01584
G1 X83.227 Y121.548 E0.3015
G1 X81.954 Y121.229 E0.04561
G1 X81.282 Y120.786 E0.02801
G1 X80.578 Y120.02 E0.03617
G1 X80.274 Y119.398 E0.02409
G1 X80.128 Y118.885 E0.01854
G1 X80.054 Y118.348 E0.01884
G1 X80.052 Y101.63 E0.58133
G1 X80.382 Y100.326 E0.04679
G1 X80.795 Y99.706 E0.02589
M73 P9 R5
G1 X81.392 Y99.148 E0.02839
M107
G1 X81.628 Y99.397 F3600000
M107
G1 F2400
G1 X81.744 Y99.287 E0.00557
G1 X82.306 Y99.007 E0.02185
G1 X82.737 Y98.881 E0.01562
G1 X83.107 Y98.814 E0.01308
G1 X91.904 Y98.816 E0.30589
G1 X92.839 Y99.062 E0.0336
G1 X93.259 Y99.302 E0.01685
G1 X93.749 Y99.702 E0.02198
G1 X94.037 Y100.055 E0.01584
G1 X94.352 Y100.598 E0.02183
G1 X94.505 Y101.06 E0.01694
G1 X94.59 Y101.576 E0.01817
G1 X94.599 Y118.348 E0.58323
G1 X94.31 Y119.508 E0.04154
G1 X93.951 Y120.055 E0.02277
G1 X93.256 Y120.713 E0.03326
G1 X92.694 Y120.993 E0.02185
G1 X92.258 Y121.12 E0.01579
G1 X91.854 Y121.189 E0.01427
G1 X83.248 Y121.199 E0.29924
G1 X82.069 Y120.899 E0.04231
G1 X81.523 Y120.534 E0.02285
G1 X80.879 Y119.843 E0.03283
G1 X80.605 Y119.287 E0.02155
G1 X80.467 Y118.802 E0.01756
G1 X80.401 Y118.313 E0.01715
G1 X80.401 Y101.651 E0.57937
G1 X80.69 Y100.492 E0.04154
G1 X81.049 Y99.945 E0.02278
G1 X81.584 Y99.438 E0.02561
M107
G1 X81.822 Y99.685 F3600000
M107
G1 F2400
G1 X81.924 Y99.587 E0.00494
G1 X82.419 Y99.337 E0.01929
G1 X82.826 Y99.218 E0.01473
G1 X83.153 Y99.16 E0.01155
G1 X91.839 Y99.159 E0.30203
G1 X92.687 Y99.377 E0.03044
G1 X93.052 Y99.583 E0.01456
G1 X93.492 Y99.937 E0.01965
G1 X93.743 Y100.242 E0.01374
G1 X94.041 Y100.756 E0.02068
G1 X94.169 Y101.154 E0.01454
G1 X94.244 Y101.618 E0.01631
G1 X94.251 Y118.327 E0.58106
G1 X94.002 Y119.343 E0.03635
G1 X93.695 Y119.818 E0.01968
G1 X93.076 Y120.413 E0.02985
G1 X92.581 Y120.663 E0.01929
G1 X92.17 Y120.783 E0.01487
G1 X91.811 Y120.843 E0.01268
G1 X83.269 Y120.851 E0.29701
G1 X82.236 Y120.592 E0.03704
G1 X81.762 Y120.279 E0.01974
G1 X81.179 Y119.664 E0.02947
G1 X80.935 Y119.176 E0.01899
G1 X80.81 Y118.741 E0.01571
G1 X80.749 Y118.301 E0.01546
G1 X80.749 Y101.672 E0.57822
G1 X80.998 Y100.657 E0.03635
G1 X81.306 Y100.182 E0.01968
G1 X81.778 Y99.727 E0.02282
M107
G1 X82.018 Y99.971 F3600000
M107
G1 F2400
G1 X82.106 Y99.885 E0.00429
G1 X82.533 Y99.667 E0.01666
G1 X82.914 Y99.555 E0.01382
G1 X83.198 Y99.506 E0.01
G1 X91.817 Y99.508 E0.29972
M73 P10 R5
G1 X92.537 Y99.692 E0.02583
G1 X92.846 Y99.864 E0.0123
G1 X93.235 Y100.174 E0.01732
G1 X93.45 Y100.431 E0.01164
G1 X93.716 Y100.883 E0.01822
G1 X93.828 Y101.223 E0.01246
G1 X93.898 Y101.659 E0.01535
G1 X93.902 Y118.307 E0.57889
G1 X93.692 Y119.18 E0.03123
G1 X93.436 Y119.583 E0.0166
G1 X92.894 Y120.115 E0.02641
G1 X92.467 Y120.333 E0.01667
G1 X92.083 Y120.446 E0.01392
G1 X91.769 Y120.496 E0.01107
G1 X83.29 Y120.502 E0.29482
G1 X82.401 Y120.283 E0.03184
G1 X81.999 Y120.023 E0.01666
G1 X81.478 Y119.484 E0.02607
G1 X81.265 Y119.063 E0.01641
G1 X81.154 Y118.68 E0.01386
G1 X81.098 Y118.289 E0.01374
G1 X81.098 Y101.693 E0.57708
G1 X81.308 Y100.82 E0.03123
G1 X81.564 Y100.417 E0.0166
G1 X81.975 Y100.013 E0.02004
M107
G1 X82.218 Y100.255 F3600000
M107
G1 F2400
G1 X82.291 Y100.182 E0.0036
G1 X82.647 Y99.997 E0.01397
G1 X83.002 Y99.893 E0.01287
G1 X83.241 Y99.852 E0.00843
G1 X91.754 Y99.851 E0.29601
G1 X92.389 Y100.008 E0.02274
G1 X92.642 Y100.147 E0.01004
G1 X92.981 Y100.413 E0.01499
G1 X93.158 Y100.623 E0.00955
G1 X93.392 Y101.011 E0.01576
G1 X93.486 Y101.293 E0.01032
G1 X93.552 Y101.701 E0.01438
G1 X93.554 Y118.287 E0.57674
G1 X93.381 Y119.02 E0.0262
G1 X93.175 Y119.351 E0.01355
G1 X92.709 Y119.818 E0.02295
G1 X92.353 Y120.003 E0.01397
G1 X91.996 Y120.108 E0.01294
G1 X91.728 Y120.15 E0.00943
G1 X83.311 Y120.154 E0.29269
G1 X82.564 Y119.974 E0.02672
G1 X82.233 Y119.764 E0.0136
G1 X81.776 Y119.301 E0.02265
G1 X81.595 Y118.949 E0.01375
G1 X81.492 Y118.594 E0.01285
G1 X81.446 Y118.276 E0.01117
G1 X81.446 Y101.713 E0.57595
G1 X81.619 Y100.98 E0.0262
G1 X81.825 Y100.649 E0.01355
G1 X82.175 Y100.297 E0.01726
M107
G1 X82.42 Y100.536 F3600000
M107
G1 F2400
G1 X82.478 Y100.477 E0.00287
G1 X82.762 Y100.326 E0.01118
G1 X83.09 Y100.23 E0.01188
G1 X83.284 Y100.199 E0.00682
G1 X91.733 Y100.2 E0.29381
G1 X92.243 Y100.325 E0.01826
G1 X92.44 Y100.432 E0.0078
G1 X92.728 Y100.654 E0.01266
G1 X92.869 Y100.817 E0.00747
G1 X93.068 Y101.143 E0.01329
G1 X93.144 Y101.363 E0.0081
G1 X93.205 Y101.743 E0.01337
G1 X93.205 Y118.267 E0.57461
M73 P11 R5
G1 X93.069 Y118.863 E0.02127
G1 X92.912 Y119.122 E0.01052
G1 X92.522 Y119.523 E0.01945
G1 X92.238 Y119.674 E0.01118
G1 X91.909 Y119.77 E0.01192
G1 X91.689 Y119.804 E0.00775
G1 X83.331 Y119.805 E0.29063
G1 X82.723 Y119.663 E0.02171
G1 X82.464 Y119.503 E0.01057
G1 X82.072 Y119.115 E0.01919
G1 X81.925 Y118.835 E0.011
G1 X81.83 Y118.508 E0.01182
G1 X81.795 Y118.264 E0.00859
G1 X81.795 Y101.733 E0.57483
G1 X81.931 Y101.136 E0.02127
G1 X82.088 Y100.878 E0.01052
G1 X82.379 Y100.579 E0.01449
M107
G1 X82.627 Y100.814 F3600000
M107
G1 F2400
G1 X82.669 Y100.769 E0.00212
G1 X82.878 Y100.655 E0.00826
G1 X83.177 Y100.568 E0.01083
G1 X83.324 Y100.545 E0.00517
G1 X91.673 Y100.544 E0.29033
G1 X92.1 Y100.644 E0.01525
G1 X92.241 Y100.718 E0.00556
G1 X92.479 Y100.897 E0.01033
G1 X92.581 Y101.014 E0.00539
G1 X92.746 Y101.278 E0.01084
G1 X92.803 Y101.436 E0.00584
G1 X92.857 Y101.757 E0.01133
G1 X92.857 Y118.248 E0.57344
G1 X92.754 Y118.711 E0.01647
G1 X92.645 Y118.897 E0.00753
G1 X92.331 Y119.231 E0.01593
G1 X92.122 Y119.345 E0.00826
G1 X91.823 Y119.432 E0.01083
G1 X91.652 Y119.457 E0.00603
G1 X83.35 Y119.457 E0.28866
G1 X82.878 Y119.349 E0.01684
G1 X82.692 Y119.238 E0.00756
G1 X82.366 Y118.925 E0.01571
G1 X82.254 Y118.719 E0.00813
G1 X82.168 Y118.423 E0.01074
G1 X82.143 Y118.251 E0.00601
G1 X82.143 Y101.752 E0.57374
G1 X82.246 Y101.289 E0.01647
G1 X82.355 Y101.102 E0.00753
G1 X82.586 Y100.857 E0.01171
M107
G1 X82.84 Y101.088 F3600000
M107
G1 F2400
G1 X82.867 Y101.058 E0.0014
G1 X82.995 Y100.984 E0.00517
G1 X83.263 Y100.906 E0.00968
G1 X83.361 Y100.892 E0.00345
G1 X91.653 Y100.892 E0.28834
G1 X91.961 Y100.964 E0.011
G1 X92.046 Y101.008 E0.00333
G1 X92.232 Y101.144 E0.00803
G1 X92.296 Y101.215 E0.00329
