; generated by SuperSlicer 2.5.59.9 on 2024-05-10 at 11:40:22 UTC


;
;

;
;

;
;

;
;

;
;
; 

; external perimeters extrusion width = 0.40mm
; perimeters extrusion width = 0.40mm
; infill extrusion width = 0.40mm
; solid infill extrusion width = 0.40mm
; top infill extrusion width = 0.40mm

; external perimeters extrusion width = 0.40mm
; perimeters extrusion width = 0.40mm
; infill extrusion width = 0.40mm
; solid infill extrusion width = 0.40mm
; top infill extrusion width = 0.40mm

; external perimeters extrusion width = 0.40mm
; perimeters extrusion width = 0.40mm
; infill extrusion width = 0.40mm
; solid infill extrusion width = 0.40mm
; top infill extrusion width = 0.40mm

; external perimeters extrusion width = 0.40mm
; perimeters extrusion width = 0.40mm
; infill extrusion width = 0.40mm
; solid infill extrusion width = 0.40mm
; top infill extrusion width = 0.40mm

; object:{"name":"belt_grabber","id":"belt_grabber.stl id:0 copy 0","object_center":[72.110554,107.272529,0.000000],"boundingbox_center":[72.110554,107.272529,2.786388],"boundingbox_size":[30.199998,7.000000,5.572777]}
EXCLUDE_OBJECT_DEFINE NAME=belt_grabber_stl_id_0_copy_0 CENTER=72.110554,107.272529 POLYGON=[[57.01,105.69],[57.02,105.57],[57.04,105.46],[57.07,105.36],[57.11,105.25],[57.16,105.15],[57.23,105.06],[57.30,104.98],[58.22,104.07],[58.30,103.99],[58.39,103.93],[58.49,103.87],[58.59,103.83],[58.70,103.80],[58.81,103.78],[58.92,103.77],[85.30,103.77],[85.41,103.78],[85.52,103.80],[85.63,103.83],[85.73,103.87],[85.83,103.93],[85.92,103.99],[86.00,104.07],[86.92,104.98],[86.99,105.06],[87.06,105.15],[87.11,105.25],[87.15,105.36],[87.19,105.46],[87.20,105.57],[87.21,105.69],[87.21,108.86],[87.20,108.97],[87.19,109.08],[87.15,109.19],[87.11,109.29],[87.06,109.39],[86.99,109.48],[86.92,109.57],[86.00,110.48],[85.92,110.55],[85.83,110.62],[85.73,110.67],[85.63,110.72],[85.52,110.75],[85.41,110.77],[85.30,110.77],[58.92,110.77],[58.81,110.77],[58.70,110.75],[58.59,110.72],[58.49,110.67],[58.39,110.62],[58.30,110.55],[58.22,110.48],[57.30,109.57],[57.23,109.48],[57.16,109.39],[57.11,109.29],[57.07,109.19],[57.04,109.08],[57.02,108.97],[57.01,108.86],[57.01,105.69]]
; object:{"name":"belt_grabber","id":"belt_grabber.stl id:1 copy 0","object_center":[72.882886,116.410841,0.000000],"boundingbox_center":[72.882886,116.410841,2.786388],"boundingbox_size":[30.199998,7.000000,5.572777]}
EXCLUDE_OBJECT_DEFINE NAME=belt_grabber_stl_id_1_copy_0 CENTER=72.882886,116.410841 POLYGON=[[57.78,114.83],[57.79,114.71],[57.81,114.60],[57.84,114.49],[57.88,114.39],[57.94,114.29],[58.00,114.20],[58.08,114.12],[58.99,113.20],[59.07,113.13],[59.17,113.06],[59.26,113.01],[59.37,112.97],[59.47,112.94],[59.59,112.92],[59.70,112.91],[86.07,112.91],[86.18,112.92],[86.29,112.94],[86.40,112.97],[86.50,113.01],[86.60,113.06],[86.69,113.13],[86.78,113.20],[87.69,114.12],[87.76,114.20],[87.83,114.29],[87.88,114.39],[87.93,114.49],[87.96,114.60],[87.98,114.71],[87.98,114.83],[87.98,118.00],[87.98,118.11],[87.96,118.22],[87.93,118.33],[87.88,118.43],[87.83,118.53],[87.76,118.62],[87.69,118.70],[86.78,119.62],[86.69,119.69],[86.60,119.76],[86.50,119.81],[86.40,119.85],[86.29,119.89],[86.18,119.90],[86.07,119.91],[59.70,119.91],[59.59,119.90],[59.47,119.89],[59.37,119.85],[59.26,119.81],[59.17,119.76],[59.07,119.69],[58.99,119.62],[58.08,118.70],[58.00,118.62],[57.94,118.53],[57.88,118.43],[57.84,118.33],[57.81,118.22],[57.79,118.11],[57.78,118.00],[57.78,114.83]]
; object:{"name":"belt_grabber","id":"belt_grabber.stl id:2 copy 0","object_center":[105.032119,107.642140,0.000000],"boundingbox_center":[105.032119,107.642140,2.786388],"boundingbox_size":[30.199998,7.000000,5.572777]}
EXCLUDE_OBJECT_DEFINE NAME=belt_grabber_stl_id_2_copy_0 CENTER=105.032119,107.642140 POLYGON=[[89.93,106.06],[89.94,105.94],[89.96,105.83],[89.99,105.73],[90.03,105.62],[90.09,105.52],[90.15,105.43],[90.23,105.35],[91.14,104.44],[91.22,104.36],[91.31,104.30],[91.41,104.24],[91.52,104.20],[91.62,104.17],[91.73,104.15],[91.85,104.14],[118.22,104.14],[118.33,104.15],[118.44,104.17],[118.55,104.20],[118.65,104.24],[118.75,104.30],[118.84,104.36],[118.93,104.44],[119.84,105.35],[119.91,105.43],[119.98,105.52],[120.03,105.62],[120.08,105.73],[120.11,105.83],[120.13,105.94],[120.13,106.06],[120.13,109.23],[120.13,109.34],[120.11,109.45],[120.08,109.56],[120.03,109.66],[119.98,109.76],[119.91,109.85],[119.84,109.94],[118.93,110.85],[118.84,110.92],[118.75,110.99],[118.65,111.04],[118.55,111.09],[118.44,111.12],[118.33,111.14],[118.22,111.14],[91.85,111.14],[91.73,111.14],[91.62,111.12],[91.52,111.09],[91.41,111.04],[91.31,110.99],[91.22,110.92],[91.14,110.85],[90.23,109.94],[90.15,109.85],[90.09,109.76],[90.03,109.66],[89.99,109.56],[89.96,109.45],[89.94,109.34],[89.93,109.23],[89.93,106.06]]
; object:{"name":"belt_grabber","id":"belt_grabber.stl id:3 copy 0","object_center":[105.600000,116.500000,0.000000],"boundingbox_center":[105.600000,116.500000,2.786388],"boundingbox_size":[30.199998,7.000000,5.572777]}
EXCLUDE_OBJECT_DEFINE NAME=belt_grabber_stl_id_3_copy_0 CENTER=105.600000,116.500000 POLYGON=[[90.50,114.91],[90.51,114.80],[90.53,114.69],[90.56,114.58],[90.60,114.48],[90.65,114.38],[90.72,114.29],[90.79,114.21],[91.71,113.29],[91.79,113.22],[91.88,113.15],[91.98,113.10],[92.08,113.06],[92.19,113.03],[92.30,113.01],[92.41,113.00],[118.79,113.00],[118.90,113.01],[119.01,113.03],[119.12,113.06],[119.22,113.10],[119.32,113.15],[119.41,113.22],[119.49,113.29],[120.41,114.21],[120.48,114.29],[120.55,114.38],[120.60,114.48],[120.64,114.58],[120.67,114.69],[120.69,114.80],[120.70,114.91],[120.70,118.09],[120.69,118.20],[120.67,118.31],[120.64,118.42],[120.60,118.52],[120.55,118.62],[120.48,118.71],[120.41,118.79],[119.49,119.71],[119.41,119.78],[119.32,119.85],[119.22,119.90],[119.12,119.94],[119.01,119.97],[118.90,119.99],[118.79,120.00],[92.41,120.00],[92.30,119.99],[92.19,119.97],[92.08,119.94],[91.98,119.90],[91.88,119.85],[91.79,119.78],[91.71,119.71],[90.79,118.79],[90.72,118.71],[90.65,118.62],[90.60,118.52],[90.56,118.42],[90.53,118.31],[90.51,118.20],[90.50,118.09],[90.50,114.91]]
; plater:{"center":[88.855277,111.886265,0.000000],"boundingbox_center":[88.855277,111.886265,2.786388],"boundingbox_size":[63.689444,16.227471,5.572777]}

M73 P0 R19
M107
;TYPE:Custom
CALCULATE_PA MATERIAL=ASA BOWDEN_LENGTH=6 LAYER_HEIGHT=0.25 NOZZLE_SIZE=0.4 PRINT_SPEED=95


START_PRINT EXTRUDER=260 BED=105

G21 ; set units to millimeters
G90 ; use absolute coordinates
M83 ; use relative distances for extrusion
ACTIVATE_EXTRUDER EXTRUDER=extruder
; Filament gcode
M104 S260 T0 ; set temperature
M109 S260 T0 ; set temperature and wait for it to be reached
M190 S105 ; set bed temperature and wait for it to be reached
;LAYER_CHANGE
;Z:0.24
;HEIGHT:0.24
;BEFORE_LAYER_CHANGE
G92 E0.0

G1 E-0.4 F3000
M73 P1 R18
G1 Z0.16 F3600000
G1 Z0.24
;AFTER_LAYER_CHANGE
;0.24




CALCULATE_PA MATERIAL=ASA BOWDEN_LENGTH=6.0 LAYER_HEIGHT=0.2 NOZZLE_SIZE=0.4 PRINT_SPEED=95


G92 E0
G1 Z0.4
G1 X57.27048 Y101.7802
G1 Z0.24
G1 E0.4 F3000
;TYPE:Skirt
;WIDTH:0.4
;HEIGHT:0.25
M107
G1 X58.14853 Y101.445 E0.03383
G1 X58.68959 Y101.36603 E0.01968
G1 X85.59569 Y101.36898 E0.96859
G1 X86.4649 Y101.55934 E0.03203
G1 X87.23528 Y101.95579 E0.03119
G1 X88.68251 Y103.32353 E0.07168
G1 X88.75105 Y103.41121 E0.00401
G1 X89.49945 Y102.65534 E0.03829
G1 X90.19206 Y102.1498 E0.03087
G1 X91.07009 Y101.81461 E0.03383
G1 X91.61116 Y101.73564 E0.01968
G1 X118.51789 Y101.73859 E0.96861
G1 X119.47644 Y101.96256 E0.03544
G1 X120.23631 Y102.38292 E0.03126
G1 X121.62396 Y103.71561 E0.06926
G1 X122.0484 Y104.28611 E0.0256
G1 X122.2595 Y104.67453 E0.01591
G1 X122.48456 Y105.38842 E0.02695
G1 X122.54867 Y105.96014 E0.02071
G1 X122.54976 Y109.3162 E0.12081
G1 X122.467 Y109.96745 E0.02363
G1 X122.32132 Y110.45376 E0.01828
G1 X122.08357 Y110.95303 E0.01991
G1 X121.70761 Y111.47209 E0.02307
G1 X121.38857 Y111.79612 E0.01637
G1 X122.19575 Y112.57786 E0.04045
G1 X122.6359 Y113.17474 E0.0267
G1 X122.88088 Y113.66294 E0.01966
G1 X123.05387 Y114.25463 E0.02219
G1 X123.11764 Y114.83931 E0.02117
G1 X123.11335 Y118.24045 E0.12244
G1 X123.03539 Y118.82219 E0.02113
G1 X122.88969 Y119.31072 E0.01835
G1 X122.66704 Y119.78427 E0.01884
G1 X122.27594 Y120.32945 E0.02415
G1 X121.05983 Y121.54867 E0.06199
G1 X120.30491 Y122.0631 E0.03289
G1 X119.55706 Y122.32898 E0.02857
G1 X119.02559 Y122.40627 E0.01933
G1 X113.34695 Y122.41839 E0.20442
G1 X112.84712 Y122.32749 E0.01829
G1 X112.38551 Y122.13944 E0.01794
G1 X112.04237 Y121.91913 E0.01468
G1 X111.78159 Y121.66691 E0.01306
G1 X109.41542 Y121.66691 E0.08518
G1 X109.15051 Y121.92467 E0.01331
G1 X108.81112 Y122.1407 E0.01448
G1 X108.41523 Y122.30754 E0.01547
G1 X108.02887 Y122.4001 E0.0143
G1 X103.34415 Y122.41777 E0.16865
G1 X102.84293 Y122.32595 E0.01834
G1 X102.38212 Y122.13738 E0.01792
G1 X102.03983 Y121.91699 E0.01466
G1 X101.78163 Y121.66691 E0.01294
G1 X99.41836 Y121.66691 E0.08507
G1 X99.16016 Y121.91699 E0.01294
G1 X98.81931 Y122.13657 E0.0146
M73 P2 R18
G1 X98.3783 Y122.3193 E0.01718
G1 X97.94204 Y122.41 E0.01604
G1 X92.28711 Y122.41693 E0.20357
G1 X91.47229 Y122.28253 E0.02973
G1 X91.0514 Y122.13463 E0.01606
G1 X90.56941 Y121.87759 E0.01966
G1 X90.04918 Y121.46859 E0.02382
G1 X89.20201 Y120.60335 E0.04359
G1 X88.41555 Y121.39765 E0.04024
G1 X87.72298 Y121.90315 E0.03087
G1 X86.84709 Y122.23771 E0.03375
G1 X86.33145 Y122.31565 E0.01877
G1 X80.62997 Y122.32924 E0.20525
G1 X80.13002 Y122.23833 E0.01829
G1 X79.66839 Y122.05028 E0.01794
G1 X79.32526 Y121.82997 E0.01468
G1 X79.06448 Y121.57775 E0.01306
G1 X76.6983 Y121.57775 E0.08518
G1 X76.4334 Y121.83551 E0.01331
G1 X76.09401 Y122.05154 E0.01448
G1 X75.69812 Y122.21838 E0.01547
G1 X75.31175 Y122.31094 E0.0143
G1 X70.62703 Y122.32861 E0.16865
G1 X70.12582 Y122.2368 E0.01834
G1 X69.665 Y122.04822 E0.01792
G1 X69.32272 Y121.82783 E0.01466
G1 X69.06452 Y121.57775 E0.01294
G1 X66.70125 Y121.57775 E0.08507
G1 X66.44305 Y121.82783 E0.01294
G1 X66.1022 Y122.04742 E0.0146
G1 X65.66116 Y122.23015 E0.01719
G1 X65.22458 Y122.32087 E0.01605
G1 X59.54106 Y122.32542 E0.2046
G1 X58.78503 Y122.20079 E0.02758
G1 X58.33465 Y122.04574 E0.01715
G1 X57.82451 Y121.7703 E0.02087
G1 X57.32852 Y121.37606 E0.02281
G1 X56.01358 Y120.00242 E0.06845
G1 X55.63606 Y119.33263 E0.02768
G1 X55.41184 Y118.562 E0.02889
G1 X55.36959 Y114.66955 E0.14013
G1 X55.51662 Y113.81601 E0.03118
G1 X55.80627 Y113.14367 E0.02635
G1 X56.20546 Y112.58322 E0.02477
G1 X56.55048 Y112.23176 E0.01773
G1 X55.29538 Y110.93555 E0.06495
G1 X54.88114 Y110.23468 E0.02931
G1 X54.64691 Y109.47219 E0.02871
G1 X54.592 Y105.5959 E0.13956
G1 X54.75769 Y104.63334 E0.03516
G1 X55.0709 Y103.94145 E0.02734
G1 X55.4324 Y103.44575 E0.02209
G1 X56.57736 Y102.2862 E0.05866
G1 X57.22202 Y101.81557 E0.02873
M107
G1 X57.42539 Y102.09573 F3600000
M107
G1 F3000
G1 X57.455 Y102.07423 E0.00132
G1 X58.25223 Y101.77599 E0.03064
G1 X58.70174 Y101.71238 E0.01634
G1 X85.57657 Y101.71533 E0.96746
G1 X86.36705 Y101.89236 E0.02916
G1 X87.0533 Y102.25147 E0.02788
G1 X88.43317 Y103.56436 E0.06857
G1 X88.71416 Y103.94073 E0.01691
G1 X89.73566 Y102.90903 E0.05226
G1 X90.37656 Y102.44384 E0.02851
G1 X91.1738 Y102.1456 E0.03064
G1 X91.62331 Y102.08199 E0.01634
G1 X118.49813 Y102.08494 E0.96746
G1 X119.33153 Y102.27801 E0.0308
G1 X120.01335 Y102.64896 E0.02794
G1 X121.35473 Y103.93397 E0.06687
G1 X121.76298 Y104.4827 E0.02462
G1 X121.94678 Y104.82429 E0.01396
G1 X122.14233 Y105.44421 E0.0234
G1 X122.20232 Y105.97006 E0.01905
G1 X122.2034 Y109.30515 E0.12006
G1 X122.12532 Y109.90902 E0.02192
G1 X122.00292 Y110.31681 E0.01533
G1 X121.77784 Y110.78948 E0.01885
G1 X121.43576 Y111.25708 E0.02086
G1 X120.89569 Y111.80093 E0.02759
G1 X121.94426 Y112.81645 E0.05255
G1 X122.34794 Y113.36773 E0.0246
G1 X122.55324 Y113.77629 E0.01646
G1 X122.71133 Y114.30818 E0.01998
G1 X122.77129 Y114.84866 E0.01958
G1 X122.76847 Y118.20674 E0.12089
G1 X122.69928 Y118.73752 E0.01927
G1 X122.5706 Y119.17539 E0.01643
G1 X122.36039 Y119.62248 E0.01778
G1 X122.02059 Y120.09504 E0.02095
G1 X120.84983 Y121.27279 E0.05978
G1 X120.16739 Y121.74441 E0.02986
G1 X119.45741 Y121.99682 E0.02713
G1 X119.01281 Y122.05995 E0.01617
G1 X113.36251 Y122.072 E0.20341
G1 X112.9289 Y121.99045 E0.01588
G1 X112.53327 Y121.82579 E0.01543
G1 X112.24611 Y121.63851 E0.01234
G1 X111.92361 Y121.32056 E0.0163
G1 X109.27472 Y121.32056 E0.09536
G1 X108.92232 Y121.66346 E0.0177
G1 X108.63971 Y121.83942 E0.01198
G1 X108.31755 Y121.97499 E0.01258
G1 X108.00637 Y122.05383 E0.01156
G1 X103.35941 Y122.07136 E0.16729
G1 X102.92522 Y121.98904 E0.01591
G1 X102.53036 Y121.82396 E0.01541
G1 X102.2439 Y121.63661 E0.01232
G1 X101.92381 Y121.32056 E0.01619
G1 X99.27619 Y121.32056 E0.09531
G1 X98.95609 Y121.63661 E0.01619
G1 X98.67036 Y121.8235 E0.01229
G1 X98.28914 Y121.98424 E0.01489
G1 X97.9232 Y122.06368 E0.01348
G1 X92.30094 Y122.07057 E0.2024
G1 X91.57164 Y121.95041 E0.02661
G1 X91.20239 Y121.82263 E0.01407
G1 X90.74603 Y121.57925 E0.01862
G1 X90.28892 Y121.21838 E0.02097
G1 X89.20339 Y120.10969 E0.05586
G1 X88.17934 Y121.14395 E0.0524
G1 X87.53847 Y121.60912 E0.02851
G1 X86.7429 Y121.90689 E0.03058
G1 X86.31818 Y121.96933 E0.01545
G1 X80.64546 Y121.98285 E0.20421
G1 X80.21179 Y121.90129 E0.01589
G1 X79.81616 Y121.73663 E0.01543
G1 X79.529 Y121.54935 E0.01234
G1 X79.2065 Y121.2314 E0.0163
G1 X76.5576 Y121.2314 E0.09536
G1 X76.20521 Y121.5743 E0.0177
G1 X75.9226 Y121.75026 E0.01198
G1 X75.60044 Y121.88583 E0.01258
G1 X75.28926 Y121.96467 E0.01156
G1 X70.64229 Y121.9822 E0.16729
G1 X70.2081 Y121.89988 E0.01591
G1 X69.81324 Y121.7348 E0.01541
G1 X69.52679 Y121.54745 E0.01232
G1 X69.20669 Y121.2314 E0.01619
G1 X66.55908 Y121.2314 E0.09531
G1 X66.23898 Y121.54745 E0.01619
G1 X65.95325 Y121.73434 E0.01229
G1 X65.57202 Y121.89509 E0.01489
G1 X65.20586 Y121.97454 E0.01349
G1 X59.55501 Y121.97906 E0.20342
G1 X58.8827 Y121.8682 E0.02453
G1 X58.48634 Y121.73403 E0.01506
G1 X58.00267 Y121.47289 E0.01979
G1 X57.57019 Y121.1277 E0.01992
G1 X56.30367 Y119.81199 E0.06574
G1 X55.96211 Y119.21416 E0.02479
G1 X55.75791 Y118.53389 E0.02557
G1 X55.71609 Y114.6818 E0.13868
G1 X55.85414 Y113.89643 E0.02871
G1 X56.11608 Y113.2996 E0.02346
G1 X56.47854 Y112.79669 E0.02232
G1 X57.06557 Y112.20379 E0.03004
G1 X56.79839 Y111.98989 E0.01232
G1 X55.58304 Y110.74154 E0.06272
G1 X55.18999 Y110.07652 E0.02781
G1 X54.98559 Y109.39579 E0.02559
G1 X54.93852 Y105.60771 E0.13638
G1 X55.09503 Y104.71487 E0.03263
G1 X55.36152 Y104.13066 E0.02312
G1 X55.68812 Y103.67972 E0.02004
G1 X56.81384 Y102.53965 E0.05768
G1 X57.37683 Y102.13098 E0.02504
M107
G1 X57.57927 Y102.41164 F3600000
M107
G1 F3000
G1 X57.6383 Y102.36907 E0.00262
G1 X58.35359 Y102.1077 E0.02741
G1 X58.71343 Y102.05873 E0.01307
G1 X85.55697 Y102.06168 E0.96634
G1 X86.26721 Y102.22479 E0.02623
G1 X86.86936 Y102.5459 E0.02457
G1 X88.18288 Y103.80422 E0.06548
G1 X88.5552 Y104.30855 E0.02257
G1 X88.67972 Y104.54181 E0.00952
G1 X88.88323 Y104.26223 E0.01245
G1 X89.97169 Y103.1629 E0.05569
G1 X90.55986 Y102.73868 E0.02611
G1 X91.27516 Y102.47731 E0.02741
G1 X91.63499 Y102.42834 E0.01307
G1 X118.47854 Y102.43129 E0.96634
G1 X119.18877 Y102.5944 E0.02623
G1 X119.79092 Y102.91551 E0.02457
G1 X121.10444 Y104.17383 E0.06548
G1 X121.47677 Y104.67816 E0.02257
G1 X121.63355 Y104.97294 E0.01202
G1 X121.8002 Y105.50059 E0.01992
G1 X121.85598 Y105.98017 E0.01738
G1 X121.85705 Y109.29388 E0.11929
G1 X121.78377 Y109.84989 E0.02019
G1 X121.68397 Y110.1812 E0.01246
G1 X121.48793 Y110.59927 E0.01662
G1 X121.18061 Y111.02249 E0.01883
G1 X120.4028 Y111.80573 E0.03974
G1 X121.69253 Y113.05481 E0.06463
G1 X122.05948 Y113.55994 E0.02248
G1 X122.22609 Y113.89096 E0.01334
G1 X122.36894 Y114.36269 E0.01774
G1 X122.42493 Y114.85829 E0.01795
G1 X122.42349 Y118.17408 E0.11936
G1 X122.36279 Y118.65438 E0.01743
G1 X122.25132 Y119.04045 E0.01447
G1 X122.05379 Y119.46058 E0.01671
G1 X121.76505 Y119.86086 E0.01777
G1 X120.63815 Y120.99822 E0.05764
G1 X120.02924 Y121.42593 E0.02679
G1 X119.35814 Y121.66452 E0.02564
G1 X119.00044 Y121.71362 E0.013
