; generated by SuperSlicer 2.5.59.8 on 2024-04-01 at 12:32:32 UTC


;
;

;
;

;
;

;
;

;
;
; 

; external perimeters extrusion width = 0.40mm
; perimeters extrusion width = 0.40mm
; infill extrusion width = 0.40mm
; solid infill extrusion width = 0.40mm
; top infill extrusion width = 0.40mm

; object:{"name":"bl_touch_mount_alt","id":"bl_touch_mount_alt.stl id:0 copy 0","object_center":[78.327791,154.167620,0.000000],"boundingbox_center":[78.327791,154.167620,10.125000],"boundingbox_size":[19.231880,26.000000,20.250000]}
EXCLUDE_OBJECT_DEFINE NAME=bl_touch_mount_alt_stl_id_0_copy_0 CENTER=78.327791,154.167620 POLYGON=[[68.71,150.17],[79.76,141.99],[80.12,141.75],[80.50,141.54],[80.91,141.38],[81.33,141.26],[81.76,141.19],[82.19,141.17],[82.63,141.19],[83.06,141.26],[83.48,141.38],[83.88,141.54],[84.27,141.75],[84.63,141.99],[84.96,142.28],[85.26,142.60],[85.52,142.94],[85.74,143.32],[85.92,143.72],[86.06,144.13],[87.94,151.17],[87.94,157.17],[86.06,164.20],[85.92,164.62],[85.74,165.02],[85.52,165.39],[85.26,165.74],[84.96,166.06],[84.63,166.34],[84.27,166.59],[83.88,166.79],[83.48,166.96],[83.06,167.07],[82.63,167.14],[82.19,167.17],[81.76,167.14],[81.33,167.07],[80.91,166.96],[80.50,166.79],[80.12,166.59],[79.76,166.34],[68.71,158.17],[68.71,150.17]]
; plater:{"center":[78.327791,154.167620,0.000000],"boundingbox_center":[78.327791,154.167620,10.125000],"boundingbox_size":[19.231880,26.000000,20.250000]}

M73 P0 R17
M107
;TYPE:Custom
CALCULATE_PA MATERIAL=ABS BOWDEN_LENGTH=6 LAYER_HEIGHT=0.24 NOZZLE_SIZE=0.4 PRINT_SPEED=60


START_PRINT EXTRUDER=270 BED=100

M107
G21 ; set units to millimeters
G90 ; use absolute coordinates
M83 ; use relative distances for extrusion
ACTIVATE_EXTRUDER EXTRUDER=extruder
; Filament gcode
M104 S270 T0 ; set temperature
M109 S270 T0 ; set temperature and wait for it to be reached
M190 S100 ; set bed temperature and wait for it to be reached
;LAYER_CHANGE
;Z:0.24
;HEIGHT:0.24
;BEFORE_LAYER_CHANGE
G92 E0.0

G1 E-1.5 F3000
M73 P1 R17
G1 Z0.2 F3600000
G1 Z0.24
;AFTER_LAYER_CHANGE
;0.24




CALCULATE_PA MATERIAL=ABS BOWDEN_LENGTH=6.0 LAYER_HEIGHT=0.2 NOZZLE_SIZE=0.4 PRINT_SPEED=60


G92 E0
G1 Z0.44
G1 X75.178 Y133.419
G1 Z0.24
G1 E1.5 F3000
;TYPE:Skirt
;WIDTH:0.4
M107
M73 P2 R17
G1 F1200
G1 X76.446 Y132.749 E0.04987
G1 X77.977 Y132.149 E0.05718
G1 X79.322 Y131.789 E0.04841
G1 X80.758 Y131.559 E0.05058
G1 X82.549 Y131.487 E0.06233
G1 X83.694 Y131.566 E0.0399
G1 X84.813 Y131.736 E0.03936
G1 X86.376 Y132.139 E0.05613
G1 X87.957 Y132.757 E0.05903
G1 X89.444 Y133.562 E0.05879
G1 X90.586 Y134.36 E0.04844
G1 X91.84 Y135.462 E0.05806
G1 X92.908 Y136.654 E0.05565
G1 X93.631 Y137.656 E0.04297
G1 X94.256 Y138.706 E0.04247
G1 X94.888 Y140.058 E0.05188
G1 X95.373 Y141.482 E0.05232
G1 X97.458 Y149.267 E0.28026
G1 X97.63 Y157.417 E0.28347
G1 X97.384 Y159.35 E0.06774
G1 X95.335 Y166.977 E0.27463
G1 X94.863 Y168.34 E0.05014
M73 P2 R16
G1 X94.258 Y169.625 E0.04941
G1 X93.513 Y170.855 E0.05
G1 X92.644 Y172.002 E0.05001
G1 X91.56 Y173.144 E0.05476
G1 X90.368 Y174.141 E0.05404
G1 X89.082 Y174.991 E0.05361
G1 X87.79 Y175.655 E0.05049
G1 X86.565 Y176.134 E0.04575
G1 X85.316 Y176.49 E0.04515
G1 X83.673 Y176.771 E0.05798
G1 X82 Y176.85 E0.05823
G1 X80.471 Y176.743 E0.0533
G1 X78.983 Y176.47 E0.05262
G1 X77.667 Y176.081 E0.0477
G1 X76.4 Y175.564 E0.0476
G1 X75.046 Y174.836 E0.05345
G1 X73.9 Y174.052 E0.04829
G1 X72.844 Y173.159 E0.0481
G1 X71.852 Y172.129 E0.04971
G1 X70.99 Y171.025 E0.04869
G1 X70.105 Y169.579 E0.05896
G1 X69.447 Y168.143 E0.05493
G1 X69.333 Y167.804 E0.01245
G1 X67.609 Y167.775 E0.05994
G1 X65.629 Y167.283 E0.07095
G1 X63.842 Y166.408 E0.06921
G1 X62.597 Y165.463 E0.05433
G1 X61.518 Y164.351 E0.05391
G1 X60.629 Y163.075 E0.05405
G1 X59.945 Y161.652 E0.05491
G1 X59.403 Y159.303 E0.08385
G1 X59.358 Y149.481 E0.34151
G1 X59.753 Y147.275 E0.07794
G1 X60.655 Y145.209 E0.07839
G1 X61.448 Y144.071 E0.04823
G1 X62.398 Y143.052 E0.04846
G1 X63.721 Y142.003 E0.0587
G1 X65.642 Y141.047 E0.07463
G1 X67.613 Y140.562 E0.07058
G1 X69.337 Y140.522 E0.05996
G1 X69.455 Y140.171 E0.01287
G1 X70.132 Y138.705 E0.05615
G1 X70.912 Y137.424 E0.05215
G1 X71.822 Y136.242 E0.05187
G1 X72.876 Y135.146 E0.05286
G1 X73.983 Y134.221 E0.05017
G1 X75.128 Y133.453 E0.04796
M107
G1 X75.322 Y133.741 F3600000
M107
G1 F1200
G1 X75.349 Y133.723 E0.00113
G1 X76.582 Y133.07 E0.04853
G1 X78.095 Y132.477 E0.0565
G1 X79.403 Y132.127 E0.04708
G1 X80.783 Y131.907 E0.04858
G1 X82.535 Y131.836 E0.06098
G1 X83.649 Y131.912 E0.03883
G1 X84.752 Y132.079 E0.0388
G1 X86.279 Y132.473 E0.05483
G1 X87.801 Y133.069 E0.05683
G1 X89.253 Y133.853 E0.05738
G1 X90.363 Y134.629 E0.04709
G1 X91.588 Y135.703 E0.05664
G1 X92.631 Y136.866 E0.05433
G1 X93.336 Y137.841 E0.04184
G1 X93.952 Y138.877 E0.0419
G1 X94.568 Y140.196 E0.05064
G1 X95.037 Y141.578 E0.05073
G1 X97.116 Y149.337 E0.27932
G1 X97.282 Y157.412 E0.28084
G1 X97.045 Y159.271 E0.06517
G1 X95.004 Y166.869 E0.27358
G1 X94.543 Y168.2 E0.04897
G1 X93.955 Y169.453 E0.04813
G1 X93.23 Y170.652 E0.04873
G1 X92.372 Y171.783 E0.04936
G1 X91.314 Y172.896 E0.05341
G1 X90.152 Y173.868 E0.05266
G1 X88.898 Y174.695 E0.05225
G1 X87.639 Y175.341 E0.0492
G1 X86.461 Y175.802 E0.04398
G1 X85.248 Y176.148 E0.04387
G1 X83.624 Y176.426 E0.05728
G1 X81.994 Y176.502 E0.05675
G1 X80.505 Y176.396 E0.05189
G1 X79.073 Y176.133 E0.05066
G1 X77.791 Y175.755 E0.04647
G1 X76.54 Y175.245 E0.04697
G1 X75.235 Y174.543 E0.05152
M73 P3 R16
G1 X74.118 Y173.78 E0.04704
G1 X73.076 Y172.898 E0.04748
G1 X72.121 Y171.907 E0.04785
G1 X71.282 Y170.835 E0.04734
G1 X70.408 Y169.406 E0.05824
G1 X69.768 Y168.007 E0.05351
G1 X69.585 Y167.459 E0.02008
G1 X67.674 Y167.432 E0.06649
G1 X65.765 Y166.961 E0.06834
G1 X64.038 Y166.12 E0.0668
G1 X62.838 Y165.211 E0.05235
G1 X61.778 Y164.118 E0.05296
G1 X60.923 Y162.888 E0.05208
G1 X60.268 Y161.519 E0.05278
G1 X59.747 Y159.244 E0.08117
G1 X59.706 Y149.496 E0.33896
G1 X60.092 Y147.357 E0.07557
G1 X60.951 Y145.395 E0.07449
G1 X61.727 Y144.281 E0.0472
G1 X62.644 Y143.299 E0.04671
G1 X63.923 Y142.288 E0.0567
G1 X65.745 Y141.381 E0.07076
G1 X67.678 Y140.905 E0.06925
G1 X69.59 Y140.865 E0.06649
G1 X69.776 Y140.308 E0.02041
G1 X70.435 Y138.877 E0.05478
G1 X71.194 Y137.629 E0.05081
G1 X72.092 Y136.462 E0.0512
G1 X73.107 Y135.408 E0.05088
G1 X74.185 Y134.505 E0.04889
G1 X75.272 Y133.775 E0.04555
M107
G1 X75.466 Y134.063 F3600000
M107
G1 F1200
G1 X75.52 Y134.026 E0.00227
G1 X76.719 Y133.391 E0.04717
G1 X78.213 Y132.806 E0.05581
G1 X79.484 Y132.466 E0.04575
G1 X80.807 Y132.255 E0.04658
G1 X82.521 Y132.184 E0.05964
G1 X83.604 Y132.258 E0.03775
G1 X84.691 Y132.422 E0.03824
G1 X86.182 Y132.808 E0.05353
G1 X87.664 Y133.389 E0.05537
G1 X89.062 Y134.145 E0.05525
G1 X90.141 Y134.897 E0.04575
G1 X91.336 Y135.943 E0.05521
G1 X92.354 Y137.077 E0.05301
G1 X93.049 Y138.039 E0.04124
G1 X93.648 Y139.047 E0.04078
G1 X94.248 Y140.335 E0.04941
G1 X94.702 Y141.673 E0.04915
G1 X96.774 Y149.407 E0.27839
G1 X96.933 Y157.406 E0.2782
G1 X96.705 Y159.192 E0.06261
G1 X94.672 Y166.761 E0.27253
G1 X94.217 Y168.077 E0.04843
G1 X93.652 Y169.281 E0.04623
G1 X92.947 Y170.449 E0.04746
G1 X92.101 Y171.565 E0.0487
G1 X91.069 Y172.649 E0.05204
G1 X89.937 Y173.594 E0.05128
G1 X88.714 Y174.399 E0.0509
G1 X87.488 Y175.026 E0.0479
G1 X86.357 Y175.469 E0.04222
G1 X85.18 Y175.807 E0.0426
G1 X83.597 Y176.078 E0.05583
G1 X82.008 Y176.154 E0.05531
G1 X80.559 Y176.051 E0.05053
G1 X79.162 Y175.796 E0.04937
G1 X77.898 Y175.423 E0.04584
G1 X76.68 Y174.926 E0.04573
G1 X75.424 Y174.251 E0.04959
G1 X74.322 Y173.497 E0.04641
G1 X73.307 Y172.638 E0.04624
G1 X72.39 Y171.685 E0.046
G1 X71.574 Y170.644 E0.04599
G1 X70.71 Y169.233 E0.05753
G1 X70.089 Y167.871 E0.05208
G1 X69.838 Y167.113 E0.02775
G1 X67.737 Y167.088 E0.07307
G1 X65.901 Y166.64 E0.06572
G1 X64.235 Y165.831 E0.06439
G1 X63.078 Y164.959 E0.05038
G1 X62.055 Y163.907 E0.05102
G1 X61.231 Y162.725 E0.05012
G1 X60.59 Y161.386 E0.05161
G1 X60.091 Y159.185 E0.07848
G1 X60.055 Y149.51 E0.33642
G1 X60.42 Y147.478 E0.07182
G1 X61.247 Y145.579 E0.072
G1 X61.99 Y144.51 E0.0453
G1 X62.89 Y143.547 E0.04582
G1 X64.125 Y142.572 E0.05471
G1 X65.847 Y141.715 E0.06689
G1 X67.743 Y141.248 E0.0679
G1 X69.843 Y141.209 E0.07304
G1 X70.097 Y140.445 E0.02799
G1 X70.738 Y139.05 E0.05341
G1 X71.476 Y137.834 E0.04945
G1 X72.362 Y136.682 E0.05053
G1 X73.338 Y135.669 E0.04891
G1 X74.387 Y134.789 E0.04761
G1 X75.416 Y134.096 E0.04315
M107
G1 X75.611 Y134.385 F3600000
M107
G1 F1200
G1 X75.692 Y134.33 E0.00341
G1 X76.855 Y133.712 E0.04581
G1 X78.331 Y133.134 E0.05512
G1 X79.565 Y132.806 E0.04441
G1 X80.832 Y132.602 E0.04461
G1 X82.507 Y132.532 E0.05828
G1 X83.573 Y132.605 E0.03717
G1 X84.63 Y132.765 E0.03718
G1 X86.084 Y133.143 E0.05223
G1 X87.508 Y133.701 E0.05318
G1 X88.871 Y134.437 E0.05385
G1 X89.919 Y135.166 E0.04441
G1 X91.083 Y136.184 E0.05379
G1 X92.077 Y137.289 E0.05168
G1 X92.753 Y138.223 E0.0401
G1 X93.344 Y139.218 E0.0402
M73 P4 R16
G1 X93.921 Y140.456 E0.04751
G1 X94.367 Y141.769 E0.04822
G1 X96.432 Y149.476 E0.27746
G1 X96.584 Y157.4 E0.27557
G1 X96.365 Y159.113 E0.06006
G1 X94.341 Y166.653 E0.27147
G1 X93.891 Y167.954 E0.0479
G1 X93.341 Y169.124 E0.04494
G1 X92.653 Y170.261 E0.04619
G1 X91.829 Y171.346 E0.0474
G1 X90.823 Y172.401 E0.05068
G1 X89.721 Y173.32 E0.04989
G1 X88.531 Y174.102 E0.04954
G1 X87.337 Y174.712 E0.04661
G1 X86.238 Y175.141 E0.04103
G1 X85.111 Y175.465 E0.04077
G1 X83.57 Y175.731 E0.05439
G1 X82.022 Y175.805 E0.05387
G1 X80.612 Y175.707 E0.04917
G1 X79.252 Y175.459 E0.04807
G1 X78.021 Y175.097 E0.0446
G1 X76.82 Y174.607 E0.0451
G1 X75.613 Y173.958 E0.04767
G1 X74.54 Y173.225 E0.04516
G1 X73.552 Y172.39 E0.045
G1 X72.659 Y171.463 E0.04476
G1 X71.855 Y170.437 E0.04533
G1 X71.023 Y169.079 E0.05538
G1 X70.41 Y167.735 E0.05138
G1 X70.091 Y166.768 E0.03541
G1 X67.761 Y166.74 E0.08104
G1 X66.036 Y166.318 E0.06176
G1 X64.431 Y165.543 E0.06197
G1 X63.299 Y164.689 E0.04931
G1 X62.315 Y163.675 E0.04912
G1 X61.525 Y162.538 E0.04815
G1 X60.913 Y161.254 E0.04946
G1 X60.435 Y159.127 E0.07579
G1 X60.404 Y149.525 E0.33389
G1 X60.759 Y147.56 E0.06946
G1 X61.542 Y145.764 E0.06811
G1 X62.269 Y144.719 E0.04426
G1 X63.135 Y143.795 E0.04404
G1 X64.326 Y142.857 E0.05271
G1 X65.984 Y142.036 E0.06435
G1 X67.806 Y141.591 E0.06522
G1 X70.096 Y141.553 E0.07962
G1 X70.417 Y140.582 E0.03559
G1 X71.042 Y139.222 E0.05204
G1 X71.758 Y138.039 E0.0481
G1 X72.633 Y136.902 E0.04986
G1 X73.569 Y135.93 E0.04695
G1 X74.589 Y135.073 E0.04633
G1 X75.561 Y134.418 E0.04074
M107
G1 X75.755 Y134.706 F3600000
M107
G1 F1200
G1 X75.864 Y134.633 E0.00454
G1 X76.992 Y134.033 E0.04444
G1 X78.449 Y133.462 E0.05442
G1 X79.646 Y133.145 E0.04307
G1 X80.857 Y132.95 E0.04264
G1 X82.493 Y132.881 E0.05693
G1 X83.542 Y132.952 E0.03658
G1 X84.569 Y133.108 E0.03611
G1 X85.986 Y133.477 E0.05092
G1 X87.37 Y134.022 E0.05173
G1 X88.68 Y134.728 E0.05174
G1 X89.697 Y135.435 E0.04306
G1 X90.831 Y136.425 E0.05236
G1 X91.8 Y137.501 E0.05035
G1 X92.466 Y138.421 E0.0395
G1 X93.04 Y139.388 E0.03907
G1 X93.601 Y140.594 E0.04628
G1 X94.032 Y141.865 E0.04665
G1 X96.09 Y149.546 E0.27652
G1 X96.236 Y157.393 E0.27292
G1 X96.026 Y159.034 E0.05751
G1 X94.01 Y166.545 E0.27042
G1 X93.564 Y167.832 E0.04736
G1 X93.029 Y168.967 E0.04365
G1 X92.36 Y170.072 E0.04493
G1 X91.557 Y171.128 E0.0461
G1 X90.578 Y172.153 E0.04931
G1 X89.506 Y173.046 E0.04851
G1 X88.348 Y173.806 E0.04818
G1 X87.187 Y174.398 E0.04531
G1 X86.134 Y174.809 E0.03929
G1 X85.042 Y175.123 E0.03951
G1 X83.542 Y175.383 E0.05294
G1 X82.036 Y175.457 E0.05242
G1 X80.646 Y175.36 E0.04848
G1 X79.341 Y175.122 E0.04611
G1 X78.128 Y174.765 E0.04397
G1 X76.961 Y174.288 E0.04385
G1 X75.802 Y173.665 E0.04576
G1 X74.744 Y172.943 E0.04452
G1 X73.797 Y172.142 E0.04315
G1 X72.928 Y171.241 E0.04352
G1 X72.135 Y170.23 E0.04467
G1 X71.336 Y168.925 E0.05323
G1 X70.731 Y167.599 E0.05067
G1 X70.345 Y166.422 E0.04307
G1 X67.785 Y166.392 E0.08901
G1 X66.171 Y165.996 E0.0578
G1 X64.627 Y165.254 E0.05955
G1 X63.54 Y164.436 E0.0473
G1 X62.576 Y163.442 E0.04815
G1 X61.82 Y162.351 E0.04616
G1 X61.237 Y161.122 E0.04731
G1 X60.779 Y159.07 E0.07311
G1 X60.752 Y149.54 E0.33138
M73 P5 R16
G1 X61.087 Y147.68 E0.06572
G1 X61.839 Y145.949 E0.06563
G1 X62.532 Y144.948 E0.04233
G1 X63.38 Y144.043 E0.04313
G1 X64.527 Y143.143 E0.0507
G1 X66.121 Y142.357 E0.0618
G1 X67.869 Y141.934 E0.06255
G1 X70.349 Y141.898 E0.08623
G1 X70.738 Y140.718 E0.04321
G1 X71.345 Y139.393 E0.05066
G1 X72.04 Y138.243 E0.04673
G1 X72.903 Y137.122 E0.04919
G1 X73.8 Y136.19 E0.04499
G1 X74.792 Y135.357 E0.04505
G1 X75.706 Y134.74 E0.03834
M107
G1 X75.9 Y135.028 F3600000
M107
G1 F1200
G1 X76.036 Y134.937 E0.00567
G1 X77.147 Y134.345 E0.04377
G1 X78.548 Y133.796 E0.05233
G1 X79.71 Y133.487 E0.04182
G1 X80.902 Y133.296 E0.04198
G1 X82.479 Y133.229 E0.05487
G1 X83.497 Y133.298 E0.03549
G1 X84.507 Y133.452 E0.03554
G1 X85.888 Y133.812 E0.04961
G1 X87.233 Y134.342 E0.05027
G1 X88.489 Y135.02 E0.04964
G1 X89.475 Y135.704 E0.04173
G1 X90.58 Y136.666 E0.05093
G1 X91.524 Y137.713 E0.04902
G1 X92.171 Y138.606 E0.03835
G1 X92.735 Y139.558 E0.03849
G1 X93.281 Y140.733 E0.04504
G1 X93.697 Y141.96 E0.04507
G1 X95.748 Y149.616 E0.27559
G1 X95.887 Y157.387 E0.27027
G1 X95.686 Y158.955 E0.05496
G1 X93.678 Y166.437 E0.26937
G1 X93.238 Y167.709 E0.04681
G1 X92.718 Y168.81 E0.04235
G1 X92.067 Y169.884 E0.04366
G1 X91.286 Y170.909 E0.0448
G1 X90.333 Y171.905 E0.04794
G1 X89.291 Y172.771 E0.04712
G1 X88.165 Y173.509 E0.04682
G1 X87.036 Y174.083 E0.04402
G1 X86.015 Y174.481 E0.03812
G1 X84.973 Y174.781 E0.0377
G1 X83.514 Y175.036 E0.0515
G1 X82.05 Y175.108 E0.05097
G1 X80.679 Y175.013 E0.04778
G1 X79.43 Y174.785 E0.04416
G1 X78.252 Y174.44 E0.04271
G1 X77.101 Y173.969 E0.04322
G1 X75.991 Y173.372 E0.04385
G1 X74.948 Y172.66 E0.04389
G1 X74.029 Y171.881 E0.0419
G1 X73.185 Y171.006 E0.04228
G1 X72.416 Y170.023 E0.04338
G1 X71.648 Y168.77 E0.05109
G1 X71.052 Y167.463 E0.04999
G1 X70.711 Y166.443 E0.03738
G1 X70.612 Y166.077 E0.0132
G1 X67.809 Y166.044 E0.09748
G1 X66.305 Y165.674 E0.05387
G1 X64.822 Y164.965 E0.05713
G1 X63.76 Y164.166 E0.04622
G1 X62.836 Y163.21 E0.04623
G1 X62.115 Y162.165 E0.04417
G1 X61.56 Y160.991 E0.04515
G1 X61.124 Y159.013 E0.07042
G1 X61.101 Y149.555 E0.32888
G1 X61.426 Y147.762 E0.06337
G1 X62.135 Y146.133 E0.06177
G1 X62.811 Y145.157 E0.04129
G1 X63.625 Y144.291 E0.04132
G1 X64.727 Y143.428 E0.04868
G1 X66.257 Y142.678 E0.05924
G1 X67.932 Y142.277 E0.05987
G1 X70.616 Y142.243 E0.09337
G1 X70.711 Y141.893 E0.0126
G1 X71.059 Y140.855 E0.03808
G1 X71.658 Y139.548 E0.04999
G1 X72.333 Y138.432 E0.04535
G1 X73.161 Y137.357 E0.04718
G1 X74.032 Y136.451 E0.0437
G1 X74.995 Y135.64 E0.04378
G1 X75.851 Y135.062 E0.03593
M107
G1 X76.046 Y135.35 F3600000
M107
G1 F1200
G1 X76.223 Y135.231 E0.00744
G1 X77.301 Y134.657 E0.04247
G1 X78.647 Y134.13 E0.05026
G1 X79.791 Y133.826 E0.04116
G1 X80.947 Y133.642 E0.04071
G1 X82.465 Y133.577 E0.05282
G1 X83.452 Y133.643 E0.03439
G1 X84.446 Y133.795 E0.03496
G1 X85.789 Y134.146 E0.0483
G1 X87.095 Y134.662 E0.04882
G1 X88.299 Y135.312 E0.04756
G1 X89.254 Y135.973 E0.04039
G1 X90.328 Y136.907 E0.0495
G1 X91.247 Y137.925 E0.04768
G1 X91.884 Y138.804 E0.03774
G1 X92.431 Y139.728 E0.03735
G1 X92.954 Y140.853 E0.04315
G1 X93.362 Y142.056 E0.04416
G1 X95.405 Y149.685 E0.27465
G1 X95.538 Y157.38 E0.26762
G1 X95.347 Y158.876 E0.05243
G1 X93.347 Y166.328 E0.26832
G1 X92.912 Y167.586 E0.04627
G1 X92.407 Y168.653 E0.04105
G1 X91.774 Y169.695 E0.0424
G1 X91.015 Y170.69 E0.0435
G1 X90.088 Y171.657 E0.04658
G1 X89.076 Y172.497 E0.04574
G1 X87.982 Y173.212 E0.04546
G1 X86.886 Y173.769 E0.04273
G1 X85.911 Y174.148 E0.03641
G1 X84.904 Y174.44 E0.03645
M73 P6 R16
G1 X83.486 Y174.688 E0.05004
G1 X82.043 Y174.76 E0.05023
G1 X80.714 Y174.666 E0.04636
G1 X79.519 Y174.448 E0.04221
G1 X78.358 Y174.108 E0.04208
G1 X77.242 Y173.65 E0.04195
G1 X76.18 Y173.079 E0.04194
G1 X75.152 Y172.377 E0.04325
G1 X74.261 Y171.621 E0.04065
G1 X73.454 Y170.784 E0.04044
G1 X72.697 Y169.816 E0.04273
G1 X71.961 Y168.616 E0.04895
G1 X71.379 Y167.343 E0.04865
G1 X71.044 Y166.338 E0.03688
