; generated by SuperSlicer 2.5.59.8 on 2024-03-14 at 08:08:42 UTC


;
;

;
;

;
;

;
;

;
;
; 

; external perimeters extrusion width = 0.40mm
; perimeters extrusion width = 0.40mm
; infill extrusion width = 0.40mm
; solid infill extrusion width = 0.40mm
; top infill extrusion width = 0.40mm

; object:{"name":"holes","id":"holes id:0 copy 0","object_center":[87.500000,106.358681,0.000000],"boundingbox_center":[87.500000,106.358681,0.865500],"boundingbox_size":[19.423088,4.751868,1.731000]}
EXCLUDE_OBJECT_DEFINE NAME=holes_id_0_copy_0 CENTER=87.500000,106.358681 POLYGON=[[77.79,103.98],[97.21,103.98],[97.21,108.73],[77.79,108.73],[77.79,103.98]]
; plater:{"center":[87.500000,106.358681,0.000000],"boundingbox_center":[87.500000,106.358681,0.865500],"boundingbox_size":[19.423088,4.751868,1.731000]}

M73 P0 R2
M107
;TYPE:Custom
CALCULATE_PA MATERIAL=PLA BOWDEN_LENGTH=6 LAYER_HEIGHT=0.24 NOZZLE_SIZE=0.4 PRINT_SPEED=95


START_PRINT EXTRUDER=210 BED=65

M107
G21 ; set units to millimeters
G90 ; use absolute coordinates
M83 ; use relative distances for extrusion
; Filament gcode
M104 S210 ; set temperature
M109 S210 ; set temperature and wait for it to be reached
M190 S65 ; set bed temperature and wait for it to be reached
;LAYER_CHANGE
;Z:0.24
;HEIGHT:0.24
;BEFORE_LAYER_CHANGE
G92 E0.0

G1 E-1.5 F3000
M73 P16 R1
G1 Z0.2 F3600000
G1 Z0.24
;AFTER_LAYER_CHANGE
;0.24




CALCULATE_PA MATERIAL=PLA BOWDEN_LENGTH=6.0 LAYER_HEIGHT=0.2 NOZZLE_SIZE=0.4 PRINT_SPEED=95


G92 E0
G1 Z0.44
G1 X74.918 Y100.058
M73 P17 R1
G1 Z0.24
G1 E1.5 F3000
;TYPE:Skirt
;WIDTH:0.4
M107
G1 F2400
G1 X75.635 Y99.627 E0.02909
G1 X76.29 Y99.37 E0.02446
G1 X77.327 Y99.178 E0.03667
G1 X97.713 Y99.181 E0.70891
G1 X98.641 Y99.349 E0.03276
G1 X99.537 Y99.713 E0.03364
G1 X100.252 Y100.194 E0.02999
G1 X100.872 Y100.789 E0.02985
G1 X101.388 Y101.494 E0.03039
G1 X101.759 Y102.28 E0.03024
M73 P18 R1
G1 X102.002 Y103.377 E0.03906
G1 X101.977 Y109.571 E0.21536
G1 X101.808 Y110.287 E0.02558
G1 X101.508 Y111.007 E0.02714
G1 X100.891 Y111.907 E0.03795
G1 X100.081 Y112.66 E0.03844
G1 X99.365 Y113.09 E0.02905
G1 X98.71 Y113.347 E0.02446
G1 X97.674 Y113.539 E0.03666
G1 X77.323 Y113.539 E0.70767
G1 X76.116 Y113.293 E0.04283
G1 X75.455 Y112.999 E0.02515
G1 X74.865 Y112.621 E0.02439
G1 X73.884 Y111.631 E0.04846
G1 X73.433 Y110.889 E0.03018
G1 X73.175 Y110.232 E0.02453
G1 X72.983 Y109.185 E0.03704
G1 X73.041 Y103.008 E0.21479
G1 X73.201 Y102.403 E0.02177
M73 P19 R1
G1 X73.437 Y101.814 E0.02203
G1 X74.054 Y100.876 E0.03904
G1 X74.874 Y100.099 E0.03929
M107
G1 X75.113 Y100.353 F3600000
M107
G1 F2400
G1 X75.143 Y100.325 E0.00143
G1 X75.777 Y99.946 E0.02569
G1 X76.371 Y99.709 E0.02223
G1 X77.343 Y99.527 E0.0344
G1 X97.697 Y99.53 E0.70779
G1 X98.56 Y99.688 E0.03048
G1 X99.387 Y100.029 E0.03112
G1 X100.044 Y100.474 E0.02761
G1 X100.619 Y101.029 E0.02777
G1 X101.08 Y101.658 E0.02711
G1 X101.436 Y102.411 E0.02897
G1 X101.657 Y103.432 E0.03633
G1 X101.628 Y109.549 E0.21268
G1 X101.472 Y110.191 E0.023
G1 X101.21 Y110.826 E0.02388
G1 X100.639 Y111.665 E0.0353
G1 X99.857 Y112.392 E0.03712
G1 X99.223 Y112.772 E0.02569
G1 X98.629 Y113.008 E0.02223
G1 X97.658 Y113.191 E0.03439
G1 X77.34 Y113.191 E0.7065
M73 P20 R1
G1 X76.24 Y112.967 E0.03905
G1 X75.632 Y112.698 E0.02311
G1 X75.069 Y112.338 E0.02325
G1 X74.146 Y111.401 E0.04572
G1 X73.752 Y110.747 E0.02656
G1 X73.515 Y110.152 E0.02227
G1 X73.332 Y109.171 E0.0347
G1 X73.384 Y103.076 E0.21194
G1 X73.536 Y102.502 E0.02063
G1 X73.753 Y101.961 E0.02029
G1 X74.333 Y101.085 E0.03651
G1 X75.069 Y100.394 E0.0351
M107
G1 X75.306 Y100.649 F3600000
M107
G1 F2400
G1 X75.366 Y100.593 E0.00287
G1 X75.92 Y100.264 E0.02237
G1 X76.453 Y100.048 E0.02
G1 X77.359 Y99.875 E0.03209
G1 X97.681 Y99.878 E0.70666
M73 P21 R1
G1 X98.478 Y100.027 E0.02817
G1 X99.237 Y100.344 E0.0286
G1 X99.835 Y100.754 E0.02522
G1 X100.366 Y101.269 E0.02571
G1 X100.788 Y101.85 E0.02498
G1 X101.112 Y102.541 E0.02655
G1 X101.313 Y103.487 E0.03361
G1 X101.28 Y109.526 E0.21
G1 X101.137 Y110.094 E0.02039
G1 X100.911 Y110.646 E0.02073
G1 X100.387 Y111.424 E0.03261
G1 X99.633 Y112.125 E0.03578
G1 X99.08 Y112.453 E0.02237
G1 X98.547 Y112.669 E0.02
G1 X97.641 Y112.842 E0.03208
G1 X77.358 Y112.842 E0.70532
G1 X76.364 Y112.641 E0.03527
G1 X75.785 Y112.385 E0.02198
M73 P22 R1
G1 X75.274 Y112.055 E0.02116
G1 X74.41 Y111.172 E0.04298
G1 X74.07 Y110.604 E0.02302
G1 X73.854 Y110.07 E0.02002
G1 X73.68 Y109.156 E0.03233
G1 X73.727 Y103.143 E0.2091
G1 X73.863 Y102.622 E0.01873
G1 X74.07 Y102.108 E0.01928
G1 X74.612 Y101.296 E0.03394
G1 X75.262 Y100.69 E0.03091
M107
G1 X75.498 Y100.946 F3600000
M107
G1 F2400
G1 X75.589 Y100.861 E0.00432
G1 X76.064 Y100.582 E0.01915
G1 X76.536 Y100.387 E0.01778
G1 X77.376 Y100.224 E0.02975
G1 X97.665 Y100.227 E0.7055
G1 X98.394 Y100.366 E0.02582
G1 X99.085 Y100.658 E0.02606
G1 X99.625 Y101.032 E0.02284
G1 X100.111 Y101.507 E0.02366
G1 X100.496 Y102.04 E0.02284
G1 X100.787 Y102.669 E0.02411
G1 X100.968 Y103.539 E0.03091
G1 X100.937 Y109.461 E0.20592
G1 X100.802 Y109.997 E0.01921
M73 P23 R1
G1 X100.596 Y110.496 E0.01878
G1 X100.11 Y111.211 E0.03007
G1 X99.411 Y111.856 E0.03307
G1 X98.936 Y112.136 E0.01915
G1 X98.464 Y112.33 E0.01777
G1 X97.624 Y112.494 E0.02974
G1 X77.375 Y112.494 E0.70413
G1 X76.486 Y112.314 E0.03153
G1 X75.963 Y112.084 E0.01989
G1 X75.48 Y111.773 E0.01998
G1 X74.674 Y110.944 E0.0402
G1 X74.387 Y110.46 E0.01957
G1 X74.193 Y109.986 E0.01779
G1 X74.029 Y109.141 E0.02993
G1 X74.069 Y103.21 E0.20625
G1 X74.197 Y102.721 E0.01758
G1 X74.386 Y102.255 E0.01748
G1 X74.889 Y101.507 E0.03135
G1 X75.454 Y100.986 E0.02671
M107
G1 X75.688 Y101.243 F3600000
M107
G1 F2400
G1 X75.811 Y101.131 E0.00576
G1 X76.209 Y100.898 E0.01603
G1 X76.621 Y100.726 E0.01556
G1 X77.393 Y100.572 E0.02736
G1 X97.648 Y100.575 E0.70432
M73 P24 R1
G1 X98.309 Y100.705 E0.02343
G1 X98.931 Y100.971 E0.02352
G1 X99.413 Y101.309 E0.02046
G1 X99.856 Y101.745 E0.02163
G1 X100.203 Y102.229 E0.0207
G1 X100.462 Y102.796 E0.02167
G1 X100.623 Y103.591 E0.02821
G1 X100.594 Y109.398 E0.20192
G1 X100.475 Y109.876 E0.01713
G1 X100.281 Y110.346 E0.01769
G1 X99.834 Y110.998 E0.02748
G1 X99.189 Y111.586 E0.03035
G1 X98.791 Y111.819 E0.01604
G1 X98.379 Y111.992 E0.01556
G1 X97.607 Y112.145 E0.02735
G1 X77.392 Y112.145 E0.70293
M73 P25 R1
G1 X76.609 Y111.988 E0.02778
G1 X76.116 Y111.771 E0.01874
G1 X75.686 Y111.492 E0.01781
G1 X74.939 Y110.717 E0.03742
G1 X74.704 Y110.314 E0.01622
G1 X74.531 Y109.901 E0.01556
G1 X74.377 Y109.126 E0.0275
G1 X74.412 Y103.277 E0.2034
G1 X74.525 Y102.841 E0.01563
G1 X74.702 Y102.403 E0.01644
G1 X75.166 Y101.72 E0.02873
G1 X75.644 Y101.283 E0.0225
M107
G1 X75.878 Y101.537 F3600000
M107
G1 F2400
G1 X76.003 Y101.422 E0.00592
G1 X76.354 Y101.215 E0.01416
G1 X76.74 Y101.054 E0.01454
G1 X77.41 Y100.921 E0.02376
G1 X97.631 Y100.924 E0.70313
G1 X98.222 Y101.043 E0.02099
G1 X98.775 Y101.283 E0.02097
G1 X99.199 Y101.585 E0.01808
G1 X99.6 Y101.982 E0.01962
G1 X99.909 Y102.417 E0.01855
G1 X100.136 Y102.921 E0.01923
G1 X100.274 Y103.607 E0.02433
G1 X100.245 Y109.374 E0.20055
G1 X100.141 Y109.777 E0.01447
G1 X99.982 Y110.165 E0.01458
M73 P26 R1
G1 X99.583 Y110.755 E0.02476
G1 X98.997 Y111.295 E0.02773
G1 X98.646 Y111.502 E0.01416
G1 X98.26 Y111.664 E0.01454
G1 X97.59 Y111.797 E0.02375
G1 X77.41 Y111.797 E0.70173
G1 X76.731 Y111.66 E0.02407
G1 X76.293 Y111.471 E0.01658
G1 X75.893 Y111.21 E0.01662
G1 X75.229 Y110.522 E0.03323
G1 X75.021 Y110.169 E0.01427
G1 X74.859 Y109.783 E0.01454
G1 X74.726 Y109.11 E0.02385
G1 X74.755 Y103.343 E0.20055
G1 X74.859 Y102.94 E0.01447
G1 X75.018 Y102.552 E0.01458
G1 X75.417 Y101.962 E0.02476
G1 X75.834 Y101.578 E0.01972
M107
G1 X76.07 Y101.831 F3600000
M107
G1 F2400
G1 X76.197 Y101.713 E0.00604
G1 X76.521 Y101.522 E0.01308
G1 X76.858 Y101.382 E0.01268
G1 X77.427 Y101.269 E0.0202
G1 X97.613 Y101.272 E0.70193
M73 P27 R1
G1 X98.101 Y101.37 E0.01728
G1 X98.619 Y101.595 E0.01967
G1 X98.984 Y101.859 E0.01565
G1 X99.343 Y102.218 E0.01765
G1 X99.614 Y102.603 E0.01639
G1 X99.81 Y103.045 E0.0168
G1 X99.925 Y103.623 E0.02051
G1 X99.902 Y109.308 E0.19769
G1 X99.807 Y109.678 E0.01329
G1 X99.667 Y110.016 E0.0127
G1 X99.331 Y110.513 E0.02088
G1 X98.803 Y111.005 E0.02506
G1 X98.479 Y111.196 E0.01308
G1 X98.142 Y111.335 E0.01268
G1 X97.573 Y111.448 E0.02019
G1 X77.427 Y111.448 E0.70054
G1 X76.853 Y111.333 E0.02037
G1 X76.446 Y111.157 E0.01542
G1 X76.1 Y110.93 E0.01438
G1 X75.519 Y110.328 E0.0291
G1 X75.328 Y110.002 E0.01314
G1 X75.188 Y109.665 E0.01268
G1 X75.075 Y109.094 E0.02026
G1 X75.098 Y103.409 E0.19769
M73 P28 R1
G1 X75.193 Y103.039 E0.01329
G1 X75.333 Y102.702 E0.0127
G1 X75.669 Y102.204 E0.02088
G1 X76.026 Y101.872 E0.01694
M107
G1 X76.263 Y102.123 F3600000
M107
G1 F2400
G1 X76.391 Y102.002 E0.00614
G1 X76.666 Y101.839 E0.0111
G1 X76.975 Y101.711 E0.01164
G1 X77.444 Y101.618 E0.01663
G1 X97.595 Y101.621 E0.70072
G1 X98.012 Y101.707 E0.01478
G1 X98.461 Y101.906 E0.0171
G1 X98.747 Y102.115 E0.01231
G1 X99.085 Y102.453 E0.01663
G1 X99.318 Y102.788 E0.01417
G1 X99.483 Y103.167 E0.01437
G1 X99.577 Y103.64 E0.01676
G1 X99.559 Y109.243 E0.19486
G1 X99.48 Y109.557 E0.01123
G1 X99.352 Y109.866 E0.01165
G1 X99.078 Y110.273 E0.01706
G1 X98.609 Y110.715 E0.02241
G1 X98.334 Y110.878 E0.0111
G1 X98.025 Y111.007 E0.01164
G1 X97.556 Y111.1 E0.01663
G1 X77.444 Y111.1 E0.69935
M73 P29 R1
G1 X76.973 Y111.006 E0.01672
G1 X76.624 Y110.857 E0.01317
G1 X76.308 Y110.649 E0.01316
G1 X75.808 Y110.132 E0.025
G1 X75.645 Y109.857 E0.01112
G1 X75.517 Y109.548 E0.01164
G1 X75.423 Y109.078 E0.01667
G1 X75.441 Y103.474 E0.19486
G1 X75.52 Y103.161 E0.01123
G1 X75.648 Y102.851 E0.01165
G1 X75.922 Y102.444 E0.01706
G1 X76.219 Y102.165 E0.01418
M107
G1 X76.458 Y102.415 F3600000
M107
G1 F2400
G1 X76.588 Y102.291 E0.00625
G1 X76.811 Y102.156 E0.00907
G1 X77.093 Y102.039 E0.01059
G1 X77.461 Y101.966 E0.01307
G1 X97.577 Y101.969 E0.69947
G1 X97.92 Y102.044 E0.0122
G1 X98.301 Y102.216 E0.01455
G1 X98.51 Y102.371 E0.00904
G1 X98.828 Y102.688 E0.01561
G1 X99.02 Y102.97 E0.01188
G1 X99.155 Y103.287 E0.01197
M73 P30 R1
G1 X99.228 Y103.656 E0.01309
G1 X99.216 Y109.18 E0.19209
G1 X99.153 Y109.435 E0.00914
G1 X99.036 Y109.717 E0.0106
G1 X98.823 Y110.034 E0.01328
G1 X98.412 Y110.427 E0.01977
G1 X98.189 Y110.561 E0.00907
G1 X97.907 Y110.678 E0.01059
G1 X97.539 Y110.751 E0.01307
G1 X77.461 Y110.751 E0.69815
G1 X77.093 Y110.678 E0.01307
G1 X76.776 Y110.543 E0.01197
G1 X76.517 Y110.37 E0.01082
G1 X76.096 Y109.935 E0.02104
G1 X75.962 Y109.712 E0.00907
G1 X75.845 Y109.43 E0.01059
G1 X75.772 Y109.061 E0.01309
G1 X75.784 Y103.537 E0.19209
G1 X75.847 Y103.282 E0.00914
G1 X75.964 Y103 E0.0106
G1 X76.177 Y102.683 E0.01328
G1 X76.415 Y102.456 E0.01144
M107
G1 X76.655 Y102.705 F3600000
M107
G1 F2400
G1 X76.787 Y102.578 E0.00636
G1 X76.957 Y102.473 E0.00697
G1 X77.21 Y102.368 E0.00952
G1 X77.478 Y102.315 E0.00951
G1 X97.558 Y102.318 E0.69822
M73 P31 R1
G1 X97.795 Y102.37 E0.00843
G1 X98.111 Y102.51 E0.01203
G1 X98.273 Y102.627 E0.00696
G1 X98.569 Y102.922 E0.01453
G1 X98.721 Y103.15 E0.00951
G1 X98.826 Y103.404 E0.00959
G1 X98.88 Y103.673 E0.00951
G1 X98.872 Y109.119 E0.18939
G1 X98.826 Y109.315 E0.00699
G1 X98.721 Y109.568 E0.00952
G1 X98.568 Y109.797 E0.00958
G1 X98.213 Y110.14 E0.01715
G1 X98.043 Y110.245 E0.00697
G1 X97.79 Y110.35 E0.00952
G1 X97.522 Y110.403 E0.00951
G1 X77.478 Y110.403 E0.69696
G1 X77.21 Y110.35 E0.00951
G1 X76.955 Y110.244 E0.00959
G1 X76.727 Y110.091 E0.00958
G1 X76.383 Y109.736 E0.01715
G1 X76.278 Y109.566 E0.00697
G1 X76.174 Y109.313 E0.00951
G1 X76.12 Y109.045 E0.00951
G1 X76.128 Y103.598 E0.18939
M73 P32 R1
G1 X76.174 Y103.403 E0.00699
G1 X76.279 Y103.15 E0.00952
G1 X76.432 Y102.921 E0.00958
G1 X76.612 Y102.747 E0.00871
M107
G1 X76.855 Y102.994 F3600000
M107
G1 F2400
G1 X76.989 Y102.862 E0.00652
G1 X77.105 Y102.789 E0.00476
G1 X77.328 Y102.696 E0.0084
G1 X77.496 Y102.663 E0.00595
G1 X97.539 Y102.666 E0.69696
G1 X97.672 Y102.696 E0.00476
G1 X97.926 Y102.805 E0.00958
G1 X98.038 Y102.884 E0.00476
G1 X98.31 Y103.157 E0.01342
G1 X98.405 Y103.299 E0.00595
G1 X98.498 Y103.522 E0.0084
G1 X98.531 Y103.69 E0.00595
G1 X98.528 Y109.062 E0.1868
G1 X98.498 Y109.195 E0.00476
G1 X98.405 Y109.418 E0.0084
G1 X98.31 Y109.561 E0.00595
G1 X98.011 Y109.855 E0.0146
G1 X97.895 Y109.929 E0.00476
G1 X97.672 Y110.021 E0.0084
G1 X97.504 Y110.054 E0.00595
G1 X77.496 Y110.054 E0.69577
M73 P33 R1
G1 X77.328 Y110.021 E0.00595
G1 X77.105 Y109.929 E0.0084
G1 X76.962 Y109.834 E0.00595
G1 X76.668 Y109.534 E0.0146
G1 X76.595 Y109.418 E0.00476
G1 X76.502 Y109.195 E0.0084
G1 X76.469 Y109.028 E0.00595
G1 X76.472 Y103.656 E0.1868
G1 X76.502 Y103.522 E0.00476
G1 X76.595 Y103.299 E0.0084
G1 X76.69 Y103.157 E0.00595
G1 X76.813 Y103.036 E0.006
M107
G1 X77.058 Y103.281 F3600000
M107
G1 F2400
G1 X77.197 Y103.142 E0.00682
G1 X77.254 Y103.104 E0.00239
G1 X77.445 Y103.025 E0.00721
G1 X77.513 Y103.011 E0.00239
G1 X97.487 Y103.011 E0.69458
G1 X97.555 Y103.025 E0.00239
G1 X97.746 Y103.104 E0.00721
G1 X97.803 Y103.142 E0.00239
G1 X98.052 Y103.391 E0.01223
G1 X98.09 Y103.448 E0.00239
G1 X98.169 Y103.64 E0.00721
G1 X98.183 Y103.707 E0.00239
G1 X98.183 Y109.01 E0.18442
G1 X98.169 Y109.078 E0.00239
G1 X98.09 Y109.269 E0.00721
G1 X98.052 Y109.326 E0.00239
G1 X97.803 Y109.575 E0.01223
G1 X97.746 Y109.613 E0.00239
G1 X97.555 Y109.692 E0.00721
G1 X97.487 Y109.706 E0.00239
G1 X77.513 Y109.706 E0.69458
M73 P34 R1
G1 X77.445 Y109.692 E0.00239
G1 X77.254 Y109.613 E0.00721
G1 X77.197 Y109.575 E0.00239
G1 X76.948 Y109.326 E0.01223
G1 X76.91 Y109.269 E0.00239
G1 X76.831 Y109.078 E0.00721
G1 X76.817 Y109.01 E0.00239
G1 X76.817 Y103.707 E0.18442
G1 X76.831 Y103.64 E0.00239
G1 X76.91 Y103.448 E0.00721
G1 X76.948 Y103.391 E0.00239
G1 X77.016 Y103.323 E0.00332
M107
G1 X77.262 Y103.57 F3600000
M107
G1 F2400
G1 X77.419 Y103.413 E0.00771
G1 X77.547 Y103.36 E0.00482
G1 X97.453 Y103.36 E0.6922
G1 X97.581 Y103.413 E0.00482
G1 X97.781 Y103.613 E0.00984
G1 X97.834 Y103.741 E0.00482
G1 X97.834 Y108.976 E0.18203
M73 P35 R1
G1 X97.781 Y109.104 E0.00482
G1 X97.581 Y109.304 E0.00984
G1 X97.453 Y109.357 E0.00482
G1 X77.547 Y109.357 E0.6922
G1 X77.419 Y109.304 E0.00482
G1 X77.219 Y109.104 E0.00984
G1 X77.166 Y108.976 E0.00482
G1 X77.166 Y103.741 E0.18203
G1 X77.22 Y103.612 E0.00486
M107
G1 X77.514 Y103.811 F3600000
M107
G1 F2400
G1 X77.616 Y103.708 E0.00502
G1 X97.384 Y103.708 E0.68737
M73 P36 R1
G1 X97.486 Y103.811 E0.00502
G1 X97.486 Y108.907 E0.17721
G1 X97.384 Y109.009 E0.00502
G1 X77.616 Y109.009 E0.68737
G1 X77.514 Y108.907 E0.00502
G1 X77.514 Y103.871 E0.17513
M107
;WIPE_START
G1 F2880000
G1 X77.514 Y108.907 E-0.00498
G1 X77.616 Y109.009 E-0.00014
G1 X97.384 Y109.009 E-0.01956
G1 X97.486 Y108.907 E-0.00014
G1 X97.486 Y103.811 E-0.00504
M73 P37 R1
G1 X97.384 Y103.708 E-0.00014
G1 X77.616 Y103.708 E-0.01956
G1 X77.514 Y103.811 E-0.00014
;WIPE_END
G1 E-1.45028 F3000
G1 Z0.44 F3600000
; printing object holes id:0 copy 0
EXCLUDE_OBJECT_START NAME=holes_id_0_copy_0
G1 X77.888 Y106.631
G1 Z0.24
G1 E1.5 F3000
;TYPE:External perimeter
;WIDTH:0.391504
M107
G1 X77.888 Y106.234 E0.01344
M107
G1 E-1.5
G1 Z0.44 F3600000
G1 X77.988 Y108.535
G1 Z0.24
G1 E1.5 F3000
;WIDTH:0.399999
M107
G1 X77.988 Y107.166 E0.0476
M107
M107
G1 X78.024 Y107.236 E0.00274
G1 X78.328 Y107.552 E0.01524
G1 X78.715 Y107.759 E0.01524
G1 X79.137 Y107.834 E0.01493
G1 X79.588 Y107.771 E0.01584
G1 X79.975 Y107.584 E0.01493
G1 X80.291 Y107.28 E0.01524
G1 X80.497 Y106.894 E0.01524
G1 X80.556 Y106.686 E0.00752
M107
;WIDTH:0.478549
M107
G1 X80.615 Y106.478 E0.00921
G1 X80.706 Y106.79 E0.01386
M107
;WIDTH:0.399999
M107
G1 X80.796 Y107.102 E0.01131
G1 X81.026 Y107.477 E0.01529
G1 X81.357 Y107.784 E0.0157
G1 X81.781 Y107.999 E0.01651
G1 X82 Y108.054 E0.00787
M107
;WIDTH:0.472615
M107
G1 X82.22 Y108.11 E0.00951
G1 X82.686 Y108.078 E0.01962
G1 X82.898 Y107.977 E0.00988
M107
;WIDTH:0.399999
M107
G1 X83.11 Y107.876 E0.00818
G1 X83.47 Y107.604 E0.0157
G1 X83.639 Y107.409 E0.00898
G1 X83.818 Y107.08 E0.01302
G1 X83.864 Y106.954 E0.00465
M107
;WIDTH:0.432745
M107
G1 X83.909 Y106.828 E0.00509
M107
;WIDTH:0.478326
M107
