; generated by SuperSlicer 2.5.59.8 on 2024-03-14 at 12:33:35 UTC


;
;

;
;

;
;

;
;

;
;
; 

; external perimeters extrusion width = 0.40mm
; perimeters extrusion width = 0.40mm
; infill extrusion width = 0.40mm
; solid infill extrusion width = 0.40mm
; top infill extrusion width = 0.40mm

; object:{"name":"hoels","id":"hoels id:0 copy 0","object_center":[87.500000,111.723292,0.000000],"boundingbox_center":[87.500000,111.723292,0.865500],"boundingbox_size":[21.795341,6.649843,1.731000]}
EXCLUDE_OBJECT_DEFINE NAME=hoels_id_0_copy_0 CENTER=87.500000,111.723292 POLYGON=[[76.60,108.40],[98.40,108.40],[98.40,115.05],[76.60,115.05],[76.60,108.40]]
; plater:{"center":[87.500000,111.723292,0.000000],"boundingbox_center":[87.500000,111.723292,0.865500],"boundingbox_size":[21.795341,6.649843,1.731000]}

M73 P0 R2
M107
;TYPE:Custom
CALCULATE_PA MATERIAL=PLA BOWDEN_LENGTH=6 LAYER_HEIGHT=0.24 NOZZLE_SIZE=0.4 PRINT_SPEED=95


START_PRINT EXTRUDER=210 BED=65

M107
G21 ; set units to millimeters
G90 ; use absolute coordinates
M83 ; use relative distances for extrusion
ACTIVATE_EXTRUDER EXTRUDER=extruder
; Filament gcode
M104 S210 T0 ; set temperature
M109 S210 T0 ; set temperature and wait for it to be reached
M190 S65 ; set bed temperature and wait for it to be reached
;LAYER_CHANGE
;Z:0.24
;HEIGHT:0.24
;BEFORE_LAYER_CHANGE
G92 E0.0

G1 E-1.5 F3000
M73 P12 R2
G1 Z0.2 F3600000
G1 Z0.24
;AFTER_LAYER_CHANGE
;0.24




CALCULATE_PA MATERIAL=PLA BOWDEN_LENGTH=6.0 LAYER_HEIGHT=0.2 NOZZLE_SIZE=0.4 PRINT_SPEED=95


G92 E0
G1 Z0.44
G1 X73.603 Y104.574
G1 Z0.24
G1 E1.5 F3000
;TYPE:Skirt
;WIDTH:0.4
M107
G1 F2400
G1 X74.43 Y104.052 E0.034
G1 X75.233 Y103.748 E0.02987
G1 X76.147 Y103.594 E0.03225
G1 X98.899 Y103.597 E0.79115
G1 X99.827 Y103.764 E0.03276
G1 X100.723 Y104.129 E0.03364
G1 X101.439 Y104.61 E0.02999
G1 X102.058 Y105.204 E0.02985
G1 X102.574 Y105.91 E0.03039
G1 X102.946 Y106.698 E0.0303
M73 P13 R2
G1 X103.196 Y107.868 E0.04161
G1 X103.145 Y116.022 E0.28355
G1 X102.985 Y116.628 E0.0218
G1 X102.753 Y117.209 E0.02173
G1 X102.233 Y118.032 E0.03387
G1 X101.397 Y118.873 E0.04121
G1 X100.57 Y119.394 E0.034
G1 X99.767 Y119.698 E0.02987
G1 X98.853 Y119.853 E0.03224
G1 X76.137 Y119.853 E0.78991
G1 X74.931 Y119.607 E0.0428
G1 X74.294 Y119.326 E0.0242
G1 X73.685 Y118.939 E0.0251
G1 X72.791 Y118.064 E0.04348
G1 X72.257 Y117.223 E0.03465
G1 X71.952 Y116.417 E0.02997
G1 X71.797 Y115.497 E0.03244
G1 X71.842 Y107.52 E0.27738
G1 X72.001 Y106.861 E0.02357
G1 X72.243 Y106.246 E0.02298
G1 X72.766 Y105.415 E0.03416
G1 X73.56 Y104.616 E0.03916
M107
G1 X73.806 Y104.863 F3600000
M107
G1 F2400
G1 X73.835 Y104.834 E0.0014
G1 X74.6 Y104.357 E0.03135
G1 X75.308 Y104.089 E0.02635
G1 X76.162 Y103.942 E0.03013
G1 X98.884 Y103.946 E0.79009
M73 P14 R2
G1 X99.746 Y104.104 E0.03049
G1 X100.574 Y104.444 E0.03112
G1 X101.231 Y104.89 E0.02761
G1 X101.805 Y105.445 E0.02777
G1 X102.266 Y106.074 E0.02711
G1 X102.622 Y106.828 E0.02901
G1 X102.851 Y107.921 E0.03884
G1 X102.802 Y115.954 E0.27935
G1 X102.651 Y116.529 E0.02066
G1 X102.435 Y117.064 E0.02005
G1 X101.949 Y117.829 E0.03154
G1 X101.165 Y118.612 E0.03852
G1 X100.4 Y119.09 E0.03135
G1 X99.692 Y119.358 E0.02635
G1 X98.838 Y119.504 E0.03012
G1 X76.154 Y119.504 E0.78879
G1 X75.054 Y119.281 E0.03902
G1 X74.447 Y119.012 E0.02308
G1 X73.888 Y118.655 E0.02309
G1 X73.05 Y117.83 E0.04088
G1 X72.561 Y117.052 E0.03194
G1 X72.293 Y116.342 E0.02642
G1 X72.146 Y115.483 E0.03028
G1 X72.185 Y107.582 E0.27477
M73 P15 R2
G1 X72.33 Y106.978 E0.02159
G1 X72.561 Y106.39 E0.02198
G1 X73.05 Y105.618 E0.03177
G1 X73.764 Y104.905 E0.03506
M107
G1 X74.009 Y105.153 F3600000
M107
G1 F2400
G1 X74.066 Y105.096 E0.0028
G1 X74.768 Y104.662 E0.02871
G1 X75.385 Y104.429 E0.02291
G1 X76.177 Y104.291 E0.02798
G1 X98.867 Y104.294 E0.789
G1 X99.664 Y104.443 E0.02817
G1 X100.423 Y104.759 E0.0286
G1 X101.021 Y105.169 E0.02522
G1 X101.552 Y105.684 E0.02571
G1 X101.974 Y106.265 E0.02498
G1 X102.298 Y106.957 E0.02656
G1 X102.506 Y107.973 E0.03607
G1 X102.46 Y115.887 E0.2752
G1 X102.323 Y116.409 E0.01875
G1 X102.118 Y116.918 E0.0191
G1 X101.666 Y117.625 E0.02918
G1 X100.934 Y118.351 E0.03583
G1 X100.232 Y118.784 E0.02871
G1 X99.615 Y119.017 E0.0229
G1 X98.823 Y119.156 E0.02797
G1 X76.172 Y119.156 E0.78766
M73 P16 R2
G1 X75.177 Y118.954 E0.03527
G1 X74.624 Y118.712 E0.02102
G1 X74.092 Y118.371 E0.02197
G1 X73.31 Y117.597 E0.03825
G1 X72.866 Y116.883 E0.02923
G1 X72.633 Y116.266 E0.02294
G1 X72.494 Y115.47 E0.0281
G1 X72.529 Y107.643 E0.27215
G1 X72.666 Y107.071 E0.02046
G1 X72.879 Y106.534 E0.0201
G1 X73.334 Y105.821 E0.02938
G1 X73.966 Y105.195 E0.03096
M107
G1 X74.21 Y105.443 F3600000
M107
G1 F2400
G1 X74.296 Y105.358 E0.0042
G1 X74.908 Y104.982 E0.02499
G1 X75.462 Y104.77 E0.02063
G1 X76.193 Y104.639 E0.0258
G1 X98.851 Y104.643 E0.78789
G1 X99.58 Y104.782 E0.02582
G1 X100.271 Y105.073 E0.02606
G1 X100.811 Y105.447 E0.02284
G1 X101.297 Y105.923 E0.02366
G1 X101.682 Y106.456 E0.02284
G1 X101.973 Y107.085 E0.02411
G1 X102.157 Y107.989 E0.0321
G1 X102.117 Y115.82 E0.27231
G1 X101.989 Y116.31 E0.0176
M73 P17 R2
G1 X101.801 Y116.772 E0.01735
G1 X101.384 Y117.42 E0.02681
G1 X100.704 Y118.088 E0.03314
G1 X100.092 Y118.465 E0.02499
G1 X99.538 Y118.677 E0.02063
G1 X98.808 Y118.807 E0.0258
G1 X76.189 Y118.807 E0.78652
G1 X75.3 Y118.628 E0.03153
G1 X74.776 Y118.398 E0.01989
G1 X74.296 Y118.088 E0.01988
G1 X73.571 Y117.364 E0.03563
G1 X73.186 Y116.743 E0.02542
G1 X72.974 Y116.188 E0.02065
G1 X72.843 Y115.455 E0.02589
G1 X72.873 Y107.704 E0.26955
G1 X72.994 Y107.188 E0.01843
G1 X73.197 Y106.678 E0.01907
G1 X73.616 Y106.026 E0.02695
G1 X74.167 Y105.485 E0.02686
M107
G1 X74.41 Y105.734 F3600000
M107
G1 F2400
G1 X74.525 Y105.622 E0.00561
G1 X75.049 Y105.301 E0.02135
G1 X75.541 Y105.109 E0.01836
G1 X76.208 Y104.988 E0.02359
G1 X98.834 Y104.991 E0.78676
M73 P18 R2
G1 X99.495 Y105.12 E0.02343
G1 X100.117 Y105.387 E0.02352
G1 X100.599 Y105.724 E0.02046
G1 X101.042 Y106.161 E0.02163
G1 X101.389 Y106.645 E0.0207
G1 X101.648 Y107.212 E0.02167
G1 X101.809 Y108.006 E0.02817
G1 X101.774 Y115.754 E0.26944
G1 X101.662 Y116.19 E0.01564
G1 X101.485 Y116.626 E0.01637
G1 X101.102 Y117.214 E0.0244
G1 X100.475 Y117.825 E0.03045
G1 X99.951 Y118.146 E0.02135
G1 X99.459 Y118.337 E0.01836
G1 X98.792 Y118.459 E0.02358
G1 X76.206 Y118.459 E0.78537
G1 X75.423 Y118.301 E0.02778
G1 X74.93 Y118.085 E0.01874
G1 X74.501 Y117.806 E0.01776
G1 X73.832 Y117.133 E0.03301
G1 X73.505 Y116.602 E0.02169
G1 X73.313 Y116.109 E0.01837
G1 X73.191 Y115.44 E0.02365
G1 X73.217 Y107.764 E0.26693
G1 X73.33 Y107.28 E0.01729
G1 X73.514 Y106.824 E0.01711
G1 X73.898 Y106.233 E0.02451
G1 X74.367 Y105.776 E0.02276
M107
G1 X74.608 Y106.026 F3600000
M107
G1 F2400
G1 X74.753 Y105.886 E0.00703
G1 X75.191 Y105.62 E0.01782
G1 X75.622 Y105.449 E0.0161
G1 X76.225 Y105.336 E0.02132
G1 X98.817 Y105.34 E0.7856
M73 P19 R2
G1 X99.409 Y105.458 E0.02099
G1 X99.962 Y105.699 E0.02097
G1 X100.386 Y106 E0.01808
G1 X100.786 Y106.398 E0.01962
G1 X101.095 Y106.833 E0.01855
G1 X101.322 Y107.337 E0.01923
G1 X101.46 Y108.022 E0.0243
G1 X101.431 Y115.688 E0.26657
G1 X101.327 Y116.091 E0.01448
G1 X101.169 Y116.478 E0.01456
G1 X100.821 Y117.006 E0.02198
G1 X100.247 Y117.561 E0.02777
G1 X99.809 Y117.827 E0.01782
G1 X99.378 Y117.998 E0.0161
G1 X98.776 Y118.11 E0.02132
G1 X76.224 Y118.11 E0.7842
G1 X75.545 Y117.974 E0.02407
G1 X75.107 Y117.784 E0.01658
G1 X74.707 Y117.524 E0.0166
G1 X74.094 Y116.903 E0.03035
G1 X73.824 Y116.459 E0.01806
G1 X73.653 Y116.029 E0.01611
G1 X73.54 Y115.425 E0.02136
G1 X73.561 Y107.823 E0.26433
G1 X73.659 Y107.398 E0.0152
G1 X73.831 Y106.97 E0.01603
G1 X74.179 Y106.44 E0.02203
G1 X74.565 Y106.068 E0.01865
M107
M73 P20 R2
G1 X74.804 Y106.319 F3600000
M107
G1 F2400
G1 X74.98 Y106.151 E0.00845
G1 X75.335 Y105.937 E0.0144
G1 X75.704 Y105.788 E0.01386
G1 X76.241 Y105.685 E0.01901
G1 X98.799 Y105.688 E0.78442
G1 X99.287 Y105.785 E0.01728
G1 X99.805 Y106.011 E0.01967
G1 X100.17 Y106.274 E0.01565
G1 X100.529 Y106.633 E0.01765
G1 X100.8 Y107.019 E0.01639
G1 X100.996 Y107.461 E0.0168
G1 X101.111 Y108.038 E0.02049
G1 X101.088 Y115.622 E0.2637
G1 X100.993 Y115.992 E0.0133
G1 X100.853 Y116.329 E0.0127
G1 X100.542 Y116.797 E0.01954
G1 X100.02 Y117.295 E0.02509
G1 X99.665 Y117.509 E0.0144
G1 X99.296 Y117.659 E0.01386
G1 X98.759 Y117.762 E0.019
G1 X76.241 Y117.762 E0.78303
G1 X75.667 Y117.647 E0.02037
G1 X75.26 Y117.471 E0.01542
G1 X74.914 Y117.243 E0.01438
G1 X74.358 Y116.673 E0.0277
G1 X74.141 Y116.316 E0.01453
G1 X73.992 Y115.946 E0.01386
G1 X73.889 Y115.409 E0.01903
M73 P21 R2
G1 X73.905 Y107.883 E0.26171
G1 X73.995 Y107.49 E0.01403
G1 X74.147 Y107.117 E0.01398
G1 X74.458 Y106.649 E0.01954
G1 X74.761 Y106.36 E0.01455
M107
G1 X74.999 Y106.613 F3600000
M107
G1 F2400
G1 X75.205 Y106.418 E0.00988
G1 X75.48 Y106.255 E0.0111
G1 X75.789 Y106.126 E0.01164
G1 X76.258 Y106.033 E0.01663
G1 X98.782 Y106.037 E0.78321
G1 X99.198 Y106.123 E0.01478
G1 X99.647 Y106.322 E0.0171
G1 X99.933 Y106.531 E0.01231
G1 X100.272 Y106.869 E0.01663
G1 X100.504 Y107.204 E0.01417
G1 X100.669 Y107.583 E0.01437
G1 X100.763 Y108.055 E0.01675
G1 X100.745 Y115.557 E0.26087
G1 X100.666 Y115.87 E0.01124
G1 X100.538 Y116.18 E0.01165
G1 X100.264 Y116.587 E0.01706
G1 X99.795 Y117.029 E0.02241
G1 X99.52 Y117.192 E0.0111
G1 X99.211 Y117.32 E0.01164
G1 X98.742 Y117.413 E0.01663
G1 X76.258 Y117.413 E0.78184
M73 P22 R2
G1 X75.787 Y117.319 E0.01672
G1 X75.438 Y117.171 E0.01317
G1 X75.122 Y116.963 E0.01316
G1 X74.622 Y116.446 E0.025
G1 X74.459 Y116.171 E0.01112
G1 X74.33 Y115.862 E0.01164
G1 X74.237 Y115.392 E0.01664
G1 X74.249 Y107.942 E0.25907
G1 X74.332 Y107.582 E0.01285
G1 X74.462 Y107.267 E0.01187
G1 X74.736 Y106.86 E0.01706
G1 X74.955 Y106.654 E0.01045
M107
G1 X75.194 Y106.905 F3600000
M107
G1 F2400
G1 X75.402 Y106.706 E0.00998
G1 X75.625 Y106.572 E0.00907
G1 X75.907 Y106.455 E0.01059
G1 X76.275 Y106.382 E0.01307
G1 X98.763 Y106.385 E0.78196
G1 X99.106 Y106.46 E0.0122
G1 X99.487 Y106.632 E0.01455
G1 X99.696 Y106.786 E0.00904
G1 X100.014 Y107.104 E0.01561
G1 X100.206 Y107.386 E0.01188
G1 X100.341 Y107.703 E0.01197
G1 X100.414 Y108.072 E0.01308
G1 X100.402 Y115.494 E0.25809
G1 X100.339 Y115.749 E0.00914
G1 X100.222 Y116.031 E0.0106
G1 X100.009 Y116.348 E0.01328
G1 X99.598 Y116.74 E0.01977
G1 X99.375 Y116.875 E0.00907
G1 X99.093 Y116.992 E0.01059
G1 X98.725 Y117.065 E0.01307
G1 X76.275 Y117.065 E0.78064
M73 P23 R2
G1 X75.907 Y116.992 E0.01307
G1 X75.59 Y116.857 E0.01197
G1 X75.331 Y116.684 E0.01082
G1 X74.91 Y116.249 E0.02104
G1 X74.775 Y116.025 E0.00907
G1 X74.659 Y115.744 E0.01059
G1 X74.586 Y115.375 E0.01307
G1 X74.593 Y107.999 E0.25648
G1 X74.659 Y107.701 E0.01061
G1 X74.778 Y107.416 E0.01074
G1 X74.991 Y107.099 E0.01328
G1 X75.151 Y106.946 E0.0077
M107
G1 X75.392 Y107.195 F3600000
M107
G1 F2400
G1 X75.601 Y106.993 E0.01009
G1 X75.771 Y106.888 E0.00697
G1 X76.024 Y106.783 E0.00952
G1 X76.292 Y106.73 E0.00951
G1 X98.744 Y106.733 E0.78071
G1 X98.981 Y106.785 E0.00843
G1 X99.297 Y106.925 E0.01203
G1 X99.46 Y107.042 E0.00696
G1 X99.755 Y107.338 E0.01453
G1 X99.907 Y107.565 E0.00951
G1 X100.013 Y107.82 E0.00959
G1 X100.066 Y108.088 E0.00951
G1 X100.058 Y115.433 E0.25539
G1 X100.012 Y115.628 E0.00699
G1 X99.907 Y115.881 E0.00952
G1 X99.754 Y116.11 E0.00958
G1 X99.399 Y116.453 E0.01715
G1 X99.229 Y116.558 E0.00697
G1 X98.976 Y116.663 E0.00952
G1 X98.708 Y116.716 E0.00951
G1 X76.292 Y116.716 E0.77945
M73 P24 R2
G1 X76.024 Y116.663 E0.00951
G1 X75.769 Y116.558 E0.00959
G1 X75.54 Y116.404 E0.00958
G1 X75.197 Y116.05 E0.01715
G1 X75.092 Y115.879 E0.00697
G1 X74.987 Y115.626 E0.00951
G1 X74.934 Y115.358 E0.00951
G1 X74.937 Y108.054 E0.25398
G1 X74.987 Y107.82 E0.00832
G1 X75.093 Y107.565 E0.00959
G1 X75.246 Y107.336 E0.00958
G1 X75.349 Y107.237 E0.00497
M107
G1 X75.593 Y107.484 F3600000
M107
G1 F2400
G1 X75.803 Y107.278 E0.01025
G1 X75.918 Y107.204 E0.00476
G1 X76.142 Y107.112 E0.0084
G1 X76.309 Y107.079 E0.00595
G1 X98.725 Y107.082 E0.77945
G1 X98.858 Y107.112 E0.00476
G1 X99.112 Y107.221 E0.00958
G1 X99.224 Y107.299 E0.00476
G1 X99.497 Y107.572 E0.01342
G1 X99.592 Y107.715 E0.00595
G1 X99.684 Y107.938 E0.0084
G1 X99.717 Y108.105 E0.00595
G1 X99.714 Y115.375 E0.25279
G1 X99.684 Y115.509 E0.00476
G1 X99.592 Y115.732 E0.0084
G1 X99.497 Y115.874 E0.00595
G1 X99.197 Y116.169 E0.0146
G1 X99.082 Y116.242 E0.00476
G1 X98.858 Y116.335 E0.0084
G1 X98.691 Y116.368 E0.00595
G1 X76.309 Y116.368 E0.77826
M73 P25 R2
G1 X76.142 Y116.335 E0.00595
G1 X75.918 Y116.242 E0.0084
G1 X75.776 Y116.147 E0.00595
G1 X75.482 Y115.848 E0.0146
G1 X75.408 Y115.732 E0.00476
G1 X75.316 Y115.509 E0.0084
G1 X75.283 Y115.341 E0.00595
G1 X75.283 Y108.105 E0.25161
G1 X75.316 Y107.938 E0.00595
G1 X75.408 Y107.715 E0.0084
G1 X75.503 Y107.572 E0.00595
G1 X75.55 Y107.527 E0.00227
M107
G1 X75.796 Y107.773 F3600000
M107
G1 F2400
G1 X76.011 Y107.558 E0.01056
G1 X76.068 Y107.52 E0.00239
G1 X76.259 Y107.441 E0.00721
G1 X76.326 Y107.427 E0.00239
G1 X98.674 Y107.427 E0.77707
G1 X98.741 Y107.441 E0.00239
G1 X98.932 Y107.52 E0.00721
G1 X98.989 Y107.558 E0.00239
G1 X99.238 Y107.807 E0.01223
G1 X99.276 Y107.864 E0.00239
G1 X99.356 Y108.055 E0.00721
G1 X99.369 Y108.123 E0.00239
G1 X99.369 Y115.324 E0.25042
G1 X99.356 Y115.391 E0.00239
G1 X99.276 Y115.583 E0.00721
G1 X99.238 Y115.64 E0.00239
G1 X98.989 Y115.889 E0.01223
G1 X98.932 Y115.927 E0.00239
G1 X98.741 Y116.006 E0.00721
G1 X98.674 Y116.019 E0.00239
G1 X76.326 Y116.019 E0.77707
M73 P26 R2
G1 X76.259 Y116.006 E0.00239
G1 X76.068 Y115.927 E0.00721
G1 X76.011 Y115.889 E0.00239
G1 X75.762 Y115.64 E0.01223
G1 X75.724 Y115.583 E0.00239
G1 X75.644 Y115.391 E0.00721
G1 X75.631 Y115.324 E0.00239
G1 X75.631 Y108.123 E0.25042
G1 X75.644 Y108.055 E0.00239
G1 X75.724 Y107.864 E0.00721
G1 X75.755 Y107.817 E0.00197
M107
G1 X76.033 Y108.029 F3600000
M107
G1 F2400
G1 X76.233 Y107.829 E0.00984
G1 X76.361 Y107.776 E0.00482
G1 X98.639 Y107.776 E0.77469
G1 X98.767 Y107.829 E0.00482
G1 X98.967 Y108.029 E0.00984
G1 X99.02 Y108.157 E0.00482
G1 X99.02 Y115.29 E0.24803
G1 X98.967 Y115.418 E0.00482
G1 X98.767 Y115.618 E0.00984
G1 X98.639 Y115.671 E0.00482
G1 X76.361 Y115.671 E0.77469
M73 P27 R2
G1 X76.233 Y115.618 E0.00482
G1 X76.033 Y115.418 E0.00984
G1 X75.98 Y115.29 E0.00482
G1 X75.98 Y108.157 E0.24803
G1 X76.01 Y108.084 E0.00273
M107
G1 X76.328 Y108.226 F3600000
M107
G1 F2400
G1 X76.43 Y108.124 E0.00502
G1 X98.57 Y108.124 E0.76986
G1 X98.672 Y108.226 E0.00502
G1 X98.672 Y115.22 E0.24321
G1 X98.57 Y115.322 E0.00502
G1 X76.43 Y115.322 E0.76986
M73 P28 R1
G1 X76.328 Y115.22 E0.00502
G1 X76.328 Y108.286 E0.24112
M107
;WIPE_START
G1 F2880000
G1 X76.328 Y115.22 E-0.00686
G1 X76.43 Y115.322 E-0.00014
G1 X98.57 Y115.322 E-0.02191
G1 X98.672 Y115.22 E-0.00014
G1 X98.672 Y108.226 E-0.00692
G1 X98.57 Y108.124 E-0.00014
G1 X76.43 Y108.124 E-0.02191
G1 X76.328 Y108.226 E-0.00014
;WIPE_END
G1 E-1.44183 F3000
G1 Z0.44 F3600000
; printing object hoels id:0 copy 0
EXCLUDE_OBJECT_START NAME=hoels_id_0_copy_0
G1 X92.122 Y111.571
G1 Z0.24
G1 E1.5 F3000
;TYPE:External perimeter
;WIDTH:0.526006
M107
G1 X92.127 Y111.785 E0.01016
M107
;WIDTH:0.504866
M107
G1 X92.133 Y112 E0.00971
M107
G1 E-1.5
G1 Z0.44 F3600000
G1 X94.525 Y114.3
M73 P29 R1
G1 Z0.24
G1 E1.5 F3000
;WIDTH:0.528713
M107
G1 X95.105 Y114.239 E0.02775
G1 X95.208 Y114.189 E0.00544
M107
;WIDTH:0.496535
M107
G1 X95.311 Y114.14 E0.00508
M107
;WIDTH:0.464356
M107
G1 X95.414 Y114.09 E0.00471
M107
;WIDTH:0.432178
M107
G1 X95.517 Y114.041 E0.00434
M107
;WIDTH:0.399999
M107
G1 X96.097 Y113.684 E0.02369
G1 X96.489 Y113.274 E0.01973
G1 X96.774 Y112.782 E0.01974
G1 X96.935 Y112.238 E0.01974
G1 X96.963 Y111.671 E0.01973
G1 X96.858 Y111.114 E0.01973
G1 X96.625 Y110.596 E0.01973
G1 X96.277 Y110.148 E0.01973
G1 X95.833 Y109.794 E0.01974
G1 X95.319 Y109.555 E0.01973
G1 X94.803 Y109.446 E0.01831
G1 X94.478 Y109.437 E0.01132
G1 X93.917 Y109.525 E0.01973
G1 X93.393 Y109.743 E0.01973
G1 X92.935 Y110.078 E0.01974
G1 X92.568 Y110.511 E0.01973
G1 X92.314 Y111.018 E0.01973
G1 X92.275 Y111.129 E0.00407
M107
;WIDTH:0.431501
M107
G1 X92.237 Y111.239 E0.00444
M107
;WIDTH:0.463003
