; generated by SuperSlicer 2.5.59.9 on 2024-05-05 at 00:39:55 UTC


;
;

;
;

;
;

;
;

;
;
; 

; external perimeters extrusion width = 0.40mm
; perimeters extrusion width = 0.40mm
; infill extrusion width = 0.40mm
; solid infill extrusion width = 0.40mm
; top infill extrusion width = 0.40mm

; external perimeters extrusion width = 0.40mm
; perimeters extrusion width = 0.40mm
; infill extrusion width = 0.40mm
; solid infill extrusion width = 0.40mm
; top infill extrusion width = 0.40mm

; external perimeters extrusion width = 0.40mm
; perimeters extrusion width = 0.40mm
; infill extrusion width = 0.40mm
; solid infill extrusion width = 0.40mm
; top infill extrusion width = 0.40mm

; object:{"name":"bridge_test","id":"bridge_test id:0 copy 0","object_center":[48.198734,71.539580,0.000000],"boundingbox_center":[48.198734,71.539580,2.500000],"boundingbox_size":[42.000000,10.000000,5.000000]}
EXCLUDE_OBJECT_DEFINE NAME=bridge_test_id_0_copy_0 CENTER=48.198734,71.539580 POLYGON=[[27.20,66.54],[49.20,66.54],[69.20,71.54],[69.20,76.54],[27.20,76.54],[27.20,66.54]]
; object:{"name":"bridge_test","id":"bridge_test id:1 copy 0","object_center":[48.198734,126.539580,0.000000],"boundingbox_center":[48.198734,126.539580,2.500000],"boundingbox_size":[42.000000,10.000000,5.000000]}
EXCLUDE_OBJECT_DEFINE NAME=bridge_test_id_1_copy_0 CENTER=48.198734,126.539580 POLYGON=[[27.20,121.54],[49.20,121.54],[69.20,126.54],[69.20,131.54],[27.20,131.54],[27.20,121.54]]
; object:{"name":"bridge_test","id":"bridge_test id:2 copy 0","object_center":[48.198734,181.539580,0.000000],"boundingbox_center":[48.198734,181.539580,2.500000],"boundingbox_size":[42.000000,10.000000,5.000000]}
EXCLUDE_OBJECT_DEFINE NAME=bridge_test_id_2_copy_0 CENTER=48.198734,181.539580 POLYGON=[[27.20,176.54],[49.20,176.54],[69.20,181.54],[69.20,186.54],[27.20,186.54],[27.20,176.54]]
; plater:{"center":[48.198734,126.539580,0.000000],"boundingbox_center":[48.198734,126.539580,2.500000],"boundingbox_size":[42.000000,120.000000,5.000000]}

M73 P0 R15
M107
;TYPE:Custom
CALCULATE_PA MATERIAL=ASA BOWDEN_LENGTH=6 LAYER_HEIGHT=0.24 NOZZLE_SIZE=0.4 PRINT_SPEED=50%


START_PRINT EXTRUDER=260 BED=105

G21 ; set units to millimeters
G90 ; use absolute coordinates
M83 ; use relative distances for extrusion
ACTIVATE_EXTRUDER EXTRUDER=extruder
; Filament gcode
M104 S260 T0 ; set temperature
M109 S260 T0 ; set temperature and wait for it to be reached
M190 S105 ; set bed temperature and wait for it to be reached
;LAYER_CHANGE
;Z:0.24
;HEIGHT:0.24
;BEFORE_LAYER_CHANGE
G92 E0.0

G1 E-0.4 F3000
M73 P2 R15
G1 Z0.4 F3600000
;AFTER_LAYER_CHANGE
;0.24




CALCULATE_PA MATERIAL=ASA BOWDEN_LENGTH=6.0 LAYER_HEIGHT=0.2 NOZZLE_SIZE=0.4 PRINT_SPEED=0.45


G92 E0
G1 X26.01492 Y166.9035
G1 Z0.24
G1 E0.4 F3000
;TYPE:Skirt
;WIDTH:0.4
M107
G1 X30.38547 Y166.90429 E0.15502
G1 X32.80957 Y167.49238 E0.08847
G1 X34.15987 Y168.15585 E0.05336
G1 X35.38057 Y169.01663 E0.05298
G1 X36.54274 Y170.14585 E0.05747
G1 X37.52561 Y171.48266 E0.05885
G1 X38.20704 Y172.93097 E0.05677
G1 X38.49386 Y172.17417 E0.02871
G1 X39.50324 Y170.569 E0.06725
G1 X40.8866 Y169.12681 E0.07088
G1 X42.55645 Y167.97659 E0.07192
G1 X44.22875 Y167.27294 E0.06435
G1 X45.98977 Y166.90682 E0.0638
G1 X50.36089 Y166.89976 E0.15504
G1 X51.91258 Y167.19815 E0.05604
G1 X53.36515 Y167.73363 E0.05491
G1 X55.31233 Y168.95959 E0.08161
G1 X56.4133 Y170.00232 E0.05378
G1 X57.33488 Y171.17479 E0.05289
G1 X58.29529 Y173.07422 E0.07549
G1 X58.85326 Y175.51056 E0.08865
G1 X58.86174 Y176.58914 E0.03826
G1 X59.52528 Y175.54084 E0.044
G1 X60.91361 Y174.10393 E0.07087
G1 X62.55645 Y172.97659 E0.07067
G1 X64.26056 Y172.26307 E0.06553
G1 X65.98977 Y171.90682 E0.06262
G1 X70.36089 Y171.89976 E0.15504
G1 X71.91258 Y172.19815 E0.05604
G1 X73.36515 Y172.73363 E0.05491
G1 X75.31233 Y173.95959 E0.08161
G1 X76.4133 Y175.00232 E0.05378
G1 X77.35323 Y176.20361 E0.0541
G1 X78.29529 Y178.07422 E0.07429
G1 X78.85767 Y180.5489 E0.09001
G1 X78.88365 Y187.18506 E0.23538
G1 X78.58327 Y189.07975 E0.06804
G1 X78.03135 Y190.63574 E0.05856
G1 X77.24014 Y192.04515 E0.05733
G1 X75.86345 Y193.63595 E0.07462
G1 X74.1317 Y194.93921 E0.07687
G1 X72.17839 Y195.8035 E0.07576
G1 X70.05411 Y196.20477 E0.07668
G1 X66.50385 Y196.22117 E0.12592
G1 X64.65287 Y195.92272 E0.0665
G1 X63.16042 Y195.39819 E0.05611
G1 X61.85276 Y194.69124 E0.05272
G1 X60.15677 Y193.26638 E0.07857
G1 X58.77607 Y191.42301 E0.08169
G1 X58.01057 Y189.74638 E0.06537
G1 X57.56745 Y187.7624 E0.0721
G1 X57.5542 Y186.4902 E0.04513
G1 X57.24014 Y187.04515 E0.02262
G1 X55.83643 Y188.6612 E0.07592
G1 X54.1317 Y189.93921 E0.07557
G1 X52.21703 Y190.79143 E0.07433
G1 X50.02248 Y191.20781 E0.07923
G1 X46.53242 Y191.22339 E0.12379
G1 X44.62269 Y190.91504 E0.06861
G1 X43.18511 Y190.40909 E0.05405
G1 X41.88215 Y189.71112 E0.05243
G1 X40.18452 Y188.29566 E0.0784
G1 X38.88114 Y186.5633 E0.07689
G1 X38.88207 Y187.09444 E0.01884
G1 X38.73905 Y188.43469 E0.04781
G1 X38.0912 Y190.50923 E0.07709
G1 X36.98071 Y192.39469 E0.07761
G1 X35.35864 Y194.08287 E0.08304
G1 X33.64042 Y195.20413 E0.07277
G1 X31.93166 Y195.87626 E0.06513
G1 X30.12495 Y196.19909 E0.0651
G1 X26.63393 Y196.22257 E0.12382
G1 X25.28981 Y196.07549 E0.04796
G1 X23.49812 Y195.53999 E0.06633
G1 X21.95307 Y194.75555 E0.06146
G1 X20.16711 Y193.27751 E0.08222
G1 X18.72828 Y191.34141 E0.08556
G1 X17.91352 Y189.44473 E0.07322
G1 X17.54686 Y187.56028 E0.06809
G1 X17.5146 Y175.99861 E0.41008
G1 X17.6651 Y174.61347 E0.04942
G1 X18.29582 Y172.59434 E0.07503
G1 X19.35829 Y170.76162 E0.07514
G1 X20.95 Y169.07114 E0.08235
G1 X22.60327 Y167.95496 E0.07075
G1 X24.24096 Y167.26959 E0.06297
G1 X25.95615 Y166.91563 E0.06212
M107
G1 X26.02596 Y167.25695 F3600000
M107
G1 F3000
G1 X26.06752 Y167.24845 E0.0015
G1 X30.32392 Y167.24793 E0.15097
G1 X32.67349 Y167.81378 E0.08572
G1 X33.97036 Y168.44864 E0.05121
G1 X35.16846 Y169.29349 E0.052
G1 X36.28919 Y170.38537 E0.0555
G1 X37.23449 Y171.67498 E0.05671
G1 X38.0419 Y173.40027 E0.06756
G1 X38.17701 Y174.00636 E0.02203
G1 X38.79832 Y172.34466 E0.06292
G1 X39.78874 Y170.76965 E0.06599
G1 X41.12538 Y169.38126 E0.06836
G1 X42.73888 Y168.27406 E0.06941
G1 X44.34789 Y167.60086 E0.06186
G1 X46.00809 Y167.25528 E0.06015
G1 X50.34469 Y167.24828 E0.15381
G1 X51.80597 Y167.53023 E0.05279
G1 X53.19506 Y168.03836 E0.05246
G1 X55.112 Y169.24527 E0.08034
G1 X56.16391 Y170.24606 E0.0515
G1 X57.05009 Y171.37636 E0.05094
G1 X57.96034 Y173.17276 E0.07143
G1 X58.50925 Y175.56955 E0.08721
G1 X58.51913 Y178.09137 E0.08945
G1 X58.79832 Y177.34466 E0.02828
G1 X59.78874 Y175.76965 E0.06599
G1 X61.12538 Y174.38126 E0.06836
G1 X62.73888 Y173.27406 E0.06941
G1 X64.34789 Y172.60086 E0.06186
G1 X66.00809 Y172.25528 E0.06015
G1 X70.3447 Y172.24828 E0.15381
G1 X71.80597 Y172.53023 E0.05279
G1 X73.19506 Y173.03836 E0.05246
G1 X75.112 Y174.24527 E0.08034
G1 X76.16391 Y175.24606 E0.0515
G1 X77.05009 Y176.37636 E0.05094
G1 X77.96034 Y178.17276 E0.07143
G1 X78.50925 Y180.56955 E0.08721
G1 X78.5351 Y187.17227 E0.23419
G1 X78.24165 Y189.00905 E0.06597
G1 X77.71993 Y190.47863 E0.05531
G1 X76.96498 Y191.83056 E0.05492
G1 X75.61203 Y193.39392 E0.07333
G1 X73.97194 Y194.62887 E0.07282
G1 X72.09382 Y195.46481 E0.07291
G1 X70.00504 Y195.85939 E0.0754
G1 X66.54518 Y195.87484 E0.12272
G1 X64.72371 Y195.58115 E0.06544
G1 X63.31353 Y195.08484 E0.05302
G1 X62.06276 Y194.41256 E0.05037
G1 X60.4236 Y193.04131 E0.0758
G1 X59.06633 Y191.22922 E0.0803
G1 X58.33541 Y189.61887 E0.06272
G1 X57.91168 Y187.70499 E0.06953
G1 X57.89165 Y184.99493 E0.09612
G1 X57.71993 Y185.47863 E0.01821
G1 X56.96498 Y186.83056 E0.05492
G1 X55.61203 Y188.39392 E0.07333
G1 X53.97194 Y189.62887 E0.07282
G1 X52.09382 Y190.46481 E0.07291
G1 X50.00504 Y190.85939 E0.0754
G1 X46.54518 Y190.87484 E0.12272
G1 X44.72371 Y190.58115 E0.06544
G1 X43.31353 Y190.08484 E0.05302
G1 X42.06276 Y189.41256 E0.05037
G1 X40.4236 Y188.04131 E0.0758
G1 X39.06633 Y186.22922 E0.0803
G1 X38.52695 Y185.04086 E0.04629
G1 X38.53453 Y187.067 E0.07186
G1 X38.39436 Y188.38055 E0.04685
G1 X37.76472 Y190.38568 E0.07454
G1 X36.69115 Y192.1997 E0.07476
G1 X35.1216 Y193.82664 E0.08018
G1 X33.46547 Y194.90221 E0.07004
G1 X31.82068 Y195.54547 E0.06264
G1 X30.10773 Y195.8507 E0.06171
G1 X26.66123 Y195.875 E0.12225
G1 X25.37389 Y195.73691 E0.04592
G1 X23.64123 Y195.22186 E0.06411
G1 X22.15973 Y194.47429 E0.05886
G1 X20.4342 Y193.05266 E0.0793
G1 X19.02016 Y191.1499 E0.08408
G1 X18.25194 Y189.3595 E0.0691
G1 X17.89531 Y187.54265 E0.06567
G1 X17.86312 Y176.00717 E0.40915
G1 X18.00297 Y174.70052 E0.04661
G1 X18.60714 Y172.75217 E0.07235
G1 X19.64964 Y170.95391 E0.07372
G1 X21.18996 Y169.3246 E0.07953
G1 X22.78337 Y168.2538 E0.06809
G1 X24.35937 Y167.59778 E0.06055
G1 X25.96717 Y167.26897 E0.05821
M107
G1 X26.03633 Y167.61034 F3600000
M107
G1 F3000
G1 X26.11966 Y167.59346 E0.00302
G1 X30.26286 Y167.59164 E0.14695
M73 P3 R15
G1 X32.53755 Y168.13524 E0.08295
G1 X33.80457 Y168.75549 E0.05004
G1 X34.95595 Y169.57004 E0.05002
G1 X36.0353 Y170.62454 E0.05352
G1 X36.94308 Y171.86686 E0.05457
G1 X37.71802 Y173.53031 E0.06509
G1 X38.14251 Y175.43464 E0.0692
G1 X38.186 Y187.05864 E0.41229
G1 X38.04971 Y188.32606 E0.04521
G1 X37.43847 Y190.26154 E0.07199
G1 X36.40202 Y192.00409 E0.07191
G1 X34.88511 Y193.5699 E0.07732
G1 X33.29118 Y194.5999 E0.06731
G1 X31.71037 Y195.21445 E0.06016
G1 X30.06169 Y195.50495 E0.05938
G1 X26.66896 Y195.52645 E0.12034
G1 X25.42721 Y195.39215 E0.0443
G1 X23.75597 Y194.89243 E0.06187
G1 X22.33452 Y194.17217 E0.05652
G1 X20.67264 Y192.79761 E0.07649
G1 X19.31246 Y190.95905 E0.08112
G1 X18.57969 Y189.23967 E0.06629
G1 X18.24376 Y187.52505 E0.06197
G1 X18.21164 Y176.01581 E0.40822
G1 X18.34764 Y174.75479 E0.04499
G1 X18.93398 Y172.87467 E0.06985
G1 X19.94058 Y171.14682 E0.07093
G1 X21.42938 Y169.57858 E0.0767
G1 X22.96283 Y168.55303 E0.06543
G1 X24.47715 Y167.9262 E0.05813
G1 X25.97752 Y167.62226 E0.0543
M107
G1 X26.046 Y167.96367 F3600000
M107
G1 F3000
G1 X26.17134 Y167.93853 E0.00453
G1 X30.2023 Y167.93544 E0.14297
G1 X32.40175 Y168.45677 E0.08017
G1 X33.63865 Y169.06228 E0.04885
G1 X34.743 Y169.84624 E0.04804
G1 X35.78106 Y170.86333 E0.05155
G1 X36.65135 Y172.05826 E0.05243
G1 X37.39398 Y173.6599 E0.06262
G1 X37.79409 Y175.45475 E0.06522
G1 X37.83747 Y187.05021 E0.41128
G1 X37.70512 Y188.2712 E0.04356
G1 X37.11244 Y190.1368 E0.06943
G1 X36.11333 Y191.80782 E0.06905
G1 X34.64919 Y193.31264 E0.07447
G1 X33.1176 Y194.2972 E0.06458
G1 X31.60074 Y194.88321 E0.05768
G1 X30.01623 Y195.15913 E0.05705
G1 X26.67696 Y195.1779 E0.11844
G1 X25.48091 Y195.04745 E0.04267
G1 X23.87128 Y194.56319 E0.05962
G1 X22.50986 Y193.87038 E0.05418
G1 X20.9116 Y192.54306 E0.07369
G1 X19.60521 Y190.76888 E0.07815
G1 X18.90768 Y189.1205 E0.06348
G1 X18.5922 Y187.50748 E0.0583
G1 X18.56016 Y176.02451 E0.40729
G1 X18.69225 Y174.80941 E0.04335
G1 X19.26061 Y172.99777 E0.06734
G1 X20.23109 Y171.34036 E0.06812
G1 X21.66823 Y169.83308 E0.07387
G1 X23.1416 Y168.85267 E0.06277
G1 X24.59425 Y168.25486 E0.05572
G1 X25.98717 Y167.97547 E0.05039
M107
G1 X26.05495 Y168.31693 F3600000
M107
G1 F3000
G1 X26.22243 Y168.28369 E0.00606
G1 X30.18197 Y168.28394 E0.14044
G1 X32.26635 Y168.77847 E0.07598
G1 X33.44856 Y169.35472 E0.04665
G1 X34.52994 Y170.12237 E0.04704
G1 X35.52645 Y171.10172 E0.04956
G1 X36.3593 Y172.24917 E0.05029
G1 X37.06976 Y173.78904 E0.06015
G1 X37.44567 Y175.47486 E0.06126
G1 X37.48894 Y187.0417 E0.41026
G1 X37.36057 Y188.21616 E0.0419
G1 X36.80295 Y189.97532 E0.06545
G1 X35.82475 Y191.61138 E0.06761
G1 X34.41387 Y193.05482 E0.07159
G1 X32.94475 Y193.99408 E0.06185
G1 X31.49183 Y194.55172 E0.0552
G1 X29.97137 Y194.81323 E0.05472
G1 X26.68523 Y194.82936 E0.11656
G1 X25.535 Y194.7028 E0.04104
G1 X23.98716 Y194.23416 E0.05736
G1 X22.68577 Y193.56891 E0.05184
G1 X21.1511 Y192.28902 E0.07088
G1 X19.89842 Y190.57942 E0.07517
G1 X19.2359 Y189.00201 E0.06068
G1 X18.94065 Y187.48994 E0.05464
G1 X18.90868 Y176.0333 E0.40635
G1 X19.0368 Y174.86442 E0.04171
G1 X19.58699 Y173.1215 E0.06483
G1 X20.52116 Y171.53457 E0.06531
G1 X21.90651 Y170.08813 E0.07104
G1 X23.31968 Y169.15273 E0.06011
G1 X24.71067 Y168.58376 E0.0533
G1 X25.99609 Y168.32861 E0.04648
M107
G1 X26.06314 Y168.67011 F3600000
M107
G1 F3000
G1 X26.273 Y168.62891 E0.00759
G1 X30.12183 Y168.6278 E0.13651
G1 X32.13111 Y169.10024 E0.07321
G1 X33.28289 Y169.66165 E0.04545
G1 X34.3164 Y170.39813 E0.04501
G1 X35.27146 Y171.33971 E0.04757
G1 X36.06691 Y172.43956 E0.04814
G1 X36.74537 Y173.91771 E0.05769
G1 X37.09725 Y175.49498 E0.05732
G1 X37.14041 Y187.03311 E0.40924
G1 X37.01607 Y188.16072 E0.04024
G1 X36.47711 Y189.85008 E0.06289
G1 X35.53664 Y191.41424 E0.06473
G1 X34.17918 Y192.79644 E0.06871
G1 X32.77266 Y193.69052 E0.05911
G1 X31.38368 Y194.22 E0.05272
G1 X29.92713 Y194.46726 E0.0524
G1 X26.69377 Y194.48083 E0.11468
G1 X25.58952 Y194.35822 E0.03941
G1 X24.10366 Y193.90534 E0.05509
G1 X22.86227 Y193.26779 E0.0495
G1 X21.39117 Y192.03551 E0.06806
G1 X20.19211 Y190.3907 E0.0722
G1 X19.56437 Y188.88424 E0.05788
G1 X19.2891 Y187.47242 E0.05102
G1 X19.2572 Y176.04216 E0.40542
G1 X19.38129 Y174.91984 E0.04005
G1 X19.91314 Y173.24588 E0.0623
G1 X20.81076 Y171.72948 E0.0625
G1 X22.14417 Y170.34374 E0.06821
G1 X23.49701 Y169.45322 E0.05745
G1 X24.82636 Y168.91292 E0.0509
G1 X26.00426 Y168.68167 E0.04258
M107
G1 X26.07054 Y169.02319 F3600000
M107
G1 F3000
G1 X26.32304 Y168.97419 E0.00912
G1 X30.06227 Y168.97175 E0.13262
G1 X31.99649 Y169.42227 E0.07044
G1 X33.09254 Y169.95394 E0.04321
G1 X34.10274 Y170.6738 E0.044
G1 X35.01606 Y171.57726 E0.04557
G1 X35.77417 Y172.62941 E0.046
G1 X36.42079 Y174.04589 E0.05523
G1 X36.74883 Y175.51511 E0.05339
G1 X36.79188 Y187.02443 E0.40822
G1 X36.67165 Y188.10485 E0.03856
G1 X36.15152 Y189.72414 E0.06032
G1 X35.24905 Y191.21636 E0.06185
G1 X33.94514 Y192.53745 E0.06584
G1 X32.60138 Y193.38652 E0.05638
G1 X31.2763 Y193.88802 E0.05025
G1 X29.88355 Y194.12121 E0.05009
G1 X26.70259 Y194.1323 E0.11282
G1 X25.64447 Y194.0137 E0.03777
G1 X24.2208 Y193.57676 E0.05282
G1 X23.03938 Y192.96703 E0.04715
G1 X21.63183 Y191.78256 E0.06525
G1 X20.4863 Y190.20275 E0.06921
G1 X19.89309 Y188.76723 E0.05509
G1 X19.63755 Y187.45492 E0.04742
G1 X19.60572 Y176.05112 E0.40448
G1 X19.72572 Y174.97568 E0.03838
G1 X20.23902 Y173.37095 E0.05976
G1 X21.09987 Y171.92512 E0.05968
G1 X22.3812 Y170.59995 E0.06538
G1 X23.67356 Y169.75416 E0.05478
G1 X24.9413 Y169.24234 E0.04849
G1 X26.01164 Y169.03463 E0.03867
M107
G1 X26.07711 Y169.37618 F3600000
M107
G1 F3000
G1 X26.37242 Y169.31957 E0.01066
G1 X30.04225 Y169.32024 E0.13016
G1 X31.86187 Y169.7443 E0.06627
G1 X32.92715 Y170.26104 E0.04199
G1 X33.88855 Y170.94906 E0.04193
G1 X34.76024 Y171.81436 E0.04356
G1 X35.48106 Y172.8187 E0.04385
G1 X36.09602 Y174.17355 E0.05277
G1 X36.4004 Y175.53526 E0.04949
G1 X36.44335 Y187.01565 E0.40719
G1 X36.32729 Y188.04852 E0.03686
G1 X35.82622 Y189.59748 E0.05774
G1 X34.96199 Y191.0177 E0.05897
G1 X33.71179 Y192.27785 E0.06296
G1 X32.43094 Y193.08204 E0.05364
G1 X31.16973 Y193.55578 E0.04778
G1 X29.84063 Y193.77509 E0.04778
G1 X26.71168 Y193.78378 E0.11098
G1 X25.69987 Y193.66925 E0.03612
G1 X24.33862 Y193.24841 E0.05054
G1 X23.21715 Y192.66665 E0.04481
G1 X21.87311 Y191.5302 E0.06243
G1 X20.78101 Y190.01562 E0.06623
G1 X20.22208 Y188.65101 E0.0523
G1 X19.98599 Y187.43744 E0.04385
G1 X19.95424 Y176.06017 E0.40354
G1 X20.0701 Y175.03174 E0.03671
G1 X20.54864 Y173.53214 E0.05583
G1 X21.38886 Y172.12095 E0.05825
G1 X22.61755 Y170.85679 E0.06253
G1 X23.8493 Y170.05558 E0.05212
G1 X25.05545 Y169.57203 E0.04609
G1 X26.01818 Y169.38747 E0.03477
M107
G1 X26.08282 Y169.72905 F3600000
M107
G1 F3000
G1 X26.42121 Y169.66501 E0.01222
G1 X29.98323 Y169.66427 E0.12634
G1 X31.72743 Y170.06642 E0.06349
G1 X32.76159 Y170.56806 E0.04077
G1 X33.67378 Y171.22386 E0.03985
G1 X34.50398 Y172.05099 E0.04157
G1 X35.18757 Y173.00739 E0.0417
G1 X35.77106 Y174.30069 E0.05032
G1 X36.05198 Y175.55545 E0.04561
G1 X36.09482 Y187.00678 E0.40616
M73 P4 R15
G1 X35.983 Y187.9917 E0.03516
G1 X35.50122 Y189.47005 E0.05515
G1 X34.67549 Y190.81823 E0.05607
