; generated by SuperSlicer 2.5.59.9 on 2024-05-04 at 19:22:12 UTC


;
;

;
;

;
;

;
;

;
;
; 

; external perimeters extrusion width = 0.40mm
; perimeters extrusion width = 0.40mm
; infill extrusion width = 0.40mm
; solid infill extrusion width = 0.40mm
; top infill extrusion width = 0.40mm

; external perimeters extrusion width = 0.40mm
; perimeters extrusion width = 0.40mm
; infill extrusion width = 0.40mm
; solid infill extrusion width = 0.40mm
; top infill extrusion width = 0.40mm

; external perimeters extrusion width = 0.40mm
; perimeters extrusion width = 0.40mm
; infill extrusion width = 0.40mm
; solid infill extrusion width = 0.40mm
; top infill extrusion width = 0.40mm

; external perimeters extrusion width = 0.40mm
; perimeters extrusion width = 0.40mm
; infill extrusion width = 0.40mm
; solid infill extrusion width = 0.40mm
; top infill extrusion width = 0.40mm

; external perimeters extrusion width = 0.40mm
; perimeters extrusion width = 0.40mm
; infill extrusion width = 0.40mm
; solid infill extrusion width = 0.40mm
; top infill extrusion width = 0.40mm

; object:{"name":"bridge_test","id":"bridge_test id:0 copy 0","object_center":[25.556514,70.869428,0.000000],"boundingbox_center":[25.556514,70.869428,2.500000],"boundingbox_size":[42.000000,10.000000,5.000000]}
EXCLUDE_OBJECT_DEFINE NAME=bridge_test_id_0_copy_0 CENTER=25.556514,70.869428 POLYGON=[[4.56,65.87],[26.56,65.87],[46.56,70.87],[46.56,75.87],[4.56,75.87],[4.56,65.87]]
; object:{"name":"bridge_test","id":"bridge_test id:1 copy 0","object_center":[25.556514,125.869428,0.000000],"boundingbox_center":[25.556514,125.869428,2.500000],"boundingbox_size":[42.000000,10.000000,5.000000]}
EXCLUDE_OBJECT_DEFINE NAME=bridge_test_id_1_copy_0 CENTER=25.556514,125.869428 POLYGON=[[4.56,120.87],[26.56,120.87],[46.56,125.87],[46.56,130.87],[4.56,130.87],[4.56,120.87]]
; object:{"name":"bridge_test","id":"bridge_test id:2 copy 0","object_center":[112.556514,70.869428,0.000000],"boundingbox_center":[112.556514,70.869428,2.500000],"boundingbox_size":[42.000000,10.000000,5.000000]}
EXCLUDE_OBJECT_DEFINE NAME=bridge_test_id_2_copy_0 CENTER=112.556514,70.869428 POLYGON=[[91.56,65.87],[113.56,65.87],[133.56,70.87],[133.56,75.87],[91.56,75.87],[91.56,65.87]]
; object:{"name":"bridge_test","id":"bridge_test id:3 copy 0","object_center":[112.556514,125.869428,0.000000],"boundingbox_center":[112.556514,125.869428,2.500000],"boundingbox_size":[42.000000,10.000000,5.000000]}
EXCLUDE_OBJECT_DEFINE NAME=bridge_test_id_3_copy_0 CENTER=112.556514,125.869428 POLYGON=[[91.56,120.87],[113.56,120.87],[133.56,125.87],[133.56,130.87],[91.56,130.87],[91.56,120.87]]
; object:{"name":"bridge_test","id":"bridge_test id:4 copy 0","object_center":[69.056514,180.869428,0.000000],"boundingbox_center":[69.056514,180.869428,2.500000],"boundingbox_size":[42.000000,10.000000,5.000000]}
EXCLUDE_OBJECT_DEFINE NAME=bridge_test_id_4_copy_0 CENTER=69.056514,180.869428 POLYGON=[[48.06,175.87],[70.06,175.87],[90.06,180.87],[90.06,185.87],[48.06,185.87],[48.06,175.87]]
; plater:{"center":[69.056514,125.869428,0.000000],"boundingbox_center":[69.056514,125.869428,2.500000],"boundingbox_size":[129.000000,120.000000,5.000000]}

M73 P0 R23
M107
;TYPE:Custom
CALCULATE_PA MATERIAL=ASA BOWDEN_LENGTH=6 LAYER_HEIGHT=0.24 NOZZLE_SIZE=0.4 PRINT_SPEED=95%


START_PRINT EXTRUDER=260 BED=105

M107
G21 ; set units to millimeters
G90 ; use absolute coordinates
M83 ; use relative distances for extrusion
; Filament gcode
M104 S260 ; set temperature
M109 S260 ; set temperature and wait for it to be reached
M190 S105 ; set bed temperature and wait for it to be reached
;LAYER_CHANGE
;Z:0.24
;HEIGHT:0.24
;BEFORE_LAYER_CHANGE
G92 E0.0

G1 E-0.3 F3000
M73 P1 R23
G1 Z0.4 F3600000
;AFTER_LAYER_CHANGE
;0.24




CALCULATE_PA MATERIAL=ASA BOWDEN_LENGTH=6.0 LAYER_HEIGHT=0.2 NOZZLE_SIZE=0.4 PRINT_SPEED=0.9025


G92 E0
G1 X45.09874 Y166.59943
G1 Z0.24
G1 E0.3 F3000
;TYPE:Skirt
;WIDTH:0.4
M107
G1 X46.8727 Y166.23335 E0.06456
G1 X51.24325 Y166.23414 E0.15578
G1 X53.66735 Y166.82223 E0.08891
G1 X55.01765 Y167.48569 E0.05362
G1 X56.23835 Y168.34648 E0.05324
G1 X57.40052 Y169.4757 E0.05776
G1 X58.38339 Y170.8125 E0.05914
G1 X59.06482 Y172.26081 E0.05705
G1 X59.35164 Y171.50402 E0.02885
G1 X60.36102 Y169.89885 E0.06758
G1 X61.74438 Y168.45666 E0.07123
G1 X63.41423 Y167.30643 E0.07227
G1 X65.08653 Y166.60279 E0.06467
G1 X66.84755 Y166.23666 E0.06411
G1 X71.21867 Y166.2296 E0.1558
G1 X72.77036 Y166.52799 E0.05632
G1 X74.22293 Y167.06348 E0.05518
G1 X76.17011 Y168.28943 E0.08201
G1 X77.27108 Y169.33217 E0.05405
G1 X78.19266 Y170.50463 E0.05315
G1 X79.15307 Y172.40407 E0.07586
G1 X79.71104 Y174.84041 E0.08909
G1 X79.71952 Y175.91899 E0.03844
G1 X80.38306 Y174.87068 E0.04422
G1 X81.77139 Y173.43377 E0.07121
G1 X83.41423 Y172.30643 E0.07102
G1 X85.11834 Y171.59292 E0.06585
G1 X86.84755 Y171.23666 E0.06293
G1 X91.21867 Y171.2296 E0.1558
G1 X92.77036 Y171.52799 E0.05632
G1 X94.22293 Y172.06348 E0.05518
G1 X96.17011 Y173.28943 E0.08201
G1 X97.27108 Y174.33217 E0.05405
G1 X98.21101 Y175.53345 E0.05437
G1 X99.15307 Y177.40407 E0.07465
G1 X99.71545 Y179.87874 E0.09045
G1 X99.74143 Y186.51491 E0.23653
G1 X99.44105 Y188.4096 E0.06837
G1 X98.88913 Y189.96559 E0.05884
G1 X98.09792 Y191.375 E0.05761
G1 X96.72123 Y192.9658 E0.07498
G1 X94.98949 Y194.26906 E0.07725
G1 X93.03617 Y195.13334 E0.07613
G1 X90.91189 Y195.53462 E0.07705
G1 X87.36163 Y195.55101 E0.12654
G1 X85.51065 Y195.25257 E0.06683
G1 X84.0182 Y194.72804 E0.05638
G1 X82.71054 Y194.02108 E0.05298
G1 X81.01455 Y192.59622 E0.07895
G1 X79.63385 Y190.75286 E0.08209
G1 X78.86835 Y189.07622 E0.06569
G1 X78.42524 Y187.09225 E0.07246
G1 X78.41198 Y185.82004 E0.04535
G1 X78.09792 Y186.375 E0.02273
G1 X76.69421 Y187.99104 E0.07629
G1 X74.98949 Y189.26906 E0.07594
G1 X73.07481 Y190.12127 E0.0747
G1 X70.88026 Y190.53765 E0.07961
G1 X67.39019 Y190.55324 E0.1244
G1 X65.48047 Y190.24489 E0.06895
G1 X64.04289 Y189.73894 E0.05432
G1 X62.73992 Y189.04097 E0.05268
G1 X61.0423 Y187.62551 E0.07878
G1 X59.73892 Y185.89314 E0.07727
G1 X59.73985 Y186.42429 E0.01893
G1 X59.59683 Y187.76454 E0.04804
G1 X58.94898 Y189.83908 E0.07746
G1 X57.83849 Y191.72454 E0.07799
G1 X56.21642 Y193.41272 E0.08344
G1 X54.4982 Y194.53397 E0.07313
G1 X52.78944 Y195.20611 E0.06545
G1 X50.98273 Y195.52893 E0.06542
G1 X47.49171 Y195.55241 E0.12443
G1 X46.14759 Y195.40533 E0.04819
G1 X44.3559 Y194.86984 E0.06665
G1 X42.81085 Y194.0854 E0.06176
G1 X41.02489 Y192.60736 E0.08263
G1 X39.58606 Y190.67125 E0.08598
G1 X38.7713 Y188.77457 E0.07358
G1 X38.40464 Y186.89012 E0.06843
G1 X38.37238 Y175.32846 E0.41209
G1 X38.52288 Y173.94332 E0.04966
G1 X39.1536 Y171.92418 E0.0754
G1 X40.21607 Y170.09147 E0.07551
G1 X41.80778 Y168.40098 E0.08276
G1 X43.46104 Y167.28481 E0.0711
G1 X45.04339 Y166.6226 E0.06114
M107
G1 X45.17727 Y166.94422 F3600000
M107
G1 F3000
G1 X45.21715 Y166.92763 E0.00154
G1 X46.9253 Y166.5783 E0.06214
G1 X51.18171 Y166.57778 E0.15171
G1 X53.53127 Y167.14362 E0.08614
G1 X54.82814 Y167.77848 E0.05146
G1 X56.02624 Y168.62334 E0.05225
G1 X57.14697 Y169.71522 E0.05577
G1 X58.09228 Y171.00483 E0.05699
G1 X58.89968 Y172.73011 E0.06789
G1 X59.03479 Y173.33621 E0.02213
G1 X59.6561 Y171.67451 E0.06323
G1 X60.64652 Y170.0995 E0.06631
G1 X61.98316 Y168.71111 E0.06869
G1 X63.59666 Y167.6039 E0.06975
G1 X65.20567 Y166.93071 E0.06217
G1 X66.86587 Y166.58513 E0.06044
G1 X71.20247 Y166.57812 E0.15457
G1 X72.66375 Y166.86007 E0.05304
G1 X74.05284 Y167.3682 E0.05272
G1 X75.96978 Y168.57512 E0.08074
G1 X77.02169 Y169.57591 E0.05175
G1 X77.90787 Y170.70621 E0.05119
G1 X78.81812 Y172.50261 E0.07178
G1 X79.36703 Y174.8994 E0.08764
G1 X79.37691 Y177.42122 E0.08988
G1 X79.6561 Y176.67451 E0.02841
G1 X80.64652 Y175.0995 E0.06631
G1 X81.98316 Y173.71111 E0.06869
G1 X83.59666 Y172.6039 E0.06975
G1 X85.20567 Y171.93071 E0.06217
G1 X86.86587 Y171.58513 E0.06044
G1 X91.20247 Y171.57812 E0.15457
G1 X92.66375 Y171.86007 E0.05304
G1 X94.05284 Y172.3682 E0.05272
G1 X95.96978 Y173.57512 E0.08074
G1 X97.02169 Y174.57591 E0.05175
G1 X97.90787 Y175.70621 E0.05119
G1 X98.81812 Y177.50261 E0.07178
G1 X99.36703 Y179.8994 E0.08764
G1 X99.39288 Y186.50212 E0.23534
G1 X99.09943 Y188.33889 E0.0663
M73 P1 R22
G1 X98.57771 Y189.80848 E0.05558
G1 X97.82276 Y191.16041 E0.05519
G1 X96.46981 Y192.72377 E0.07369
G1 X94.82972 Y193.95872 E0.07318
G1 X92.9516 Y194.79466 E0.07327
G1 X90.86282 Y195.18923 E0.07577
G1 X87.40296 Y195.20468 E0.12332
G1 X85.58149 Y194.91099 E0.06576
G1 X84.17131 Y194.41468 E0.05328
G1 X82.92054 Y193.7424 E0.05061
G1 X81.28138 Y192.37116 E0.07617
G1 X79.92411 Y190.55907 E0.0807
G1 X79.19319 Y188.94872 E0.06303
G1 X78.76946 Y187.03484 E0.06987
G1 X78.74943 Y184.32478 E0.0966
G1 X78.57771 Y184.80848 E0.01829
G1 X77.82276 Y186.16041 E0.05519
G1 X76.46981 Y187.72377 E0.07369
G1 X74.82972 Y188.95872 E0.07318
G1 X72.9516 Y189.79466 E0.07327
G1 X70.86282 Y190.18923 E0.07577
G1 X67.40296 Y190.20468 E0.12332
G1 X65.58149 Y189.91099 E0.06576
G1 X64.17131 Y189.41468 E0.05328
G1 X62.92054 Y188.7424 E0.05061
G1 X61.28138 Y187.37116 E0.07617
G1 X59.92411 Y185.55907 E0.0807
G1 X59.38473 Y184.37071 E0.04651
G1 X59.39231 Y186.39685 E0.07222
G1 X59.25214 Y187.7104 E0.04708
G1 X58.6225 Y189.71552 E0.07491
G1 X57.54893 Y191.52955 E0.07513
G1 X55.97938 Y193.15649 E0.08057
G1 X54.32325 Y194.23206 E0.07038
G1 X52.67846 Y194.87532 E0.06295
G1 X50.96551 Y195.18055 E0.06202
G1 X47.51901 Y195.20485 E0.12284
G1 X46.23167 Y195.06676 E0.04615
G1 X44.49901 Y194.5517 E0.06443
G1 X43.01751 Y193.80413 E0.05915
G1 X41.29198 Y192.3825 E0.07969
G1 X39.87794 Y190.47975 E0.0845
G1 X39.10972 Y188.68935 E0.06944
G1 X38.75309 Y186.87249 E0.06599
M73 P2 R22
G1 X38.7209 Y175.33702 E0.41115
G1 X38.86075 Y174.03037 E0.04684
G1 X39.46492 Y172.08201 E0.07271
G1 X40.50742 Y170.28376 E0.07409
G1 X42.04774 Y168.65445 E0.07992
G1 X43.64115 Y167.58365 E0.06843
G1 X45.12188 Y166.96728 E0.05717
M107
G1 X45.25509 Y167.28909 F3600000
M107
G1 F3000
G1 X45.33492 Y167.25605 E0.00308
G1 X46.97744 Y166.92331 E0.05973
G1 X51.12064 Y166.92149 E0.14767
G1 X53.39533 Y167.46509 E0.08336
G1 X54.66235 Y168.08534 E0.05028
G1 X55.81373 Y168.89988 E0.05027
G1 X56.89308 Y169.95438 E0.05378
G1 X57.80086 Y171.19671 E0.05484
G1 X58.5758 Y172.86015 E0.06541
G1 X59.00029 Y174.76449 E0.06954
G1 X59.04378 Y186.38849 E0.41431
G1 X58.90749 Y187.6559 E0.04543
G1 X58.29625 Y189.59139 E0.07234
G1 X57.2598 Y191.33393 E0.07226
G1 X55.74289 Y192.89975 E0.0777
G1 X54.14896 Y193.92975 E0.06764
G1 X52.56815 Y194.5443 E0.06045
G1 X50.91947 Y194.8348 E0.05967
G1 X47.52674 Y194.85629 E0.12093
G1 X46.28499 Y194.722 E0.04452
G1 X44.61375 Y194.22227 E0.06217
G1 X43.1923 Y193.50202 E0.0568
G1 X41.53042 Y192.12746 E0.07687
G1 X40.17024 Y190.2889 E0.08151
G1 X39.43747 Y188.56952 E0.06662
G1 X39.10154 Y186.8549 E0.06228
G1 X39.06942 Y175.34565 E0.41022
G1 X39.20542 Y174.08463 E0.04521
G1 X39.79176 Y172.20452 E0.07019
G1 X40.79836 Y170.47666 E0.07127
G1 X42.28716 Y168.90842 E0.07707
G1 X43.82061 Y167.88288 E0.06575
G1 X45.19965 Y167.31204 E0.0532
M107
G1 X45.33216 Y167.63403 F3600000
M107
G1 F3000
G1 X45.45203 Y167.5847 E0.00462
G1 X47.02912 Y167.26838 E0.05733
G1 X51.06008 Y167.26529 E0.14367
G1 X53.25953 Y167.78662 E0.08057
G1 X54.49643 Y168.39213 E0.04909
G1 X55.60078 Y169.17609 E0.04827
G1 X56.63884 Y170.19317 E0.0518
G1 X57.50913 Y171.38811 E0.05269
G1 X58.25176 Y172.98975 E0.06292
G1 X58.65187 Y174.78459 E0.06554
G1 X58.69525 Y186.38006 E0.41329
G1 X58.5629 Y187.60104 E0.04377
G1 X57.97022 Y189.46665 E0.06977
G1 X56.97111 Y191.13767 E0.06939
G1 X55.50697 Y192.64249 E0.07483
G1 X53.97538 Y193.62705 E0.0649
G1 X52.45852 Y194.21305 E0.05796
G1 X50.87401 Y194.48898 E0.05733
G1 X47.53474 Y194.50775 E0.11902
G1 X46.33869 Y194.3773 E0.04288
G1 X44.72906 Y193.89304 E0.05991
G1 X43.36764 Y193.20022 E0.05445
G1 X41.76938 Y191.87291 E0.07405
G1 X40.46299 Y190.09873 E0.07853
G1 X39.76546 Y188.45034 E0.0638
G1 X39.44998 Y186.83733 E0.05858
G1 X39.41794 Y175.35436 E0.40928
G1 X39.55003 Y174.13926 E0.04356
G1 X40.11839 Y172.32762 E0.06767
G1 X41.08887 Y170.67021 E0.06846
G1 X42.52601 Y169.16293 E0.07423
G1 X43.99938 Y168.18252 E0.06308
G1 X45.27668 Y167.65687 E0.04923
M107
G1 X45.40846 Y167.97905 F3600000
M107
G1 F3000
G1 X45.56845 Y167.91361 E0.00616
G1 X47.08021 Y167.61353 E0.05493
G1 X51.03975 Y167.61378 E0.14113
G1 X53.12413 Y168.10831 E0.07635
G1 X54.30634 Y168.68456 E0.04688
G1 X55.38772 Y169.45222 E0.04727
G1 X56.38423 Y170.43157 E0.0498
G1 X57.21708 Y171.57901 E0.05054
G1 X57.92754 Y173.11889 E0.06044
G1 X58.30345 Y174.8047 E0.06156
G1 X58.34672 Y186.37155 E0.41227
G1 X58.21835 Y187.54601 E0.04211
G1 X57.66073 Y189.30517 E0.06578
G1 X56.68253 Y190.94123 E0.06794
G1 X55.27165 Y192.38467 E0.07194
G1 X53.80253 Y193.32393 E0.06215
G1 X52.34962 Y193.88157 E0.05547
G1 X50.82915 Y194.14308 E0.05499
G1 X47.54301 Y194.15921 E0.11713
G1 X46.39278 Y194.03265 E0.04124
G1 X44.84494 Y193.56401 E0.05764
G1 X43.54355 Y192.89876 E0.05209
G1 X42.00888 Y191.61887 E0.07123
G1 X40.7562 Y189.90927 E0.07554
G1 X40.09368 Y188.33186 E0.06098
G1 X39.79843 Y186.81978 E0.05491
G1 X39.76646 Y175.36315 E0.40834
G1 X39.89458 Y174.19427 E0.04191
G1 X40.44477 Y172.45135 E0.06514
G1 X41.37894 Y170.86442 E0.06563
G1 X42.76429 Y169.41797 E0.07139
G1 X44.17746 Y168.48257 E0.0604
G1 X45.35292 Y168.00176 E0.04527
M107
G1 X45.48395 Y168.32413 F3600000
M107
G1 F3000
G1 X45.68414 Y168.24276 E0.0077
G1 X47.13078 Y167.95875 E0.05255
G1 X50.97961 Y167.95764 E0.13718
G1 X52.98889 Y168.43008 E0.07357
G1 X54.14067 Y168.9915 E0.04567
G1 X55.17418 Y169.72798 E0.04523
G1 X56.12924 Y170.66956 E0.0478
G1 X56.92469 Y171.76941 E0.04838
G1 X57.60315 Y173.24756 E0.05797
G1 X57.95503 Y174.82482 E0.0576
G1 X57.99819 Y186.36295 E0.41125
G1 X57.87385 Y187.49057 E0.04043
G1 X57.33488 Y189.17993 E0.0632
G1 X56.39442 Y190.74408 E0.06505
G1 X55.03696 Y192.12628 E0.06905
G1 X53.63044 Y193.02037 E0.0594
G1 X52.24145 Y193.54984 E0.05298
G1 X50.78491 Y193.79711 E0.05266
G1 X47.55155 Y193.81068 E0.11525
G1 X46.4473 Y193.68807 E0.0396
G1 X44.96144 Y193.23519 E0.05536
G1 X43.72004 Y192.59763 E0.04974
G1 X42.24895 Y191.36536 E0.0684
G1 X41.04989 Y189.72054 E0.07255
G1 X40.42215 Y188.21409 E0.05817
G1 X40.14688 Y186.80227 E0.05127
G1 X40.11498 Y175.37201 E0.4074
G1 X40.23907 Y174.24969 E0.04025
G1 X40.77092 Y172.57573 E0.0626
G1 X41.66854 Y171.05933 E0.06281
G1 X43.00195 Y169.67359 E0.06854
G1 X44.35479 Y168.78306 E0.05773
G1 X45.42836 Y168.34672 E0.0413
M107
G1 X45.55859 Y168.66928 F3600000
M107
G1 F3000
G1 X45.79908 Y168.57218 E0.00924
G1 X47.18082 Y168.30404 E0.05017
G1 X50.92005 Y168.30159 E0.13327
G1 X52.85427 Y168.75212 E0.07079
G1 X53.95032 Y169.28378 E0.04342
G1 X54.96052 Y170.00365 E0.04421
G1 X55.87384 Y170.90711 E0.04579
G1 X56.63195 Y171.95926 E0.04622
G1 X57.27857 Y173.37573 E0.0555
G1 X57.60661 Y174.84496 E0.05366
G1 X57.64966 Y186.35427 E0.41022
G1 X57.52943 Y187.43469 E0.03875
G1 X57.0093 Y189.05399 E0.06062
G1 X56.10683 Y190.5462 E0.06216
G1 X54.80292 Y191.8673 E0.06616
G1 X53.45916 Y192.71636 E0.05665
G1 X52.13408 Y193.21786 E0.0505
G1 X50.74133 Y193.45106 E0.05033
G1 X47.56037 Y193.46215 E0.11338
G1 X46.50224 Y193.34355 E0.03795
G1 X45.07858 Y192.9066 E0.05308
G1 X43.89716 Y192.29687 E0.04739
G1 X42.48961 Y191.11241 E0.06557
G1 X41.34408 Y189.5326 E0.06955
G1 X40.75087 Y188.09708 E0.05536
G1 X40.49533 Y186.78477 E0.04765
G1 X40.4635 Y175.38097 E0.40646
G1 X40.5835 Y174.30553 E0.03857
G1 X41.0968 Y172.70079 E0.06005
G1 X41.95765 Y171.25497 E0.05998
G1 X43.23898 Y169.9298 E0.0657
G1 X44.53134 Y169.08401 E0.05505
G1 X45.50295 Y168.69174 E0.03735
M107
G1 X45.63234 Y169.01449 F3600000
M107
G1 F3000
G1 X45.91323 Y168.90188 E0.01079
G1 X47.2302 Y168.64942 E0.04779
G1 X50.90003 Y168.65008 E0.1308
G1 X52.71965 Y169.07414 E0.06659
G1 X53.78493 Y169.59089 E0.0422
G1 X54.74632 Y170.2789 E0.04214
G1 X55.61802 Y171.14421 E0.04378
G1 X56.33884 Y172.14854 E0.04406
G1 X56.9538 Y173.5034 E0.05303
G1 X57.25818 Y174.86511 E0.04973
G1 X57.30113 Y186.3455 E0.40919
G1 X57.18507 Y187.37836 E0.03705
