; generated by SuperSlicer 2.5.59.9 on 2024-05-04 at 21:36:55 UTC


;
;

;
;

;
;

;
;

;
;
; 

; external perimeters extrusion width = 0.40mm
; perimeters extrusion width = 0.40mm
; infill extrusion width = 0.40mm
; solid infill extrusion width = 0.40mm
; top infill extrusion width = 0.40mm

; external perimeters extrusion width = 0.40mm
; perimeters extrusion width = 0.40mm
; infill extrusion width = 0.40mm
; solid infill extrusion width = 0.40mm
; top infill extrusion width = 0.40mm

; external perimeters extrusion width = 0.40mm
; perimeters extrusion width = 0.40mm
; infill extrusion width = 0.40mm
; solid infill extrusion width = 0.40mm
; top infill extrusion width = 0.40mm

; external perimeters extrusion width = 0.40mm
; perimeters extrusion width = 0.40mm
; infill extrusion width = 0.40mm
; solid infill extrusion width = 0.40mm
; top infill extrusion width = 0.40mm

; external perimeters extrusion width = 0.40mm
; perimeters extrusion width = 0.40mm
; infill extrusion width = 0.40mm
; solid infill extrusion width = 0.40mm
; top infill extrusion width = 0.40mm

; object:{"name":"bridge_test","id":"bridge_test id:0 copy 0","object_center":[95.032645,27.861252,0.000000],"boundingbox_center":[95.032645,27.861252,2.500000],"boundingbox_size":[10.093355,42.042096,5.000000]}
EXCLUDE_OBJECT_DEFINE NAME=bridge_test_id_0_copy_0 CENTER=95.032645,27.861252 POLYGON=[[89.99,6.88],[99.99,6.84],[99.99,7.84],[100.06,25.34],[100.08,28.84],[95.16,48.86],[90.16,48.88],[90.16,47.88],[89.99,7.88],[89.99,6.88]]
; object:{"name":"bridge_test","id":"bridge_test id:1 copy 0","object_center":[37.969196,28.669641,0.000000],"boundingbox_center":[37.969196,28.669641,2.500000],"boundingbox_size":[10.093355,42.042096,5.000000]}
EXCLUDE_OBJECT_DEFINE NAME=bridge_test_id_1_copy_0 CENTER=37.969196,28.669641 POLYGON=[[32.92,7.69],[42.92,7.65],[42.94,11.15],[43.00,26.15],[43.02,29.65],[38.10,49.67],[33.10,49.69],[33.09,47.69],[32.94,11.19],[32.92,7.69]]
; object:{"name":"bridge_test","id":"bridge_test id:2 copy 0","object_center":[99.543527,183.940577,0.000000],"boundingbox_center":[99.543527,183.940577,2.500000],"boundingbox_size":[10.093355,42.042096,5.000000]}
EXCLUDE_OBJECT_DEFINE NAME=bridge_test_id_2_copy_0 CENTER=99.543527,183.940577 POLYGON=[[94.50,162.96],[104.50,162.92],[104.50,163.92],[104.58,181.42],[104.59,184.92],[99.68,204.94],[94.68,204.96],[94.67,203.96],[94.50,163.96],[94.50,162.96]]
; object:{"name":"bridge_test","id":"bridge_test id:3 copy 0","object_center":[14.844237,185.004621,0.000000],"boundingbox_center":[14.844237,185.004621,2.500000],"boundingbox_size":[10.093355,42.042096,5.000000]}
EXCLUDE_OBJECT_DEFINE NAME=bridge_test_id_3_copy_0 CENTER=14.844237,185.004621 POLYGON=[[9.80,164.03],[19.80,163.98],[19.81,165.98],[19.88,182.48],[19.89,184.98],[19.89,185.98],[14.98,206.00],[9.98,206.03],[9.80,165.03],[9.80,164.03]]
; object:{"name":"bridge_test","id":"bridge_test id:4 copy 0","object_center":[58.450039,113.501292,0.000000],"boundingbox_center":[58.450039,113.501292,2.500000],"boundingbox_size":[10.093355,42.042096,5.000000]}
EXCLUDE_OBJECT_DEFINE NAME=bridge_test_id_4_copy_0 CENTER=58.450039,113.501292 POLYGON=[[53.40,92.52],[63.40,92.48],[63.50,114.48],[58.58,134.50],[53.58,134.52],[53.41,94.52],[53.40,92.52]]
; plater:{"center":[57.193882,106.432936,0.000000],"boundingbox_center":[57.193882,106.432936,2.500000],"boundingbox_size":[94.792644,199.185465,5.000000]}

M73 P0 R24
M107
;TYPE:Custom
CALCULATE_PA MATERIAL=ASA BOWDEN_LENGTH=6 LAYER_HEIGHT=0.24 NOZZLE_SIZE=0.4 PRINT_SPEED=95%


START_PRINT EXTRUDER=260 BED=105

M107
G21 ; set units to millimeters
G90 ; use absolute coordinates
M83 ; use relative distances for extrusion
ACTIVATE_EXTRUDER EXTRUDER=extruder
; Filament gcode
M104 S260 T0 ; set temperature
M109 S260 T0 ; set temperature and wait for it to be reached
M190 S105 ; set bed temperature and wait for it to be reached
;LAYER_CHANGE
;Z:0.24
;HEIGHT:0.24
;BEFORE_LAYER_CHANGE
G92 E0.0

G1 E-0.3 F3000
M73 P1 R23
G1 Z0.4 F3600000
;AFTER_LAYER_CHANGE
;0.24




CALCULATE_PA MATERIAL=ASA BOWDEN_LENGTH=6.0 LAYER_HEIGHT=0.2 NOZZLE_SIZE=0.4 PRINT_SPEED=0.9025


G92 E0
G1 X8.78146 Y154.37452
G1 Z0.24
G1 E0.3 F3000
;TYPE:Skirt
;WIDTH:0.4
M107
G1 X21.2473 Y154.37726 E0.44431
G1 X23.34406 Y154.91784 E0.07718
G1 X24.83483 Y155.64446 E0.05911
G1 X26.15038 Y156.60622 E0.05808
G1 X27.36309 Y157.85428 E0.06203
G1 X28.37935 Y159.37696 E0.06525
G1 X29.17311 Y161.39095 E0.07716
G1 X29.44858 Y162.95694 E0.05667
G1 X29.49203 Y166.57185 E0.12885
G1 X29.19878 Y168.51032 E0.06988
G1 X28.52753 Y170.31797 E0.06873
G1 X27.48052 Y171.97892 E0.06998
G1 X26.01754 Y173.48377 E0.07481
G1 X24.51113 Y174.51092 E0.06499
G1 X23.50476 Y174.94614 E0.03908
G1 X24.87183 Y175.61569 E0.05426
G1 X26.10884 Y176.49779 E0.05415
G1 X27.31839 Y177.69666 E0.0607
G1 X28.32924 Y179.13283 E0.0626
G1 X29.09413 Y180.84474 E0.06683
G1 X29.53698 Y183.00172 E0.07848
G1 X29.4887 Y187.50344 E0.16046
G1 X29.11111 Y189.09382 E0.05826
G1 X28.45933 Y190.61544 E0.059
G1 X27.42998 Y192.14633 E0.06575
G1 X26.04101 Y193.53304 E0.06996
G1 X24.41838 Y194.60794 E0.06937
G1 X22.61731 Y195.31884 E0.06901
G1 X20.62389 Y195.66265 E0.0721
G1 X19.99528 Y195.66409 E0.02241
G1 X21.19385 Y196.51887 E0.05247
G1 X22.38351 Y197.69428 E0.05961
G1 X23.39756 Y199.12467 E0.06249
G1 X24.17913 Y200.8658 E0.06802
G1 X24.62197 Y203.02278 E0.07848
G1 X24.57369 Y207.5245 E0.16046
G1 X24.1961 Y209.11488 E0.05826
G1 X23.55988 Y210.60779 E0.05784
G1 X22.53651 Y212.14123 E0.06571
G1 X21.12557 Y213.55446 E0.07118
G1 X19.50311 Y214.62911 E0.06936
G1 X17.66787 Y215.34948 E0.07027
G1 X15.67923 Y215.6862 E0.07189
G1 X8.91121 Y215.67437 E0.24123
G1 X6.99721 Y215.28947 E0.06959
G1 X5.22391 Y214.52843 E0.06878
G1 X3.80443 Y213.55772 E0.06129
G1 X2.46302 Y212.22022 E0.06752
G1 X1.39157 Y210.62915 E0.06837
G1 X0.67323 Y208.87028 E0.06772
G1 X0.31821 Y206.98555 E0.06836
G1 X0.33579 Y202.78647 E0.14967
G1 X0.75975 Y200.8751 E0.06978
G1 X1.49688 Y199.21626 E0.0647
G1 X2.44228 Y197.84572 E0.05934
G1 X3.70644 Y196.56812 E0.06406
G1 X5.24464 Y195.50625 E0.06662
G1 X6.94733 Y194.77652 E0.06603
G1 X8.83697 Y194.38478 E0.06878
G1 X9.94986 Y194.38196 E0.03967
G1 X8.71944 Y193.53667 E0.05321
G1 X7.37802 Y192.19916 E0.06752
G1 X6.30657 Y190.60809 E0.06837
G1 X5.57835 Y188.81551 E0.06896
G1 X5.23026 Y186.93161 E0.06828
G1 X5.25079 Y182.76541 E0.1485
G1 X5.68571 Y180.82098 E0.07102
G1 X6.41188 Y179.1952 E0.06346
G1 X7.33769 Y177.84831 E0.05825
G1 X8.62145 Y176.54707 E0.06515
G1 X9.87448 Y175.68135 E0.05428
G1 X8.81805 Y175.68255 E0.03765
G1 X6.87808 Y175.30468 E0.07044
G1 X5.20492 Y174.6103 E0.06457
G1 X3.71026 Y173.61964 E0.06391
G1 X2.31449 Y172.24827 E0.06974
G1 X1.15759 Y170.50317 E0.07463
G1 X0.40687 Y168.52421 E0.07544
G1 X0.12466 Y166.70312 E0.06568
G1 X0.13176 Y163.18108 E0.12553
G1 X0.39609 Y161.53154 E0.05954
G1 X1.1096 Y159.62437 E0.07258
G1 X2.20663 Y157.92569 E0.07207
G1 X3.58274 Y156.52837 E0.0699
G1 X5.08219 Y155.50444 E0.06472
G1 X6.7482 Y154.78479 E0.06468
G1 X8.72264 Y154.38638 E0.07179
M107
G1 X8.79084 Y154.72463 F3600000
M107
G1 F3000
G1 X21.18205 Y154.72029 E0.44165
G1 X23.20767 Y155.23902 E0.07453
G1 X24.64212 Y155.93524 E0.05683
G1 X25.91109 Y156.86001 E0.05597
G1 X27.08214 Y158.0611 E0.05979
G1 X28.07916 Y159.55495 E0.06401
G1 X28.83301 Y161.46896 E0.07332
G1 X29.10029 Y162.97555 E0.05454
G1 X29.14533 Y166.53375 E0.12683
G1 X28.85691 Y168.44032 E0.06873
G1 X28.20732 Y170.17928 E0.06616
G1 X27.21795 Y171.74906 E0.06614
G1 X25.78 Y173.22815 E0.07353
G1 X24.32916 Y174.21324 E0.0625
G1 X22.7342 Y174.89752 E0.06186
G1 X22.28529 Y174.9883 E0.01632
G1 X23.37037 Y175.26802 E0.03994
G1 X24.68156 Y175.90802 E0.052
G1 X25.87391 Y176.75559 E0.05214
G1 X27.04265 Y177.91032 E0.05856
G1 X28.01827 Y179.29103 E0.06026
G1 X28.75662 Y180.93362 E0.06419
G1 X29.19186 Y183.0536 E0.07714
G1 X29.14508 Y187.44222 E0.15643
G1 X28.78465 Y188.97093 E0.05598
G1 X28.16069 Y190.43508 E0.05673
G1 X27.17166 Y191.91179 E0.06335
G1 X25.80721 Y193.27401 E0.06872
G1 X24.24168 Y194.30701 E0.06685
G1 X22.50664 Y194.9879 E0.06643
G1 X20.57995 Y195.31662 E0.06966
G1 X18.50435 Y195.31299 E0.07398
G1 X19.76653 Y195.92905 E0.05006
G1 X20.95893 Y196.77666 E0.05214
G1 X22.12765 Y197.93139 E0.05856
G1 X23.10325 Y199.31206 E0.06026
G1 X23.84161 Y200.95468 E0.06419
G1 X24.27686 Y203.07465 E0.07714
G1 X24.23008 Y207.46328 E0.15643
G1 X23.86965 Y208.99199 E0.05598
G1 X23.24568 Y210.45614 E0.05673
G1 X22.25648 Y211.9331 E0.06336
G1 X20.89179 Y213.29542 E0.06873
G1 X19.32643 Y214.32817 E0.06684
G1 X17.59164 Y215.00895 E0.06642
G1 X15.66495 Y215.33768 E0.06966
G1 X8.92913 Y215.32591 E0.24008
G1 X7.08421 Y214.95153 E0.0671
G1 X5.37739 Y214.2151 E0.06626
G1 X4.03913 Y213.29961 E0.05779
G1 X2.72118 Y211.9855 E0.06634
G1 X1.69094 Y210.44984 E0.06591
G1 X1.00272 Y208.75542 E0.06518
G1 X0.66383 Y206.93789 E0.0659
G1 X0.68418 Y202.80697 E0.14724
G1 X1.09601 Y200.96826 E0.06716
G1 X1.80854 Y199.37303 E0.06227
G1 X2.7008 Y198.07993 E0.056
G1 X3.94263 Y196.8249 E0.06293
G1 X5.42782 Y195.80323 E0.06425
G1 X7.06794 Y195.10395 E0.06355
G1 X8.88973 Y194.72971 E0.06629
G1 X11.53821 Y194.73157 E0.0944
G1 X10.29239 Y194.19404 E0.04836
G1 X8.95415 Y193.27856 E0.05779
G1 X7.63618 Y191.96444 E0.06634
G1 X6.60594 Y190.42879 E0.06591
G1 X5.91772 Y188.73436 E0.06518
G1 X5.57883 Y186.91683 E0.0659
G1 X5.59919 Y182.78591 E0.14724
G1 X6.01101 Y180.9472 E0.06716
G1 X6.72354 Y179.35197 E0.06227
G1 X7.6158 Y178.05887 E0.056
G1 X8.85763 Y176.80384 E0.06293
G1 X10.34283 Y175.78216 E0.06425
G1 X11.41228 Y175.3262 E0.04144
G1 X8.86785 Y175.33721 E0.09069
G1 X6.96209 Y174.966 E0.0692
G1 X5.35442 Y174.29507 E0.06209
G1 X3.94222 Y173.35904 E0.06039
G1 X2.59447 Y172.03996 E0.06722
G1 X1.47627 Y170.36079 E0.07191
G1 X0.74837 Y168.4524 E0.0728
G1 X0.47318 Y166.69015 E0.06357
G1 X0.48023 Y163.19557 E0.12456
G1 X0.73735 Y161.6043 E0.05745
G1 X1.42923 Y159.7645 E0.07006
G1 X2.46771 Y158.1572 E0.06821
G1 X3.79335 Y156.80655 E0.06745
G1 X5.26481 Y155.80173 E0.06351
G1 X6.86924 Y155.11209 E0.06224
G1 X8.73203 Y154.73648 E0.06773
M107
G1 X8.80023 Y155.07811 F3600000
M107
G1 F3000
G1 X8.85024 Y155.06812 E0.00182
G1 X21.16008 Y155.06879 E0.43875
G1 X23.07163 Y155.56033 E0.07035
G1 X24.44987 Y156.22633 E0.05456
G1 X25.67225 Y157.11421 E0.05385
G1 X26.80128 Y158.26805 E0.05754
G1 X27.77895 Y159.73291 E0.06277
G1 X28.49301 Y161.54734 E0.0695
M73 P2 R23
G1 X28.752 Y162.9943 E0.05239
G1 X28.79668 Y166.52387 E0.12581
G1 X28.51514 Y168.36983 E0.06656
G1 X27.88739 Y170.03995 E0.06359
G1 X26.93323 Y171.54728 E0.06358
G1 X25.54295 Y172.97209 E0.07095
G1 X24.14779 Y173.91519 E0.06002
G1 X22.61388 Y174.56996 E0.05944
G1 X20.76366 Y174.9405 E0.06726
G1 X8.88372 Y174.98864 E0.42343
G1 X7.04671 Y174.62747 E0.06673
G1 X5.50441 Y173.98007 E0.05962
G1 X4.17419 Y173.09843 E0.05688
G1 X2.85135 Y171.80375 E0.06597
G1 X1.77738 Y170.18428 E0.06926
G1 X1.08981 Y168.38029 E0.06881
G1 X0.8217 Y166.67706 E0.06145
G1 X0.8287 Y163.21 E0.12357
G1 X1.06984 Y161.71012 E0.05415
G1 X1.7324 Y159.93737 E0.06745
G1 X2.72891 Y158.38859 E0.06564
G1 X4.03 Y157.06295 E0.0662
G1 X5.44686 Y156.09937 E0.06107
G1 X6.98966 Y155.43962 E0.05981
G1 X8.7414 Y155.08986 E0.06367
M107
G1 X8.80892 Y155.43152 F3600000
M107
G1 F3000
G1 X8.90113 Y155.4133 E0.00335
G1 X21.09502 Y155.41185 E0.43462
G1 X22.93616 Y155.88188 E0.06773
G1 X24.25811 Y156.51774 E0.05228
G1 X25.43388 Y157.36885 E0.05173
G1 X26.5205 Y158.47514 E0.05527
G1 X27.47873 Y159.91086 E0.06152
G1 X28.1531 Y161.62611 E0.06569
G1 X28.40372 Y163.01319 E0.05024
G1 X28.44803 Y166.51387 E0.12478
G1 X28.17347 Y168.29883 E0.06437
G1 X27.56776 Y169.89995 E0.06101
G1 X26.64892 Y171.34493 E0.06103
G1 X25.30641 Y172.71555 E0.06838
G1 X23.96704 Y173.61677 E0.05754
G1 X22.4942 Y174.24217 E0.05703
G1 X20.71231 Y174.59541 E0.06475
G1 X8.89982 Y174.64009 E0.42103
G1 X7.13199 Y174.2891 E0.06424
G1 X5.65489 Y173.66533 E0.05715
G1 X4.40614 Y172.83782 E0.05339
G1 X3.10822 Y171.56752 E0.06473
G1 X2.09592 Y170.04164 E0.06527
G1 X1.43114 Y168.30769 E0.06619
G1 X1.17022 Y166.66371 E0.05933
G1 X1.17502 Y163.25113 E0.12163
G1 X1.40256 Y161.81521 E0.05182
G1 X2.03567 Y160.11008 E0.06483
G1 X3.01225 Y158.59229 E0.06433
G1 X4.26614 Y157.31982 E0.06367
G1 X5.62833 Y156.39737 E0.05864
G1 X7.10945 Y155.76737 E0.05737
G1 X8.75005 Y155.44316 E0.05961
M107
G1 X8.81686 Y155.78487 F3600000
M107
G1 F3000
G1 X8.95146 Y155.75856 E0.00489
G1 X21.07307 Y155.76034 E0.43204
G1 X22.80105 Y156.20358 E0.06358
G1 X24.06686 Y156.80948 E0.05002
G1 X25.196 Y157.62395 E0.04962
G1 X26.23983 Y158.68238 E0.05298
G1 X27.17849 Y160.08877 E0.06027
G1 X27.8133 Y161.70529 E0.0619
G1 X28.05544 Y163.03223 E0.04808
G1 X28.09938 Y166.50376 E0.12374
G1 X27.8319 Y168.22729 E0.06217
G1 X27.24843 Y169.75924 E0.05843
G1 X26.36503 Y171.14198 E0.05848
G1 X25.07038 Y172.45854 E0.06581
G1 X23.78694 Y173.31796 E0.05505
G1 X22.37517 Y173.91414 E0.05462
G1 X20.66151 Y174.25024 E0.06224
G1 X8.91616 Y174.29153 E0.41863
G1 X7.21796 Y173.95091 E0.06173
G1 X5.8059 Y173.35084 E0.05469
G1 X4.63809 Y172.5772 E0.04993
G1 X3.36523 Y171.33143 E0.06348
G1 X2.3972 Y169.86545 E0.06261
G1 X1.7724 Y168.23476 E0.06224
G1 X1.51872 Y166.65008 E0.0572
G1 X1.52142 Y163.2916 E0.1197
G1 X1.73552 Y161.91954 E0.0495
G1 X2.33932 Y160.28214 E0.0622
G1 X3.27323 Y158.82395 E0.06172
G1 X4.50216 Y157.57682 E0.06241
G1 X5.80917 Y156.69574 E0.05618
G1 X7.22858 Y156.09537 E0.05493
G1 X8.75797 Y155.79638 E0.05554
M107
G1 X8.82403 Y156.13813 F3600000
M107
G1 F3000
G1 X9.00125 Y156.10388 E0.00643
G1 X21.00819 Y156.10343 E0.42796
G1 X22.66658 Y156.52553 E0.06099
G1 X23.87613 Y157.10156 E0.04775
G1 X24.95865 Y157.87954 E0.04751
G1 X25.95927 Y158.88977 E0.05068
G1 X26.87823 Y160.26665 E0.059
G1 X27.47361 Y161.78489 E0.05813
G1 X27.70716 Y163.05143 E0.0459
G1 X27.75073 Y166.49352 E0.12269
G1 X27.49045 Y168.15519 E0.05995
G1 X26.92944 Y169.61778 E0.05583
G1 X26.08158 Y170.93842 E0.05594
G1 X24.8349 Y172.20102 E0.06324
G1 X23.60751 Y173.01875 E0.05257
G1 X22.25681 Y173.58587 E0.05221
G1 X20.61128 Y173.90499 E0.05974
G1 X8.93275 Y173.94298 E0.41625
G1 X7.30465 Y173.6129 E0.05921
G1 X5.95744 Y173.03662 E0.05223
G1 X4.87002 Y172.31657 E0.04648
G1 X3.62223 Y171.09533 E0.06223
G1 X2.71559 Y169.72252 E0.05864
G1 X2.11355 Y168.1613 E0.05964
G1 X1.86722 Y166.63618 E0.05506
G1 X1.86789 Y163.33137 E0.11779
G1 X2.06873 Y162.02308 E0.04718
G1 X2.64335 Y160.45352 E0.05957
G1 X3.53435 Y159.05547 E0.05909
G1 X4.73803 Y157.83396 E0.06112
G1 X5.98936 Y156.99452 E0.05371
G1 X7.34701 Y156.42362 E0.05249
G1 X8.76512 Y156.14952 E0.05148
M107
G1 X8.83039 Y156.4913 F3600000
M107
G1 F3000
G1 X9.05049 Y156.44927 E0.00799
G1 X20.94382 Y156.44661 E0.42391
G1 X22.53277 Y156.84776 E0.05841
G1 X23.68595 Y157.39401 E0.04548
G1 X24.72186 Y158.13564 E0.04541
G1 X25.67881 Y159.09733 E0.04836
G1 X26.57794 Y160.44449 E0.05773
G1 X27.13404 Y161.86495 E0.05437
G1 X27.35888 Y163.07081 E0.04372
G1 X27.40208 Y166.48316 E0.12163
G1 X27.14912 Y168.0825 E0.05771
G1 X26.61079 Y169.47555 E0.05323
G1 X25.7986 Y170.73422 E0.05339
G1 X24.59999 Y171.94299 E0.06067
G1 X23.42881 Y172.7191 E0.05008
G1 X22.13917 Y173.25734 E0.04981
G1 X20.56164 Y173.55966 E0.05725
G1 X8.94961 Y173.59443 E0.41388
G1 X7.39211 Y173.27509 E0.05667
G1 X6.10954 Y172.72269 E0.04977
G1 X5.10194 Y172.05592 E0.04306
G1 X3.87938 Y170.85938 E0.06097
G1 X3.01707 Y169.54673 E0.05598
G1 X2.45461 Y168.08747 E0.05574
G1 X2.21571 Y166.62199 E0.05292
G1 X2.21444 Y163.37042 E0.11589
G1 X2.40219 Y162.1258 E0.04486
G1 X2.94779 Y160.62417 E0.05694
G1 X3.79562 Y159.28684 E0.05644
G1 X4.97376 Y158.09125 E0.05983
G1 X6.16883 Y157.29371 E0.05121
G1 X7.46473 Y156.75213 E0.05006
G1 X8.77146 Y156.50256 E0.04742
M107
G1 X8.83592 Y156.84437 F3600000
M107
G1 F3000
G1 X9.0991 Y156.79474 E0.00955
G1 X20.92212 Y156.79511 E0.4214
G1 X22.39938 Y157.17015 E0.05432
G1 X23.49634 Y157.68682 E0.04322
G1 X24.48567 Y158.3923 E0.04331
G1 X25.39848 Y159.30507 E0.04601
G1 X26.27761 Y160.62228 E0.05644
G1 X26.79459 Y161.9455 E0.05063
G1 X27.01061 Y163.09037 E0.04153
G1 X27.05342 Y166.47265 E0.12056
