; generated by SuperSlicer 2.5.59.9 on 2024-05-05 at 14:41:28 UTC


;
;

;
;

;
;

;
;

;
;
; 

; external perimeters extrusion width = 0.40mm
; perimeters extrusion width = 0.40mm
; infill extrusion width = 0.40mm
; solid infill extrusion width = 0.40mm
; top infill extrusion width = 0.40mm

; object:{"name":"din-rail-bracket_raspberry-pi","id":"din-rail-bracket_raspberry-pi id:0 copy 0","object_center":[39.994805,134.787115,0.000000],"boundingbox_center":[39.994805,134.787115,3.750000],"boundingbox_size":[55.997391,64.997391,7.500000]}
EXCLUDE_OBJECT_DEFINE NAME=din_rail_bracket_raspberry_pi_id_0_copy_0 CENTER=39.994805,134.787115 POLYGON=[[12.00,105.88],[12.00,105.62],[12.02,105.36],[12.06,105.10],[12.12,104.85],[12.20,104.60],[12.30,104.36],[12.42,104.12],[12.55,103.90],[12.70,103.68],[12.87,103.48],[13.05,103.29],[13.24,103.11],[13.44,102.95],[13.66,102.80],[13.89,102.68],[14.13,102.57],[14.37,102.47],[14.62,102.40],[14.88,102.34],[15.14,102.31],[15.40,102.29],[64.59,102.29],[64.85,102.31],[65.11,102.34],[65.37,102.40],[65.62,102.47],[65.86,102.57],[66.10,102.68],[66.33,102.80],[66.54,102.95],[66.75,103.11],[66.94,103.29],[67.12,103.48],[67.29,103.68],[67.44,103.90],[67.57,104.12],[67.69,104.36],[67.79,104.60],[67.87,104.85],[67.93,105.10],[67.97,105.36],[67.99,105.62],[67.99,105.88],[67.99,163.69],[67.99,163.95],[67.97,164.21],[67.93,164.47],[67.87,164.73],[67.79,164.98],[67.69,165.22],[67.57,165.45],[67.44,165.68],[67.29,165.89],[67.12,166.10],[66.94,166.29],[66.75,166.46],[66.54,166.62],[66.33,166.77],[66.10,166.90],[65.86,167.01],[65.62,167.10],[65.37,167.18],[65.11,167.23],[64.85,167.27],[64.59,167.29],[15.40,167.29],[15.14,167.27],[14.88,167.23],[14.62,167.18],[14.37,167.10],[14.13,167.01],[13.89,166.90],[13.66,166.77],[13.44,166.62],[13.24,166.46],[13.05,166.29],[12.87,166.10],[12.70,165.89],[12.55,165.68],[12.42,165.45],[12.30,165.22],[12.20,164.98],[12.12,164.73],[12.06,164.47],[12.02,164.21],[12.00,163.95],[12.00,163.69],[12.00,105.88]]
; plater:{"center":[39.994805,134.787115,0.000000],"boundingbox_center":[39.994805,134.787115,3.750000],"boundingbox_size":[55.997391,64.997391,7.500000]}

M73 P0 R41
M107
;TYPE:Custom
CALCULATE_PA MATERIAL=ASA BOWDEN_LENGTH=6 LAYER_HEIGHT=0.24 NOZZLE_SIZE=0.4 PRINT_SPEED=50%


START_PRINT EXTRUDER=260 BED=105

G21 ; set units to millimeters
G90 ; use absolute coordinates
M83 ; use relative distances for extrusion
ACTIVATE_EXTRUDER EXTRUDER=extruder
; Filament gcode
M104 S260 T0 ; set temperature
M109 S260 T0 ; set temperature and wait for it to be reached
M190 S105 ; set bed temperature and wait for it to be reached
;LAYER_CHANGE
;Z:0.24
;HEIGHT:0.24
;BEFORE_LAYER_CHANGE
G92 E0.0

G1 E-0.4 F3000
G1 Z0.4 F3600000
;AFTER_LAYER_CHANGE
;0.24




CALCULATE_PA MATERIAL=ASA BOWDEN_LENGTH=6.0 LAYER_HEIGHT=0.2 NOZZLE_SIZE=0.4 PRINT_SPEED=0.45


G92 E0
G1 X14.39096 Y95.13169
G1 Z0.24
G1 E0.4 F3000
;TYPE:Skirt
;WIDTH:0.4
M107
G1 F2700
G1 X15.70532 Y95.07726 E0.04666
G1 X16.6261 Y95.13427 E0.03272
G1 X20.5002 Y95.572 E0.13828
G1 X24.20115 Y95.91697 E0.13184
G1 X27.93025 Y96.19109 E0.13262
G1 X29.75158 Y96.29813 E0.06471
G1 X33.48521 Y96.46263 E0.13255
G1 X37.20511 Y96.55363 E0.13198
G1 X40.92523 Y96.57182 E0.13195
G1 X44.66235 Y96.51697 E0.13256
G1 X46.48586 Y96.46343 E0.06471
G1 X50.23802 Y96.29813 E0.13321
G1 X52.05938 Y96.19109 E0.06471
G1 X55.7868 Y95.9171 E0.13256
G1 X59.49214 Y95.5717 E0.13199
G1 X63.45653 Y95.12636 E0.1415
G1 X64.24998 Y95.0773 E0.0282
G1 X65.09608 Y95.09175 E0.03001
G1 X66.25279 Y95.22044 E0.04128
G1 X67.38087 Y95.47021 E0.04098
G1 X68.49166 Y95.84849 E0.04162
G1 X69.56276 Y96.34935 E0.04194
G1 X70.55475 Y96.953 E0.04119
G1 X71.48169 Y97.66672 E0.04149
G1 X72.31489 Y98.46613 E0.04095
G1 X73.06231 Y99.3556 E0.04121
G1 X73.66856 Y100.25538 E0.03848
G1 X74.18699 Y101.22496 E0.039
G1 X74.61433 Y102.27148 E0.04009
G1 X74.92185 Y103.32996 E0.03909
G1 X75.1237 Y104.4543 E0.04052
G1 X75.20697 Y105.65463 E0.04268
G1 X75.14694 Y106.91921 E0.0449
G1 X74.98197 Y107.96908 E0.03769
G1 X74.72403 Y108.96826 E0.0366
G1 X74.36516 Y109.95139 E0.03712
G1 X73.91032 Y110.89594 E0.03718
G1 X73.33126 Y111.84186 E0.03934
G1 X72.65245 Y112.73033 E0.03966
G1 X71.83804 Y113.58717 E0.04193
G1 X70.96561 Y114.32382 E0.0405
G1 X70.06763 Y114.93598 E0.03855
G1 X69.11788 Y115.45109 E0.03832
G1 X68.05494 Y115.89057 E0.0408
G1 X66.88768 Y116.2285 E0.0431
G1 X65.93227 Y116.40264 E0.03445
G1 X63.69543 Y116.66786 E0.07989
G1 X59.57353 Y117.09181 E0.14697
G1 X56.20746 Y117.36486 E0.11978
G1 X56.20746 Y152.20492 E1.23572
G1 X57.53996 Y152.30333 E0.04739
G1 X61.64785 Y152.68553 E0.14633
G1 X65.90482 Y153.16755 E0.15195
G1 X66.89129 Y153.34608 E0.03556
G1 X67.85451 Y153.61617 E0.03548
G1 X68.8333 Y153.99248 E0.03719
G1 X69.97636 Y154.58333 E0.04564
G1 X70.9855 Y155.26563 E0.04321
G1 X71.90389 Y156.04976 E0.04283
G1 X72.77911 Y156.99843 E0.04578
G1 X73.55203 Y158.06836 E0.04681
G1 X74.16378 Y159.18023 E0.04501
G1 X74.63652 Y160.33766 E0.04434
G1 X74.97481 Y161.57059 E0.04535
G1 X75.16055 Y162.7881 E0.04368
G1 X75.2045 Y164.03485 E0.04425
G1 X75.1015 Y165.28605 E0.04453
G1 X74.92386 Y166.23598 E0.03428
G1 X74.62852 Y167.26099 E0.03783
G1 X74.22613 Y168.26469 E0.03835
G1 X73.6544 Y169.34183 E0.04325
G1 X72.99896 Y170.30222 E0.04124
G1 X72.22852 Y171.19917 E0.04194
G1 X71.30603 Y172.05573 E0.04465
G1 X70.4958 Y172.66118 E0.03587
G1 X69.49551 Y173.25866 E0.04133
G1 X68.05662 Y173.88982 E0.05573
G1 X66.72487 Y174.26348 E0.04906
G1 X65.72791 Y174.42817 E0.03584
G1 X64.72334 Y174.49691 E0.03571
G1 X63.35319 Y174.43933 E0.04864
G1 X61.35959 Y174.2042 E0.0712
G1 X57.62134 Y173.81881 E0.13329
G1 X55.80539 Y173.6585 E0.06466
G1 X52.05935 Y173.38313 E0.13322
G1 X50.23806 Y173.27609 E0.06471
G1 X46.50437 Y173.11159 E0.13256
G1 X42.76551 Y173.02014 E0.13265
M73 P1 R41
G1 X40.94405 Y173.0023 E0.06461
G1 X37.20485 Y173.0206 E0.13263
G1 X33.48523 Y173.11159 E0.13197
G1 X29.75155 Y173.27609 E0.13256
G1 X27.93026 Y173.38313 E0.06471
G1 X24.20267 Y173.65715 E0.13257
G1 X20.47332 Y174.00477 E0.13285
G1 X15.58803 Y174.50265 E0.17417
G1 X14.47474 Y174.44966 E0.03953
G1 X13.36669 Y174.2825 E0.03975
G1 X12.12639 Y173.95439 E0.0455
G1 X10.93143 Y173.48027 E0.0456
G1 X10.25348 Y173.13005 E0.02706
G1 X9.59176 Y172.7272 E0.02748
G1 X8.79009 Y172.14356 E0.03517
G1 X7.79629 Y171.23513 E0.04776
G1 X6.93318 Y170.22604 E0.0471
G1 X6.02119 Y168.78722 E0.06042
G1 X5.45933 Y167.53103 E0.04881
G1 X5.09057 Y166.33835 E0.04428
G1 X4.86674 Y165.12488 E0.04377
G1 X4.78187 Y163.85571 E0.04512
G1 X4.88095 Y162.34884 E0.05356
G1 X5.16243 Y160.9618 E0.0502
G1 X5.55987 Y159.77986 E0.04423
G1 X6.13815 Y158.5716 E0.04751
G1 X6.8645 Y157.44144 E0.04765
G1 X7.74428 Y156.39583 E0.04847
G1 X8.70971 Y155.49755 E0.04677
G1 X9.84798 Y154.6841 E0.04962
G1 X11.05343 Y154.03828 E0.0485
G1 X12.1355 Y153.6162 E0.0412
G1 X13.10367 Y153.34487 E0.03566
G1 X14.03672 Y153.17446 E0.03364
G1 X18.31836 Y152.68794 E0.15284
G1 X22.45346 Y152.303 E0.1473
G1 X23.78215 Y152.20499 E0.04725
G1 X23.78215 Y117.36963 E1.23556
G1 X22.45689 Y117.27152 E0.04713
G1 X18.33131 Y116.88762 E0.14696
G1 X14.08507 Y116.40656 E0.15157
G1 X13.18814 Y116.24818 E0.0323
G1 X12.27913 Y116.00538 E0.03337
G1 X11.08366 Y115.54915 E0.04538
G1 X10.00181 Y114.9839 E0.04329
G1 X8.98762 Y114.29618 E0.04346
G1 X8.04567 Y113.48563 E0.04408
G1 X7.2293 Y112.5981 E0.04277
G1 X6.49053 Y111.5892 E0.04435
G1 X5.81682 Y110.37459 E0.04926
G1 X5.31447 Y109.12063 E0.04791
G1 X4.98405 Y107.85294 E0.04647
G1 X4.82415 Y106.73457 E0.04007
G1 X4.78358 Y105.6071 E0.04002
G1 X4.86308 Y104.48278 E0.03998
G1 X5.09079 Y103.23243 E0.04508
G1 X5.3962 Y102.2119 E0.03778
G1 X5.80824 Y101.21452 E0.03828
G1 X6.38269 Y100.15436 E0.04277
G1 X7.07042 Y99.16858 E0.04263
G1 X7.7659 Y98.37033 E0.03755
G1 X8.57777 Y97.60826 E0.03949
G1 X9.58239 Y96.85382 E0.04456
G1 X10.6911 Y96.214 E0.0454
G1 X11.87206 Y95.7068 E0.04559
G1 X13.11198 Y95.3455 E0.04581
G1 X14.33178 Y95.14158 E0.04386
M107
G1 X14.38891 Y95.48531 F3600000
M107
G1 F2700
G1 X14.43747 Y95.47724 E0.00175
G1 X15.6928 Y95.42565 E0.04456
G1 X16.59139 Y95.48106 E0.03193
G1 X20.46444 Y95.91867 E0.13825
G1 X24.17219 Y96.26427 E0.13208
G1 X27.90728 Y96.53884 E0.13284
G1 X29.73364 Y96.64618 E0.06489
G1 X33.47331 Y96.81094 E0.13277
G1 X37.2 Y96.9021 E0.13222
G1 X40.92691 Y96.92032 E0.13219
G1 X44.67006 Y96.86539 E0.13278
G1 X46.49862 Y96.8117 E0.06488
G1 X50.25595 Y96.64618 E0.1334
G1 X52.08234 Y96.53884 E0.06489
G1 X55.81578 Y96.2644 E0.13278
G1 X59.52778 Y95.91839 E0.13223
G1 X63.48258 Y95.47391 E0.14115
G1 X64.25119 Y95.42586 E0.02731
G1 X65.06597 Y95.43904 E0.0289
G1 X66.18688 Y95.56277 E0.04
G1 X67.27793 Y95.80329 E0.03963
G1 X68.35294 Y96.16832 E0.04027
G1 X69.39 Y96.65216 E0.04059
G1 X70.34995 Y97.23512 E0.03983
G1 X71.24747 Y97.92494 E0.04015
G1 X72.0543 Y98.69771 E0.03963
G1 X72.77849 Y99.55805 E0.03989
G1 X73.37454 Y100.44268 E0.03783
G1 X73.87533 Y101.38115 E0.03773
G1 X74.28229 Y102.37771 E0.03818
G1 X74.58047 Y103.40063 E0.03779
G1 X74.77902 Y104.50659 E0.03985
G1 X74.85839 Y105.64849 E0.0406
M73 P1 R40
G1 X74.80117 Y106.87472 E0.04354
G1 X74.64236 Y107.8904 E0.03646
G1 X74.39366 Y108.857 E0.0354
G1 X74.04732 Y109.80821 E0.0359
G1 X73.60837 Y110.72172 E0.03595
G1 X73.0487 Y111.63768 E0.03807
G1 X72.39318 Y112.49727 E0.03834
G1 X71.60585 Y113.32711 E0.04057
G1 X70.74763 Y114.05177 E0.03984
G1 X69.89352 Y114.63397 E0.03666
G1 X68.9762 Y115.13256 E0.03703
G1 X67.93073 Y115.56481 E0.04013
G1 X66.79953 Y115.89122 E0.04176
G1 X65.88589 Y116.0572 E0.03294
G1 X63.65842 Y116.32133 E0.07956
G1 X59.53975 Y116.74495 E0.14685
G1 X55.85896 Y117.04349 E0.13098
G1 X55.85896 Y152.52864 E1.2586
G1 X57.50933 Y152.65048 E0.0587
G1 X61.61383 Y153.03236 E0.14621
G1 X65.8599 Y153.51318 E0.15156
G1 X66.80534 Y153.68391 E0.03408
G1 X67.73738 Y153.9445 E0.03433
G1 X68.68188 Y154.30651 E0.03588
G1 X69.80724 Y154.88821 E0.04493
G1 X70.76685 Y155.53718 E0.04109
G1 X71.65484 Y156.29376 E0.04138
G1 X72.51585 Y157.22702 E0.04504
G1 X73.26309 Y158.26349 E0.04532
G1 X73.85344 Y159.33911 E0.04352
G1 X74.30986 Y160.45952 E0.04291
G1 X74.63183 Y161.63317 E0.04317
G1 X74.8145 Y162.83056 E0.04296
G1 X74.85586 Y164.03657 E0.0428
G1 X74.75495 Y165.2482 E0.04312
G1 X74.58288 Y166.16349 E0.03303
G1 X74.3017 Y167.1397 E0.03603
G1 X73.91392 Y168.10958 E0.03705
G1 X73.35115 Y169.16983 E0.04257
G1 X72.7167 Y170.0976 E0.03987
G1 X71.98418 Y170.95048 E0.03988
G1 X71.07578 Y171.79397 E0.04397
G1 X70.29459 Y172.3765 E0.03456
G1 X69.34525 Y172.94404 E0.03923
G1 X67.95046 Y173.55766 E0.05405
G1 X66.65836 Y173.92126 E0.04761
G1 X65.69575 Y174.08106 E0.03461
G1 X64.70918 Y174.14857 E0.03507
G1 X63.38752 Y174.09247 E0.04692
G1 X61.39785 Y173.8578 E0.07106
G1 X57.65454 Y173.47189 E0.13347
G1 X55.83351 Y173.31113 E0.06484
G1 X52.08232 Y173.03538 E0.13341
G1 X50.25599 Y172.92805 E0.06489
G1 X46.51628 Y172.76329 E0.13277
G1 X42.77151 Y172.67169 E0.13286
G1 X40.94488 Y172.6538 E0.06479
G1 X37.19973 Y172.67212 E0.13284
G1 X33.47332 Y172.76329 E0.13221
G1 X29.73362 Y172.92805 E0.13277
G1 X27.90729 Y173.03538 E0.06489
G1 X24.1737 Y173.30984 E0.13278
G1 X20.43946 Y173.65792 E0.13302
G1 X15.59137 Y174.15393 E0.17285
G1 X14.51761 Y174.1037 E0.03813
G1 X13.44632 Y173.94309 E0.03842
G1 X12.24502 Y173.62654 E0.04406
G1 X11.08365 Y173.16666 E0.0443
G1 X10.41889 Y172.82325 E0.02654
G1 X9.77929 Y172.43337 E0.02657
G1 X9.00315 Y171.86762 E0.03407
G1 X8.05392 Y171.00022 E0.04561
G1 X7.22081 Y170.02887 E0.04539
G1 X6.32229 Y168.6113 E0.05953
G1 X5.78909 Y167.41783 E0.04636
G1 X5.43142 Y166.26499 E0.04281
G1 X5.21128 Y165.07155 E0.04304
G1 X5.13038 Y163.86675 E0.04283
G1 X5.22483 Y162.40657 E0.0519
G1 X5.50179 Y161.04181 E0.04939
G1 X5.8867 Y159.90127 E0.04269
G1 X6.4372 Y158.75086 E0.04523
G1 X7.15157 Y157.63934 E0.04686
G1 X8.00391 Y156.62852 E0.0469
G1 X8.92169 Y155.77438 E0.04447
G1 X10.02273 Y154.98582 E0.04803
G1 X11.18988 Y154.35912 E0.04699
G1 X12.25406 Y153.94403 E0.04051
G1 X13.1897 Y153.68268 E0.03446
G1 X14.08188 Y153.52006 E0.03217
G1 X18.35594 Y153.03441 E0.15257
G1 X22.48409 Y152.65015 E0.14705
G1 X24.13065 Y152.52874 E0.05856
G1 X24.13065 Y117.04598 E1.25852
G1 X22.48754 Y116.92437 E0.05844
G1 X18.36533 Y116.54078 E0.14684
G1 X14.14016 Y116.06241 E0.15082
G1 X13.2705 Y115.90948 E0.03132
G1 X12.39487 Y115.67654 E0.03214
G1 X11.21752 Y115.22722 E0.0447
G1 X10.17233 Y114.67981 E0.04185
G1 X9.19168 Y114.0135 E0.04205
G1 X8.29512 Y113.24206 E0.04195
G1 X7.5045 Y112.38407 E0.04138
G1 X6.78993 Y111.41051 E0.04283
G1 X6.12692 Y110.21519 E0.04848
G1 X5.64218 Y109.00157 E0.04635
G1 X5.32385 Y107.77492 E0.04495
G1 X5.17048 Y106.69473 E0.0387
G1 X5.13218 Y105.60415 E0.0387
G1 X5.21 Y104.51719 E0.03865
G1 X5.43186 Y103.30465 E0.04372
G1 X5.72746 Y102.32048 E0.03645
G1 X6.11899 Y101.37251 E0.03638
G1 X6.68438 Y100.32909 E0.04209
G1 X7.35067 Y99.37593 E0.04125
G1 X8.02276 Y98.60602 E0.03625
G1 X8.7949 Y97.88101 E0.03757
G1 X9.76577 Y97.15035 E0.0431
G1 X10.85633 Y96.52101 E0.04466
G1 X11.99949 Y96.03134 E0.04411
G1 X13.19928 Y95.68304 E0.04431
G1 X14.32972 Y95.49514 E0.04065
M107
G1 X14.38651 Y95.83888 F3600000
M107
G1 F2700
G1 X14.4837 Y95.82282 E0.00349
G1 X15.68032 Y95.77403 E0.04248
G1 X16.55669 Y95.82785 E0.03114
G1 X20.42869 Y96.26534 E0.13821
G1 X24.14323 Y96.61158 E0.13232
G1 X27.88432 Y96.88659 E0.13305
G1 X29.71572 Y96.99422 E0.06507
G1 X33.4614 Y97.15924 E0.13298
G1 X37.19488 Y97.25058 E0.13246
G1 X40.92858 Y97.26883 E0.13243
G1 X44.67777 Y97.21381 E0.13299
G1 X46.51137 Y97.15998 E0.06506
G1 X50.27388 Y96.99422 E0.13358
G1 X52.10531 Y96.88659 E0.06507
G1 X55.84476 Y96.61171 E0.13299
G1 X59.56343 Y96.26507 E0.13247
G1 X63.50881 Y95.82144 E0.14082
G1 X64.25271 Y95.77442 E0.02644
G1 X65.03617 Y95.78636 E0.02779
G1 X66.12128 Y95.90516 E0.03872
G1 X67.17529 Y96.13647 E0.03827
G1 X68.21452 Y96.48829 E0.03891
G1 X69.21753 Y96.95513 E0.03924
G1 X70.14541 Y97.51744 E0.03848
G1 X71.01348 Y98.18337 E0.03881
G1 X71.79391 Y98.92951 E0.0383
G1 X72.49486 Y99.76075 E0.03857
G1 X73.07133 Y100.61472 E0.03654
G1 X73.56363 Y101.53727 E0.03709
G1 X73.95613 Y102.50079 E0.0369
G1 X74.24324 Y103.48899 E0.0365
G1 X74.4343 Y104.55858 E0.03854
G1 X74.51002 Y105.66225 E0.03924
G1 X74.45352 Y106.8487 E0.04213
G1 X74.29941 Y107.82791 E0.03516
G1 X74.05835 Y108.76168 E0.03421
G1 X73.72291 Y109.68062 E0.0347
G1 X73.29819 Y110.56263 E0.03472
G1 X72.75616 Y111.44807 E0.03682
G1 X72.12195 Y112.27826 E0.03705
G1 X71.35984 Y113.08009 E0.03924
G1 X70.54394 Y113.76885 E0.03787
G1 X69.70453 Y114.34104 E0.03603
G1 X68.81807 Y114.82187 E0.03577
G1 X67.8248 Y115.23267 E0.03812
G1 X66.71144 Y115.55392 E0.0411
G1 X65.83957 Y115.71176 E0.03143
G1 X63.62142 Y115.9748 E0.07923
G1 X59.50596 Y116.39809 E0.14674
G1 X55.51047 Y116.72211 E0.14218
G1 X55.51047 Y152.85236 E1.28149
G1 X57.4787 Y152.99763 E0.07
G1 X61.57981 Y153.3792 E0.14609
G1 X65.81502 Y153.85882 E0.15118
G1 X66.71943 Y154.02175 E0.03259
G1 X67.63573 Y154.27794 E0.03375
G1 X68.53047 Y154.62055 E0.03398
G1 X69.63803 Y155.19304 E0.04422
G1 X70.56339 Y155.82028 E0.03965
G1 X71.40599 Y156.53794 E0.03926
G1 X72.23952 Y157.43963 E0.04355
G1 X72.9629 Y158.44083 E0.04381
G1 X73.53463 Y159.48019 E0.04207
G1 X73.97662 Y160.56205 E0.04145
G1 X74.28891 Y161.69609 E0.04172
G1 X74.46658 Y162.85306 E0.04152
G1 X74.50771 Y164.01813 E0.04135
G1 X74.41075 Y165.1929 E0.04181
G1 X74.24565 Y166.07525 E0.03184
G1 X73.97477 Y167.01871 E0.03482
G1 X73.60156 Y167.95477 E0.03574
G1 X73.05781 Y168.98144 E0.04121
G1 X72.44604 Y169.87786 E0.03849
G1 X71.72627 Y170.7159 E0.03918
G1 X70.84577 Y171.53199 E0.04258
G1 X70.09358 Y172.09168 E0.03325
G1 X69.1947 Y172.62956 E0.03715
G1 X67.84401 Y173.22559 E0.05236
G1 X66.59178 Y173.57905 E0.04615
G1 X65.64702 Y173.73588 E0.03397
G1 X64.69527 Y173.80022 E0.03383
G1 X63.42189 Y173.74561 E0.04521
G1 X61.43611 Y173.5114 E0.07092
G1 X57.68775 Y173.12497 E0.13365
G1 X55.86163 Y172.96376 E0.06502
G1 X52.10528 Y172.68764 E0.13359
G1 X50.27392 Y172.58001 E0.06507
G1 X46.52818 Y172.41498 E0.13298
G1 X42.77751 Y172.32324 E0.13307
G1 X40.9457 Y172.3053 E0.06497
G1 X37.19461 Y172.32365 E0.13305
