; generated by PrusaSlicer 2.7.2+MacOS-arm64 on 2024-03-03 at 08:28:48 UTC


;
;

;
;

;
;

;
;

;
;
; 

; external perimeters extrusion width = 0.45mm
; perimeters extrusion width = 0.45mm
; infill extrusion width = 0.45mm
; solid infill extrusion width = 0.45mm
; top infill extrusion width = 0.40mm

M73 P0 R52

EXCLUDE_OBJECT_DEFINE NAME='btt_20pi_20din_stl' CENTER=53.944,112.331 POLYGON=[[8.169,79.086],[8.223,78.492],[8.395,77.884],[8.695,77.297],[9.159,76.726],[9.632,76.340],[10.456,75.939],[11.166,75.792],[11.772,75.790],[98.717,83.560],[99.725,83.734],[100.974,84.276],[101.789,84.894],[102.648,85.950],[103.191,87.199],[103.376,88.548],[103.376,135.448],[103.191,136.797],[102.648,138.046],[102.030,138.861],[101.259,139.533],[100.368,140.034],[99.393,140.344],[61.199,146.433],[11.478,146.448],[10.579,146.324],[9.689,145.923],[9.045,145.382],[8.558,144.696],[8.264,143.927],[8.169,143.139]]

;TYPE:Custom
CALCULATE_PA MATERIAL=PLA BOWDEN_LENGTH=6 LAYER_HEIGHT=0.2 NOZZLE_SIZE=0.4 PRINT_SPEED=0


START_PRINT EXTRUDER=210 BED=65
G21 ; set units to millimeters
G90 ; use absolute coordinates
M83 ; use relative distances for extrusion
; Filament gcode
M107
;LAYER_CHANGE
;Z:0.2
;HEIGHT:0.2
G1 E-2 F3000
EXCLUDE_OBJECT_START NAME='btt_20pi_20din_stl'
G1 Z.2 F60000
G1 X59.768 Y87.382
G1 Z.2
G1 E2 F3000
;TYPE:External perimeter
;WIDTH:0.45
G1 F1800
G1 X57.76 Y88.1 E.07218
G1 X57.76 Y135.665 E1.61002
G1 X61.543 Y140.531 E.20863
G1 X61.832 Y140.628 E.01032
G1 X62.017 Y140.705 E.00678
G1 X62.391 Y140.917 E.01455
G1 X62.693 Y141.154 E.01299
G1 X62.988 Y141.469 E.01461
G1 X63.252 Y141.872 E.01631
G1 X63.425 Y142.269 E.01466
G1 X63.533 Y142.695 E.01488
G1 X63.57 Y143.138 E.01505
G1 X63.524 Y143.631 E.01676
G1 X63.386 Y144.114 E.017
G1 X63.115 Y144.633 E.01982
G1 X62.807 Y145.013 E.01656
G1 X62.421 Y145.34 E.01712
G1 X61.99 Y145.584 E.01676
G1 X61.514 Y145.747 E.01703
G1 X60.933 Y145.821 E.01983
G1 X60.435 Y145.784 E.0169
G1 X60.354 Y145.763 E.00283
G1 X59.958 Y145.656 E.01388
G1 X59.512 Y145.442 E.01674
G1 X59.043 Y145.089 E.01987
G1 X58.71 Y144.708 E.01713
G1 X58.457 Y144.279 E.01686
G1 X58.292 Y143.823 E.01641
G1 X58.244 Y143.598 E.00779
G1 X58.197 Y143.218 E.01296
G1 X53.58 Y139.826 E.19392
G1 X18.693 Y139.826 E1.18088
G1 X14.165 Y143.312 E.19343
G1 X14.091 Y143.752 E.0151
G1 X13.977 Y144.12 E.01304
G1 X13.811 Y144.467 E.01302
G1 X13.597 Y144.786 E.013
G1 X13.34 Y145.072 E.01302
G1 X13.059 Y145.307 E.0124
G1 X12.682 Y145.537 E.01495
G1 X12.325 Y145.685 E.01308
G1 X11.948 Y145.781 E.01317
G1 X11.561 Y145.821 E.01317
G1 X11.172 Y145.805 E.01318
G1 X10.79 Y145.733 E.01316
G1 X10.422 Y145.606 E.01318
G1 X10.092 Y145.436 E.01257
G1 X9.79 Y145.223 E.01251
G1 X9.461 Y144.909 E.01539
G1 X9.227 Y144.6 E.01312
G1 X9.04 Y144.259 E.01316
G1 X8.903 Y143.894 E.0132
G1 X8.821 Y143.514 E.01316
G1 X8.795 Y143.126 E.01316
G1 X8.823 Y142.75 E.01276
G1 X8.921 Y142.327 E.0147
G1 X9.056 Y141.983 E.01251
G1 X9.256 Y141.633 E.01364
G1 X9.498 Y141.327 E.01321
G1 X9.782 Y141.059 E.01322
G1 X10.101 Y140.835 E.01319
G1 X10.45 Y140.66 E.01322
G1 X10.819 Y140.537 E.01317
G1 X11.2 Y140.469 E.0131
G1 X11.671 Y140.45 E.01596
G1 X14.503 Y135.563 E.19119
G1 X14.503 Y88.385 E1.59692
G1 X10.834 Y81.699 E.25815
M73 P0 R51
G1 X10.474 Y81.574 E.0129
G1 X10.131 Y81.407 E.01291
G1 X9.818 Y81.195 E.0128
G1 X9.537 Y80.94 E.01284
G1 X9.296 Y80.648 E.01282
G1 X9.093 Y80.317 E.01314
G1 X8.94 Y79.957 E.01324
G1 X8.842 Y79.587 E.01296
G1 X8.798 Y79.205 E.01302
G1 X8.8 Y78.923 E.00955
G1 X8.851 Y78.542 E.01301
G1 X8.954 Y78.175 E.0129
G1 X9.109 Y77.825 E.01296
G1 X9.315 Y77.498 E.01308
G1 X9.566 Y77.204 E.01308
G1 X9.857 Y76.948 E.01312
G1 X10.177 Y76.74 E.01292
G1 X10.526 Y76.579 E.01301
G1 X10.795 Y76.492 E.00957
G1 X11.172 Y76.421 E.01299
G1 X11.555 Y76.404 E.01298
G1 X11.641 Y76.411 E.00292
G1 X11.936 Y76.442 E.01004
G1 X12.311 Y76.535 E.01308
G1 X12.673 Y76.683 E.01324
G1 X13.001 Y76.877 E.0129
G1 X13.299 Y77.116 E.01293
G1 X13.562 Y77.396 E.013
G1 X13.728 Y77.624 E.00955
G1 X13.914 Y77.96 E.013
G1 X14.05 Y78.319 E.01299
G1 X14.134 Y78.696 E.01307
G1 X14.162 Y79.086 E.01324
G1 X14.129 Y79.503 E.01416
G1 X13.995 Y80.062 E.01946
G1 X18.656 Y84.169 E.21028
G1 X53.352 Y84.169 E1.17442
G1 X58.594 Y83.478 E.17897
G1 X58.924 Y83.064 E.01792
G1 X59.234 Y82.78 E.01423
G1 X59.585 Y82.548 E.01424
G1 X59.967 Y82.373 E.01422
G1 X60.372 Y82.26 E.01423
G1 X60.8 Y82.212 E.01458
G1 X61.234 Y82.233 E.01471
G1 X61.661 Y82.324 E.01478
G1 X62.056 Y82.478 E.01435
G1 X62.423 Y82.693 E.0144
G1 X62.751 Y82.963 E.01438
G1 X63.032 Y83.282 E.01439
G1 X63.26 Y83.641 E.0144
G1 X63.429 Y84.035 E.01451
G1 X63.534 Y84.454 E.01462
G1 X63.57 Y84.895 E.01498
G1 X63.557 Y85.096 E.00682
G1 X63.545 Y85.258 E.0055
G1 X63.47 Y85.616 E.01238
G1 X63.346 Y85.963 E.01247
G1 X63.229 Y86.202 E.00901
G1 X63.029 Y86.51 E.01243
G1 X62.788 Y86.787 E.01243
G1 X62.51 Y87.03 E.0125
G1 X62.197 Y87.235 E.01266
G1 X61.956 Y87.354 E.0091
G1 X61.609 Y87.478 E.01247
G1 X61.25 Y87.552 E.01241
G1 X60.884 Y87.577 E.01242
G1 X60.517 Y87.551 E.01245
G1 X60.258 Y87.501 E.00893
G1 X59.824 Y87.366 E.01538
G1 X59.447 Y87.498 F60000
G1 X59.759 Y86.953
;TYPE:Perimeter
G1 F1800
G1 X57.353 Y87.813 E.08649
G1 X57.353 Y135.805 E1.62447
G1 X61.297 Y140.878 E.2175
G1 X61.689 Y141.009 E.01399
G1 X61.839 Y141.072 E.00551
G1 X62.157 Y141.251 E.01235
G1 X62.417 Y141.455 E.01119
G1 X62.666 Y141.722 E.01236
G1 X62.892 Y142.067 E.01396
G1 X63.038 Y142.401 E.01234
G1 X63.13 Y142.763 E.01264
G1 X63.161 Y143.136 E.01267
G1 X63.122 Y143.556 E.01428
G1 X63.001 Y143.979 E.01489
G1 X62.774 Y144.406 E.01637
G1 X62.514 Y144.727 E.01398
G1 X62.187 Y145.005 E.01453
G1 X61.823 Y145.211 E.01416
G1 X61.403 Y145.355 E.01503
G1 X60.925 Y145.412 E.01629
G1 X60.458 Y145.369 E.01587
G1 X60.1 Y145.273 E.01255
G1 X59.722 Y145.091 E.0142
G1 X59.333 Y144.802 E.0164
G1 X59.041 Y144.468 E.01502
G1 X58.825 Y144.101 E.01441
G1 X58.684 Y143.712 E.01401
G1 X58.646 Y143.531 E.00626
G1 X58.579 Y142.994 E.01832
G1 X53.714 Y139.419 E.20436
G1 X50.248 Y139.419 E.11732
G1 X50.469 Y139.305 E.00842
G1 X50.784 Y139.048 E.01376
G1 X51.04 Y138.732 E.01377
G1 X51.224 Y138.377 E.01353
G1 X51.33 Y138.008 E.013
G1 X51.363 Y137.643 E.01241
G1 X51.329 Y137.282 E.01227
G1 X51.222 Y136.914 E.01297
G1 X51.038 Y136.561 E.01347
G1 X50.782 Y136.246 E.01374
G1 X50.515 Y136.029 E.01165
G1 X51.341 Y136.029 E.02796
G1 X52.117 Y135.95 E.0264
G1 X52.899 Y135.706 E.02773
G1 X53.591 Y135.324 E.02676
G1 X54.19 Y134.822 E.02645
G1 X54.68 Y134.214 E.02643
G1 X55.044 Y133.523 E.02644
G1 X55.268 Y132.775 E.02643
G1 X55.341 Y132.028 E.02541
G1 X55.341 Y96.554 E1.20075
G1 X55.262 Y95.778 E.0264
G1 X55.055 Y95.107 E.02377
G1 X54.986 Y94.932 E.00637
G1 X54.604 Y94.261 E.02614
G1 X54.201 Y93.781 E.02121
G1 X54.069 Y93.649 E.00632
G1 X53.524 Y93.214 E.0236
G1 X52.909 Y92.886 E.02359
G1 X52.738 Y92.818 E.00623
G1 X52.078 Y92.625 E.02328
G1 X51.339 Y92.554 E.02513
G1 X20.951 Y92.554 E1.0286
G1 X20.175 Y92.633 E.0264
G1 X19.411 Y92.87 E.02708
G1 X18.714 Y93.25 E.02687
G1 X18.107 Y93.756 E.02675
G1 X17.611 Y94.37 E.02672
G1 X17.245 Y95.067 E.02665
G1 X17.023 Y95.814 E.02638
G1 X16.954 Y96.5 E.02334
G1 X16.951 Y132.029 E1.20261
G1 X17.03 Y132.805 E.0264
G1 X17.237 Y133.476 E.02377
G1 X17.306 Y133.651 E.00637
G1 X17.688 Y134.322 E.02614
G1 X18.091 Y134.802 E.02121
G1 X18.223 Y134.934 E.00632
G1 X18.768 Y135.369 E.0236
G1 X19.383 Y135.697 E.02359
G1 X19.554 Y135.764 E.00622
G1 X20.214 Y135.958 E.02329
G1 X20.953 Y136.029 E.02513
G1 X21.77 Y136.029 E.02765
G1 X21.501 Y136.248 E.01174
G1 X21.245 Y136.564 E.01377
G1 X21.061 Y136.918 E.0135
G1 X20.955 Y137.288 E.01303
G1 X20.922 Y137.653 E.01241
G1 X20.956 Y138.014 E.01227
G1 X21.063 Y138.382 E.01297
G1 X21.247 Y138.735 E.01347
G1 X21.503 Y139.05 E.01374
G1 X21.819 Y139.307 E.01379
G1 X22.037 Y139.419 E.0083
G1 X18.554 Y139.419 E.1179
G1 X13.789 Y143.088 E.20356
G1 X13.694 Y143.657 E.01953
G1 X13.597 Y143.971 E.01112
G1 X13.456 Y144.265 E.01104
G1 X13.275 Y144.536 E.01103
G1 X13.056 Y144.779 E.01107
G1 X12.821 Y144.976 E.01038
G1 X12.497 Y145.173 E.01284
G1 X12.196 Y145.298 E.01103
G1 X11.877 Y145.379 E.01114
G1 X11.548 Y145.413 E.0112
G1 X11.219 Y145.399 E.01115
G1 X10.895 Y145.338 E.01116
G1 X10.582 Y145.23 E.01121
G1 X10.303 Y145.087 E.01061
G1 X10.049 Y144.908 E.01052
G1 X9.766 Y144.637 E.01326
G1 X9.57 Y144.378 E.01099
G1 X9.41 Y144.089 E.01118
G1 X9.295 Y143.78 E.01116
G1 X9.225 Y143.457 E.01119
G1 X9.203 Y143.127 E.01119
G1 X9.227 Y142.81 E.01076
G1 X9.31 Y142.45 E.01251
G1 X9.424 Y142.159 E.01058
G1 X9.595 Y141.862 E.0116
G1 X9.799 Y141.603 E.01116
G1 X10.04 Y141.375 E.01123
G1 X10.311 Y141.185 E.0112
G1 X10.606 Y141.037 E.01117
G1 X10.919 Y140.933 E.01116
G1 X11.244 Y140.875 E.01117
G1 X11.912 Y140.847 E.02263
G1 X14.91 Y135.673 E.20241
G1 X14.91 Y88.281 E1.60416
G1 X11.115 Y81.366 E.267
G1 X10.63 Y81.198 E.01737
G1 X10.336 Y81.054 E.01108
G1 X10.07 Y80.874 E.01087
G1 X9.832 Y80.658 E.01088
G1 X9.628 Y80.411 E.01084
G1 X9.456 Y80.13 E.01115
G1 X9.326 Y79.825 E.01122
G1 X9.243 Y79.511 E.01099
G1 X9.206 Y79.184 E.01114
G1 X9.207 Y78.951 E.00789
G1 X9.251 Y78.625 E.01113
G1 X9.338 Y78.313 E.01096
G1 X9.47 Y78.017 E.01097
G1 X9.644 Y77.74 E.01107
G1 X9.856 Y77.49 E.0111
G1 X10.104 Y77.273 E.01115
G1 X10.375 Y77.097 E.01094
G1 X10.674 Y76.958 E.01116
G1 X10.895 Y76.887 E.00786
G1 X11.219 Y76.826 E.01116
G1 X11.603 Y76.816 E.013
G1 X11.866 Y76.844 E.00895
G1 X12.184 Y76.923 E.01109
G1 X12.491 Y77.049 E.01123
G1 X12.769 Y77.213 E.01093
G1 X13.022 Y77.415 E.01096
G1 X13.247 Y77.656 E.01116
G1 X13.384 Y77.844 E.00787
G1 X13.544 Y78.132 E.01115
G1 X13.659 Y78.436 E.011
G1 X13.73 Y78.755 E.01106
G1 X13.754 Y79.084 E.01117
G1 X13.726 Y79.439 E.01205
G1 X13.542 Y80.205 E.02667
G1 X18.503 Y84.576 E.2238
G1 X22.032 Y84.576 E.11945
G1 X21.816 Y84.688 E.00824
G1 X21.501 Y84.945 E.01376
G1 X21.245 Y85.261 E.01377
G1 X21.061 Y85.615 E.0135
G1 X20.955 Y85.985 E.01303
G1 X20.922 Y86.35 E.01241
G1 X20.956 Y86.711 E.01227
G1 X21.063 Y87.078 E.01294
G1 X21.247 Y87.432 E.0135
G1 X21.503 Y87.747 E.01374
G1 X21.819 Y88.003 E.01377
G1 X22.174 Y88.187 E.01353
G1 X22.543 Y88.293 E.013
G1 X22.908 Y88.326 E.01241
G1 X23.27 Y88.291 E.01231
G1 X23.637 Y88.185 E.01293
G1 X23.99 Y88.001 E.01347
G1 X24.305 Y87.745 E.01374
G1 X24.562 Y87.429 E.01379
G1 X24.745 Y87.074 E.01352
G1 X24.851 Y86.705 E.013
G1 X24.884 Y86.34 E.01241
G1 X24.85 Y85.978 E.01231
G1 X24.743 Y85.611 E.01294
G1 X24.56 Y85.258 E.01346
G1 X24.303 Y84.942 E.01379
G1 X23.987 Y84.686 E.01377
G1 X23.774 Y84.576 E.00811
G1 X48.51 Y84.576 E.83728
G1 X48.295 Y84.688 E.00821
G1 X47.979 Y84.945 E.01379
G1 X47.723 Y85.261 E.01377
G1 X47.54 Y85.615 E.01349
G1 X47.434 Y85.985 E.01303
G1 X47.401 Y86.35 E.01241
G1 X47.435 Y86.711 E.01227
G1 X47.542 Y87.078 E.01294
G1 X47.725 Y87.432 E.01349
G1 X47.982 Y87.747 E.01376
G1 X48.298 Y88.003 E.01377
G1 X48.652 Y88.187 E.0135
G1 X49.022 Y88.293 E.01303
G1 X49.387 Y88.326 E.01241
G1 X49.748 Y88.291 E.01228
G1 X50.116 Y88.185 E.01296
G1 X50.469 Y88.001 E.01347
G1 X50.784 Y87.745 E.01374
G1 X51.04 Y87.429 E.01377
G1 X51.224 Y87.074 E.01353
G1 X51.33 Y86.705 E.013
G1 X51.363 Y86.34 E.01241
G1 X51.329 Y85.978 E.01231
G1 X51.222 Y85.611 E.01294
G1 X51.038 Y85.258 E.01347
G1 X50.782 Y84.942 E.01377
G1 X50.466 Y84.686 E.01377
G1 X50.253 Y84.576 E.00811
G1 X53.379 Y84.576 E.10581
G1 X58.81 Y83.86 E.18542
G1 X59.223 Y83.343 E.0224
G1 X59.486 Y83.102 E.01207
G1 X59.783 Y82.905 E.01206
G1 X60.107 Y82.757 E.01206
G1 X60.45 Y82.661 E.01206
G1 X60.813 Y82.62 E.01237
G1 X61.181 Y82.638 E.01247
G1 X61.544 Y82.715 E.01256
G1 X61.879 Y82.846 E.01218
G1 X62.189 Y83.028 E.01217
G1 X62.467 Y83.257 E.01219
G1 X62.706 Y83.527 E.01221
G1 X62.899 Y83.831 E.01219
G1 X63.042 Y84.165 E.0123
G1 X63.131 Y84.52 E.01239
G1 X63.162 Y84.899 E.01287
G1 X63.141 Y85.201 E.01025
G1 X63.078 Y85.505 E.01051
G1 X62.971 Y85.805 E.01078
G1 X62.875 Y86.001 E.00739
G1 X62.703 Y86.264 E.01064
G1 X62.499 Y86.499 E.01053
G1 X62.264 Y86.705 E.01058
G1 X61.995 Y86.88 E.01086
G1 X61.797 Y86.978 E.00748
G1 X61.498 Y87.085 E.01075
G1 X61.195 Y87.148 E.01048
G1 X60.885 Y87.169 E.01052
G1 X60.571 Y87.147 E.01065
G1 X60.358 Y87.105 E.00735
G1 X59.815 Y86.937 E.01924
G1 E-2 F3000
G1 X59.815 Y86.937 F60000
G1 X59.823 Y86.962
G1 X59.548 Y87.051
G1 X57.374 Y87.828
G1 X57.374 Y135.798
G1 X60.036 Y139.221
G1 X59.871 Y141.406
G1 X60.047 Y141.751
G1 E2 F3000
;TYPE:External perimeter
G1 F1800
G1 X60.295 Y141.624 E.00943
G1 X60.594 Y141.539 E.01052
G1 X60.871 Y141.513 E.00942
G1 X61.197 Y141.542 E.01108
G1 X61.505 Y141.634 E.01088
G1 X61.794 Y141.789 E.0111
G1 X62.048 Y142.001 E.0112
G1 X62.254 Y142.259 E.01118
G1 X62.401 Y142.547 E.01094
G1 X62.486 Y142.846 E.01052
G1 X62.513 Y143.139 E.00996
G1 X62.483 Y143.45 E.01058
G1 X62.391 Y143.757 E.01085
G1 X62.236 Y144.046 E.0111
G1 X62.024 Y144.3 E.0112
G1 X61.766 Y144.506 E.01118
G1 X61.478 Y144.653 E.01094
G1 X61.179 Y144.738 E.01052
G1 X60.886 Y144.765 E.00996
G1 X60.576 Y144.735 E.01054
G1 X60.269 Y144.643 E.01085
G1 X59.979 Y144.488 E.01113
G1 X59.725 Y144.276 E.0112
G1 X59.519 Y144.018 E.01118
G1 X59.372 Y143.73 E.01094
G1 X59.287 Y143.431 E.01052
G1 X59.261 Y143.138 E.00996
G1 X59.29 Y142.828 E.01054
G1 X59.382 Y142.521 E.01085
G1 X59.537 Y142.231 E.01113
G1 X59.749 Y141.977 E.0112
G1 X59.995 Y141.78 E.01067
G1 X60.359 Y141.615 F60000
G1 X59.817 Y141.411
;TYPE:Perimeter
G1 F1800
G1 X60.146 Y141.243 E.0125
G1 X60.518 Y141.137 E.01309
G1 X60.87 Y141.105 E.01196
G1 X61.274 Y141.14 E.01373
G1 X61.66 Y141.256 E.01364
G1 X62.022 Y141.45 E.0139
G1 X62.341 Y141.714 E.01402
G1 X62.598 Y142.037 E.01397
G1 X62.782 Y142.398 E.01372
G1 X62.888 Y142.771 E.01313
G1 X62.921 Y143.14 E.01254
G1 X62.884 Y143.528 E.01319
G1 X62.769 Y143.913 E.0136
G1 X62.575 Y144.274 E.01387
G1 X62.311 Y144.593 E.01402
G1 X61.988 Y144.85 E.01397
G1 X61.627 Y145.034 E.01372
G1 X61.254 Y145.14 E.01313
G1 X60.885 Y145.173 E.01254
G1 X60.497 Y145.136 E.01319
G1 X60.113 Y145.021 E.01357
G1 X59.751 Y144.828 E.01389
G1 X59.432 Y144.563 E.01404
G1 X59.175 Y144.24 E.01397
G1 X58.991 Y143.879 E.01372
G1 X58.885 Y143.506 E.01313
G1 X58.852 Y143.137 E.01254
G1 X58.889 Y142.749 E.01319
G1 X59.004 Y142.365 E.01357
G1 X59.198 Y142.003 E.0139
G1 X59.462 Y141.684 E.01402
G1 X59.766 Y141.442 E.01315
G1 E-2 F3000
G1 X59.766 Y141.442 F60000
G1 X59.779 Y141.461
G1 X53.707 Y139.441
G1 X18.561 Y139.441
G1 X15.699 Y141.644
G1 X12.328 Y141.32
G1 X12.145 Y141.661
G1 E2 F3000
;TYPE:External perimeter
G1 F1800
G1 X12.386 Y141.789 E.00924
G1 X12.64 Y142.001 E.0112
G1 X12.846 Y142.259 E.01118
G1 X12.993 Y142.547 E.01094
G1 X13.078 Y142.846 E.01052
G1 X13.104 Y143.139 E.00996
G1 X13.075 Y143.45 E.01057
G1 X12.983 Y143.757 E.01085
G1 X12.828 Y144.046 E.0111
G1 X12.616 Y144.3 E.0112
G1 X12.358 Y144.506 E.01118
G1 X12.07 Y144.653 E.01094
G1 X11.771 Y144.738 E.01052
G1 X11.478 Y144.765 E.00996
G1 X11.167 Y144.735 E.01058
G1 X10.86 Y144.643 E.01085
G1 X10.571 Y144.488 E.0111
G1 X10.317 Y144.276 E.0112
G1 X10.111 Y144.018 E.01118
G1 X9.964 Y143.73 E.01094
G1 X9.879 Y143.431 E.01052
G1 X9.852 Y143.138 E.00996
G1 X9.882 Y142.828 E.01054
G1 X9.974 Y142.521 E.01085
G1 X10.129 Y142.231 E.01113
G1 X10.341 Y141.977 E.0112
G1 X10.599 Y141.771 E.01118
G1 X10.887 Y141.624 E.01094
G1 X11.185 Y141.539 E.01049
G1 X11.463 Y141.513 E.00945
G1 X11.789 Y141.542 E.01108
G1 X12.092 Y141.633 E.01071
G1 X12.434 Y141.841 F60000
G1 X12.283 Y141.273
;TYPE:Perimeter
G1 F1800
G1 X12.614 Y141.45 E.01271
G1 X12.933 Y141.714 E.01402
G1 X13.19 Y142.037 E.01397
G1 X13.374 Y142.398 E.01372
G1 X13.48 Y142.771 E.01313
G1 X13.513 Y143.14 E.01254
G1 X13.476 Y143.528 E.01319
G1 X13.361 Y143.912 E.01357
G1 X13.167 Y144.274 E.0139
G1 X12.903 Y144.593 E.01402
G1 X12.58 Y144.85 E.01397
G1 X12.219 Y145.034 E.01372
G1 X11.846 Y145.14 E.01313
G1 X11.477 Y145.173 E.01254
G1 X11.089 Y145.136 E.01319
G1 X10.705 Y145.021 E.01357
G1 X10.343 Y144.828 E.01389
G1 X10.024 Y144.563 E.01404
G1 X9.767 Y144.24 E.01397
G1 X9.583 Y143.879 E.01372
G1 X9.477 Y143.506 E.01313
G1 X9.444 Y143.137 E.01254
G1 X9.481 Y142.749 E.01319
