; generated by SuperSlicer 2.5.59.10 on 2024-05-24 at 19:09:01 UTC


;
;

;
;
; 

; external perimeters extrusion width = 0.42mm
; perimeters extrusion width = 0.45mm
; infill extrusion width = 0.45mm
; solid infill extrusion width = 0.45mm
; top infill extrusion width = 0.42mm

; external perimeters extrusion width = 0.42mm
; perimeters extrusion width = 0.45mm
; infill extrusion width = 0.45mm
; solid infill extrusion width = 0.45mm
; top infill extrusion width = 0.42mm

; external perimeters extrusion width = 0.42mm
; perimeters extrusion width = 0.45mm
; infill extrusion width = 0.45mm
; solid infill extrusion width = 0.45mm
; top infill extrusion width = 0.42mm

; object:{"name":"BTT_Eddy_Mount","id":"BTT_Eddy_Mount.stl id:0 copy 0","object_center":[59.530547,100.249638,0.000000],"boundingbox_center":[59.530547,100.249638,2.598500],"boundingbox_size":[29.000000,40.000000,5.197001]}
EXCLUDE_OBJECT_DEFINE NAME=BTT_Eddy_Mount_stl_id_0_copy_0 CENTER=59.530547,100.249638 POLYGON=[[45.03,80.25],[74.03,80.25],[74.03,118.25],[72.03,120.25],[67.07,120.25],[65.43,119.40],[45.03,97.15],[45.03,80.25]]
; object:{"name":"BTT_Eddy_Mount","id":"BTT_Eddy_Mount.stl id:1 copy 0","object_center":[120.469453,99.480430,0.000000],"boundingbox_center":[120.469453,99.480430,2.598500],"boundingbox_size":[29.000000,40.000000,5.197001]}
EXCLUDE_OBJECT_DEFINE NAME=BTT_Eddy_Mount_stl_id_1_copy_0 CENTER=120.469453,99.480430 POLYGON=[[105.97,79.48],[134.97,79.48],[134.97,117.48],[132.97,119.48],[128.01,119.48],[126.37,118.63],[105.97,96.38],[105.97,79.48]]
; object:{"name":"BTT_Eddy_Mount","id":"BTT_Eddy_Mount.stl id:2 copy 0","object_center":[90.471961,100.519570,0.000000],"boundingbox_center":[90.471961,100.519570,2.598500],"boundingbox_size":[29.000000,40.000000,5.197001]}
EXCLUDE_OBJECT_DEFINE NAME=BTT_Eddy_Mount_stl_id_2_copy_0 CENTER=90.471961,100.519570 POLYGON=[[75.97,80.52],[104.97,80.52],[104.97,118.52],[102.97,120.52],[98.01,120.52],[96.37,119.67],[75.97,97.42],[75.97,80.52]]
; plater:{"center":[90.000000,100.000000,0.000000],"boundingbox_center":[90.000000,100.000000,2.598500],"boundingbox_size":[89.938907,41.039139,5.197001]}

M107
;TYPE:Custom
START_PRINT EXTRUDER=260 BED=105
M107
G21 ; set units to millimeters
G90 ; use absolute coordinates
M83 ; use relative distances for extrusion
ACTIVATE_EXTRUDER EXTRUDER=extruder
; Filament gcode
FILAMENT_START MATERIAL=ASA COLOR=#368900 VENDOR=123-3D
SET_PRESSURE_ADVANCE ADVANCE=0.06175
M104 S260 T0 ; set temperature
M109 S260 T0 ; set temperature and wait for it to be reached
M190 S105 ; set bed temperature and wait for it to be reached
;LAYER_CHANGE
;Z:0.2
;HEIGHT:0.2
G1 E-0.4 F3900
G1 Z0.2 F90000
G92 E0
M204 S750
G1 X43.136 Y77.452
G1 E0.4 F3900
;TYPE:Skirt
;WIDTH:0.8
M107
G1 F2399.459
G1 X42.046 Y78.666 E.09759
G1 X41.652 Y80.25 E0.09759
G1 X41.652 Y84.475 Z.2 E.25267
G1 X41.652 Y88.7 Z.2 E.25267
G1 X41.652 Y92.925 Z.2 E.25267
G1 F2400
G1 X41.652 Y97.15 Z.2 E.25267
G1 F2399.993
G1 X41.761 Y98 E.05125
G1 F2398.857
G1 X42.54 Y99.433 E.09759
G1 F2399.985
G1 X45.455 Y102.611 Z.2 E.25791
G1 X48.369 Y105.79 Z.2 E.25791
G1 X51.284 Y108.968 Z.2 E.25791
G1 X54.199 Y112.147 Z.2 E.25791
G1 X57.114 Y115.325 Z.2 E.25791
G1 X60.028 Y118.504 Z.2 E.25791
G1 X62.943 Y121.682 Z.2 E.25791
G1 X63.874 Y122.396 E0.07016
G1 X65.51 Y123.247 E.11028
G1 X67.04 Y123.628 E0.09427
G1 X71.532 Y123.662 Z.2 E.26862
G1 X76.023 Y123.695 Z.2 E.26862
G1 X80.515 Y123.729 Z.2 E.26862
G1 X85.006 Y123.763 Z.2 E.26862
G1 X89.497 Y123.797 Z.2 E.26862
G1 X93.989 Y123.831 Z.2 E.26862
G1 X98.48 Y123.864 Z.2 E.26862
G1 F2400
G1 X102.972 Y123.898 Z.2 E.26862
G1 F2382.489
G1 X107.274 Y123.749 Z.2 E.25743
G1 F2347.557
G1 X111.576 Y123.601 Z.2 E.25743
G1 F2312.625
G1 X115.878 Y123.452 Z.2 E.25743
G1 F2277.693
G1 X120.18 Y123.303 Z.2 E.25743
G1 F2242.761
G1 X124.482 Y123.154 Z.2 E.25743
G1 F2207.829
G1 X128.784 Y123.006 Z.2 E.25743
G1 F2155.431
G1 X133.086 Y122.857 Z.2 E.25743
G1 F2152.27
G1 X133.96 Y122.71 E.05298
G1 F2139.109
G1 X135.358 Y121.869 E.09759
G1 F2119.002
G1 X137.358 Y119.869 E.16915
G1 F2101.409
G1 X137.954 Y119.064 E.0599
G1 F2089.966
G1 X138.348 Y117.48 E.09759
G1 F2062.158
G1 X138.348 Y112.73 Z.2 E.28407
G1 F2022.465
G1 X138.348 Y107.98 Z.2 E.28407
G1 F1982.773
G1 X138.348 Y103.23 Z.2 E.28407
G1 F1943.08
G1 X138.348 Y98.48 Z.2 E.28407
G1 F1903.387
G1 X138.348 Y93.73 Z.2 E.28407
G1 F1863.695
G1 X138.348 Y88.98 Z.2 E.28407
G1 F1824.002
G1 X138.348 Y84.23 Z.2 E.28407
G1 F1764.463
G1 X138.348 Y79.48 Z.2 E.28407
G1 F1756.731
G1 X137.767 Y77.586 E.11849
G1 F1742.837
G1 X136.553 Y76.496 E.09759
G1 F1731.301
G1 X134.969 Y76.102 E.09759
G1 F1707.676
G1 X130.136 Y76.102 Z.2 E.28905
G1 F1673.602
G1 X125.302 Y76.102 Z.2 E.28905
G1 F1639.529
G1 X120.469 Y76.102 Z.2 E.28905
G1 F1605.456
G1 X115.636 Y76.102 Z.2 E.28905
G1 F1571.383
G1 X110.802 Y76.102 Z.2 E.28905
G1 F1520.273
G1 X105.969 Y76.102 Z.2 E.28905
G1 F1506.577
G1 X101.278 Y76.161 Z.2 E.28056
G1 F1479.215
G1 X96.587 Y76.22 Z.2 E.28055
G1 F1451.853
G1 X91.896 Y76.279 Z.2 E.28056
G1 F1424.491
G1 X87.206 Y76.339 Z.2 E.28056
G1 F1397.129
G1 X82.515 Y76.398 Z.2 E.28055
G1 F1369.766
G1 X77.824 Y76.457 Z.2 E.28056
G1 F1342.404
G1 X73.133 Y76.516 Z.2 E.28056
G1 F1315.042
G1 X68.442 Y76.575 Z.2 E.28056
G1 F1287.68
G1 X63.751 Y76.634 Z.2 E.28055
G1 F1260.318
G1 X59.061 Y76.694 Z.2 E.28056
G1 F1232.956
G1 X54.37 Y76.753 Z.2 E.28056
G1 F1205.594
G1 X49.679 Y76.812 Z.2 E.28055
G1 F1164.55
G1 X44.988 Y76.871 Z.2 E.28056
G1 F1159.699
G1 X43.194 Y77.434 E.11246
M107
G1 E-0.4 F3900
; printing object BTT_Eddy_Mount.stl id:0 copy 0
EXCLUDE_OBJECT_START NAME=BTT_Eddy_Mount_stl_id_0_copy_0
G1 X70.347 Y112.248 F90000
G1 E0.4 F3900
;TYPE:Internal perimeter
;WIDTH:0.545428
M107
G1 F1844.029
G1 X70.477 Y112.284 E.00505
M107
;WIDTH:0.513619
M107
G1 F1981.215
G1 X70.608 Y112.32 E.00473
M107
;WIDTH:0.481809
M107
G1 F2107.794
G1 X70.738 Y112.356 E.00441
M107
;WIDTH:0.449999
M107
G1 F2269.304
G1 X71.582 Y112.66 E.02712
G1 F2258.137
G1 X72.028 Y112.914 E.0155
G1 F2245.401
G1 X72.207 Y113.053 E.00686
M107
M107
G1 F2231.416
G1 X72.207 Y111.429 E.04908
G1 F2210.142
G1 X71.693 Y111.79 E.01898
G1 F2198.164
G1 X71.291 Y111.97 E.01332
G1 F2187.688
G1 X70.686 Y112.153 E.01912
M107
;WIDTH:0.481809
M107
G1 F2027.76
G1 X70.573 Y112.185 E.00382
M107
;WIDTH:0.513619
M107
G1 F1888.398
G1 X70.46 Y112.216 E.00409
M107
;WIDTH:0.545428
M107
G1 F1770.738
G1 X70.405 Y112.232 E.00213
M107
G1 E-0.4 F3900
G1 X70.59 Y118.771 F90000
G1 E0.4 F3900
;WIDTH:0.506526
M107
G1 F1921.057
G1 X70.503 Y118.805 E.0032
M107
M107
G1 F1912.169
G1 X70.717 Y118.817 E.00737
M107
;WIDTH:0.47422
M107
G1 F2050.586
G1 X70.931 Y118.829 E.00686
M107
;WIDTH:0.441914
M107
G1 F2211.661
G1 X71.145 Y118.841 E.00635
M107
;WIDTH:0.409607
M107
G1 F2397.967
G1 X71.452 Y118.854 E.00838
G1 X71.49 Y118.792 E0.00198
M107
;WIDTH:0.448736
M107
G1 F2170.835
G1 X71.528 Y118.73 E.00219
M107
;WIDTH:0.487864
M107
G1 F1982.383
G1 X71.566 Y118.668 E.0024
M107
;WIDTH:0.526992
M107
G1 F1837.051
G1 X71.605 Y118.606 E.00261
M107
;WIDTH:0.56612
M107
G1 F1669.251
G1 X71.643 Y118.545 E.00282
M107
;WIDTH:0.605248
M107
G1 F1571.093
G1 X71.681 Y118.483 E.00303
M107
;WIDTH:0.644376
M107
G1 F1468.969
G1 X71.719 Y118.421 E.00324
G1 F1477.32
G1 X71.659 Y118.433 E.00271
M107
;WIDTH:0.605248
M107
G1 F1570.41
G1 X71.599 Y118.444 E.00254
M107
;WIDTH:0.56612
M107
G1 F1668.421
G1 X71.54 Y118.456 E.00236
M107
;WIDTH:0.526992
M107
G1 F1828.6
G1 X71.48 Y118.467 E.00218
M107
;WIDTH:0.487864
M107
G1 F1988.397
G1 X71.42 Y118.479 E.00201
M107
;WIDTH:0.448736
M107
G1 F2149.094
G1 X71.361 Y118.491 E.00183
M107
;WIDTH:0.409607
M107
G1 F2400
G1 X71.002 Y118.615 E0.01033
M107
;WIDTH:0.453426
M107
G1 F2142.328
G1 X70.646 Y118.75 E.01162
M107
G1 E-0.4 F3900
G1 X64.672 Y98.376 F90000
G1 E0.4 F3900
;WIDTH:0.449999
M107
G1 F2169.091
G1 X64.378 Y98.28 E.00935
G1 F2181.027
G1 X63.813 Y97.993 E.01913
G1 F2186.01
G1 X63.499 Y97.79 E.01131
G1 F2197.498
G1 X62.909 Y97.214 E.02494
G1 F2214.054
G1 X62.577 Y96.757 E.01706
G1 F2223.303
G1 X62.29 Y96.193 E.01913
G1 F2235.139
G1 X62.155 Y95.838 E.01147
G1 F2245.32
G1 X61.997 Y94.838 E.03062
G1 F2260.099
G1 X62.017 Y94.468 E.0112
G1 F2270.729
G1 X62.116 Y93.842 E.01915
G1 F2278.196
G1 X62.243 Y93.406 E.01374
G1 F2292.662
G1 X62.513 Y92.868 E.01818
G1 F2298.365
G1 X62.746 Y92.473 E.01388
G1 F2315.989
G1 X63.357 Y91.838 E.02662
G1 F2327.731
G1 X63.813 Y91.506 E.01706
G1 F2344.057
G1 X64.378 Y91.219 E.01913
G1 F2350.348
G1 X64.91 Y91.046 E.01693
G1 F2367.301
G1 X65.539 Y90.945 E.01924
G1 F2377.605
G1 X65.978 Y90.93 E.01327
G1 F2387.928
G1 X66.726 Y91.045 E.02288
G1 F2398.235
G1 X67.264 Y91.219 E.01709
G1 F2399.73
G1 X67.828 Y91.506 E.01913
G1 F2398.1
G1 X68.284 Y91.838 E.01706
G1 F2399.646
G1 X68.732 Y92.286 E.01914
G1 X69.064 Y92.743 E0.01706
G1 F2398.819
G1 X69.351 Y93.307 E.01913
G1 F2396.249
G1 X69.524 Y93.839 E.01693
G1 X69.625 Y94.465 E0.01915
G1 F2399.339
G1 X69.643 Y94.867 E.01216
G1 X69.524 Y95.66 E.02424
G1 F2398.364
G1 X69.403 Y96.082 E.01328
G1 F2397.96
G1 X69.14 Y96.608 E.01778
G1 X68.889 Y97.035 E0.01495
G1 F2396.346
G1 X68.285 Y97.661 E.02631
G1 X67.953 Y97.923 E0.01278
G1 F2399.244
G1 X67.367 Y98.227 E.01996
G1 F2398.851
G1 X66.926 Y98.411 E.01445
G1 X66.105 Y98.554 E0.02518
G1 F2399.981
G1 X65.607 Y98.564 E.01505
G1 X64.91 Y98.454 E.02133
G1 F2396.797
G1 X64.729 Y98.394 E.00577
M107
G1 X64.796 Y97.994 F90000
M107
G1 F2400
G1 X64.562 Y97.917 E0.00744
G1 F2398.925
G1 X63.998 Y97.63 E.01913
G1 X63.645 Y97.373 E.01321
G1 X63.197 Y96.926 E.01914
G1 X62.94 Y96.572 E0.01321
G1 F2396.624
G1 X62.653 Y96.008 E.01913
G1 X62.518 Y95.593 E0.01317
G1 F2395.75
G1 X62.404 Y94.818 E.0237
G1 F2398.137
G1 X62.518 Y93.906 E.02778
G1 X62.653 Y93.491 E0.01317
G1 F2397.932
G1 X62.94 Y92.927 E.01913
G1 X63.197 Y92.574 E.01321
G1 X63.645 Y92.126 E0.01914
G1 X63.998 Y91.869 E.01321
G1 F2399.097
G1 X64.562 Y91.582 E.01913
G1 X64.98 Y91.447 E0.01327
G1 F2395.268
G1 X65.602 Y91.347 E.01906
G1 X66.041 Y91.348 E0.01325
G1 F2399.007
G1 X66.667 Y91.448 E.01915
G1 F2396.927
G1 X67.079 Y91.582 E.01311
G1 F2398.701
G1 X67.643 Y91.869 E.01913
G1 X67.997 Y92.126 E0.01321
G1 X68.444 Y92.574 E.01914
G1 X68.701 Y92.927 E.01321
G1 X68.988 Y93.491 E.01913
G1 X69.122 Y93.904 E0.01311
G1 F2396.165
G1 X69.223 Y94.529 E.01915
G1 F2399.768
G1 X69.223 Y94.97 E.01332
G1 X69.122 Y95.596 E0.01915
G1 F2396.628
G1 X68.988 Y96.008 E.01311
G1 F2398.701
G1 X68.701 Y96.572 E.01913
G1 X68.444 Y96.926 E0.01321
G1 F2393.043
G1 X67.997 Y97.373 E.01914
G1 X67.635 Y97.634 E0.01347
G1 F2398.099
G1 X67.079 Y97.917 E.01886
G1 X66.667 Y98.052 E.01311
G1 F2399.933
G1 X66.041 Y98.152 E.01915
G1 F2398.056
G1 X65.6 Y98.152 E.01332
G1 F2385.762
G1 X64.975 Y98.052 E.01915
G1 X64.853 Y98.012 E0.00385
M107
G1 X64.921 Y97.611 F90000
M107
G1 F2381.469
G1 X64.747 Y97.555 E.00553
G1 F2393.16
G1 X64.183 Y97.267 E.01913
G1 F2399.638
G1 X63.932 Y97.086 E.00935
G1 F2395.343
G1 X63.485 Y96.638 E.01914
G1 X63.303 Y96.387 E0.00935
G1 F2397.076
G1 X63.016 Y95.823 E.01913
G1 X62.92 Y95.53 E.00933
G1 F2399.489
G1 X62.81 Y94.798 E.02237
G1 X62.92 Y93.969 E0.02526
G1 F2396.521
G1 X63.016 Y93.676 E.00933
G1 F2397.076
G1 X63.303 Y93.112 E.01913
G1 X63.485 Y92.861 E0.00935
G1 F2390.405
G1 X63.932 Y92.414 E.01914
G1 X64.183 Y92.232 E0.00935
G1 F2397.076
G1 X64.747 Y91.945 E.01913
G1 F2398.699
G1 X65.044 Y91.849 E.00944
G1 F2397.641
G1 X65.666 Y91.749 E.01904
G1 X65.977 Y91.75 E0.00938
G1 F2394.901
G1 X66.602 Y91.85 E.01915
G1 X66.894 Y91.945 E0.00928
G1 F2396.623
G1 X67.458 Y92.232 E.01913
G1 X67.709 Y92.414 E0.00935
G1 F2395.343
G1 X68.157 Y92.861 E.01914
G1 X68.338 Y93.112 E0.00935
G1 F2397.676
G1 X68.625 Y93.676 E.01913
G1 X68.721 Y93.968 E0.00928
G1 F2399.24
G1 X68.821 Y94.594 E.01915
G1 X68.821 Y94.906 E.00943
G1 F2396.168
G1 X68.721 Y95.531 E.01915
G1 X68.625 Y95.823 E0.00928
G1 F2398.335
G1 X68.338 Y96.387 E.01913
G1 F2399.268
G1 X68.089 Y96.705 E.01221
G1 X67.709 Y97.086 E0.01626
G1 F2398.951
G1 X67.45 Y97.271 E.00962
G1 X66.894 Y97.555 E0.01886
G1 F2399.239
G1 X66.531 Y97.661 E.01143
G1 F2395.648
G1 X65.977 Y97.75 E.01699
G1 F2399.335
G1 X65.665 Y97.75 E.00943
G1 X65.039 Y97.65 E0.01915
G1 X64.978 Y97.63 E.00194
M107
G1 X65.006 Y97.202 F90000
M107
G1 F2400
G1 X64.367 Y96.905 E0.02129
G1 F2399.702
G1 X63.772 Y96.35 E.02459
G1 F2398.547
G1 X63.378 Y95.639 E.02458
G1 X63.217 Y94.778 E0.02647
G1 F2399.029
G1 X63.322 Y94.033 E.02274
G1 X63.602 Y93.422 E0.0203
G1 F2396.318
G1 X63.772 Y93.149 E.00973
G1 X64.22 Y92.701 E0.01914
G1 X64.931 Y92.308 E.02458
G1 X65.729 Y92.152 E0.02456
G1 F2391.947
G1 X66.533 Y92.251 E.02448
G1 F2376.504
G1 X67.274 Y92.595 E.02469
G1 F2358.083
G1 X67.869 Y93.149 E.02459
G1 F2344.742
G1 X68.263 Y93.861 E.02458
G1 F2325.579
G1 X68.419 Y94.658 E.02456
G1 F2310.667
G1 X68.319 Y95.467 E.02464
G1 F2295.505
G1 X68.051 Y96.054 E.01951
G1 F2287.033
G1 X67.869 Y96.35 E.0105
G1 F2278
G1 X67.421 Y96.798 E.01914
G1 F2264.827
G1 X66.813 Y97.139 E.02106
G1 F2252.163
G1 X66.538 Y97.248 E.00895
G1 F2246.536
G1 X65.912 Y97.348 E.01915
G1 F2231.237
G1 X65.103 Y97.248 E.02464
G1 F2227.551
G1 X65.06 Y97.228 E.00143
M107
G1 X65.165 Y96.86 F90000
;TYPE:External perimeter
;WIDTH:0.419999
M107
G1 F2400
G1 X64.545 Y96.555 E0.01934
G1 X64.05 Y96.073 E0.01937
G1 X63.728 Y95.461 E0.01936
G1 X63.609 Y94.759 E0.01994
G1 X63.71 Y94.094 E0.01882
G1 X64.05 Y93.427 E0.02098
G1 X64.497 Y92.979 E0.01773
G1 X65.109 Y92.657 E0.01936
G1 X65.791 Y92.539 E0.01937
G1 X66.471 Y92.638 E0.01924
G1 X67.096 Y92.944 E0.01949
G1 X67.591 Y93.427 E0.01937
G1 X67.913 Y94.038 E0.01936
G1 X68.031 Y94.72 E0.01937
G1 X67.931 Y95.405 E0.01939
G1 X67.702 Y95.876 E0.01468
G1 X67.524 Y96.14 E0.00891
G1 X67.144 Y96.521 E0.01506
G1 X66.635 Y96.79 E0.0161
G1 X66.405 Y96.872 E0.00685
G1 X65.85 Y96.961 E0.01573
G1 X65.224 Y96.869 E0.01771
M107
;WIPE_START
M204 S1500
G1 X64.858 Y97.116 F90000
;WIPE_END
G1 E-0.4 F3900
M204 S750
G1 X71.307 Y97.701 F90000
G1 E0.4 F3900
;TYPE:Internal perimeter
;WIDTH:0.449999
M107
G1 F2227.767
G1 X71.307 Y97.128 E.01732
G1 F2236.097
G1 X71.354 Y96.72 E.01242
G1 F2247.366
G1 X71.505 Y96.307 E.01328
G1 F2256.048
G1 X71.833 Y95.856 E.01685
G1 F2262.747
G1 X72.207 Y95.572 E.01421
G1 F2291.417
G1 X72.207 Y91.072 Z.2 E.13601
G1 F2334.85
G1 X72.207 Y86.573 Z.2 E.13601
G1 F2400
G1 X72.207 Y82.073 Z.2 E.13601
G1 F2399.606
G1 X68.941 Y82.073 E.09873
G1 X69.351 Y82.807 E0.02541
G1 F2395.934
G1 X69.524 Y83.339 E.01693
G1 X69.625 Y83.965 E0.01915
G1 F2397.677
G1 X69.625 Y84.534 E.0172
G1 X69.524 Y85.16 E0.01915
G1 F2399.54
G1 X69.351 Y85.693 E.01693
G1 F2398.053
G1 X69.064 Y86.257 E.01913
G1 X68.732 Y86.714 E0.01706
G1 X68.284 Y87.161 E.01914
G1 F2399.412
G1 X67.828 Y87.493 E.01706
G1 F2398.579
G1 X67.264 Y87.78 E.01913
G1 X66.731 Y87.954 E0.01693
G1 F2399.192
G1 X66.102 Y88.053 E.01924
G1 F2394.896
G1 X65.664 Y88.068 E.01327
G1 X64.913 Y87.954 E0.02295
G1 F2395.912
G1 X64.378 Y87.78 E.01702
G1 X63.813 Y87.493 E0.01913
G1 F2397.769
G1 X63.357 Y87.161 E.01706
G1 F2398.205
G1 X62.909 Y86.714 E.01914
G1 X62.607 Y86.313 E0.01516
G1 F2395.514
G1 X62.29 Y85.693 E.02106
G1 X62.163 Y85.368 E0.01053
G1 F2398.146
G1 X62.017 Y84.531 E.02568
G1 F2397.628
G1 X62.017 Y83.968 E.01703
G1 X62.116 Y83.342 E0.01915
G1 X62.29 Y82.807 E.01702
G1 F2399.382
G1 X62.577 Y82.243 E.01913
G1 X62.7 Y82.073 E0.00634
G1 X58.739 Y82.073 Z.2 E.11975
G1 X54.777 Y82.073 Z.2 E.11975
G1 X50.815 Y82.073 Z.2 E.11975
G1 F2400
G1 X46.854 Y82.073 Z.2 E.11975
M107
M107
G1 F2399.974
G1 X46.854 Y86.491 Z.2 E.13354
G1 X46.854 Y90.908 Z.2 E.13354
G1 X46.854 Y95.326 Z.2 E.13354
G1 X49.818 Y95.326 E0.08959
G1 X50.318 Y95.397 E.01527
G1 X50.796 Y95.615 E.01589
G1 F2397.944
G1 X51.119 Y95.882 E.01267
G1 X51.448 Y96.314 E0.01639
G1 F2396.753
G1 X53.911 Y99.82 Z.2 E.12951
G1 F2397.343
G1 X56.373 Y103.326 Z.2 E.12951
G1 X58.836 Y106.832 Z.2 E.12951
G1 F2398.524
G1 X61.298 Y110.338 Z.2 E.12951
G1 F2399.114
G1 X63.76 Y113.844 Z.2 E.12951
G1 F2400
G1 X66.223 Y117.35 Z.2 E.12951
G1 F2398.08
G1 X66.443 Y117.627 E.01071
M107
;WIDTH:0.534408
M107
G1 F1998.328
G1 X66.664 Y117.905 E.01293
G1 F1991.129
