; generated by PrusaSlicer 2.7.2+MacOS-arm64 on 2024-03-02 at 23:14:35 UTC


;
;

;
;

;
;

;
;

;
;
; 

; external perimeters extrusion width = 0.45mm
; perimeters extrusion width = 0.45mm
; infill extrusion width = 0.45mm
; solid infill extrusion width = 0.45mm
; top infill extrusion width = 0.40mm

M73 P0 R24

EXCLUDE_OBJECT_DEFINE NAME='btt_pi_mount_stl' CENTER=87.579,107.355 POLYGON=[[112.071,75.486],[112.826,75.625],[113.559,76.030],[114.117,76.655],[114.399,77.280],[114.500,77.985],[114.360,78.810],[113.955,79.543],[113.330,80.102],[112.636,80.403],[112.071,80.484],[101.998,80.501],[101.001,80.626],[100.028,80.876],[99.094,81.246],[98.213,81.730],[97.024,82.653],[96.336,83.385],[95.745,84.198],[95.261,85.078],[94.892,86.013],[94.563,87.482],[94.500,88.485],[94.500,125.485],[94.563,126.487],[94.776,127.477],[95.388,128.918],[95.958,129.842],[96.634,130.734],[98.232,132.413],[99.585,133.554],[100.551,134.257],[102.594,135.463],[109.115,138.274],[112.922,139.661],[113.424,139.930],[113.790,140.239],[114.133,140.681],[114.466,141.574],[114.430,142.571],[114.239,143.097],[113.935,143.568],[113.398,144.057],[112.796,144.355],[112.056,144.484],[111.413,144.415],[107.405,142.973],[100.244,139.799],[98.896,139.306],[97.539,138.924],[96.167,138.663],[93.371,138.469],[63.000,138.485],[62.174,138.344],[61.441,137.939],[60.897,137.336],[60.645,136.825],[60.516,136.270],[60.516,135.705],[60.645,135.145],[60.897,134.633],[61.258,134.192],[61.915,133.732],[62.444,133.547],[63.000,133.485],[73.002,133.469],[73.999,133.343],[74.972,133.093],[76.354,132.495],[77.202,131.957],[77.976,131.316],[78.664,130.584],[79.255,129.771],[79.938,128.430],[80.358,126.984],[80.500,125.485],[80.500,88.485],[80.437,87.482],[80.249,86.495],[79.938,85.540],[79.510,84.631],[78.972,83.782],[78.332,83.008],[77.599,82.321],[76.787,81.730],[75.906,81.246],[74.972,80.876],[73.503,80.548],[72.500,80.485],[63.000,80.485],[62.174,80.344],[61.473,79.964],[61.065,79.567],[60.757,79.088],[60.565,78.551],[60.500,77.985],[60.565,77.418],[60.757,76.882],[61.065,76.402],[61.441,76.030],[61.915,75.732],[62.444,75.547],[63.000,75.485]]

;TYPE:Custom
CALCULATE_PA MATERIAL=PLA BOWDEN_LENGTH=6 LAYER_HEIGHT=0.2 NOZZLE_SIZE=0.4 PRINT_SPEED=90


START_PRINT EXTRUDER=210 BED=65
G21 ; set units to millimeters
G90 ; use absolute coordinates
M83 ; use relative distances for extrusion
; Filament gcode
M107
;LAYER_CHANGE
;Z:0.2
;HEIGHT:0.2
G1 E-2 F3000
EXCLUDE_OBJECT_START NAME='btt_pi_mount_stl'
G1 Z.2 F60000
G1 X61.733 Y136.732
G1 Z.2
G1 E2 F3000
;TYPE:External perimeter
;WIDTH:0.45
G1 F1800
G1 X61.692 Y136.668 E.00257
G1 X61.6 Y136.45 E.00801
G1 X61.543 Y136.22 E.00802
G1 X61.524 Y135.985 E.00798
G1 X61.543 Y135.75 E.00798
G1 X61.588 Y135.563 E.00651
G1 X61.691 Y135.304 E.00943
G1 X61.818 Y135.102 E.00808
G1 X61.973 Y134.926 E.00794
G1 X62.118 Y134.802 E.00646
G1 X62.317 Y134.677 E.00795
G1 X62.537 Y134.583 E.0081
G1 X62.809 Y134.524 E.00942
G1 X63 Y134.509 E.00649
G1 X63.19 Y134.524 E.00645
G1 X63.419 Y134.572 E.00792
G1 X63.681 Y134.675 E.00953
G1 X63.882 Y134.802 E.00805
G1 X64.027 Y134.926 E.00646
G1 X64.182 Y135.102 E.00794
G1 X64.308 Y135.302 E.008
G1 X64.4 Y135.519 E.00798
G1 X64.457 Y135.749 E.00802
G1 X64.476 Y135.985 E.00801
G1 X64.457 Y136.22 E.00798
G1 X64.412 Y136.407 E.00651
G1 X64.309 Y136.666 E.00943
G1 X64.182 Y136.868 E.00808
G1 X64.027 Y137.043 E.00791
G1 X63.882 Y137.167 E.00646
G1 X63.683 Y137.293 E.00797
G1 X63.465 Y137.385 E.00801
G1 X63.236 Y137.441 E.00798
G1 X63 Y137.46 E.00801
G1 X62.765 Y137.442 E.00798
G1 X62.578 Y137.397 E.00651
G1 X62.319 Y137.294 E.00943
G1 X62.117 Y137.166 E.00809
G1 X61.941 Y137.012 E.00792
G1 X61.817 Y136.866 E.00648
G1 X61.765 Y136.783 E.00332
G1 X61.602 Y136.417 F60000
G1 E-2 F3000
G1 X110.867 Y142.924 F60000
G1 E2 F3000
G1 F1800
G1 X110.766 Y142.793 E.0056
G1 X110.654 Y142.588 E.00791
G1 X110.587 Y142.409 E.00647
G1 X110.537 Y142.179 E.00797
G1 X110.525 Y141.94 E.0081
G1 X110.562 Y141.665 E.00939
G1 X110.613 Y141.48 E.0065
G1 X110.712 Y141.265 E.00801
G1 X110.843 Y141.068 E.00801
G1 X111.005 Y140.896 E.008
G1 X111.19 Y140.752 E.00794
G1 X111.356 Y140.658 E.00646
G1 X111.577 Y140.571 E.00804
G1 X111.85 Y140.518 E.00941
G1 X112.043 Y140.51 E.00654
G1 X112.277 Y140.535 E.00797
G1 X112.505 Y140.598 E.00801
G1 X112.72 Y140.696 E.008
G1 X112.916 Y140.828 E.008
G1 X113.089 Y140.989 E.008
G1 X113.234 Y141.176 E.00801
G1 X113.346 Y141.382 E.00794
G1 X113.413 Y141.561 E.00647
G1 X113.463 Y141.79 E.00793
G1 X113.475 Y142.029 E.0081
G1 X113.438 Y142.304 E.00939
G1 X113.387 Y142.49 E.00653
G1 X113.288 Y142.704 E.00798
G1 X113.157 Y142.901 E.00801
G1 X112.995 Y143.074 E.00802
G1 X112.808 Y143.219 E.00801
G1 X112.603 Y143.331 E.00791
G1 X112.424 Y143.398 E.00647
G1 X112.195 Y143.447 E.00793
G1 X111.955 Y143.46 E.00814
G1 X111.68 Y143.423 E.00939
G1 X111.495 Y143.371 E.0065
G1 X111.28 Y143.273 E.008
G1 X111.084 Y143.141 E.008
G1 X110.911 Y142.98 E.008
G1 X110.904 Y142.971 E.00039
G1 X110.686 Y142.636 F60000
G1 E-2 F3000
G1 X110.324 Y143.217 F60000
G1 X99.045 Y134.284
G1 X98.675 Y133.99
G1 X98.551 Y133.891
G1 X98.191 Y133.588
G1 X98.071 Y133.487
G1 X97.721 Y133.175
G1 X97.604 Y133.071
G1 X97.267 Y132.751
G1 X97.153 Y132.643
G1 X96.828 Y132.315
G1 X96.718 Y132.204
G1 X96.408 Y131.869
G1 X96.302 Y131.754
G1 X96.007 Y131.41
G1 X95.906 Y131.293
G1 X95.531 Y130.819
G1 X95.181 Y130.334
G1 X94.858 Y129.837
G1 X94.564 Y129.328
G1 X94.303 Y128.805
G1 X94.078 Y128.27
G1 X93.894 Y127.724
G1 X93.753 Y127.167
G1 X93.66 Y126.606
G1 X93.607 Y126.044
G1 X93.589 Y125.494
G1 X93.589 Y88.475
G1 X93.607 Y87.925
G1 X93.659 Y87.368
G1 X93.747 Y86.815
G1 X93.869 Y86.269
G1 X94.025 Y85.731
G1 X94.215 Y85.204
G1 X94.437 Y84.691
G1 X94.691 Y84.192
G1 X94.976 Y83.71
G1 X95.291 Y83.247
G1 X95.634 Y82.805
G1 X96.004 Y82.385
G1 X96.4 Y81.989
G1 X96.82 Y81.619
G1 X97.262 Y81.276
G1 X97.725 Y80.961
G1 X98.207 Y80.676
G1 X98.706 Y80.422
G1 X99.22 Y80.199
G1 X99.746 Y80.01
G1 X111.996 Y76.107
G1 X111.89 Y76.111
G1 X111.905 Y76.517
G1 E2 F3000
G1 F1800
G1 X112 Y76.509 E.00323
G1 X112.19 Y76.524 E.00645
G1 X112.419 Y76.572 E.00792
G1 X112.681 Y76.675 E.00953
G1 X112.883 Y76.803 E.00809
G1 X113.059 Y76.958 E.00794
G1 X113.183 Y77.103 E.00646
G1 X113.308 Y77.302 E.00795
G1 X113.4 Y77.519 E.00798
G1 X113.457 Y77.749 E.00802
G1 X113.476 Y77.985 E.00801
G1 X113.457 Y78.22 E.00798
G1 X113.412 Y78.407 E.00651
G1 X113.309 Y78.666 E.00943
G1 X113.183 Y78.866 E.008
G1 X113.059 Y79.012 E.00648
G1 X112.883 Y79.166 E.00792
G1 X112.683 Y79.293 E.00802
G1 X112.465 Y79.385 E.00801
G1 X112.236 Y79.441 E.00798
G1 X112 Y79.46 E.00801
G1 X111.765 Y79.442 E.00798
G1 X111.578 Y79.397 E.00651
G1 X111.319 Y79.294 E.00943
G1 X111.117 Y79.166 E.00809
G1 X110.941 Y79.012 E.00792
G1 X110.817 Y78.866 E.00648
G1 X110.692 Y78.668 E.00793
G1 X110.6 Y78.45 E.00801
G1 X110.543 Y78.22 E.00802
G1 X110.524 Y77.985 E.00798
G1 X110.543 Y77.75 E.00798
G1 X110.588 Y77.563 E.00651
G1 X110.691 Y77.304 E.00943
G1 X110.817 Y77.103 E.00803
G1 X110.941 Y76.958 E.00646
G1 X111.117 Y76.803 E.00794
G1 X111.317 Y76.677 E.008
G1 X111.537 Y76.583 E.0081
G1 X111.809 Y76.524 E.00942
G1 X111.845 Y76.521 E.00122
G1 X112.245 Y76.544 F60000
G1 E-2 F3000
G1 X112.269 Y76.437 F60000
G1 X112.251 Y76.433
G1 X112.185 Y76.425
G1 X112 Y76.412
G1 X111.814 Y76.42
G1 X111.747 Y76.424
G1 X111.56 Y76.45
G1 X111.492 Y76.462
G1 X89.589 Y81.645
G1 X89.542 Y81.862
G1 X89.519 Y81.952
G1 X89.442 Y82.16
G1 X89.404 Y82.246
G1 X89.298 Y82.44
G1 X89.247 Y82.518
G1 X89.114 Y82.696
G1 X89.051 Y82.764
G1 X88.894 Y82.921
G1 X88.82 Y82.978
G1 X88.644 Y83.11
G1 X88.454 Y83.214
G1 X88.372 Y83.258
G1 X88.064 Y83.322
G1 X87.758 Y83.35
G1 X87.544 Y83.359
G1 X87.456 Y83.359
G1 X87.242 Y83.35
G1 X86.936 Y83.322
G1 X86.628 Y83.258
G1 X86.546 Y83.214
G1 X86.356 Y83.11
G1 X86.179 Y82.978
G1 X86.106 Y82.921
G1 X85.949 Y82.764
G1 X85.886 Y82.696
G1 X85.753 Y82.518
G1 X85.702 Y82.44
G1 X85.596 Y82.246
G1 X85.22 Y82.451
G1 E2 F3000
;TYPE:Perimeter
G1 F1800
G1 X85.195 Y82.404 E.0018
G1 X85.052 Y82.011 E.01416
G1 X84.985 Y81.704 E.01064
G1 X84.958 Y81.335 E.01252
G1 X84.986 Y80.961 E.01269
G1 X85.067 Y80.602 E.01246
G1 X85.173 Y80.316 E.01032
G1 X85.346 Y79.985 E.01264
G1 X85.605 Y79.643 E.01452
G1 X85.827 Y79.421 E.01063
G1 X86.122 Y79.198 E.01252
G1 X86.451 Y79.019 E.01268
G1 X86.803 Y78.89 E.01269
G1 X87.162 Y78.816 E.01241
G1 X87.467 Y78.795 E.01035
G1 X87.842 Y78.815 E.01271
G1 X88.258 Y78.911 E.01445
G1 X88.551 Y79.021 E.01059
G1 X88.878 Y79.198 E.01259
G1 X89.177 Y79.424 E.01269
G1 X89.439 Y79.692 E.01269
G1 X89.653 Y79.986 E.01231
G1 X89.805 Y80.265 E.01075
G1 X89.948 Y80.659 E.01419
G1 X90.015 Y80.965 E.0106
G1 X90.042 Y81.335 E.01256
G1 X90.014 Y81.708 E.01266
G1 X89.933 Y82.067 E.01246
G1 X89.827 Y82.354 E.01036
G1 X89.654 Y82.685 E.01264
G1 X89.395 Y83.026 E.01449
G1 X89.173 Y83.248 E.01063
G1 X88.895 Y83.458 E.01179
G1 X89.189 Y83.602 E.01108
G1 X89.525 Y83.828 E.01371
G1 X89.819 Y84.081 E.01313
G1 X90.037 Y84.312 E.01075
G1 X90.272 Y84.62 E.01311
G1 X90.473 Y84.961 E.0134
G1 X90.636 Y85.332 E.01372
G1 X90.762 Y85.775 E.01559
G1 X90.818 Y86.092 E.0109
G1 X90.839 Y86.454 E.01227
G1 X90.839 Y107.866 E.72477
G1 X90.818 Y108.229 E.01231
G1 X90.748 Y108.616 E.01331
G1 X90.656 Y108.925 E.01091
G1 X90.478 Y109.35 E.0156
G1 X90.272 Y109.699 E.01372
G1 X90.037 Y110.008 E.01314
G1 X89.813 Y110.244 E.01101
G1 X89.463 Y110.536 E.01543
G1 X89.192 Y110.715 E.01099
G1 X89.018 Y110.804 E.00662
G1 X89.177 Y110.924 E.00674
G1 X89.439 Y111.192 E.01269
G1 X89.653 Y111.486 E.01231
G1 X89.805 Y111.765 E.01075
G1 X89.948 Y112.159 E.01419
G1 X90.015 Y112.465 E.0106
G1 X90.042 Y112.835 E.01256
G1 X90.014 Y113.208 E.01266
G1 X89.933 Y113.567 E.01246
G1 X89.827 Y113.854 E.01036
G1 X89.654 Y114.185 E.01264
G1 X89.395 Y114.526 E.01449
G1 X89.173 Y114.748 E.01063
G1 X89.016 Y114.867 E.00667
G1 X89.189 Y114.952 E.00652
G1 X89.525 Y115.178 E.01371
G1 X89.819 Y115.431 E.01313
G1 X90.037 Y115.662 E.01075
G1 X90.272 Y115.97 E.01311
G1 X90.473 Y116.311 E.0134
G1 X90.636 Y116.682 E.01372
G1 X90.762 Y117.125 E.01559
G1 X90.818 Y117.442 E.0109
G1 X90.839 Y117.804 E.01227
G1 X90.839 Y127.516 E.32874
G1 X90.818 Y127.878 E.01227
G1 X90.762 Y128.195 E.0109
G1 X90.636 Y128.637 E.01556
G1 X90.473 Y129.009 E.01375
G1 X90.275 Y129.344 E.01317
G1 X90.081 Y129.604 E.01098
G1 X89.769 Y129.936 E.01542
G1 X89.519 Y130.145 E.01103
G1 X89.197 Y130.362 E.01314
G1 X88.836 Y130.547 E.01373
G1 X88.402 Y130.699 E.01557
G1 X88.088 Y130.773 E.01092
G1 X87.698 Y130.82 E.0133
G1 X87.302 Y130.82 E.0134
G1 X86.91 Y130.773 E.01336
G1 X86.529 Y130.681 E.01327
G1 X86.225 Y130.571 E.01094
G1 X85.811 Y130.367 E.01562
G1 X85.475 Y130.141 E.01371
G1 X85.181 Y129.889 E.01311
G1 X84.963 Y129.658 E.01075
G1 X84.728 Y129.349 E.01314
G1 X84.527 Y129.009 E.01337
G1 X84.364 Y128.637 E.01375
G1 X84.238 Y128.195 E.01556
G1 X84.182 Y127.878 E.0109
G1 X84.161 Y127.516 E.01227
G1 X84.161 Y117.804 E.32874
G1 X84.182 Y117.442 E.01227
G1 X84.238 Y117.124 E.01093
G1 X84.364 Y116.682 E.01556
G1 X84.527 Y116.311 E.01372
G1 X84.725 Y115.976 E.01317
G1 X84.919 Y115.715 E.01101
G1 X85.231 Y115.383 E.01542
G1 X85.481 Y115.174 E.01103
G1 X85.803 Y114.957 E.01314
G1 X85.982 Y114.865 E.00681
G1 X85.823 Y114.745 E.00674
G1 X85.561 Y114.478 E.01266
G1 X85.347 Y114.183 E.01234
G1 X85.195 Y113.904 E.01075
G1 X85.052 Y113.511 E.01416
G1 X84.985 Y113.204 E.01064
G1 X84.958 Y112.835 E.01252
G1 X84.986 Y112.461 E.01269
G1 X85.067 Y112.102 E.01246
G1 X85.173 Y111.816 E.01032
G1 X85.346 Y111.485 E.01264
G1 X85.605 Y111.143 E.01452
G1 X85.827 Y110.921 E.01063
G1 X85.984 Y110.803 E.00665
G1 X85.811 Y110.717 E.00654
G1 X85.475 Y110.491 E.01371
G1 X85.181 Y110.239 E.01311
G1 X84.963 Y110.008 E.01075
G1 X84.728 Y109.699 E.01314
G1 X84.527 Y109.359 E.01337
G1 X84.364 Y108.987 E.01375
G1 X84.238 Y108.545 E.01556
G1 X84.182 Y108.228 E.0109
G1 X84.161 Y107.866 E.01227
G1 X84.161 Y86.454 E.72477
G1 X84.182 Y86.09 E.01234
G1 X84.252 Y85.704 E.01328
G1 X84.344 Y85.394 E.01095
G1 X84.522 Y84.969 E.0156
G1 X84.728 Y84.62 E.01372
G1 X84.963 Y84.312 E.01311
G1 X85.187 Y84.075 E.01104
G1 X85.537 Y83.783 E.01543
G1 X85.808 Y83.605 E.01097
G1 X86.101 Y83.455 E.01114
G1 X85.823 Y83.245 E.01179
G1 X85.561 Y82.978 E.01266
G1 X85.347 Y82.683 E.01234
G1 X85.249 Y82.504 E.00691
G1 E-2 F3000
G1 X85.249 Y82.504 F60000
G1 X85.625 Y82.298
G1 X84.67 Y85.8
G1 X84.652 Y85.897
G1 X84.609 Y86.141
G1 X84.603 Y86.239
G1 X84.589 Y86.467
G1 X84.589 Y107.853
G1 X84.603 Y108.081
G1 X84.609 Y108.179
G1 X84.652 Y108.423
G1 X84.67 Y108.519
G1 X84.741 Y108.757
G1 X84.772 Y108.85
G1 X84.87 Y109.078
G1 X84.912 Y109.167
G1 X85.035 Y109.381
G1 X85.088 Y109.464
G1 X85.236 Y109.663
G1 X85.299 Y109.739
G1 X85.469 Y109.919
G1 X85.54 Y109.986
G1 X85.713 Y110.131
G1 X85.7 Y110.148
G1 E2 F3000
G1 F1800
G1 X85.463 Y109.944 E.01058
G1 X85.274 Y109.744 E.00931
G1 X85.066 Y109.471 E.01162
G1 X84.89 Y109.172 E.01174
G1 X84.747 Y108.849 E.01196
G1 X84.636 Y108.454 E.01389
G1 X84.587 Y108.18 E.00942
G1 X84.568 Y107.853 E.01109
G1 X84.568 Y86.466 E.72392
G1 X84.587 Y86.138 E.01112
G1 X84.648 Y85.798 E.01169
G1 X84.728 Y85.532 E.0094
G1 X84.887 Y85.152 E.01394
G1 X85.066 Y84.848 E.01194
G1 X85.274 Y84.576 E.01159
G1 X85.466 Y84.372 E.00948
G1 X85.78 Y84.11 E.01384
G1 X86.013 Y83.957 E.00944
G1 X86.325 Y83.797 E.01187
G1 X86.713 Y83.662 E.01391
G1 X86.983 Y83.598 E.00939
G1 X87.326 Y83.557 E.01169
G1 X87.674 Y83.557 E.01178
G1 X88.018 Y83.598 E.01173
G1 X88.354 Y83.679 E.0117
G1 X88.615 Y83.774 E.0094
G1 X88.985 Y83.955 E.01394
G1 X89.278 Y84.152 E.01195
G1 X89.537 Y84.376 E.01159
G1 X89.726 Y84.576 E.00931
G1 X89.934 Y84.848 E.01159
G1 X90.11 Y85.147 E.01174
G1 X90.253 Y85.47 E.01196
G1 X90.364 Y85.866 E.01392
G1 X90.413 Y86.139 E.00939
G1 X90.432 Y86.466 E.01109
G1 X90.432 Y107.853 E.72392
G1 X90.413 Y108.181 E.01112
G1 X90.352 Y108.521 E.01169
G1 X90.272 Y108.788 E.00943
G1 X90.113 Y109.167 E.01391
G1 X89.934 Y109.471 E.01194
G1 X89.726 Y109.744 E.01162
G1 X89.534 Y109.947 E.00946
G1 X89.22 Y110.209 E.01384
G1 X88.987 Y110.363 E.00945
G1 X88.675 Y110.522 E.01185
G1 X88.288 Y110.658 E.01388
G1 X88.017 Y110.722 E.00943
G1 X87.87 Y110.739 E.00501
G1 X88.141 Y110.802 E.00942
G1 X88.382 Y110.892 E.00871
G1 X88.656 Y111.041 E.01056
G1 X88.907 Y111.231 E.01066
G1 X89.128 Y111.455 E.01065
G1 X89.309 Y111.705 E.01045
G1 X89.433 Y111.933 E.00879
G1 X89.556 Y112.272 E.01221
G1 X89.611 Y112.524 E.00873
G1 X89.634 Y112.835 E.01056
G1 X89.611 Y113.148 E.01062
G1 X89.542 Y113.451 E.01052
G1 X89.454 Y113.688 E.00856
G1 X89.309 Y113.966 E.01061
G1 X89.087 Y114.258 E.01242
G1 X88.905 Y114.44 E.00871
G1 X88.656 Y114.628 E.01056
G1 X88.38 Y114.778 E.01063
G1 X88.085 Y114.887 E.01065
G1 X87.873 Y114.93 E.00732
G1 X88.018 Y114.948 E.00495
G1 X88.354 Y115.029 E.0117
G1 X88.615 Y115.124 E.0094
G1 X88.985 Y115.305 E.01394
G1 X89.278 Y115.502 E.01195
G1 X89.537 Y115.726 E.01159
G1 X89.726 Y115.926 E.00931
G1 X89.934 Y116.198 E.01159
G1 X90.11 Y116.497 E.01174
G1 X90.253 Y116.82 E.01196
G1 X90.364 Y117.216 E.01392
G1 X90.413 Y117.489 E.00939
G1 X90.432 Y117.816 E.01109
G1 X90.432 Y127.503 E.32789
G1 X90.413 Y127.83 E.01109
G1 X90.364 Y128.104 E.00942
G1 X90.253 Y128.499 E.01389
G1 X90.11 Y128.822 E.01196
G1 X89.936 Y129.118 E.01162
G1 X89.769 Y129.342 E.00946
G1 X89.489 Y129.64 E.01384
G1 X89.274 Y129.819 E.00947
G1 X88.99 Y130.011 E.0116
G1 X88.675 Y130.172 E.01197
G1 X88.287 Y130.308 E.01392
G1 X88.017 Y130.372 E.00939
G1 X87.674 Y130.413 E.01169
G1 X87.326 Y130.413 E.01178
G1 X86.982 Y130.372 E.01173
G1 X86.646 Y130.291 E.0117
G1 X86.385 Y130.195 E.00941
G1 X86.015 Y130.014 E.01394
G1 X85.722 Y129.817 E.01195
G1 X85.463 Y129.594 E.01157
G1 X85.274 Y129.394 E.00931
G1 X85.066 Y129.121 E.01162
G1 X84.89 Y128.822 E.01174
G1 X84.747 Y128.499 E.01196
G1 X84.636 Y128.104 E.01389
G1 X84.587 Y127.83 E.00942
G1 X84.568 Y127.503 E.01109
G1 X84.568 Y117.816 E.32789
G1 X84.587 Y117.489 E.01109
G1 X84.636 Y117.216 E.00939
G1 X84.747 Y116.821 E.01389
G1 X84.89 Y116.497 E.01199
G1 X85.064 Y116.201 E.01162
G1 X85.231 Y115.977 E.00946
