; generated by PrusaSlicer 2.7.2+MacOS-arm64 on 2024-03-03 at 00:52:02 UTC


;
;

;
;

;
;

;
;

;
;
; 

; external perimeters extrusion width = 0.45mm
; perimeters extrusion width = 0.45mm
; infill extrusion width = 0.45mm
; solid infill extrusion width = 0.45mm
; top infill extrusion width = 0.40mm

M73 P0 R28

EXCLUDE_OBJECT_DEFINE NAME='btt_pi_mount_stl' CENTER=87.579,107.370 POLYGON=[[112.071,75.501],[112.826,75.640],[113.559,76.046],[114.117,76.670],[114.399,77.296],[114.500,78.000],[114.360,78.826],[113.955,79.559],[113.330,80.117],[112.636,80.418],[112.071,80.499],[101.998,80.516],[101.001,80.642],[100.028,80.892],[99.094,81.261],[98.213,81.745],[97.024,82.668],[96.336,83.401],[95.745,84.213],[95.261,85.094],[94.892,86.028],[94.563,87.497],[94.500,88.500],[94.500,125.500],[94.563,126.503],[94.776,127.492],[95.388,128.933],[95.958,129.858],[96.634,130.750],[98.232,132.428],[99.585,133.570],[100.551,134.272],[102.594,135.478],[109.115,138.290],[112.922,139.676],[113.424,139.945],[113.790,140.255],[114.133,140.697],[114.466,141.589],[114.430,142.587],[114.239,143.113],[113.935,143.583],[113.398,144.073],[112.796,144.370],[112.056,144.499],[111.413,144.430],[107.405,142.988],[100.244,139.814],[98.896,139.321],[97.539,138.939],[96.167,138.678],[93.371,138.484],[63.000,138.500],[62.174,138.360],[61.441,137.955],[60.897,137.352],[60.645,136.840],[60.516,136.285],[60.516,135.720],[60.645,135.160],[60.897,134.648],[61.258,134.207],[61.915,133.748],[62.444,133.563],[63.000,133.500],[73.002,133.484],[73.999,133.358],[74.972,133.109],[75.906,132.739],[76.787,132.255],[77.976,131.332],[78.972,130.202],[79.510,129.354],[79.938,128.445],[80.358,126.999],[80.500,125.500],[80.500,88.500],[80.437,87.497],[80.249,86.511],[79.938,85.555],[79.510,84.646],[78.972,83.798],[78.332,83.024],[77.599,82.336],[76.787,81.745],[75.445,81.062],[74.490,80.751],[73.503,80.563],[72.500,80.500],[63.000,80.500],[62.174,80.360],[61.473,79.980],[61.065,79.583],[60.757,79.103],[60.565,78.566],[60.500,78.000],[60.565,77.434],[60.757,76.897],[61.065,76.418],[61.441,76.046],[61.915,75.748],[62.444,75.563],[63.000,75.500]]

;TYPE:Custom
CALCULATE_PA MATERIAL=PLA BOWDEN_LENGTH=6 LAYER_HEIGHT=0.2 NOZZLE_SIZE=0.4 PRINT_SPEED=90


START_PRINT EXTRUDER=210 BED=65
G21 ; set units to millimeters
G90 ; use absolute coordinates
M83 ; use relative distances for extrusion
; Filament gcode
M107
;LAYER_CHANGE
;Z:0.2
;HEIGHT:0.2
G1 E-2 F3000
G1 Z.2 F60000
G1 X58.67 Y72.522
G1 Z.2
G1 E2 F3000
;TYPE:Skirt/Brim
;WIDTH:0.45
G1 F1800
G1 X59.886 Y71.75 E.04875
G1 X60.582 Y71.451 E.02564
G1 X61.323 Y71.224 E.02623
G1 X62.063 Y71.082 E.02551
G1 X62.821 Y71.022 E.02574
G1 X112.179 Y71.022 E1.67071
G1 X113.083 Y71.105 E.03073
G1 X113.812 Y71.258 E.02521
G1 X114.446 Y71.462 E.02254
G1 X115.401 Y71.904 E.03562
G1 X116.264 Y72.472 E.03497
G1 X116.736 Y72.871 E.02092
G1 X117.176 Y73.316 E.02118
G1 X117.804 Y74.12 E.03453
G1 X118.293 Y74.977 E.0334
G1 X118.65 Y75.884 E.03299
G1 X118.833 Y76.572 E.0241
G1 X118.945 Y77.283 E.02436
G1 X118.976 Y78.25 E.03275
G1 X118.878 Y79.189 E.03196
G1 X118.67 Y80.06 E.03031
G1 X118.339 Y80.917 E.0311
G1 X117.919 Y81.702 E.03014
G1 X117.383 Y82.446 E.03104
G1 X116.7 Y83.16 E.03345
G1 X116.103 Y83.648 E.0261
G1 X115.41 Y84.091 E.02784
G1 X114.556 Y84.496 E.03199
G1 X113.7 Y84.771 E.03043
G1 X112.83 Y84.932 E.02995
G1 X112.087 Y84.981 E.0252
G1 X102.572 Y84.982 E.32207
G1 X101.626 Y85.095 E.03225
G1 X100.806 Y85.419 E.02984
G1 X100.093 Y85.937 E.02983
G1 X99.531 Y86.616 E.02983
G1 X99.317 Y87.006 E.01506
G1 X99.095 Y87.626 E.02229
G1 X98.981 Y88.573 E.03229
G1 X98.991 Y125.718 E1.25731
G1 X99.126 Y126.379 E.02284
G1 X99.458 Y127.036 E.02492
G1 X100.063 Y127.873 E.03496
G1 X100.611 Y128.486 E.02783
G1 X102.045 Y129.795 E.06572
G1 X103.112 Y130.595 E.04514
G1 X103.917 Y131.113 E.0324
G1 X105.013 Y131.694 E.04199
G1 X110.759 Y134.119 E.21111
G1 X114.541 Y135.499 E.13627
G1 X115.144 Y135.767 E.02234
G1 X115.9 Y136.21 E.02966
G1 X116.6 Y136.749 E.0299
G1 X117.187 Y137.328 E.02791
G1 X117.783 Y138.09 E.03275
G1 X118.262 Y138.914 E.03226
G1 X118.648 Y139.867 E.0348
G1 X118.843 Y140.618 E.02626
G1 X118.956 Y141.42 E.02741
G1 X118.961 Y142.536 E.03778
G1 X118.746 Y143.802 E.04347
G1 X118.283 Y145.045 E.0449
G1 X117.948 Y145.654 E.02353
G1 X117.55 Y146.237 E.02389
G1 X116.896 Y146.976 E.0334
G1 X116.147 Y147.612 E.03326
G1 X115.529 Y148.024 E.02514
G1 X114.872 Y148.363 E.02502
G1 X114.054 Y148.672 E.0296
G1 X113.18 Y148.88 E.03041
G1 X112.322 Y148.974 E.02922
G1 X111.447 Y148.959 E.02962
G1 X110.552 Y148.829 E.03061
G1 X109.74 Y148.605 E.02851
G1 X105.743 Y147.15 E.14398
G1 X98.497 Y143.98 E.26771
G1 X97.445 Y143.59 E.03798
G1 X96.452 Y143.306 E.03496
G1 X95.471 Y143.116 E.03382
G1 X94.441 Y143.006 E.03506
G1 X93.278 Y142.963 E.03939
G1 X62.902 Y142.982 E1.02819
G1 X61.823 Y142.881 E.03668
G1 X60.652 Y142.576 E.04096
G1 X59.671 Y142.135 E.03641
G1 X58.731 Y141.523 E.03797
G1 X58.016 Y140.889 E.03235
G1 X57.459 Y140.247 E.02877
G1 X56.984 Y139.541 E.0288
G1 X56.605 Y138.8 E.02817
G1 X56.311 Y138 E.02885
G1 X56.117 Y137.167 E.02895
G1 X56.027 Y136.326 E.02863
G1 X56.037 Y135.503 E.02786
G1 X56.148 Y134.666 E.02858
G1 X56.382 Y133.777 E.03112
G1 X56.749 Y132.892 E.03243
G1 X57.171 Y132.158 E.02866
G1 X57.698 Y131.459 E.02963
G1 X58.309 Y130.83 E.02968
G1 X58.945 Y130.318 E.02764
G1 X59.637 Y129.883 E.02767
G1 X60.44 Y129.506 E.03003
G1 X61.28 Y129.234 E.02989
G1 X62.156 Y129.07 E.03017
G1 X62.884 Y129.02 E.0247
G1 X72.427 Y129.019 E.32302
G1 X73.374 Y128.906 E.03228
G1 X74.194 Y128.581 E.02986
G1 X74.907 Y128.063 E.02983
G1 X75.469 Y127.384 E.02983
G1 X75.845 Y126.584 E.02992
G1 X75.989 Y125.934 E.02254
G1 X76.019 Y125.428 E.01716
G1 X76.019 Y88.573 E1.2475
G1 X75.989 Y88.063 E.01729
G1 X75.844 Y87.414 E.02251
G1 X75.68 Y87 E.01507
G1 X75.344 Y86.434 E.02228
G1 X75.061 Y86.091 E.01505
G1 X74.567 Y85.656 E.02228
G1 X74.194 Y85.419 E.01496
G1 X73.381 Y85.096 E.02961
G1 X72.428 Y84.982 E.03249
G1 X62.91 Y84.981 E.32217
G1 X62.206 Y84.936 E.02388
G1 X61.308 Y84.771 E.03091
G1 X60.441 Y84.494 E.03081
G1 X59.635 Y84.116 E.03013
G1 X58.876 Y83.633 E.03045
G1 X58.284 Y83.148 E.0259
G1 X57.741 Y82.592 E.02631
G1 X57.061 Y81.67 E.03878
G1 X56.621 Y80.837 E.03189
G1 X56.321 Y80.033 E.02905
G1 X56.124 Y79.206 E.02878
G1 X56.034 Y78.458 E.0255
G1 X56.025 Y77.692 E.02593
G1 X56.193 Y76.443 E.04266
G1 X56.399 Y75.729 E.02515
G1 X56.689 Y75.016 E.02605
G1 X57.045 Y74.356 E.02538
G1 X57.469 Y73.74 E.02531
G1 X58.035 Y73.093 E.0291
G1 X58.625 Y72.562 E.02687
G1 X58.625 Y72.562 F60000
G1 X58.897 Y72.865
G1 F1800
G1 X58.929 Y72.836 E.00146
G1 X60.062 Y72.118 E.0454
G1 X60.713 Y71.837 E.024
G1 X61.41 Y71.621 E.0247
G1 X62.128 Y71.484 E.02474
G1 X62.844 Y71.429 E.02431
G1 X112.151 Y71.428 E1.66898
G1 X113.034 Y71.51 E.03002
G1 X113.698 Y71.649 E.02296
G1 X114.287 Y71.837 E.02093
G1 X115.191 Y72.253 E.03368
G1 X116.011 Y72.79 E.03318
G1 X116.877 Y73.593 E.03998
G1 X117.458 Y74.336 E.03193
G1 X117.92 Y75.141 E.03142
G1 X118.26 Y76.001 E.0313
G1 X118.437 Y76.666 E.02329
G1 X118.541 Y77.333 E.02285
G1 X118.569 Y78.248 E.03099
G1 X118.475 Y79.133 E.03012
G1 X118.278 Y79.951 E.02848
G1 X117.965 Y80.758 E.0293
G1 X117.567 Y81.497 E.02841
G1 X117.061 Y82.196 E.02921
G1 X116.432 Y82.853 E.03079
G1 X115.873 Y83.312 E.02448
G1 X115.223 Y83.729 E.02614
G1 X114.417 Y84.113 E.03022
G1 X113.613 Y84.373 E.0286
G1 X112.768 Y84.529 E.02909
G1 X112.081 Y84.574 E.0233
G1 X102.569 Y84.574 E.32197
G1 X102.005 Y84.608 E.01913
G1 X101.524 Y84.7 E.01658
G1 X100.61 Y85.062 E.03328
G1 X99.814 Y85.64 E.0333
G1 X99.187 Y86.398 E.0333
G1 X98.951 Y86.827 E.01657
G1 X98.699 Y87.524 E.02509
G1 X98.608 Y88.005 E.01657
G1 X98.574 Y88.569 E.01913
G1 X98.584 Y125.75 E1.25853
G1 X98.636 Y126.159 E.01396
G1 X98.744 Y126.523 E.01285
G1 X98.955 Y126.979 E.01701
G1 X99.294 Y127.53 E.0219
G1 X99.752 Y128.135 E.02568
G1 X100.985 Y129.422 E.06033
G1 X101.79 Y130.112 E.03589
G1 X102.884 Y130.932 E.04628
G1 X103.707 Y131.463 E.03315
G1 X104.847 Y132.066 E.04365
G1 X110.61 Y134.498 E.21173
G1 X114.395 Y135.878 E.13637
G1 X114.968 Y136.134 E.02124
G1 X115.662 Y136.541 E.02723
G1 X116.341 Y137.064 E.02901
G1 X116.891 Y137.609 E.02621
G1 X117.438 Y138.308 E.03004
G1 X117.89 Y139.082 E.03034
G1 X118.258 Y139.983 E.03294
G1 X118.442 Y140.687 E.02463
G1 X118.549 Y141.436 E.02561
G1 X118.555 Y142.499 E.03598
G1 X118.351 Y143.701 E.04127
G1 X117.92 Y144.862 E.04192
G1 X117.597 Y145.449 E.02268
G1 X117.221 Y145.996 E.02247
G1 X116.602 Y146.695 E.0316
G1 X115.894 Y147.293 E.03137
G1 X115.313 Y147.678 E.02359
G1 X114.696 Y147.996 E.0235
G1 X113.923 Y148.286 E.02795
G1 X113.1 Y148.48 E.02862
G1 X112.291 Y148.567 E.02754
G1 X111.468 Y148.553 E.02786
G1 X110.624 Y148.428 E.02888
G1 X109.857 Y148.215 E.02694
G1 X105.888 Y146.77 E.14297
G1 X98.65 Y143.602 E.26744
G1 X97.572 Y143.203 E.03891
M73 P1 R28
G1 X96.547 Y142.91 E.03608
G1 X95.532 Y142.713 E.035
G1 X94.47 Y142.6 E.03615
G1 X93.285 Y142.556 E.04014
G1 X62.911 Y142.574 E1.02812
G1 X61.897 Y142.48 E.03447
G1 X60.784 Y142.19 E.03893
G1 X59.853 Y141.771 E.03456
G1 X58.966 Y141.191 E.03587
G1 X58.315 Y140.612 E.02949
G1 X57.789 Y140.009 E.02709
G1 X57.34 Y139.344 E.02716
G1 X56.982 Y138.647 E.02652
G1 X56.705 Y137.894 E.02716
G1 X56.521 Y137.11 E.02726
G1 X56.434 Y136.318 E.02697
G1 X56.442 Y135.543 E.02623
G1 X56.545 Y134.757 E.02683
G1 X56.764 Y133.92 E.02929
G1 X57.12 Y133.06 E.03151
G1 X57.517 Y132.373 E.02686
G1 X58.015 Y131.714 E.02796
G1 X58.575 Y131.139 E.02717
G1 X59.172 Y130.656 E.02599
G1 X59.843 Y130.235 E.02681
G1 X60.6 Y129.88 E.0283
G1 X61.392 Y129.626 E.02815
G1 X62.219 Y129.472 E.02847
G1 X62.891 Y129.427 E.0228
G1 X72.431 Y129.426 E.32292
G1 X72.995 Y129.392 E.01913
G1 X73.476 Y129.301 E.01657
G1 X74.39 Y128.939 E.03328
G1 X75.186 Y128.36 E.03332
G1 X75.813 Y127.603 E.03327
G1 X76.231 Y126.716 E.03319
G1 X76.392 Y125.995 E.02501
G1 X76.426 Y125.431 E.01913
G1 X76.426 Y88.569 E1.24773
G1 X76.393 Y88.008 E.01902
G1 X76.232 Y87.288 E.02497
G1 X76.052 Y86.832 E.01659
G1 X75.674 Y86.194 E.0251
G1 X75.362 Y85.817 E.01656
G1 X74.806 Y85.326 E.02511
G1 X74.39 Y85.062 E.01668
G1 X73.712 Y84.769 E.025
G1 X72.995 Y84.608 E.02487
G1 X72.431 Y84.574 E.01913
G1 X62.916 Y84.574 E.32207
G1 X62.244 Y84.531 E.02279
G1 X61.419 Y84.379 E.0284
G1 X60.601 Y84.12 E.02904
G1 X59.842 Y83.765 E.02836
G1 X59.125 Y83.31 E.02874
G1 X58.551 Y82.84 E.02511
G1 X58.042 Y82.318 E.02468
G1 X57.414 Y81.466 E.03583
G1 X56.997 Y80.682 E.03006
G1 X56.714 Y79.925 E.02736
G1 X56.527 Y79.146 E.02712
G1 X56.44 Y78.421 E.02472
G1 X56.432 Y77.703 E.0243
G1 X56.589 Y76.542 E.03966
G1 X56.787 Y75.852 E.0243
G1 X57.061 Y75.181 E.02453
G1 X57.397 Y74.56 E.0239
G1 X57.797 Y73.981 E.02382
G1 X58.316 Y73.387 E.0267
G1 X58.853 Y72.905 E.02442
G1 X58.853 Y72.905 F60000
G1 X59.124 Y73.208
G1 F1800
G1 X59.188 Y73.151 E.0029
G1 X60.238 Y72.485 E.04209
G1 X60.864 Y72.215 E.02308
G1 X61.519 Y72.014 E.02319
G1 X62.192 Y71.886 E.02319
G1 X62.867 Y71.835 E.02291
G1 X112.141 Y71.835 E1.66787
G1 X112.984 Y71.914 E.02866
G1 X113.585 Y72.04 E.02079
G1 X114.13 Y72.212 E.01934
G1 X114.981 Y72.603 E.0317
G1 X115.758 Y73.11 E.0314
G1 X116.579 Y73.871 E.03789
G1 X117.113 Y74.552 E.02929
G1 X117.547 Y75.305 E.02942
G1 X117.87 Y76.118 E.02961
G1 X118.036 Y76.74 E.02179
G1 X118.136 Y77.383 E.02203
G1 X118.161 Y78.246 E.02922
G1 X118.072 Y79.076 E.02826
G1 X117.886 Y79.841 E.02665
G1 X117.59 Y80.598 E.02751
G1 X117.229 Y81.269 E.02579
G1 X116.739 Y81.946 E.02829
G1 X116.164 Y82.547 E.02815
G1 X115.642 Y82.976 E.02287
G1 X115.035 Y83.367 E.02444
G1 X114.279 Y83.73 E.02839
G1 X113.501 Y83.981 E.02767
G1 X112.707 Y84.127 E.02733
G1 X112.075 Y84.167 E.02144
G1 X102.562 Y84.167 E.322
G1 X101.957 Y84.203 E.02051
G1 X101.162 Y84.381 E.02758
G1 X100.656 Y84.581 E.01842
G1 X100.179 Y84.843 E.01842
G1 X99.739 Y85.163 E.01842
G1 X99.343 Y85.535 E.01839
G1 X98.996 Y85.955 E.01844
G1 X98.705 Y86.414 E.0184
G1 X98.473 Y86.906 E.01841
G1 X98.305 Y87.423 E.0184
G1 X98.203 Y87.957 E.0184
G1 X98.167 Y88.562 E.02051
G1 X98.178 Y125.772 E1.25951
G1 X98.289 Y126.446 E.02312
G1 X98.465 Y126.909 E.01677
G1 X98.958 Y127.76 E.03329
G1 X99.44 Y128.397 E.02704
G1 X100.707 Y129.719 E.06198
G1 X101.536 Y130.43 E.03697
G1 X102.656 Y131.269 E.04737
G1 X103.903 Y132.046 E.04973
G1 X104.681 Y132.437 E.02947
G1 X110.461 Y134.877 E.21236
G1 X114.248 Y136.258 E.13644
G1 X114.792 Y136.501 E.02017
G1 X115.424 Y136.871 E.02479
G1 X116.083 Y137.379 E.02816
G1 X116.595 Y137.888 E.02444
G1 X117.109 Y138.547 E.02829
G1 X117.519 Y139.249 E.02752
G1 X117.868 Y140.1 E.03113
G1 X118.041 Y140.758 E.02303
G1 X118.142 Y141.454 E.02381
G1 X118.149 Y142.463 E.03415
G1 X117.957 Y143.6 E.03903
G1 X117.556 Y144.679 E.03896
G1 X116.893 Y145.755 E.04278
G1 X116.308 Y146.413 E.0298
G1 X115.641 Y146.974 E.0295
G1 X115.099 Y147.332 E.02199
G1 X114.521 Y147.628 E.02198
G1 X113.793 Y147.9 E.02631
G1 X113.02 Y148.081 E.02687
G1 X112.262 Y148.161 E.0258
G1 X111.489 Y148.146 E.02617
G1 X110.697 Y148.028 E.0271
G1 X109.974 Y147.825 E.02542
G1 X106.034 Y146.389 E.14195
G1 X98.803 Y143.225 E.26717
G1 X97.698 Y142.815 E.03989
G1 X96.641 Y142.514 E.0372
G1 X95.592 Y142.31 E.03617
G1 X94.499 Y142.193 E.03721
G1 X93.293 Y142.149 E.04085
G1 X62.92 Y142.167 E1.02809
G1 X61.97 Y142.079 E.03229
G1 X60.916 Y141.805 E.03686
G1 X60.036 Y141.407 E.03269
G1 X59.202 Y140.859 E.03378
G1 X58.613 Y140.334 E.02671
G1 X58.119 Y139.769 E.0254
G1 X57.696 Y139.146 E.02549
G1 X57.359 Y138.494 E.02484
G1 X57.098 Y137.788 E.02548
G1 X56.924 Y137.053 E.02557
G1 X56.842 Y136.31 E.0253
G1 X56.849 Y135.56 E.02539
G1 X56.947 Y134.823 E.02517
G1 X57.145 Y134.063 E.02658
G1 X57.491 Y133.229 E.03056
G1 X57.863 Y132.588 E.02509
G1 X58.316 Y131.989 E.02542
G1 X58.84 Y131.447 E.02552
G1 X59.418 Y130.98 E.02515
G1 X60.048 Y130.586 E.02515
G1 X60.76 Y130.255 E.02658
G1 X61.503 Y130.018 E.0264
G1 X62.28 Y129.875 E.02674
G1 X62.898 Y129.834 E.02096
G1 X72.438 Y129.833 E.32292
G1 X73.043 Y129.797 E.02051
G1 X73.577 Y129.695 E.0184
G1 X74.094 Y129.527 E.0184
G1 X74.586 Y129.295 E.01841
G1 X75.046 Y129.004 E.01842
G1 X75.465 Y128.657 E.01841
G1 X75.837 Y128.261 E.01839
G1 X76.157 Y127.821 E.01842
G1 X76.419 Y127.344 E.01842
G1 X76.619 Y126.838 E.01842
G1 X76.797 Y126.043 E.02758
G1 X76.833 Y125.438 E.02051
G1 X76.833 Y88.562 E1.24821
G1 X76.797 Y87.957 E.02051
G1 X76.619 Y87.162 E.02758
G1 X76.419 Y86.656 E.01842
G1 X76.004 Y85.955 E.02757
G1 X75.657 Y85.536 E.01841
G1 X75.046 Y84.996 E.0276
G1 X74.586 Y84.705 E.01842
G1 X73.838 Y84.381 E.02759
G1 X73.043 Y84.203 E.02758
G1 X72.438 Y84.167 E.02051
G1 X62.923 Y84.167 E.32207
G1 X62.283 Y84.126 E.02171
G1 X61.506 Y83.982 E.02675
G1 X60.761 Y83.745 E.02646
G1 X60.048 Y83.413 E.02662
G1 X59.372 Y82.987 E.02705
G1 X58.835 Y82.547 E.0235
G1 X58.344 Y82.044 E.02379
G1 X57.766 Y81.261 E.03294
G1 X57.373 Y80.525 E.02824
G1 X57.107 Y79.817 E.0256
G1 X56.929 Y79.085 E.0255
G1 X56.847 Y78.405 E.02318
G1 X56.84 Y77.713 E.02342
G1 X56.984 Y76.639 E.03668
G1 X57.168 Y75.994 E.0227
G1 X57.425 Y75.364 E.02303
G1 X57.739 Y74.782 E.02238
G1 X58.126 Y74.222 E.02304
G1 X58.614 Y73.665 E.02507
G1 X59.08 Y73.248 E.02117
G1 X59.08 Y73.248 F60000
G1 X59.35 Y73.552
G1 F1800
G1 X59.447 Y73.466 E.00439
G1 X60.414 Y72.853 E.03875
G1 X61.015 Y72.593 E.02217
G1 X61.627 Y72.406 E.02166
G1 X62.256 Y72.288 E.02166
G1 X62.889 Y72.242 E.02148
G1 X112.113 Y72.242 E1.66617
G1 X112.935 Y72.318 E.02794
G1 X113.473 Y72.432 E.01861
G1 X113.973 Y72.588 E.01773
G1 X114.772 Y72.952 E.02972
G1 X115.505 Y73.429 E.0296
G1 X116.281 Y74.148 E.03581
G1 X116.768 Y74.769 E.02671
M73 P2 R28
G1 X117.175 Y75.471 E.02747
G1 X117.48 Y76.235 E.02785
G1 X117.64 Y76.834 E.02099
G1 X117.732 Y77.432 E.02048
G1 X117.754 Y78.242 E.02743
G1 X117.669 Y79.017 E.02639
G1 X117.494 Y79.73 E.02485
G1 X117.225 Y80.417 E.02497
G1 X116.89 Y81.042 E.024
G1 X116.435 Y81.675 E.02639
G1 X115.895 Y82.241 E.02648
G1 X115.411 Y82.641 E.02125
G1 X114.847 Y83.006 E.02274
G1 X114.139 Y83.347 E.0266
G1 X113.414 Y83.584 E.02582
G1 X112.646 Y83.724 E.02642
