; generated by SuperSlicer 2.5.59.10 on 2024-05-24 at 15:41:52 UTC


;
;

;
;
; 

; external perimeters extrusion width = 0.42mm
; perimeters extrusion width = 0.45mm
; infill extrusion width = 0.45mm
; solid infill extrusion width = 0.45mm
; top infill extrusion width = 0.42mm

; object:{"name":"BTT_Eddy_Mount","id":"BTT_Eddy_Mount.stl id:0 copy 0","object_center":[90.000000,100.000000,0.000000],"boundingbox_center":[90.000000,100.000000,2.598500],"boundingbox_size":[29.000000,40.000000,5.197001]}
EXCLUDE_OBJECT_DEFINE NAME=BTT_Eddy_Mount_stl_id_0_copy_0 CENTER=90.000000,100.000000 POLYGON=[[75.50,80.00],[104.50,80.00],[104.50,118.00],[102.50,120.00],[97.54,120.00],[95.90,119.15],[75.50,96.90],[75.50,80.00]]
; plater:{"center":[90.000000,100.000000,0.000000],"boundingbox_center":[90.000000,100.000000,2.598500],"boundingbox_size":[29.000000,40.000000,5.197001]}

M107
;TYPE:Custom
START_PRINT EXTRUDER=260 BED=105
M107
G21 ; set units to millimeters
G90 ; use absolute coordinates
M83 ; use relative distances for extrusion
ACTIVATE_EXTRUDER EXTRUDER=extruder
; Filament gcode
FILAMENT_START MATERIAL=ASA COLOR=#368900 VENDOR=123-3D
SET_PRESSURE_ADVANCE ADVANCE=0.06175
M104 S260 T0 ; set temperature
M109 S260 T0 ; set temperature and wait for it to be reached
M190 S105 ; set bed temperature and wait for it to be reached
;LAYER_CHANGE
;Z:0.2
;HEIGHT:0.2
G1 E-0.4 F3900
G1 Z0.2 F90000
G92 E0
G1 X73.606 Y77.202
G1 E0.4 F3900
;TYPE:Skirt
;WIDTH:0.8
M107
G1 F2205.555
G1 X72.516 Y78.416 E.10273
G1 F2192.055
G1 X72.121 Y80 E.10273
G1 F2165.443
G1 X72.121 Y84.225 Z.2 E.26597
G1 F2128.641
G1 X72.121 Y88.45 Z.2 E.26597
G1 F2091.84
G1 X72.121 Y92.675 Z.2 E.26597
G1 F2036.637
G1 X72.121 Y96.9 Z.2 E.26597
G1 F2032.924
G1 X72.23 Y97.75 E.05395
G1 F2022.185
G1 X73.01 Y99.183 E.10273
G1 F1998.942
G1 X75.925 Y102.361 Z.2 E.27148
G1 F1965.163
G1 X78.839 Y105.54 Z.2 E.27148
G1 F1931.384
G1 X81.754 Y108.718 Z.2 E.27148
G1 F1897.605
G1 X84.669 Y111.897 Z.2 E.27148
G1 F1863.826
G1 X87.584 Y115.075 Z.2 E.27148
G1 F1830.047
G1 X90.498 Y118.254 Z.2 E.27148
G1 F1779.378
G1 X93.413 Y121.432 Z.2 E.27148
G1 F1775.296
G1 X94.344 Y122.146 E.07385
G1 F1764.043
G1 X95.98 Y122.997 E.11609
G1 F1751.625
G1 X97.539 Y123.379 E.10104
G1 F1728.062
G1 X102.5 Y123.379 E.3123
G1 F1707.532
G1 X103.491 Y123.23 E.06306
G1 F1697.146
G1 X104.889 Y122.389 E.10273
G1 F1682.081
G1 X106.889 Y120.389 E.17805
G1 F1667.623
G1 X107.484 Y119.584 E.06306
G1 F1660.371
G1 X107.879 Y118 E.10273
G1 F1639.116
G1 X107.879 Y113.25 Z.2 E.29902
G1 F1609.042
G1 X107.879 Y108.5 Z.2 E.29902
G1 F1578.968
G1 X107.879 Y103.75 Z.2 E.29902
G1 F1548.895
G1 X107.879 Y99 Z.2 E.29902
G1 F1518.821
G1 X107.879 Y94.25 Z.2 E.29902
G1 F1488.747
G1 X107.879 Y89.5 Z.2 E.29902
G1 F1458.673
G1 X107.879 Y84.75 Z.2 E.29902
G1 F1413.563
G1 X107.879 Y80 Z.2 E.29902
G1 F1407.73
G1 X107.298 Y78.106 E.12472
G1 F1397.038
G1 X106.084 Y77.016 E.10273
G1 F1388.486
G1 X104.5 Y76.621 E.10273
G1 F1370.265
G1 X99.667 Y76.621 Z.2 E.30427
G1 F1344.226
G1 X94.833 Y76.621 Z.2 E.30427
G1 F1318.187
G1 X90 Y76.621 Z.2 E.30427
G1 F1292.148
G1 X85.167 Y76.621 Z.2 E.30427
G1 F1266.11
G1 X80.333 Y76.621 Z.2 E.30427
G1 F1227.051
G1 X75.5 Y76.621 Z.2 E.30427
G1 F1222.495
G1 X73.663 Y77.185 E.12094
M107
G1 E-0.4 F3900
; printing object BTT_Eddy_Mount.stl id:0 copy 0
EXCLUDE_OBJECT_START NAME=BTT_Eddy_Mount_stl_id_0_copy_0
G1 X100.817 Y111.998 F90000
G1 E0.4 F3900
;TYPE:Internal perimeter
;WIDTH:0.545428
M107
G1 F1828.947
G1 X100.947 Y112.034 E.00565
M107
;WIDTH:0.513619
M107
G1 F1955.603
G1 X101.077 Y112.071 E.00529
M107
;WIDTH:0.481809
M107
G1 F2092.361
G1 X101.207 Y112.107 E.00493
M107
;WIDTH:0.449999
M107
G1 F2251.336
G1 X102.052 Y112.41 E.03037
G1 F2239.324
G1 X102.497 Y112.665 E.01735
G1 F2230.901
G1 X102.677 Y112.803 E.00768
M107
M107
G1 F2216.305
G1 X102.677 Y111.179 E.05496
G1 F2196.82
G1 X102.163 Y111.54 E.02126
G1 F2188.171
G1 X101.761 Y111.721 E.01492
G1 F2180.547
G1 X101.155 Y111.904 E.02141
M107
;WIDTH:0.481809
M107
G1 F2013.24
G1 X101.042 Y111.935 E.00428
M107
;WIDTH:0.513619
M107
G1 F1864.733
G1 X100.93 Y111.967 E.00459
M107
;WIDTH:0.545428
M107
G1 F1781.455
G1 X100.874 Y111.982 E.00239
M107
G1 E-0.4 F3900
G1 X101.059 Y118.522 F90000
G1 E0.4 F3900
;WIDTH:0.506526
M107
G1 F1888.565
G1 X100.973 Y118.555 E.00358
M107
M107
G1 F1903.283
G1 X101.187 Y118.568 E.00826
M107
;WIDTH:0.47422
M107
G1 F2033.93
G1 X101.4 Y118.58 E.00768
M107
;WIDTH:0.441914
M107
G1 F2203.73
G1 X101.614 Y118.592 E.00711
M107
;WIDTH:0.409607
M107
G1 F2398.209
G1 X101.922 Y118.604 E.00938
G1 X101.96 Y118.542 E0.00221
M107
;WIDTH:0.448736
M107
G1 F2165.185
G1 X101.998 Y118.48 E.00245
M107
;WIDTH:0.487864
M107
G1 F1949.923
G1 X102.036 Y118.419 E.00269
M107
;WIDTH:0.526992
M107
G1 F1818.321
G1 X102.074 Y118.357 E.00292
M107
;WIDTH:0.56612
M107
G1 F1681.057
G1 X102.112 Y118.295 E.00316
M107
;WIDTH:0.605248
M107
G1 F1567.614
G1 X102.15 Y118.233 E.00339
M107
;WIDTH:0.644376
M107
G1 F1464.937
G1 X102.188 Y118.171 E.00363
G1 F1448.579
G1 X102.129 Y118.183 E.00304
M107
;WIDTH:0.605248
M107
G1 F1576.281
G1 X102.069 Y118.195 E.00284
M107
;WIDTH:0.56612
M107
G1 F1691.253
G1 X102.009 Y118.206 E.00264
M107
;WIDTH:0.526992
M107
G1 F1799.513
G1 X101.95 Y118.218 E.00245
M107
;WIDTH:0.487864
M107
G1 F1985.989
G1 X101.89 Y118.229 E.00225
M107
;WIDTH:0.448736
M107
G1 F2185.793
G1 X101.83 Y118.241 E.00205
M107
;WIDTH:0.409607
M107
G1 F2400
G1 X101.472 Y118.365 E0.01156
M107
;WIDTH:0.453426
M107
G1 F2151.521
G1 X101.115 Y118.5 E.01301
M107
G1 E-0.4 F3900
G1 X95.141 Y98.126 F90000
G1 E0.4 F3900
;WIDTH:0.449999
M107
G1 F2171.997
G1 X94.847 Y98.03 E.01047
G1 F2180.333
G1 X94.283 Y97.743 E.02142
G1 F2187.985
G1 X93.969 Y97.54 E.01266
G1 F2199.102
G1 X93.378 Y96.964 E.02793
G1 F2209.407
G1 X93.047 Y96.507 E.01911
G1 F2220.796
G1 X92.76 Y95.943 E.02142
G1 F2228.693
G1 X92.624 Y95.589 E.01284
G1 F2239.376
G1 X92.487 Y94.782 E.02771
G1 F2253.66
G1 X92.467 Y94.399 E.01296
G1 F2258.529
G1 X92.586 Y93.593 E.0276
G1 F2274.968
G1 X92.713 Y93.156 E.01538
G1 F2278.95
G1 X92.983 Y92.619 E.02036
G1 F2291.737
G1 X93.216 Y92.223 E.01554
G1 F2301.341
G1 X93.826 Y91.588 E.02981
G1 F2313.368
G1 X94.283 Y91.257 E.01911
G1 F2325.298
G1 X94.847 Y90.97 E.02142
G1 F2338.145
G1 X95.38 Y90.796 E.01896
G1 F2343.897
G1 X96.008 Y90.696 E.02155
G1 F2357.785
G1 X96.447 Y90.68 E.01486
G1 F2366.806
G1 X97.195 Y90.795 E.02562
G1 F2380.429
G1 X97.733 Y90.97 E.01914
G1 F2390.275
G1 X98.297 Y91.257 E.02142
G1 F2396.439
G1 X98.754 Y91.588 E.01911
G1 X99.202 Y92.036 E0.02144
G1 F2398.358
G1 X99.533 Y92.493 E.01911
G1 X99.82 Y93.057 E.02142
G1 X99.994 Y93.59 E0.01896
G1 F2394.887
G1 X100.094 Y94.215 E.02145
G1 X100.113 Y94.617 E0.01361
G1 F2396.53
G1 X99.994 Y95.41 E.02715
G1 X99.872 Y95.833 E0.01488
G1 F2398.048
G1 X99.609 Y96.359 E.01991
G1 F2399.989
G1 X99.358 Y96.785 E.01674
G1 F2398.512
G1 X98.754 Y97.411 E.02946
G1 X98.422 Y97.673 E0.01431
G1 F2395.568
G1 X97.837 Y97.978 E.02235
G1 X97.395 Y98.162 E0.01618
G1 F2394.777
G1 X96.575 Y98.304 E.0282
G1 X96.077 Y98.314 E0.01685
G1 F2395.903
G1 X95.38 Y98.204 E.02389
G1 X95.198 Y98.145 E0.00646
M107
G1 X95.266 Y97.744 F90000
M107
G1 F2395.675
G1 X95.032 Y97.668 E.00833
G1 F2397.949
G1 X94.468 Y97.381 E.02142
G1 X94.114 Y97.124 E0.01479
G1 X93.666 Y96.676 E.02144
G1 X93.409 Y96.322 E0.01479
G1 F2398.584
G1 X93.122 Y95.758 E.02142
G1 F2395.936
G1 X92.988 Y95.344 E.01475
G1 X92.889 Y94.718 E0.02144
G1 F2396.694
G1 X92.889 Y94.282 E.01477
G1 X92.988 Y93.656 E0.02144
G1 F2395.936
G1 X93.122 Y93.242 E.01475
G1 F2398.584
G1 X93.409 Y92.678 E.02142
G1 X93.666 Y92.324 E0.01479
G1 F2397.773
G1 X94.114 Y91.876 E.02144
G1 X94.468 Y91.619 E0.01479
G1 F2398.603
G1 X95.032 Y91.332 E.02142
G1 F2395.42
G1 X95.449 Y91.197 E.01486
G1 X96.072 Y91.098 E0.02134
G1 F2396.578
G1 X96.51 Y91.098 E.01484
G1 X97.136 Y91.198 E0.02145
G1 F2397.01
G1 X97.548 Y91.332 E.01468
G1 F2398.616
G1 X98.112 Y91.619 E.02142
G1 X98.466 Y91.876 E0.01479
G1 F2397.786
G1 X98.914 Y92.324 E.02144
G1 X99.171 Y92.678 E0.01479
G1 F2398.603
G1 X99.458 Y93.242 E.02142
G1 F2397.063
G1 X99.592 Y93.654 E.01468
G1 X99.692 Y94.28 E0.02145
G1 F2396.508
G1 X99.692 Y94.72 E.01491
G1 X99.592 Y95.346 E0.02145
G1 F2397.063
G1 X99.458 Y95.758 E.01468
G1 F2398.603
G1 X99.171 Y96.322 E.02142
G1 X98.914 Y96.676 E0.01479
G1 X98.466 Y97.124 E.02144
G1 F2396.284
G1 X98.105 Y97.385 E.01509
G1 X97.548 Y97.668 E0.02112
G1 F2395.484
G1 X97.136 Y97.802 E.01468
G1 X96.51 Y97.902 E0.02145
G1 F2396.508
G1 X96.07 Y97.902 E.01491
G1 X95.444 Y97.802 E0.02145
G1 F2394.624
G1 X95.323 Y97.762 E.00432
M107
G1 X95.39 Y97.362 F90000
M107
G1 F2400
G1 X95.216 Y97.305 E0.00619
G1 F2398.652
G1 X94.652 Y97.018 E.02142
G1 X94.402 Y96.836 E.01047
G1 X93.954 Y96.388 E0.02144
G1 X93.772 Y96.138 E.01047
G1 F2399.156
G1 X93.485 Y95.574 E.02142
G1 X93.39 Y95.28 E0.01045
G1 X93.291 Y94.654 E.02144
G1 F2390.618
G1 X93.291 Y94.346 E.01046
G1 F2399.84
G1 X93.39 Y93.72 E.02144
G1 X93.485 Y93.426 E0.01045
G1 X93.772 Y92.862 E.02142
G1 F2398.866
G1 X93.954 Y92.612 E.01047
G1 X94.402 Y92.164 E0.02144
G1 X94.652 Y91.982 E.01047
G1 F2396.908
G1 X95.216 Y91.695 E.02142
G1 X95.514 Y91.599 E0.01057
G1 X96.136 Y91.5 E.02132
G1 F2395.658
G1 X96.446 Y91.5 E.01051
G1 X97.072 Y91.6 E0.02145
G1 F2398.115
G1 X97.364 Y91.695 E.0104
G1 X97.928 Y91.982 E0.02142
G1 X98.178 Y92.164 E.01047
G1 X98.626 Y92.612 E0.02144
G1 X98.808 Y92.862 E.01047
G1 F2399.645
G1 X99.095 Y93.426 E.02142
G1 X99.19 Y93.718 E.01039
G1 X99.29 Y94.344 E0.02145
G1 X99.29 Y94.656 E.01056
G1 X99.19 Y95.282 E0.02145
G1 F2398.115
G1 X99.095 Y95.574 E.0104
G1 F2399.038
G1 X98.808 Y96.138 E.02142
G1 X98.558 Y96.456 E0.01368
G1 F2398.139
G1 X98.178 Y96.836 E.0182
G1 F2399.719
G1 X97.92 Y97.022 E.01077
G1 X97.364 Y97.305 E.02112
G1 X97.001 Y97.411 E.0128
G1 X96.446 Y97.5 E0.01902
G1 X96.134 Y97.5 E.01056
G1 F2398.505
G1 X95.508 Y97.4 E.02145
G1 X95.447 Y97.38 E0.00217
M107
G1 X95.475 Y96.953 F90000
M107
G1 F2397.524
G1 X94.837 Y96.655 E.02384
G1 X94.242 Y96.1 E0.02754
G1 F2399.695
G1 X93.848 Y95.389 E.02752
G1 F2397.97
G1 X93.693 Y94.591 E.02753
G1 X93.792 Y93.783 E0.02753
G1 F2395.84
G1 X94.071 Y93.173 E.02273
G1 X94.242 Y92.9 E0.0109
G1 F2399.886
G1 X94.69 Y92.452 E.02144
G1 F2398.951
G1 X95.401 Y92.058 E.02752
G1 F2391.137
G1 X96.198 Y91.902 E.0275
G1 F2377.231
G1 X97.002 Y92.001 E.02742
G1 F2362.695
G1 X97.743 Y92.345 E.02765
G1 F2347.813
G1 X98.338 Y92.9 E.02754
G1 F2332.619
G1 X98.732 Y93.611 E.02752
G1 F2317.667
G1 X98.888 Y94.408 E.0275
G1 F2303.481
G1 X98.788 Y95.217 E.0276
G1 F2293.221
G1 X98.521 Y95.805 E.02184
G1 F2280.779
G1 X98.338 Y96.1 E.01176
G1 F2274.586
G1 X97.89 Y96.548 E.02144
G1 F2260.133
G1 X97.283 Y96.889 E.02359
G1 F2259.173
G1 X97.007 Y96.998 E.01002
G1 F2243.091
G1 X96.382 Y97.098 E.02145
G1 F2232.674
G1 X95.573 Y96.998 E.0276
G1 F2219.667
G1 X95.53 Y96.978 E.00161
M107
G1 X95.634 Y96.611 F90000
;TYPE:External perimeter
;WIDTH:0.419999
M107
G1 F2400
G1 X95.015 Y96.306 E0.02166
G1 X94.519 Y95.823 E0.02169
G1 X94.197 Y95.211 E0.02168
G1 X94.08 Y94.529 E0.02169
G1 X94.179 Y93.845 E0.02169
G1 X94.519 Y93.177 E0.0235
G1 X94.967 Y92.729 E0.01986
G1 X95.579 Y92.407 E0.02168
G1 X96.26 Y92.289 E0.02169
G1 X96.94 Y92.388 E0.02155
G1 X97.565 Y92.694 E0.02182
G1 X98.061 Y93.177 E0.02169
G1 X98.383 Y93.789 E0.02168
G1 X98.501 Y94.47 E0.02169
G1 X98.401 Y95.156 E0.02171
G1 X98.171 Y95.627 E0.01644
G1 X97.993 Y95.891 E0.00997
G1 X97.613 Y96.271 E0.01686
G1 X97.105 Y96.54 E0.01803
G1 X96.875 Y96.622 E0.00767
G1 X96.32 Y96.711 E0.01762
G1 X95.694 Y96.62 E0.01983
M107
;WIPE_START
G1 X95.327 Y96.867 F90000
;WIPE_END
G1 E-0.4 F3900
G1 X101.777 Y97.451 F90000
G1 E0.4 F3900
;TYPE:Internal perimeter
;WIDTH:0.449999
M107
G1 F2224.242
G1 X101.777 Y96.879 E.01939
G1 F2239.949
G1 X101.824 Y96.47 E.01391
G1 X101.975 Y96.058 E.01488
G1 F2250.161
G1 X102.302 Y95.607 E.01887
G1 F2265.449
G1 X102.677 Y95.322 E.01591
G1 F2287.352
G1 X102.677 Y90.822 Z.2 E.15231
G1 F2332.3
G1 X102.677 Y86.323 Z.2 E.15231
G1 F2399.723
G1 X102.677 Y81.823 Z.2 E.15231
G1 X99.41 Y81.823 E.11057
G1 X99.82 Y82.557 E.02845
G1 X99.994 Y83.09 E0.01896
G1 F2393.898
G1 X100.094 Y83.715 E.02145
G1 X100.094 Y84.285 E0.01926
G1 X99.994 Y84.91 E.02145
G1 X99.82 Y85.443 E0.01896
G1 F2398.888
G1 X99.533 Y86.007 E.02142
G1 X99.202 Y86.464 E.01911
G1 X98.754 Y86.912 E0.02144
G1 X98.297 Y87.243 E.01911
G1 X97.733 Y87.53 E.02142
G1 X97.2 Y87.704 E0.01896
G1 F2395.834
G1 X96.572 Y87.803 E.02154
G1 X96.133 Y87.819 E0.01486
G1 F2397.682
G1 X95.383 Y87.704 E.02569
G1 X94.847 Y87.53 E0.01906
G1 F2399.107
G1 X94.283 Y87.243 E.02142
G1 F2398.395
G1 X93.826 Y86.912 E.01911
G1 F2399.503
G1 X93.378 Y86.464 E.02144
G1 X93.076 Y86.063 E0.01698
G1 F2396.501
G1 X92.76 Y85.443 E.02358
G1 X92.632 Y85.119 E0.01179
G1 F2398.013
G1 X92.487 Y84.282 E.02876
G1 X92.487 Y83.718 E0.01907
G1 F2395.473
G1 X92.586 Y83.093 E.02144
G1 X92.76 Y82.557 E0.01906
G1 F2398.741
G1 X93.047 Y81.993 E.02142
G1 X93.17 Y81.823 E0.0071
G1 F2399.378
G1 X89.208 Y81.823 Z.2 E.1341
G1 X85.246 Y81.823 Z.2 E.13409
G1 X81.285 Y81.823 Z.2 E.1341
G1 X77.323 Y81.823 Z.2 E.1341
M107
M107
G1 X77.323 Y86.241 Z.2 E.14954
G1 X77.323 Y90.659 Z.2 E.14954
G1 X77.323 Y95.077 Z.2 E.14954
G1 X80.287 Y95.077 E0.10032
G1 F2397.44
G1 X80.787 Y95.148 E.0171
G1 X81.266 Y95.366 E0.01779
G1 F2395.591
G1 X81.589 Y95.632 E.01418
G1 X81.917 Y96.064 E0.01836
G1 F2399.466
G1 X84.38 Y99.57 Z.2 E.14502
G1 F2398.414
G1 X86.842 Y103.076 Z.2 E.14502
G1 F2397.361
G1 X89.305 Y106.582 Z.2 E.14502
G1 F2396.309
G1 X91.767 Y110.088 Z.2 E.14502
G1 F2395.256
G1 X94.229 Y113.594 Z.2 E.14502
G1 F2393.677
G1 X96.692 Y117.1 Z.2 E.14502
G1 X96.913 Y117.378 E0.01199
M107
;WIDTH:0.534408
M107
G1 F1981.512
G1 X97.133 Y117.655 E.01448
G1 F1991.183
G1 X97.309 Y117.777 E.00874
G1 F1993.692
G1 X97.995 Y118.134 E.03162
G1 F2000.891
G1 X98.213 Y118.134 E.00891
G1 F2003.694
G1 X97.926 Y117.872 E.01589
G1 F2004.609
G1 X97.596 Y117.47 E.02125
G1 F1998.722
G1 X97.412 Y117.177 E.01414
G1 F1991.633
G1 X97.351 Y116.996 E.00782
M107
;WIDTH:0.511646
M107
G1 F2095.593
G1 X97.29 Y116.814 E.00746
M107
;WIDTH:0.480823
M107
G1 F2228.993
G1 X97.229 Y116.633 E.00697
M107
;WIDTH:0.449999
M107
G1 F2398.599
G1 X97.167 Y116.452 E.00648
G1 X97.075 Y116.004 E0.01547
G1 X97.038 Y115.5 E.01711
G1 X97.091 Y114.908 E.02013
G1 F2399.585
G1 X97.239 Y114.347 E.01963
G1 X97.439 Y113.873 E0.0174
G1 X97.74 Y113.395 E.01912
G1 F2397.713
G1 X98.108 Y112.989 E.01855
G1 X98.421 Y112.724 E0.01386
G1 F2396.823
G1 X98.971 Y112.39 E.0218
G1 X99.609 Y112.148 E0.02311
G1 F2399.959
G1 X99.97 Y112.077 E.01246
M107
;WIDTH:0.529052
M107
G1 F2016.91
G1 X100.332 Y112.006 E.01488
G1 F2014.346
G1 X100.049 Y111.945 E.01169
M107
;WIDTH:0.449999
M107
G1 F2398.955
G1 X99.269 Y111.741 E.0273
G1 X98.76 Y111.494 E0.01914
G1 X98.364 Y111.231 E.01609
G1 X97.857 Y110.732 E0.02406
G1 X97.653 Y110.49 E.01072
G1 F2399.366
G1 X97.257 Y109.707 E.02972
G1 X97.147 Y109.406 E.01085
G1 X97.042 Y108.5 E.03087
G1 X97.043 Y108.169 E0.0112
G1 F2398.657
G1 X97.254 Y107.306 E.03008
G1 F2399.663
G1 X97.414 Y106.913 E.01436
G1 X97.84 Y106.288 E0.02559
G1 X98.207 Y105.898 E.01812
G1 F2398.143
G1 X98.681 Y105.555 E.01982
G1 F2399.459
G1 X99.142 Y105.313 E.01763
G1 X99.612 Y105.148 E0.01686
G1 X100.332 Y105.053 E.02458
G1 F2398.958
G1 X100.895 Y105.074 E.01906
G1 X101.262 Y105.126 E0.01253
G1 F2394.874
G1 X101.84 Y105.311 E.02057
G1 F2399.85
G1 X102.329 Y105.565 E.01865
G1 X102.677 Y105.821 E0.01462
G1 F2398.798
G1 X102.677 Y102.914 E.09843
G1 F2399.65
G1 X102.317 Y102.529 E.01784
G1 X101.94 Y101.917 E0.02432
G1 X101.63 Y101.325 E.02262
G1 X101.331 Y100.25 E.03777
G1 X101.283 Y99.498 E0.02549
G1 F2397.694
G1 X101.361 Y98.692 E.02742
G1 X101.569 Y97.916 E0.02718
G1 F2399.223
G1 X101.752 Y97.506 E.0152
M107
G1 X102.184 Y97.553 F90000
M107
G1 F2398.947
G1 X102.184 Y96.879 E.02282
G1 X102.253 Y96.444 E.0149
G1 X102.337 Y96.243 E0.00736
G1 F2397.591
G1 X102.591 Y95.894 E.01461
G1 X102.895 Y95.663 E0.01292
G1 F2398.731
G1 X103.084 Y95.613 E.00662
G1 F2399.965
G1 X103.084 Y90.881 Z.2 E.16019
G1 X103.084 Y86.148 Z.2 E.16019
