; generated by PrusaSlicer 2.7.4+MacOS-arm64 on 2024-05-24 at 14:52:50 UTC


;
;

;
;

;
;

;
;

;
;
; 

; external perimeters extrusion width = 0.45mm
; perimeters extrusion width = 0.45mm
; infill extrusion width = 0.45mm
; solid infill extrusion width = 0.45mm
; top infill extrusion width = 0.40mm
; first layer extrusion width = 0.40mm

M73 P0 R12

EXCLUDE_OBJECT_DEFINE NAME='BTT_Eddy_Mount_stl' CENTER=91.961,96.653 POLYGON=[[75.500,80.000],[104.500,80.000],[104.500,118.000],[102.500,120.000],[97.539,120.000],[95.903,119.149],[75.500,96.900]]

;TYPE:Custom
START_PRINT EXTRUDER=275 BED=104
G21 ; set units to millimeters
G90 ; use absolute coordinates
M83 ; use relative distances for extrusion
; Filament gcode
FILAMENT_START MATERIAL=ASA COLOR=#808004 VENDOR=(Unknown)
SET_PRESSURE_ADVANCE ADVANCE=0.06175
M107
;LAYER_CHANGE
;Z:0.2
;HEIGHT:0.2
G10 ; retract
G1 Z.2 F360000
G1 X69.973 Y75.589
G11 ; unretract
M204 S750
;TYPE:Skirt/Brim
;WIDTH:0.4
G1 F3000
G1 X71.741 Y74.011 E.07036
G1 F2999.928
G1 X73.931 Y73.105 E.07037
G1 X75.5 Y72.929 E.04688
G1 X80.333 Y72.929 Z.2 E.14351
G1 X85.167 Y72.929 Z.2 E.14351
G1 X90 Y72.929 Z.2 E.14351
G1 X94.833 Y72.929 Z.2 E.14351
G1 X99.667 Y72.929 Z.2 E.14351
G1 X104.5 Y72.929 Z.2 E.14351
G1 X106.837 Y73.326 E.07038
G1 X108.911 Y74.473 E.07037
G1 X110.489 Y76.241 E.07036
G1 X111.395 Y78.431 E.07037
G1 X111.571 Y80 E.04688
G1 X111.571 Y84.75 Z.2 E.14103
G1 X111.571 Y89.5 Z.2 E.14103
G1 X111.571 Y94.25 Z.2 E.14103
G1 X111.571 Y99 Z.2 E.14103
G1 X111.571 Y103.75 Z.2 E.14103
G1 X111.571 Y108.5 Z.2 E.14103
G1 X111.571 Y113.25 Z.2 E.14103
G1 X111.571 Y118 Z.2 E.14103
G1 X111.174 Y120.337 E.07038
G1 X109.5 Y123 E.09339
G1 X107.5 Y125 E.08398
G1 X105.567 Y126.371 E.07036
G1 X102.5 Y127.071 E.0934
G1 X97.539 Y127.071 E.1473
G1 X94.276 Y126.273 E.09974
G1 X92.64 Y125.422 E.05475
G1 X90.691 Y123.928 E.07291
G1 X87.776 Y120.75 Z.2 E.12804
G1 X84.862 Y117.571 Z.2 E.12804
G1 X81.947 Y114.393 Z.2 E.12804
G1 X79.032 Y111.214 Z.2 E.12804
G1 X76.117 Y108.036 Z.2 E.12804
G1 X73.203 Y104.857 Z.2 E.12804
G1 F3000
G1 X70.288 Y101.679 Z.2 E.12804
G1 F2999.981
G1 X69.002 Y99.689 E.07035
G1 X68.429 Y96.9 E.08454
G1 X68.429 Y92.675 Z.2 E.12544
G1 X68.429 Y88.45 Z.2 E.12544
G1 X68.429 Y84.225 Z.2 E.12545
G1 X68.429 Y80 Z.2 E.12544
G1 X68.826 Y77.663 E.07038
G1 X69.944 Y75.642 E.06858
M204 S1500
G1 X69.944 Y75.642 F360000
G1 X70.266 Y75.826
M204 S750
G1 F3000
G1 X70.327 Y75.72 E.00363
G1 F2999.594
G1 X72.083 Y74.22 E.06857
G1 X74.243 Y73.405 E.06855
G1 X75.5 Y73.286 E.03749
G1 X104.5 Y73.286 E.86105
G1 X106.775 Y73.683 E.06857
G1 X108.78 Y74.827 E.06854
G1 X110.28 Y76.583 E.06857
G1 X111.095 Y78.743 E.06855
G1 X111.214 Y80 E.03749
G1 X111.214 Y118 E1.12827
G1 X110.817 Y120.275 E.06857
G1 X109.248 Y122.748 E.08696
G1 X107.248 Y124.748 E.08398
G1 X105.359 Y126.075 E.06854
G1 X102.5 Y126.714 E.08698
G1 X97.539 Y126.714 E.1473
G1 X94.441 Y125.956 E.0947
G1 X92.805 Y125.105 E.05475
G1 X90.955 Y123.687 E.06921
G1 X70.552 Y101.438 E.89631
G1 X69.307 Y99.493 E.06857
G1 X68.786 Y96.9 E.07853
G1 X68.786 Y80 E.50178
G1 X69.183 Y77.725 E.06857
M73 P1 R12
G1 X70.237 Y75.878 E.06314
M204 S1500
G1 X70.237 Y75.878 F360000
G1 X70.556 Y76.066
M204 S750
G1 F2998.89
G1 X70.681 Y75.854 E.00731
G1 X72.423 Y74.437 E.06667
G1 F2999.991
G1 X75.5 Y73.643 E.09435
G1 X80.333 Y73.643 Z.2 E.14351
G1 X85.167 Y73.643 Z.2 E.14351
G1 X90 Y73.643 Z.2 E.14351
G1 X94.833 Y73.643 Z.2 E.14351
G1 X99.667 Y73.643 Z.2 E.14351
G1 F3000
G1 X104.5 Y73.643 Z.2 E.14351
G1 F2999.943
G1 X106.711 Y74.04 E.0667
G1 F3000
G1 X108.646 Y75.181 E.0667
G1 F2999.83
G1 X110.063 Y76.924 E.0667
G1 X110.857 Y80 E.09432
G1 X110.857 Y84.75 Z.2 E.14103
G1 X110.857 Y89.5 Z.2 E.14103
G1 X110.857 Y94.25 Z.2 E.14103
G1 X110.857 Y99 Z.2 E.14103
G1 X110.857 Y103.75 Z.2 E.14103
G1 X110.857 Y108.5 Z.2 E.14103
G1 X110.857 Y113.25 Z.2 E.14103
G1 F3000
G1 X110.857 Y118 Z.2 E.14103
G1 F2999.941
G1 X110.46 Y120.211 E.0667
G1 X108.995 Y122.495 E.08057
G1 X106.995 Y124.495 E.08398
G1 X105.151 Y125.778 E.0667
G1 X102.5 Y126.357 E.08057
G1 X97.539 Y126.357 E.1473
G1 X94.605 Y125.64 E.08968
G1 X92.969 Y124.789 E.05475
G1 X91.218 Y123.446 E.06552
G1 X88.303 Y120.268 Z.2 E.12804
G1 X85.389 Y117.089 Z.2 E.12804
G1 X82.474 Y113.911 Z.2 E.12804
G1 X79.559 Y110.732 Z.2 E.12805
G1 X76.644 Y107.554 Z.2 E.12804
G1 X73.73 Y104.375 Z.2 E.12804
G1 X70.815 Y101.197 Z.2 E.12804
G1 X69.613 Y99.299 E.0667
G1 X69.143 Y96.9 E.07258
G1 X69.143 Y92.675 Z.2 E.12544
G1 X69.143 Y88.45 Z.2 E.12545
G1 X69.143 Y84.225 Z.2 E.12545
G1 F3000
G1 X69.143 Y80 Z.2 E.12544
G1 F2999.929
G1 X69.54 Y77.789 E.0667
G1 X70.525 Y76.118 E.05759
M204 S1500
G10 ; retract
G1 X70.525 Y76.118 F360000
EXCLUDE_OBJECT_START NAME='BTT_Eddy_Mount_stl'
G1 X103.579 Y96.7
G11 ; unretract
M204 S750
;TYPE:External perimeter
;WIDTH:0.399999
G1 F2999.545
G1 X103.452 Y96.753 E.00409
G1 F2998.934
G1 X103.4 Y96.879 E.00405
G1 X103.4 Y97.855 E.02898
G1 F2999.709
G1 X103.123 Y98.385 E.01776
G1 X102.971 Y98.898 E.01589
G1 X102.905 Y99.431 E.01595
G1 X102.933 Y99.978 E.01626
G1 X103.156 Y100.764 E.02426
G1 X103.574 Y101.501 E.02516
G1 F2998.743
G1 X104.048 Y102.001 E.02046
G1 X104.3 Y102.189 E.00933
G1 F2999.595
G1 X104.3 Y102.472 E.0084
G1 X104.3 Y106.333 Z.2 E.11465
G1 X104.3 Y110.195 Z.2 E.11465
G1 X104.3 Y114.056 Z.2 E.11465
G1 F3000
G1 X104.3 Y117.917 Z.2 E.11465
G1 F2999.884
G1 X102.417 Y119.8 E.07907
G1 X97.588 Y119.8 E.14338
G1 X96.039 Y118.994 E.05185
G1 X80.425 Y96.765 E.80656
G1 X80.287 Y96.7 E.00453
G1 X75.7 Y96.7 E.13619
G1 X75.7 Y92.575 Z.2 E.12248
G1 X75.7 Y88.45 Z.2 E.12248
G1 X75.7 Y84.325 Z.2 E.12248
G1 X75.7 Y80.2 Z.2 E.12248
G1 X104.3 Y80.2 E.84917
G1 X104.3 Y84.325 Z.2 E.12248
G1 X104.3 Y88.45 Z.2 E.12248
G1 X104.3 Y92.575 Z.2 E.12248
G1 F3000
G1 X104.3 Y96.7 Z.2 E.12248
G1 F2997.32
G1 X103.639 Y96.7 E.01963
M204 S1500
G1 X103.639 Y96.7 F360000
G1 X103.068 Y96.773
M204 S750
;TYPE:Perimeter
G1 F3000
G1 X103.043 Y96.879 E.00323
G1 F2997.23
G1 X103.043 Y97.766 E.02634
G1 X102.781 Y98.282 E.01718
G1 F2999.736
G1 X102.617 Y98.853 E.01764
G1 X102.548 Y99.445 E.0177
G1 X102.589 Y100.074 E.01872
G1 X102.812 Y100.869 E.02452
G1 X103.056 Y101.317 E.01515
G1 X103.315 Y101.747 E.0149
G1 X103.943 Y102.37 E.02626
G1 F2997.432
G1 X103.943 Y102.472 E.00303
G1 F2999.99
G1 X103.943 Y106.296 Z.2 E.11355
G1 X103.943 Y110.12 Z.2 E.11355
G1 X103.943 Y113.945 Z.2 E.11355
G1 X103.943 Y117.769 Z.2 E.11355
G1 X102.269 Y119.443 E.07029
G1 X97.675 Y119.443 E.1364
M73 P2 R12
G1 X96.281 Y118.718 E.04665
G1 X93.688 Y115.027 Z.2 E.13393
G1 X91.096 Y111.336 Z.2 E.13393
G1 X88.503 Y107.645 Z.2 E.13393
G1 X85.911 Y103.953 Z.2 E.13393
G1 X83.318 Y100.262 Z.2 E.13393
G1 F3000
G1 X80.726 Y96.571 Z.2 E.13393
G1 F2999.269
G1 X80.538 Y96.405 E.00745
G1 F2998.947
G1 X80.287 Y96.343 E.00768
G1 X76.057 Y96.343 E.12559
G1 F2999.877
G1 X76.057 Y92.396 Z.2 E.11718
G1 X76.057 Y88.45 Z.2 E.11718
G1 X76.057 Y84.504 Z.2 E.11718
G1 X76.057 Y80.557 Z.2 E.11718
G1 X103.943 Y80.557 E.82797
G1 X103.943 Y84.504 Z.2 E.11718
G1 X103.943 Y88.45 Z.2 E.11718
G1 X103.943 Y92.396 Z.2 E.11718
G1 F3000
G1 X103.943 Y96.343 Z.2 E.11718
G1 F2998.526
G1 X103.579 Y96.343 E.01081
G1 X103.316 Y96.412 E.00807
G1 F2996.137
G1 X103.199 Y96.5 E.00435
G1 X103.102 Y96.634 E.00491
G1 X103.082 Y96.715 E.00248
M204 S1500
G10 ; retract
G1 X103.082 Y96.715 F360000
G1 X103.064 Y96.715
G1 X102.643 Y98.813
G1 X102.568 Y99.401
G1 X102.593 Y100.01
G1 X102.69 Y100.363
G1 X102.18 Y107.122
G1 X101.937 Y107.356
G11 ; unretract
M204 S750
;TYPE:External perimeter
G1 F3000
G1 X101.989 Y107.407 E.00216
G1 F2997.141
G1 X102.278 Y108.003 E.01967
G1 F2999.746
G1 X102.342 Y108.637 E.01892
G1 X102.229 Y109.154 E.01571
G1 X102.047 Y109.505 E.01174
G1 X101.649 Y109.945 E.01762
G1 X101.283 Y110.169 E.01274
G1 F2998.934
G1 X100.79 Y110.321 E.01532
G1 F2999.936
G1 X100.313 Y110.34 E.01417
G1 X99.905 Y110.247 E.01242
G1 X99.443 Y110.018 E.01531
G1 X98.993 Y109.572 E.01881
G1 X98.727 Y109.019 E.01822
G1 X98.659 Y108.359 E.0197
G1 X98.819 Y107.737 E.01907
G1 X99.169 Y107.221 E.01851
G1 X99.631 Y106.871 E.01721
G1 X100.004 Y106.725 E.01189
G1 F2998.695
G1 X100.551 Y106.66 E.01636
G1 F2999.924
G1 X101.092 Y106.752 E.01629
G1 X101.58 Y107.006 E.01633
G1 X101.894 Y107.314 E.01306
M204 S1500
G1 X101.894 Y107.314 F360000
G1 X101.637 Y106.637
M204 S750
;TYPE:Perimeter
G1 F2999.909
G1 X101.745 Y106.689 E.00356
G1 X102.243 Y107.156 E.02027
G1 X102.602 Y107.852 E.02325
G1 X102.698 Y108.607 E.0226
G1 X102.591 Y109.193 E.01769
G1 X102.394 Y109.624 E.01407
G1 X101.913 Y110.185 E.02194
G1 X101.47 Y110.478 E.01577
G1 X100.949 Y110.646 E.01625
G1 X100.371 Y110.7 E.01724
G1 X99.872 Y110.611 E.01505
G1 X99.316 Y110.357 E.01815
G1 X98.724 Y109.807 E.02399
G1 X98.404 Y109.17 E.02117
G1 X98.355 Y108.99 E.00554
G1 X98.303 Y108.39 E.01788
G1 X98.32 Y108.201 E.00563
G1 X98.475 Y107.642 E.01722
G1 F2997.922
G1 X98.552 Y107.477 E.00541
G1 F2999.798
G1 X98.882 Y107.007 E.01705
G1 X99.422 Y106.582 E.0204
G1 X99.902 Y106.381 E.01545
G1 X100.509 Y106.305 E.01816
G1 X101.098 Y106.382 E.01764
G1 X101.582 Y106.612 E.01591
M204 S1500
G1 X101.582 Y106.612 F360000
G1 X101.472 Y106.144
M204 S750
G1 F3000
G1 X101.91 Y106.372 E.01466
G1 F2999.295
G1 X102.133 Y106.536 E.00822
G1 X102.497 Y106.905 E.01539
G1 F2998.241
G1 X102.672 Y107.156 E.00909
G1 X102.926 Y107.702 E.01788
;WIDTH:0.437257
G1 F2714.275
G1 X102.971 Y107.801 E.00357
;WIDTH:0.474515
G1 F2484.678
G1 X103.017 Y107.9 E.00392
;WIDTH:0.511773
G1 F2290.34
G1 X103.062 Y107.999 E.00424
G1 F2297.283
G1 X103.098 Y108.574 E.02246
;WIDTH:0.487759
G1 F2425.402
G1 X103.075 Y108.858 E.01054
;WIDTH:0.481011
G1 F2456.483
G1 X102.972 Y109.165 E.0118
;WIDTH:0.440505
G1 F2698.604
G1 X102.868 Y109.472 E.01072
;WIDTH:0.399999
G1 F2999.791
G1 X102.577 Y109.984 E.01749
G1 X102.178 Y110.425 E.01766
G1 X101.692 Y110.762 E.01756
G1 X101.054 Y110.987 E.02009
G1 X100.772 Y111.042 E.00853
G1 X100.165 Y111.038 E.01802
G1 X99.63 Y110.906 E.01636
G1 F2998.977
G1 X99.159 Y110.678 E.01554
G1 X98.922 Y110.509 E.00864
G1 F2999.576
G1 X98.455 Y110.041 E.01963
G1 X98.319 Y109.833 E.00738
G1 X98.08 Y109.322 E.01675
G1 F2998.147
G1 X97.999 Y109.021 E.00926
G1 F2999.825
G1 X97.947 Y108.421 E.01788
G1 X97.976 Y108.106 E.00939
G1 F2998.674
G1 X98.13 Y107.547 E.01722
G1 X98.26 Y107.272 E.00903
G1 F2999.787
G1 X98.59 Y106.802 E.01705
G1 X98.798 Y106.591 E.0088
G1 X99.213 Y106.292 E.01519
G1 X99.699 Y106.071 E.01585
G1 F2998.956
G1 X100.467 Y105.951 E.02308
G1 X100.719 Y105.957 E.00748
G1 F2999.892
G1 X101.156 Y106.03 E.01315
G1 X101.418 Y106.117 E.0082
M204 S1500
G10 ; retract
G1 X101.244 Y106.452 F360000
G1 X101.739 Y106.71
G1 X101.835 Y106.763
G1 X102.253 Y107.193
G1 X102.315 Y107.284
G1 X102.511 Y107.645
G1 X102.596 Y107.888
G1 X102.619 Y107.963
G1 X102.682 Y108.385
G1 X102.679 Y108.709
G1 X102.574 Y109.177
G1 X102.552 Y109.259
G1 X102.367 Y109.63
G1 X102.318 Y109.713
G1 X101.905 Y110.164
G1 X101.835 Y110.234
G1 X101.509 Y110.432
G1 X101.432 Y110.475
G1 X100.877 Y110.646
G1 X100.785 Y110.668
G1 X100.378 Y110.679
G1 X100.297 Y110.679
G1 X100.191 Y110.657
G1 X99.001 Y113.921
G1 X99.246 Y114.153
G11 ; unretract
M204 S750
;TYPE:External perimeter
G1 F2996.292
G1 X99.323 Y114.074 E.00328
G1 X99.623 Y113.876 E.01067
G1 F2999.691
G1 X99.971 Y113.732 E.01118
G1 X100.55 Y113.655 E.01734
G1 X101.073 Y113.75 E.01578
G1 X101.506 Y113.95 E.01416
G1 X101.766 Y114.155 E.00983
G1 X101.987 Y114.406 E.00993
G1 X102.209 Y114.798 E.01338
G1 F2998.664
G1 X102.307 Y115.119 E.00997
G1 X102.348 Y115.529 E.01223
G1 F2999.658
G1 X102.279 Y116.004 E.01425
G1 F2998.778
G1 X102.105 Y116.417 E.01331
G1 X101.942 Y116.652 E.00849
G1 F2999.783
G1 X101.449 Y117.084 E.01946
G1 X100.784 Y117.323 E.02098
G1 X100.124 Y117.307 E.0196
G1 X99.541 Y117.077 E.01861
G1 X99.05 Y116.643 E.01946
G1 X98.838 Y116.308 E.01177
G1 X98.694 Y115.883 E.01332
G1 X98.656 Y115.378 E.01504
G1 X98.809 Y114.759 E.01893
G1 F2998.867
G1 X99.085 Y114.321 E.01537
G1 X99.205 Y114.196 E.00514
M204 S1500
G1 X99.205 Y114.196 F360000
G1 X98.589 Y114.439
M204 S750
;TYPE:Perimeter
G1 F2997.8
G1 X98.712 Y114.213 E.00764
G1 X99.068 Y113.82 E.01574
G1 F2998.491
G1 X99.479 Y113.549 E.01462
G1 X99.924 Y113.378 E.01415
G1 F2999.792
G1 X100.503 Y113.301 E.01734
G1 X101.046 Y113.376 E.01628
G1 X101.531 Y113.565 E.01546
G1 X101.961 Y113.85 E.01532
G1 X102.296 Y114.227 E.01497
G1 F2998.98
G1 X102.549 Y114.69 E.01567
G1 F2999.207
G1 X102.662 Y115.079 E.01203
G1 X102.702 Y115.576 E.0148
G1 X102.609 Y116.141 E.017
G1 X102.403 Y116.612 E.01526
G1 F2998.898
G1 X102.178 Y116.921 E.01135
G1 F2999.755
G1 X101.684 Y117.353 E.01948
G1 X101.503 Y117.458 E.00621
G1 F2998.898
G1 X100.898 Y117.661 E.01895
G1 F2999.967
G1 X100.704 Y117.689 E.00582
G1 X100.108 Y117.664 E.01771
G1 X99.405 Y117.407 E.02222
G1 X98.949 Y117.034 E.01749
G1 X98.713 Y116.79 E.01008
G1 X98.533 Y116.494 E.01029
G1 X98.338 Y115.909 E.01831
M73 P2 R11
G1 X98.3 Y115.405 E.01501
G1 X98.463 Y114.668 E.02241
G1 X98.56 Y114.491 E.00599
M204 S1500
G1 X98.56 Y114.491 F360000
G1 X98.11 Y114.61
M204 S750
G1 F2995.263
G1 X98.118 Y114.578 E.00098
G1 F2999.769
G1 X98.407 Y114.029 E.01842
G1 X98.771 Y113.611 E.01646
G1 X99.198 Y113.298 E.01572
G1 X99.715 Y113.06 E.0169
G1 X100.456 Y112.947 E.02226
G1 F2998.857
G1 X100.741 Y112.955 E.00847
G1 F2999.371
G1 X101.361 Y113.097 E.01889
G1 X101.942 Y113.385 E.01925
G1 X102.297 Y113.677 E.01365
G1 X102.605 Y114.048 E.01432
G1 X102.889 Y114.582 E.01796
;WIDTH:0.435618
G1 F2729.549
G1 X102.95 Y114.732 E.00529
;WIDTH:0.471237
G1 F2508.668
G1 X103.01 Y114.882 E.00575
;WIDTH:0.506856
G1 F2319.092
G1 X103.07 Y115.032 E.00623
G1 F2325.489
G1 X103.099 Y115.629 E.02306
;WIDTH:0.52009
G1 F2262.874
G1 X103.052 Y116.101 E.01882
G1 F2255.377
G1 X102.961 Y116.287 E.00822
;WIDTH:0.48006
G1 F2459.964
G1 X102.871 Y116.474 E.00754
;WIDTH:0.44003
G1 F2700.077
G1 X102.78 Y116.661 E.00687
;WIDTH:0.399999
G1 F2999.639
G1 X102.546 Y117.044 E.01333
G1 X101.92 Y117.621 E.02528
G1 X101.617 Y117.796 E.01039
G1 X101.012 Y118 E.01896
G1 X100.689 Y118.046 E.00969
G1 X100.093 Y118.02 E.01771
G1 X99.79 Y117.953 E.00921
G1 X99.268 Y117.737 E.01677
G1 X99.007 Y117.571 E.00918
G1 X98.568 Y117.17 E.01765
G1 X98.228 Y116.68 E.01771
G1 X98.028 Y116.158 E.0166
G1 X97.944 Y115.432 E.0217
G1 X97.971 Y115.139 E.00874
G1 X98.094 Y114.668 E.01445
M204 S1500
G10 ; retract
G1 X98.094 Y114.668 F360000
G1 X98.445 Y114.785
G1 X94.867 Y96.596
G1 X95.019 Y96.297
G11 ; unretract
M204 S750
;TYPE:External perimeter
G1 F3000
G1 X94.526 Y95.816 E.02045
G1 F2999.381
G1 X94.206 Y95.207 E.02043
G1 X94.09 Y94.528 E.02045
G1 X94.189 Y93.846 E.02046
G1 X94.429 Y93.355 E.01623
G1 F2998.656
G1 X94.526 Y93.184 E.00584
G1 X94.974 Y92.736 E.01881
G1 F2999.797
G1 X95.549 Y92.441 E.01919
G1 X96.262 Y92.299 E.02159
G1 X96.939 Y92.398 E.02031
G1 X97.561 Y92.703 E.02057
G1 X98.054 Y93.184 E.02045
G1 X98.374 Y93.793 E.02043
G1 X98.491 Y94.472 E.02046
G1 X98.391 Y95.154 E.02047
G1 X98.162 Y95.622 E.01547
G1 X97.986 Y95.884 E.00937
G1 X97.606 Y96.264 E.01596
G1 X97.1 Y96.531 E.01699
G1 F2998.604
G1 X96.873 Y96.612 E.00716
G1 X96.318 Y96.701 E.01669
G1 F2999.255
G1 X95.636 Y96.601 E.02047
G1 X95.073 Y96.323 E.01864
M204 S1500
G1 X95.073 Y96.323 F360000
G1 X95.195 Y96.773
M204 S750
;TYPE:Perimeter
G1 F2999.546
G1 X94.857 Y96.615 E.01108
G1 X94.274 Y96.069 E.02372
G1 X93.888 Y95.369 E.02373
G1 X93.737 Y94.584 E.02373
G1 X93.836 Y93.791 E.02373
G1 X94.111 Y93.193 E.01954
G1 X94.274 Y92.931 E.00916
G1 X94.722 Y92.484 E.01879
G1 F2998.936
G1 X95.39 Y92.121 E.02257
G1 X95.603 Y92.043 E.00673
G1 F2999.109
G1 X96.206 Y91.946 E.01813
G1 X96.995 Y92.046 E.02361
G1 X97.723 Y92.385 E.02384
G1 F2998.951
G1 X98.306 Y92.931 E.02372
G1 X98.692 Y93.631 E.02373
G1 F2999.765
G1 X98.844 Y94.415 E.02371
G1 X98.744 Y95.21 E.02379
G1 X98.48 Y95.784 E.01876
G1 X98.306 Y96.069 E.00991
G1 X97.859 Y96.516 E.01877
G1 X97.262 Y96.849 E.0203
G1 X96.929 Y96.965 E.01047
G1 X96.375 Y97.054 E.01666
G1 X95.58 Y96.954 E.02379
G1 X95.249 Y96.799 E.01085
M204 S1500
G1 X95.249 Y96.799 F360000
G1 X95.485 Y97.294
M204 S750
G1 F3000
