; generated by SuperSlicer 2.5.60.0 on 2024-07-08 at 20:37:20 UTC


;
;

;
;
; 

; external perimeters extrusion width = 0.48mm
; perimeters extrusion width = 0.48mm
; infill extrusion width = 0.48mm
; solid infill extrusion width = 0.48mm
; top infill extrusion width = 0.48mm
; support material extrusion width = 0.42mm
; first layer extrusion width = 0.48mm

; object:{"name":"BTT_Pi_2_Bracket_+3mm","id":"BTT_Pi_2_Bracket_+3mm.stl id:0 copy 0","object_center":[88.197134,91.989840,0.000000],"boundingbox_center":[88.197134,91.989840,6.500000],"boundingbox_size":[63.000000,53.999998,13.000000]}
EXCLUDE_OBJECT_DEFINE NAME=BTT_Pi_2_Bracket__3mm_stl_id_0_copy_0 CENTER=88.197134,91.989840 POLYGON=[[56.70,67.49],[56.70,67.42],[56.71,67.21],[56.72,67.13],[56.76,66.93],[56.78,66.85],[56.84,66.66],[56.87,66.58],[56.94,66.41],[56.99,66.32],[57.08,66.16],[57.13,66.08],[57.24,65.93],[57.31,65.85],[57.43,65.72],[57.51,65.65],[57.64,65.54],[57.73,65.47],[57.87,65.37],[57.97,65.31],[58.11,65.24],[58.22,65.19],[58.37,65.13],[58.49,65.09],[58.64,65.05],[58.77,65.03],[58.92,65.01],[59.05,64.99],[59.20,64.99],[117.20,64.99],[117.34,64.99],[117.48,65.01],[117.62,65.03],[117.75,65.05],[117.90,65.09],[118.02,65.13],[118.17,65.19],[118.28,65.24],[118.43,65.31],[118.53,65.37],[118.67,65.47],[118.76,65.54],[118.89,65.65],[118.96,65.72],[119.09,65.85],[119.15,65.93],[119.26,66.08],[119.31,66.16],[119.41,66.32],[119.45,66.41],[119.53,66.58],[119.56,66.66],[119.62,66.85],[119.63,66.93],[119.67,67.13],[119.68,67.21],[119.70,67.42],[119.70,67.49],[119.70,116.49],[119.69,116.70],[119.68,116.77],[119.65,116.99],[119.63,117.05],[119.57,117.26],[119.56,117.32],[119.47,117.53],[119.45,117.57],[119.34,117.78],[119.31,117.82],[119.18,118.02],[119.15,118.05],[118.99,118.23],[118.96,118.26],[118.78,118.43],[118.76,118.44],[118.55,118.59],[118.53,118.61],[118.30,118.73],[118.28,118.74],[118.04,118.84],[118.02,118.85],[117.76,118.92],[117.75,118.93],[117.48,118.97],[117.48,118.97],[117.20,118.99],[59.20,118.99],[58.92,118.97],[58.91,118.97],[58.64,118.93],[58.63,118.92],[58.37,118.85],[58.36,118.84],[58.11,118.74],[58.09,118.73],[57.87,118.61],[57.85,118.59],[57.64,118.44],[57.61,118.43],[57.43,118.26],[57.40,118.23],[57.24,118.05],[57.22,118.02],[57.08,117.82],[57.06,117.78],[56.94,117.57],[56.92,117.53],[56.84,117.32],[56.82,117.26],[56.76,117.05],[56.75,116.99],[56.71,116.77],[56.71,116.70],[56.70,116.49],[56.70,67.49]]
; Total objects to print: 1
; plater:{"center":[88.197134,91.989840,0.000000],"boundingbox_center":[88.197134,91.989840,6.500000],"boundingbox_size":[63.000000,53.999998,13.000000]}

M107
;TYPE:Custom
START_PRINT EXTRUDER=250 BED=100
G21 ; set units to millimeters
G90 ; use absolute coordinates
M83 ; use relative distances for extrusion
; Filament gcode
FILAMENT_START MATERIAL=ASA COLOR=#E8FEF0 VENDOR=123-3D
SET_PRESSURE_ADVANCE ADVANCE=0.062
M104 S250 ; set temperature
M109 S250 ; set temperature and wait for it to be reached
M190 S100 ; set bed temperature and wait for it to be reached
;LAYER_CHANGE
;Z:0.24
;HEIGHT:0.24
G1 E-1 F3600
G1 Z0.24 F180000
G92 E0
G1 X54.63 Y62.436
G1 E1 F3600
;TYPE:Skirt
;WIDTH:0.48
G1 F2400
M204 S1000
G1 X55.675 Y61.659 E0.05009
G1 F2399.289
G1 X56.346 Y61.31 E.02911
G1 F2398.18
G1 X57.035 Y61.042 E.02847
G1 X57.804 Y60.84 E0.03059
G1 F2399.136
G1 X58.63 Y60.727 E.03208
G1 X59.583 Y60.725 E0.03665
G1 X60.388 Y60.829 E.03124
G1 F2397.39
G1 X61.162 Y61.025 E.03075
G1 X61.901 Y61.313 E0.0305
G1 F2399.671
G1 X62.617 Y61.688 E.03109
G1 X63.352 Y62.205 E.03458
G1 X64.167 Y62.989 E.04352
G1 X64.949 Y64.08 E0.05165
G1 F2398.677
G1 X65.315 Y64.817 E.03168
G1 F2399.859
G1 X65.595 Y65.615 E.03254
G1 X65.768 Y66.419 E0.03164
G1 F2398.445
G1 X65.839 Y67.22 E.03096
G1 F2399.886
G1 X65.841 Y72.048 Z.24 E.18576
G1 X65.844 Y76.875 Z.24 E.18576
G1 F2394.812
G1 X65.878 Y77.436 E.02164
G1 X65.912 Y77.652 E0.00839
G1 F2396.156
G1 X66.037 Y78.141 E.01942
G1 F2394.849
G1 X66.109 Y78.34 E.00816
G1 F2397.989
G1 X66.318 Y78.784 E.01889
G1 X66.574 Y79.188 E0.01838
G1 F2396.072
G1 X66.887 Y79.566 E.0189
G1 X67.037 Y79.716 E0.00816
G1 F2395.402
G1 X67.415 Y80.029 E.0189
G1 X67.819 Y80.285 E0.01837
G1 F2394.861
G1 X68.263 Y80.494 E.0189
G1 F2393.242
G1 X68.475 Y80.57 E.00868
G1 X68.692 Y80.633 E0.00868
G1 F2397.69
G1 X69.18 Y80.726 E.01912
G1 X69.727 Y80.759 E.02111
G1 F2399.957
G1 X74.344 Y80.759 Z.24 E.17768
G1 X78.962 Y80.759 Z.24 E.17768
G1 X83.579 Y80.759 Z.24 E.17768
G1 X88.197 Y80.759 Z.24 E.17768
G1 X92.814 Y80.759 Z.24 E.17768
G1 X97.432 Y80.759 Z.24 E.17768
G1 X102.049 Y80.759 Z.24 E.17768
G1 X106.667 Y80.759 Z.24 E.17768
G1 X107.228 Y80.725 E0.02162
G1 F2395.134
G1 X107.443 Y80.691 E.00839
G1 X107.919 Y80.569 E0.0189
G1 F2399.365
G1 X108.363 Y80.393 E.01838
G1 F2398.572
G1 X108.781 Y80.163 E.01837
G1 X109.168 Y79.883 E0.01838
G1 F2399.647
G1 X109.516 Y79.556 E.01838
G1 F2396.418
G1 X109.82 Y79.188 E.01838
G1 X110.076 Y78.784 E0.01837
G1 X110.279 Y78.352 E.01838
G1 F2399.613
G1 X110.427 Y77.898 E.01838
G1 X110.518 Y77.423 E0.01861
G1 F2398.137
G1 X110.55 Y76.876 E.0211
G1 X110.551 Y67.327 E0.36743
G1 F2399.052
G1 X110.603 Y66.585 E.02863
G1 X110.772 Y65.717 E.03402
G1 X111.065 Y64.851 E.03517
G1 X111.477 Y64.024 E0.03554
G1 F2396.685
G1 X111.91 Y63.376 E.03002
G1 X112.422 Y62.776 E0.03034
G1 F2399.686
G1 X113.012 Y62.23 E.03093
G1 X113.653 Y61.765 E.03047
G1 X114.296 Y61.402 E.02842
G1 F2397.955
G1 X115.289 Y61.007 E.04114
G1 X116.026 Y60.826 E0.02917
G1 F2398.367
G1 X116.78 Y60.727 E.02927
G1 X117.79 Y60.73 E.03889
G1 X118.664 Y60.855 E0.03396
G1 F2399.629
G1 X119.515 Y61.094 E.03401
G1 F2397.407
G1 X120.19 Y61.376 E.02816
G1 X120.86 Y61.748 E0.02945
G1 X121.488 Y62.198 E.02974
G1 F2399.952
G1 X122.063 Y62.719 E.02987
G1 X122.784 Y63.589 E.0435
G1 X123.171 Y64.216 E0.02835
G1 X123.486 Y64.874 E.02807
G1 F2397.986
G1 X123.833 Y65.983 E.04472
G1 X123.944 Y66.647 E0.02587
G1 F2398.053
G1 X123.988 Y67.311 E.02561
G1 F2399.882
G1 X123.988 Y72.243 Z.24 E.1898
G1 X123.988 Y77.176 Z.24 E.1898
G1 X123.989 Y82.108 Z.24 E.1898
G1 X123.989 Y87.041 Z.24 E.1898
G1 F2398.935
G1 X123.989 Y91.973 Z.24 E.1898
G1 X123.989 Y96.905 Z.24 E.1898
G1 X123.989 Y101.838 Z.24 E.1898
G1 X123.99 Y106.77 Z.24 E.1898
G1 F2397.989
G1 X123.99 Y111.703 Z.24 E.1898
G1 X123.99 Y116.635 Z.24 E.1898
G1 X123.936 Y117.371 E0.02837
G1 F2395.673
G1 X123.832 Y118.003 E.02467
G1 X123.528 Y118.997 E0.03997
G1 F2399.21
G1 X123.029 Y120.012 E.04352
G1 F2398.115
G1 X122.344 Y120.953 E.04481
G1 X121.569 Y121.715 E0.0418
G1 F2399.528
G1 X120.819 Y122.252 E.03549
G1 X120.038 Y122.67 E.0341
G1 X119.258 Y122.969 E0.03215
G1 X118.445 Y123.166 E.0322
G1 X117.605 Y123.262 E0.03253
G1 F2398.566
G1 X116.76 Y123.251 E.03253
G1 X115.986 Y123.147 E0.03004
G1 F2399.465
G1 X115.226 Y122.953 E.03018
G1 X114.473 Y122.661 E0.03107
G1 X113.785 Y122.297 E.02995
G1 X113.121 Y121.838 E.03107
G1 X112.503 Y121.288 E0.03183
G1 F2398.767
G1 X111.841 Y120.511 E.03928
G1 X111.375 Y119.776 E0.03346
G1 F2397.361
G1 X111.007 Y118.985 E.03359
G1 X110.74 Y118.139 E0.03413
G1 F2398.957
G1 X110.59 Y117.282 E.03349
G1 F2399.994
G1 X110.55 Y116.626 E.02529
G1 X110.55 Y107.104 E0.36641
G1 X110.518 Y106.557 E.02109
G1 F2397.981
G1 X110.427 Y106.082 E.01861
G1 X110.279 Y105.627 E0.01838
G1 F2396.146
G1 X110.076 Y105.195 E.01838
G1 X109.82 Y104.792 E0.01837
G1 F2398.519
G1 X109.516 Y104.424 E.01838
G1 F2397.492
G1 X109.168 Y104.097 E.01838
G1 X108.781 Y103.816 E0.01837
G1 F2395.528
G1 X108.363 Y103.586 E.01838
G1 F2397.28
G1 X107.919 Y103.411 E.01838
G1 X107.443 Y103.288 E0.0189
G1 F2394.519
G1 X107.228 Y103.254 E.00839
G1 X106.667 Y103.221 E0.02162
G1 F2399.563
G1 X102.049 Y103.221 Z.24 E.17768
G1 X97.432 Y103.221 Z.24 E.17768
G1 X92.814 Y103.221 Z.24 E.17768
G1 X88.197 Y103.221 Z.24 E.17768
G1 X83.579 Y103.221 Z.24 E.17768
G1 X78.962 Y103.221 Z.24 E.17768
G1 X74.344 Y103.221 Z.24 E.17768
G1 F2400
G1 X69.727 Y103.221 Z.24 E.17768
G1 F2397.367
G1 X69.18 Y103.253 E.02111
G1 X68.692 Y103.346 E.01912
G1 X68.475 Y103.409 E0.00868
G1 F2396.901
G1 X68.263 Y103.486 E.00868
G1 F2394.904
G1 X67.819 Y103.695 E.0189
G1 X67.415 Y103.951 E0.01837
G1 F2396.566
G1 X67.047 Y104.255 E.01838
G1 F2397.446
G1 X66.711 Y104.613 E.0189
G1 X66.581 Y104.781 E0.00816
G1 F2394.596
G1 X66.318 Y105.195 E.01889
G1 X66.109 Y105.64 E0.0189
G1 F2393.871
G1 X66.037 Y105.839 E.00816
G1 F2399.427
G1 X65.912 Y106.328 E.01942
G1 F2393.185
G1 X65.878 Y106.543 E.00839
G1 X65.844 Y107.105 E0.02163
G1 F2396.532
G1 X65.843 Y111.906 Z.24 E.18474
G1 F2398.267
G1 X65.842 Y116.706 Z.24 E.18473
G1 X65.788 Y117.423 E0.02765
G1 F2396.941
G1 X65.619 Y118.268 E.03318
G1 X65.349 Y119.079 E0.03287
G1 X64.975 Y119.855 E.03318
G1 X64.504 Y120.577 E0.03315
G1 F2399.271
G1 X63.953 Y121.224 E.0327
G1 X63.351 Y121.775 E.03141
G1 X62.693 Y122.246 E0.03114
G1 F2398.552
G1 X62.033 Y122.609 E.029
G1 X61.335 Y122.897 E0.02905
G1 X60.587 Y123.11 E.02993
G1 X59.823 Y123.236 E0.02977
G1 X58.424 Y123.236 E.05383
G1 X57.681 Y123.114 E0.02897
G1 X56.969 Y122.916 E.02846
G1 X56.236 Y122.619 E.03044
G1 X55.521 Y122.224 E0.0314
G1 F2396.318
G1 X54.721 Y121.628 E.03841
G1 X54.165 Y121.085 E0.02988
G1 X53.671 Y120.477 E.03017
G1 X53.252 Y119.816 E0.0301
G1 F2398.914
G1 X52.913 Y119.118 E.02987
G1 X52.561 Y117.995 E.0453
G1 X52.452 Y117.349 E0.02518
G1 F2397.459
G1 X52.408 Y116.711 E.02462
G1 X52.405 Y67.336 E1.89994
G1 F2399.269
G1 X52.446 Y66.68 E.0253
G1 X52.598 Y65.831 E.03319
G1 X53 Y64.663 E.04753
G1 X53.317 Y64.049 E.02658
G1 X53.685 Y63.479 E0.02609
G1 F2398.843
G1 X54.59 Y62.48 E.05188
M204 S1500
G1 X54.903 Y62.767 F180000
G1 F2400
M204 S1000
G1 F2399.367
G1 X55.888 Y62.031 E.04732
G1 X56.512 Y61.705 E0.02708
G1 F2398.397
G1 X57.179 Y61.446 E.02754
G1 X57.9 Y61.258 E0.02866
G1 F2397.136
G1 X58.673 Y61.154 E.03003
G1 X59.543 Y61.152 E0.03345
G1 F2396.928
G1 X60.295 Y61.247 E.02919
G1 X61.044 Y61.437 E0.02973
G1 F2399.883
G1 X61.734 Y61.707 E.02851
G1 F2398.189
G1 X62.382 Y62.047 E.02817
G1 X63.067 Y62.525 E0.03212
G1 X63.856 Y63.284 E.04213
G1 F2399.854
G1 X64.573 Y64.286 E.0474
G1 X64.926 Y64.996 E0.0305
G1 F2397.065
G1 X65.186 Y65.743 E.03047
G1 F2399.559
G1 X65.346 Y66.495 E.02959
G1 X65.412 Y67.248 E0.02908
G1 X65.414 Y72.068 Z.24 E.18546
G1 X65.416 Y76.888 Z.24 E.18546
G1 X65.451 Y77.483 E0.02293
G1 F2398.755
G1 X65.492 Y77.739 E.00998
G1 X65.627 Y78.267 E0.02097
G1 F2397.904
G1 X65.713 Y78.504 E.00971
G1 F2399.654
G1 X65.942 Y78.991 E.02071
G1 X66.227 Y79.44 E.02046
G1 X66.57 Y79.855 E0.02071
G1 F2393.761
G1 X66.748 Y80.033 E.00971
G1 F2399.041
G1 X67.163 Y80.376 E.02072
G1 X67.612 Y80.661 E0.02045
G1 F2397.549
G1 X68.099 Y80.89 E.02071
G1 X68.343 Y80.978 E0.00997
G1 X68.592 Y81.05 E.00998
G1 F2399.248
G1 X69.127 Y81.153 E.02097
G1 X69.715 Y81.187 E0.02266
G1 X74.335 Y81.187 Z.24 E.1778
G1 X78.956 Y81.187 Z.24 E.1778
G1 F2398.869
G1 X83.576 Y81.187 Z.24 E.1778
G1 X88.197 Y81.187 Z.24 E.1778
G1 X92.817 Y81.187 Z.24 E.1778
G1 X97.438 Y81.187 Z.24 E.1778
G1 F2397.75
G1 X102.059 Y81.187 Z.24 E.1778
G1 X106.679 Y81.187 Z.24 E.1778
G1 X107.274 Y81.152 E0.02291
G1 X107.53 Y81.111 E.00998
G1 F2395.833
G1 X108.051 Y80.978 E.02071
G1 X108.546 Y80.782 E0.02045
G1 F2394.714
G1 X109.011 Y80.526 E.02045
G1 F2399.085
G1 X109.441 Y80.213 E.02046
G1 X109.829 Y79.849 E0.02045
G1 F2398.071
G1 X110.168 Y79.44 E.02045
G1 F2399.243
G1 X110.452 Y78.991 E.02045
G1 X110.679 Y78.51 E0.02046
G1 F2396.626
G1 X110.843 Y78.005 E.02045
G1 X110.944 Y77.476 E0.02071
G1 F2399.577
G1 X110.979 Y76.888 E.02266
G1 F2398.748
G1 X110.979 Y72.111 Z.24 E.18382
G1 F2397.774
G1 X110.98 Y67.335 Z.24 E.18382
G1 X111.03 Y66.628 E0.02725
G1 X111.19 Y65.814 E.03193
G1 X111.466 Y65.003 E0.03295
G1 F2399.05
G1 X111.854 Y64.228 E.03336
G1 X112.245 Y63.644 E0.02705
G1 F2398.461
G1 X112.722 Y63.082 E.02838
G1 X113.294 Y62.554 E0.02994
G1 F2397.302
G1 X113.894 Y62.12 E.02851
G1 X114.494 Y61.783 E0.02646
G1 F2398.941
G1 X115.406 Y61.419 E.03779
G1 X116.116 Y61.245 E.02814
G1 X116.821 Y61.154 E0.02734
G1 F2397.247
G1 X117.744 Y61.156 E.03554
G1 X118.589 Y61.277 E0.03283
G1 X119.362 Y61.495 E.03092
G1 X119.994 Y61.757 E0.0263
G1 F2395.7
G1 X120.62 Y62.103 E.02755
G1 X121.228 Y62.539 E0.02877
G1 F2397.107
G1 X121.764 Y63.025 E.02786
G1 F2399.402
G1 X122.428 Y63.827 E.04005
G1 X122.79 Y64.412 E0.02645
G1 F2398.897
G1 X123.093 Y65.046 E.02704
G1 F2399.43
G1 X123.413 Y66.069 E.04126
G1 X123.517 Y66.686 E.02408
G1 X123.56 Y67.318 E0.02437
G1 X123.56 Y72.249 Z.24 E.18974
G1 X123.56 Y77.18 Z.24 E.18974
G1 X123.56 Y82.111 Z.24 E.18974
G1 X123.56 Y87.042 Z.24 E.18974
G1 X123.561 Y91.973 Z.24 E.18974
G1 X123.561 Y96.904 Z.24 E.18974
G1 X123.561 Y101.835 Z.24 E.18974
G1 X123.561 Y106.766 Z.24 E.18974
G1 X123.561 Y111.697 Z.24 E.18974
G1 F2400
G1 X123.561 Y116.628 Z.24 E.18974
G1 F2395.628
G1 X123.509 Y117.329 E.02709
G1 X123.411 Y117.919 E0.023
G1 F2399.228
G1 X123.123 Y118.854 E.03765
G1 F2398.873
G1 X122.653 Y119.805 E.04083
G1 X122.03 Y120.661 E0.04072
G1 F2397.476
G1 X121.306 Y121.377 E.0392
G1 X120.604 Y121.881 E0.03323
G1 F2398.832
G1 X119.871 Y122.275 E.03203
G1 F2399.073
G1 X119.143 Y122.556 E.03004
G1 X118.382 Y122.742 E.03014
G1 X117.596 Y122.833 E0.03043
G1 F2398.334
G1 X116.778 Y122.823 E.03149
G1 X116.056 Y122.724 E0.02804
G1 F2399.368
G1 X115.345 Y122.541 E.02826
G1 X114.64 Y122.267 E.02911
G1 X113.997 Y121.925 E0.02801
G1 X113.376 Y121.493 E.02911
G1 X112.799 Y120.978 E0.02976
G1 X112.178 Y120.245 E.03697
G1 X111.745 Y119.559 E0.0312
G1 F2396.979
G1 X111.401 Y118.818 E.03147
G1 F2399.651
G1 X111.16 Y118.051 E.03094
G1 X111.017 Y117.244 E.03153
G1 X110.979 Y116.619 E0.02407
G1 F2398.218
G1 X110.979 Y111.855 Z.24 E.18332
G1 F2400
G1 X110.979 Y107.091 Z.24 E.18332
G1 F2397.477
G1 X110.944 Y106.504 E.02265
G1 F2399.218
G1 X110.843 Y105.975 E.02072
G1 X110.679 Y105.469 E0.02045
G1 X110.452 Y104.988 E.02045
G1 F2393.78
G1 X110.168 Y104.54 E.02045
G1 F2399.404
G1 X109.829 Y104.13 E.02046
G1 X109.441 Y103.766 E0.02045
G1 F2398.309
G1 X109.011 Y103.454 E.02045
G1 F2396.01
G1 X108.546 Y103.198 E.02045
G1 X108.051 Y103.002 E0.02046
G1 F2397.333
G1 X107.53 Y102.868 E.02071
G1 X107.274 Y102.828 E0.00997
G1 X106.68 Y102.792 E.02292
G1 F2399.956
G1 X102.059 Y102.792 Z.24 E.1778
G1 X97.439 Y102.792 Z.24 E.1778
G1 X92.818 Y102.792 Z.24 E.1778
G1 X88.197 Y102.792 Z.24 E.1778
G1 X83.577 Y102.792 Z.24 E.1778
G1 X78.956 Y102.792 Z.24 E.1778
G1 X74.336 Y102.792 Z.24 E.1778
G1 X69.715 Y102.792 Z.24 E.1778
G1 X69.127 Y102.827 E0.02266
G1 F2396.456
G1 X68.592 Y102.929 E.02097
G1 X68.343 Y103.002 E0.00997
G1 F2394.685
G1 X68.099 Y103.089 E.00998
G1 X67.612 Y103.319 E0.02071
G1 F2397.092
G1 X67.163 Y103.603 E.02045
G1 X66.753 Y103.942 E0.02045
G1 F2398.654
G1 X66.385 Y104.335 E.02072
G1 F2399.61
G1 X66.23 Y104.534 E.00971
G1 F2396.677
G1 X65.942 Y104.988 E.02071
G1 X65.713 Y105.476 E0.02072
G1 X65.627 Y105.713 E.00971
G1 X65.492 Y106.241 E0.02097
G1 F2398.501
G1 X65.451 Y106.497 E.00998
G1 X65.416 Y107.092 E0.02292
G1 X65.415 Y111.895 Z.24 E.18482
G1 F2399.458
G1 X65.413 Y116.698 Z.24 E.18483
G1 X65.361 Y117.377 E0.0262
G1 X65.202 Y118.171 E.03116
G1 X64.948 Y118.93 E.0308
G1 X64.608 Y119.633 E.03006
G1 F2398.754
G1 X64.169 Y120.31 E.03106
G1 X63.654 Y120.918 E0.03064
G1 F2399.698
G1 X63.091 Y121.435 E.0294
G1 F2398.117
G1 X62.475 Y121.876 E.02917
G1 F2399.18
G1 X61.837 Y122.228 E.02804
G1 X61.183 Y122.496 E0.02718
G1 F2396.664
G1 X60.482 Y122.694 E.02805
G1 X59.771 Y122.81 E0.0277
G1 F2398.886
G1 X58.476 Y122.81 E.04984
G1 X57.785 Y122.698 E.02695
G1 F2399.653
G1 X57.096 Y122.506 E.02752
G1 X56.409 Y122.227 E0.02852
G1 X55.742 Y121.856 E.02937
G1 F2398.533
G1 X55.01 Y121.311 E.03514
G1 F2399.065
G1 X54.49 Y120.805 E.02792
G1 X54.026 Y120.236 E0.02823
G1 F2396.621
G1 X53.633 Y119.618 E.02821
G1 X53.306 Y118.945 E0.02879
G1 F2399.497
G1 X52.981 Y117.909 E.04178
G1 X52.879 Y117.309 E0.02341
G1 F2398.065
G1 X52.836 Y116.689 E.02393
G1 X52.834 Y67.343 E1.89881
G1 X52.873 Y66.719 E.02407
G1 F2399.248
G1 X53.009 Y65.954 E.0299
G1 X53.388 Y64.845 E0.04507
G1 F2397.829
G1 X53.683 Y64.273 E.02478
G1 F2399.863
G1 X54.035 Y63.726 E.02503
