; generated by PrusaSlicer 2.7.4+MacOS-arm64 on 2024-05-21 at 16:32:48 UTC


;
;

;
;

;
;

;
;

;
;
; 

; external perimeters extrusion width = 0.45mm
; perimeters extrusion width = 0.45mm
; infill extrusion width = 0.45mm
; solid infill extrusion width = 0.45mm
; top infill extrusion width = 0.40mm
; first layer extrusion width = 0.48mm

M73 P0 R64

EXCLUDE_OBJECT_DEFINE NAME='BTTPiDinMount_stl' CENTER=91.985,89.990 POLYGON=[[109.608,61.005],[110.422,61.141],[111.203,61.409],[112.266,62.042],[113.141,62.917],[113.774,63.979],[114.042,64.760],[114.178,65.575],[114.195,71.917],[114.357,73.420],[114.641,74.388],[115.318,75.739],[115.922,76.547],[116.636,77.261],[117.443,77.865],[118.329,78.349],[119.274,78.701],[120.260,78.916],[121.266,78.988],[127.628,79.006],[129.116,79.274],[130.061,79.627],[131.361,80.398],[132.124,81.059],[133.072,82.236],[133.749,83.588],[134.033,84.556],[134.177,85.554],[134.177,94.421],[134.033,95.420],[133.749,96.388],[133.330,97.305],[132.468,98.547],[131.755,99.261],[130.947,99.865],[130.061,100.349],[129.116,100.701],[127.628,100.970],[121.266,100.988],[120.260,101.060],[119.274,101.274],[118.329,101.627],[117.443,102.110],[116.636,102.715],[115.605,103.821],[115.060,104.670],[114.641,105.588],[114.357,106.556],[114.195,108.059],[114.178,114.401],[113.924,115.611],[113.381,116.722],[112.581,117.666],[111.575,118.385],[110.422,118.835],[109.195,118.988],[65.805,118.988],[64.982,118.919],[64.182,118.717],[63.425,118.385],[62.734,117.933],[61.859,117.059],[61.226,115.996],[60.873,114.811],[60.805,113.988],[60.805,65.988],[60.873,65.165],[61.076,64.364],[61.408,63.608],[61.859,62.917],[62.734,62.042],[63.797,61.409],[64.982,61.056],[65.805,60.988]]

;TYPE:Custom
START_PRINT EXTRUDER=210 BED=65
G21 ; set units to millimeters
G90 ; use absolute coordinates
M83 ; use relative distances for extrusion
; Filament gcode
M107
;LAYER_CHANGE
;Z:0.24
;HEIGHT:0.24
G1 E-.4 F3600
G1 Z.24 F360000
G1 X58.156 Y58.152
G1 Z.24
G1 E.4 F3600
;TYPE:Skirt/Brim
;WIDTH:0.48
G1 F2700
G1 X58.595 Y57.713 E.02389
G1 F2699.991
G1 X60.156 Y56.577 E.07429
G1 X60.983 Y56.127 E.03623
G1 X62.159 Y55.636 E.04904
G1 X63.441 Y55.271 E.05129
G1 X64.583 Y55.08 E.04455
G1 X65.805 Y55.011 E.0471
G1 X109.478 Y55.016 E1.68053
G1 X111.348 Y55.225 E.07241
G1 X113.154 Y55.75 E.07237
G1 X114.886 Y56.602 E.07427
G1 X116.367 Y57.68 E.07049
G1 X119.681 Y60.855 Z.24 E.17661
G1 X122.994 Y64.031 Z.24 E.17661
G1 X126.308 Y67.206 Z.24 E.17661
G1 X129.622 Y70.382 Z.24 E.17661
G1 X132.935 Y73.558 Z.24 E.17661
G1 X136.249 Y76.733 Z.24 E.17661
G1 X137.251 Y77.835 E.05731
G1 X138.29 Y79.31 E.06943
G1 X138.883 Y80.41 E.04809
G1 X139.433 Y81.738 E.05531
G1 X139.792 Y82.935 E.04809
G1 X140.05 Y84.296 E.0533
G1 X140.172 Y86.059 E.068
G1 X140.17 Y90.11 Z.24 E.15588
G1 X140.168 Y94.161 Z.24 E.15588
G1 X139.989 Y96.091 E.07458
G1 X139.525 Y97.972 E.07455
G1 X138.761 Y99.818 E.07688
G1 X137.758 Y101.476 E.07457
G1 X136.249 Y103.242 E.08938
G1 X132.994 Y106.365 Z.24 E.17356
G1 X129.739 Y109.487 Z.24 E.17356
G1 X126.484 Y112.61 Z.24 E.17356
G1 X123.23 Y115.733 Z.24 E.17357
G1 X119.975 Y118.855 Z.24 E.17356
G1 X116.72 Y121.978 Z.24 E.17356
G1 X115.669 Y122.851 E.05257
G1 X114.67 Y123.499 E.04582
G1 X113.477 Y124.092 E.05126
G1 X112.262 Y124.527 E.04966
G1 X110.888 Y124.831 E.05415
G1 X109.195 Y124.965 E.06535
G1 X104.342 Y124.964 Z.24 E.18673
G1 X99.49 Y124.964 Z.24 E.18673
G1 X94.637 Y124.963 Z.24 E.18673
G1 X89.785 Y124.962 Z.24 E.18673
G1 X84.932 Y124.962 Z.24 E.18673
G1 X80.08 Y124.961 Z.24 E.18673
G1 X75.227 Y124.96 Z.24 E.18673
G1 X70.375 Y124.96 Z.24 E.18673
G1 X65.522 Y124.959 Z.24 E.18673
G1 X63.652 Y124.751 E.0724
G1 X62.159 Y124.339 E.0596
G1 X60.614 Y123.657 E.06499
G1 X59.331 Y122.851 E.0583
G1 X58.595 Y122.263 E.03625
G1 X57.53 Y121.197 E.05798
G1 X56.837 Y120.312 E.04325
G1 X56.136 Y119.179 E.05127
G1 X55.567 Y117.946 E.05225
G1 X55.163 Y116.668 E.05158
G1 X54.917 Y115.359 E.05125
G1 X54.834 Y114.271 E.04199
G1 X54.834 Y109.414 Z.24 E.18688
G1 X54.834 Y104.558 Z.24 E.18688
G1 X54.834 Y99.701 Z.24 E.18688
G1 X54.834 Y94.844 Z.24 E.18688
G1 X54.834 Y89.988 Z.24 E.18689
G1 X54.834 Y85.131 Z.24 E.18688
G1 X54.834 Y80.274 Z.24 E.18688
G1 X54.834 Y75.417 Z.24 E.18688
G1 X54.834 Y70.561 Z.24 E.18688
G1 X54.834 Y65.704 Z.24 E.18688
G1 X55.042 Y63.835 E.07236
G1 X55.454 Y62.342 E.0596
G1 X56.136 Y60.796 E.06502
G1 X56.942 Y59.513 E.0583
G1 X57.53 Y58.778 E.03622
G1 X58.113 Y58.195 E.03173
G1 X58.113 Y58.195 F360000
G1 X58.415 Y58.497
G1 F2700
G1 X58.872 Y58.04 E.02487
G1 F2699.8
G1 X59.723 Y57.373 E.04161
G1 X60.822 Y56.693 E.04973
G1 X61.956 Y56.167 E.0481
G1 X62.86 Y55.859 E.03675
G1 X64.171 Y55.569 E.05167
G1 X65.134 Y55.463 E.03728
G1 X70.059 Y55.461 Z.24 E.18952
G1 X74.984 Y55.459 Z.24 E.18952
G1 X79.909 Y55.457 Z.24 E.18952
G1 X84.834 Y55.455 Z.24 E.18952
G1 X89.76 Y55.453 Z.24 E.18952
G1 X94.685 Y55.451 Z.24 E.18952
G1 X99.61 Y55.449 Z.24 E.18952
G1 X104.535 Y55.447 Z.24 E.18952
G1 F2700
G1 X109.46 Y55.445 Z.24 E.18952
G1 F2699.779
G1 X111.26 Y55.644 E.06969
G1 X112.998 Y56.149 E.06964
G1 X114.667 Y56.97 E.07157
G1 X116.09 Y58.007 E.06775
G1 X119.4 Y61.18 Z.24 E.17643
G1 X122.711 Y64.352 Z.24 E.17643
G1 X126.021 Y67.524 Z.24 E.17643
G1 X129.331 Y70.697 Z.24 E.17643
G1 X132.642 Y73.869 Z.24 E.17643
G1 X135.952 Y77.042 Z.24 E.17643
G1 X136.914 Y78.101 E.05505
G1 X137.922 Y79.528 E.06723
G1 X138.494 Y80.589 E.04638
G1 X139.031 Y81.886 E.05402
G1 X139.377 Y83.041 E.0464
G1 X139.625 Y84.347 E.05115
G1 X139.743 Y86.059 E.06603
G1 X139.741 Y90.103 Z.24 E.15559
G1 X139.739 Y94.146 Z.24 E.15559
G1 X139.567 Y96.014 E.07218
G1 X139.1 Y97.894 E.07454
G1 X138.377 Y99.626 E.07222
G1 X137.922 Y100.447 E.03612
G1 X137.174 Y101.545 E.05112
G1 X135.952 Y102.933 E.07116
G1 F2700
G1 X132.697 Y106.056 Z.24 E.17356
G1 F2699.999
G1 X129.442 Y109.178 Z.24 E.17356
G1 X126.188 Y112.301 Z.24 E.17357
G1 X122.933 Y115.424 Z.24 E.17356
G1 X119.678 Y118.546 Z.24 E.17356
G1 X116.423 Y121.669 Z.24 E.17356
G1 X115.42 Y122.502 E.05017
G1 X114.462 Y123.124 E.04395
G1 X113.304 Y123.7 E.04977
G1 X112.14 Y124.116 E.04757
G1 X110.829 Y124.406 E.05167
G1 X109.195 Y124.536 E.06307
G1 X104.344 Y124.535 Z.24 E.18665
G1 X99.494 Y124.535 Z.24 E.18665
G1 X94.643 Y124.534 Z.24 E.18665
M73 P0 R63
G1 X89.793 Y124.534 Z.24 E.18665
G1 X84.942 Y124.533 Z.24 E.18665
G1 X80.092 Y124.533 Z.24 E.18665
G1 X75.241 Y124.532 Z.24 E.18665
G1 X70.391 Y124.532 Z.24 E.18665
G1 F2700
G1 X65.54 Y124.531 Z.24 E.18665
G1 F2699.987
G1 X63.74 Y124.331 E.06969
G1 X62.296 Y123.933 E.05764
G1 X60.822 Y123.282 E.062
G1 X59.58 Y122.502 E.05644
G1 X58.872 Y121.936 E.03488
G1 X57.857 Y120.92 E.05526
G1 X57.19 Y120.07 E.04158
G1 X56.51 Y118.97 E.04976
G1 X55.966 Y117.791 E.04996
G1 X55.58 Y116.57 E.04928
G1 X55.341 Y115.299 E.04977
G1 X55.262 Y114.253 E.04036
G1 X55.262 Y109.4 Z.24 E.18675
G1 X55.262 Y104.547 Z.24 E.18675
G1 X55.262 Y99.694 Z.24 E.18675
G1 X55.262 Y94.841 Z.24 E.18675
G1 X55.262 Y89.988 Z.24 E.18675
G1 X55.262 Y85.134 Z.24 E.18675
G1 X55.262 Y80.281 Z.24 E.18675
G1 X55.262 Y75.428 Z.24 E.18675
G1 X55.262 Y70.575 Z.24 E.18675
G1 F2700
G1 X55.262 Y65.722 Z.24 E.18675
G1 F2699.784
G1 X55.461 Y63.923 E.06965
G1 X55.86 Y62.478 E.05768
G1 X56.51 Y61.005 E.06195
G1 X57.291 Y59.762 E.05649
G1 X57.857 Y59.055 E.03485
G1 X58.373 Y58.539 E.02808
;WIPE_START
G1 F288000
G1 X58.415 Y58.497 E-.00071
G1 X58.872 Y58.04 E-.00767
G1 X59.723 Y57.373 E-.01284
G1 X60.822 Y56.693 E-.01535
G1 X61.956 Y56.167 E-.01484
G1 X62.86 Y55.859 E-.01134
G1 X64.171 Y55.569 E-.01594
G1 X65.134 Y55.463 E-.0115
G1 X91.224 Y55.452 E-.30981
;WIPE_END
EXCLUDE_OBJECT_START NAME='BTTPiDinMount_stl'
G1 X114.145 Y104.035 F360000
G1 E.4 F3600
;TYPE:External perimeter
;WIDTH:0.479999
G1 F2699.854
G1 X113.757 Y104.787 E.03256
G1 X113.55 Y105.31 E.02164
G1 X113.38 Y105.845 E.0216
G1 X113.234 Y106.464 E.02447
G1 X113.144 Y107.013 E.02141
G1 X113.075 Y108.058 E.0403
G1 X113.075 Y113.977 E.22776
G1 X113 Y114.737 E.02939
G1 X112.82 Y115.367 E.02521
G1 X112.485 Y116.042 E.029
G1 X112.091 Y116.566 E.02523
G1 X111.499 Y117.107 E.03086
G1 X110.942 Y117.451 E.02519
G1 X110.24 Y117.723 E.02897
G1 X109.71 Y117.823 E.02075
G1 X109.188 Y117.868 E.02016
G1 X104.369 Y117.868 Z.24 E.18544
G1 X99.55 Y117.868 Z.24 E.18544
G1 X94.73 Y117.868 Z.24 E.18544
G1 X89.911 Y117.868 Z.24 E.18544
G1 X85.092 Y117.868 Z.24 E.18544
G1 X80.273 Y117.868 Z.24 E.18544
G1 X75.453 Y117.868 Z.24 E.18544
G1 X70.634 Y117.868 Z.24 E.18544
G1 X65.815 Y117.868 Z.24 E.18544
G1 X65.103 Y117.803 E.02751
G1 X64.425 Y117.612 E.0271
G1 X63.75 Y117.278 E.02898
G1 X63.226 Y116.884 E.02523
G1 X62.714 Y116.332 E.02897
G1 X62.321 Y115.691 E.02893
G1 X62.07 Y115.033 E.0271
G1 X61.981 Y114.553 E.01879
G1 X61.925 Y113.982 E.02208
G1 X61.925 Y109.184 Z.24 E.18464
G1 X61.925 Y104.385 Z.24 E.18464
G1 X61.925 Y99.587 Z.24 E.18464
G1 X61.925 Y94.788 Z.24 E.18464
G1 X61.925 Y89.99 Z.24 E.18464
G1 X61.925 Y85.192 Z.24 E.18464
G1 X61.925 Y80.393 Z.24 E.18464
G1 X61.925 Y75.595 Z.24 E.18464
G1 X61.925 Y70.796 Z.24 E.18464
G1 X61.925 Y65.998 Z.24 E.18464
G1 X61.99 Y65.286 E.02751
G1 X62.18 Y64.608 E.02709
G1 X62.515 Y63.933 E.029
G1 X62.909 Y63.409 E.02523
G1 X63.461 Y62.897 E.02897
G1 X64.101 Y62.503 E.02892
G1 X64.76 Y62.252 E.02714
G1 X65.265 Y62.159 E.01976
G1 X65.81 Y62.108 E.02106
G1 X70.635 Y62.108 Z.24 E.18566
G1 X75.46 Y62.108 Z.24 E.18566
G1 X80.285 Y62.109 Z.24 E.18566
G1 X85.11 Y62.109 Z.24 E.18566
G1 X89.934 Y62.109 Z.24 E.18566
G1 X94.759 Y62.109 Z.24 E.18566
G1 X99.584 Y62.11 Z.24 E.18566
G1 X104.409 Y62.11 Z.24 E.18566
G1 F2700
G1 X109.234 Y62.11 Z.24 E.18566
G1 F2699.395
G1 X109.897 Y62.173 E.02563
G1 X110.575 Y62.363 E.02709
G1 X111.249 Y62.697 E.02895
G1 X111.81 Y63.123 E.02711
G1 X112.285 Y63.643 E.0271
G1 X112.658 Y64.241 E.02712
G1 X112.93 Y64.943 E.02897
G1 X113.03 Y65.485 E.02121
G1 X113.075 Y65.993 E.01962
G1 X113.075 Y68.955 Z.24 E.11397
G1 F2700
G1 X113.075 Y71.917 Z.24 E.11398
G1 F2699.753
G1 X113.096 Y72.493 E.02218
G1 X113.25 Y73.598 E.04293
G1 X113.384 Y74.144 E.02163
G1 X113.555 Y74.679 E.02161
G1 X113.763 Y75.201 E.02162
G1 X114.199 Y76.025 E.03587
G1 X114.593 Y76.666 E.02895
G1 X115.079 Y77.276 E.03001
G1 X115.556 Y77.782 E.02676
G1 X116.014 Y78.181 E.02337
G1 X116.529 Y78.598 E.0255
G1 X116.998 Y78.907 E.02161
G1 X117.487 Y79.184 E.02163
G1 X117.995 Y79.426 E.02165
G1 X118.575 Y79.651 E.02394
G1 X119.285 Y79.86 E.02848
G1 X119.783 Y79.967 E.0196
G1 X120.661 Y80.068 E.03401
G1 X121.266 Y80.108 E.02333
G1 X124.19 Y80.108 Z.24 E.11252
G1 F2700
G1 X127.114 Y80.108 Z.24 E.11251
G1 F2699.944
G1 X128.102 Y80.19 E.03815
G1 X128.944 Y80.393 E.03333
G1 X129.425 Y80.571 E.01974
G1 X130.248 Y80.994 E.03561
G1 X130.995 Y81.54 E.0356
G1 X131.369 Y81.891 E.01974
G1 X131.931 Y82.551 E.03336
G1 X132.415 Y83.336 E.03549
G1 X132.79 Y84.243 E.03777
G1 X132.993 Y85.085 E.03333
G1 X133.057 Y85.598 E.01989
G1 X133.075 Y86.149 E.02121
G1 X133.074 Y90.059 Z.24 E.15044
G1 F2700
G1 X133.073 Y93.968 Z.24 E.15043
G1 F2699.928
G1 X133.003 Y94.836 E.03351
G1 X132.79 Y95.733 E.03548
G1 X132.415 Y96.639 E.03773
G1 X131.931 Y97.424 E.03549
G1 X131.331 Y98.124 E.03548
G1 X130.631 Y98.724 E.03548
G1 X129.846 Y99.207 E.03547
G1 X128.94 Y99.583 E.03775
G1 X128.043 Y99.796 E.03548
G1 X127.175 Y99.865 E.03351
G1 X124.217 Y99.867 Z.24 E.11384
G1 X121.258 Y99.868 Z.24 E.11385
G1 X120.69 Y99.888 E.02187
G1 X119.584 Y100.042 E.04297
G1 X119.027 Y100.18 E.02208
G1 X118.295 Y100.43 E.02976
G1 X117.683 Y100.698 E.02571
G1 X117.134 Y100.991 E.02395
G1 X116.6 Y101.33 E.02434
G1 X116.187 Y101.638 E.01982
G1 X115.296 Y102.452 E.04644
G1 X114.925 Y102.874 E.02162
G1 X114.584 Y103.322 E.02166
G1 F2698.821
G1 X114.24 Y103.85 E.02425
G1 X114.172 Y103.982 E.00571
G1 X114.172 Y103.982 F360000
G1 X113.168 Y105.114
;TYPE:Perimeter
G1 F2699.378
G1 X113.142 Y105.18 E.00273
G1 X112.964 Y105.743 E.02272
G1 X112.812 Y106.394 E.02572
G1 X112.716 Y106.985 E.02304
G1 X112.648 Y108.016 E.03976
G1 X112.647 Y113.955 E.22853
G1 X112.577 Y114.656 E.02711
G1 X112.419 Y115.212 E.02224
G1 X112.119 Y115.816 E.02595
G1 X111.773 Y116.276 E.02215
G1 X111.24 Y116.763 E.02778
G1 X110.751 Y117.065 E.02212
G1 X110.204 Y117.277 E.02257
G1 X109.631 Y117.402 E.02257
G1 X109.177 Y117.439 E.01753
G1 X104.361 Y117.439 Z.24 E.18531
G1 X99.545 Y117.439 Z.24 E.18531
G1 X94.73 Y117.439 Z.24 E.18531
G1 X89.914 Y117.439 Z.24 E.18531
G1 X85.098 Y117.439 Z.24 E.18531
G1 X80.282 Y117.439 Z.24 E.18531
G1 X75.467 Y117.439 Z.24 E.18531
G1 X70.651 Y117.439 Z.24 E.18531
G1 X65.835 Y117.439 Z.24 E.18531
G1 X65.181 Y117.379 E.02527
G1 X64.579 Y117.211 E.02405
G1 X63.976 Y116.911 E.02592
G1 X63.515 Y116.564 E.0222
G1 X63.057 Y116.071 E.02589
G1 X62.707 Y115.501 E.02574
G1 X62.484 Y114.917 E.02405
G1 X62.403 Y114.476 E.01725
G1 X62.353 Y113.972 E.01949
G1 X62.353 Y109.176 Z.24 E.18453
G1 X62.353 Y104.381 Z.24 E.18453
G1 X62.353 Y99.585 Z.24 E.18453
G1 X62.353 Y94.79 Z.24 E.18453
G1 X62.353 Y89.994 Z.24 E.18453
G1 X62.353 Y85.199 Z.24 E.18453
G1 X62.353 Y80.404 Z.24 E.18453
G1 X62.353 Y75.608 Z.24 E.18453
G1 X62.353 Y70.813 Z.24 E.18453
G1 X62.353 Y66.017 Z.24 E.18453
G1 X62.413 Y65.364 E.02523
G1 X62.582 Y64.762 E.02406
G1 X62.881 Y64.159 E.0259
G1 X63.228 Y63.697 E.02223
G1 X63.721 Y63.24 E.02587
G1 X64.292 Y62.889 E.02579
G1 X64.656 Y62.75 E.01499
G1 X65.106 Y62.624 E.01798
G1 X65.82 Y62.536 E.02768
G1 X70.642 Y62.536 Z.24 E.18553
G1 X75.463 Y62.536 Z.24 E.18554
G1 X80.285 Y62.537 Z.24 E.18553
G1 X85.106 Y62.537 Z.24 E.18554
G1 X89.928 Y62.537 Z.24 E.18553
G1 X94.749 Y62.537 Z.24 E.18554
G1 X99.571 Y62.538 Z.24 E.18553
G1 X104.392 Y62.538 Z.24 E.18554
G1 F2700
G1 X109.214 Y62.538 Z.24 E.18553
G1 F2699.954
G1 X109.818 Y62.596 E.02335
G1 X110.421 Y62.764 E.02409
G1 X111.023 Y63.063 E.02586
G1 X111.52 Y63.441 E.02403
G1 X111.943 Y63.903 E.0241
G1 X112.273 Y64.433 E.02402
G1 X112.516 Y65.06 E.02588
G1 X112.609 Y65.562 E.01965
G1 X112.647 Y66.003 E.01703
G1 X112.647 Y68.96 Z.24 E.11378
G1 X112.647 Y71.917 Z.24 E.11378
G1 X112.671 Y72.552 E.02445
G1 X112.833 Y73.7 E.04461
G1 X112.976 Y74.274 E.02276
G1 X113.157 Y74.837 E.02276
G1 X113.564 Y75.778 E.03945
G1 X113.834 Y76.248 E.02086
G1 X114.252 Y76.926 E.03065
G1 X114.612 Y77.395 E.02275
G1 X115.004 Y77.838 E.02276
G1 X115.439 Y78.266 E.02348
G1 X115.94 Y78.673 E.02484
;WIDTH:0.498528
G1 F2603.358
G1 X116.358 Y79.01 E.02155
;WIDTH:0.514863
G1 F2525.589
G1 X116.778 Y79.296 E.02114
G1 F2511.45
G1 X117.303 Y79.57 E.02464
;WIDTH:0.479999
G1 F2700
G1 X117.837 Y79.824 E.02275
G1 F2699.849
G1 X118.445 Y80.059 E.02508
G1 X118.951 Y80.219 E.02042
G1 X119.53 Y80.359 E.02292
G1 X120.129 Y80.459 E.02337
G1 X121.266 Y80.536 E.04385
G1 X124.182 Y80.536 Z.24 E.11219
G1 F2700
G1 X127.097 Y80.536 Z.24 E.11219
G1 F2699.253
G1 X128.033 Y80.615 E.03615
G1 X128.597 Y80.751 E.02232
G1 X129.252 Y80.964 E.0265
G1 X130.022 Y81.36 E.03332
G1 X130.523 Y81.726 E.02387
G1 X131.058 Y82.187 E.02718
G1 X131.583 Y82.804 E.03117
G1 X132.032 Y83.532 E.03291
G1 X132.382 Y84.376 E.03516
G1 X132.518 Y84.94 E.02232
G1 X132.629 Y85.633 E.02701
G1 X132.646 Y86.149 E.01987
G1 F2700
G1 X132.644 Y93.951 E.30022
G1 F2699.607
G1 X132.578 Y94.769 E.03158
G1 X132.381 Y95.6 E.03286
G1 X132.032 Y96.443 E.03511
G1 X131.584 Y97.17 E.03286
G1 X131.028 Y97.82 E.03291
G1 X130.378 Y98.376 E.03291
G1 X129.651 Y98.824 E.03286
G1 X128.808 Y99.174 E.03512
G1 X127.976 Y99.371 E.0329
G1 X127.158 Y99.437 E.03158
G1 X121.244 Y99.44 E.22757
G1 X120.631 Y99.464 E.02361
G1 X119.483 Y99.626 E.04461
G1 X118.896 Y99.772 E.02328
G1 X118.345 Y99.949 E.02227
G1 X117.796 Y100.169 E.02276
G1 X117.263 Y100.425 E.02275
;WIDTH:0.518718
G1 F2489.6
G1 X116.778 Y100.678 E.02295
G1 F2503.908
G1 X116.358 Y100.965 E.02134
;WIDTH:0.498531
G1 F2603.005
G1 X115.927 Y101.297 E.02184
;WIDTH:0.479999
G1 F2700
G1 X115.469 Y101.702 E.02353
G1 F2699.723
G1 X114.974 Y102.169 E.02619
G1 X114.546 Y102.665 E.02521
G1 X114.225 Y103.088 E.02043
G1 X113.86 Y103.653 E.02588
G1 X113.359 Y104.629 E.04222
G1 X113.19 Y105.058 E.01774
;WIPE_START
G1 F288000
G1 X113.168 Y105.114 E-.00071
G1 X113.142 Y105.18 E-.00084
