; generated by PrusaSlicer 2.7.4+MacOS-arm64 on 2024-05-21 at 14:11:00 UTC


;
;

;
;

;
;

;
;

;
;
; 

; external perimeters extrusion width = 0.45mm
; perimeters extrusion width = 0.45mm
; infill extrusion width = 0.45mm
; solid infill extrusion width = 0.45mm
; top infill extrusion width = 0.40mm
; first layer extrusion width = 0.48mm

M73 P0 R66

EXCLUDE_OBJECT_DEFINE NAME='BTTPiDinMount_stl' CENTER=84.485,110.003 POLYGON=[[102.108,81.017],[102.922,81.153],[103.703,81.421],[104.766,82.054],[105.641,82.929],[106.274,83.992],[106.542,84.773],[106.678,85.587],[106.695,91.929],[106.857,93.432],[107.141,94.400],[107.818,95.752],[108.422,96.559],[109.136,97.273],[109.943,97.877],[110.829,98.361],[111.774,98.714],[112.760,98.928],[113.766,99.000],[120.128,99.018],[121.616,99.286],[122.561,99.639],[123.861,100.410],[124.624,101.071],[125.572,102.248],[126.249,103.600],[126.533,104.568],[126.677,105.567],[126.677,114.433],[126.533,115.432],[126.249,116.400],[125.830,117.318],[124.968,118.559],[124.254,119.273],[123.447,119.877],[122.561,120.361],[121.616,120.714],[120.128,120.982],[113.766,121.000],[112.760,121.072],[111.774,121.286],[110.829,121.639],[109.943,122.123],[109.136,122.727],[108.105,123.834],[107.560,124.682],[107.141,125.600],[106.857,126.568],[106.695,128.071],[106.678,134.413],[106.424,135.624],[105.881,136.735],[105.081,137.679],[104.075,138.397],[102.922,138.847],[101.695,139.000],[58.305,139.000],[57.482,138.932],[56.682,138.729],[55.925,138.397],[55.234,137.946],[54.626,137.386],[53.908,136.380],[53.458,135.227],[53.305,134.000],[53.305,86.000],[53.373,85.177],[53.576,84.376],[53.908,83.620],[54.359,82.929],[55.234,82.054],[56.297,81.421],[57.482,81.068],[58.305,81.000]]

;TYPE:Custom
START_PRINT EXTRUDER=210 BED=65
G21 ; set units to millimeters
G90 ; use absolute coordinates
M83 ; use relative distances for extrusion
; Filament gcode
M107
;LAYER_CHANGE
;Z:0.24
;HEIGHT:0.24
G1 E-.4 F3600
G1 Z.24 F360000
G1 X49.887 Y72.307
G1 Z.24
G1 E.4 F3600
;TYPE:Skirt/Brim
;WIDTH:0.48
G1 F2698.029
G1 X49.934 Y72.275 E.00219
G1 F2699.914
G1 X51.408 Y71.478 E.06448
G1 X52.98 Y70.833 E.06538
G1 X54.803 Y70.312 E.07296
G1 X56.384 Y70.04 E.06173
G1 X58.252 Y69.923 E.07202
G1 X63.101 Y69.923 Z.24 E.18657
G1 X67.949 Y69.923 Z.24 E.18657
G1 X72.798 Y69.923 Z.24 E.18657
G1 X77.646 Y69.923 Z.24 E.18657
G1 X82.495 Y69.924 Z.24 E.18657
G1 X87.343 Y69.924 Z.24 E.18657
G1 X92.192 Y69.924 Z.24 E.18657
G1 X97.04 Y69.924 Z.24 E.18657
G1 X101.889 Y69.924 Z.24 E.18657
G1 X103.184 Y69.992 E.0499
G1 X104.58 Y70.184 E.05422
G1 X105.954 Y70.497 E.05423
G1 X107.177 Y70.888 E.04941
G1 X108.502 Y71.436 E.05517
G1 X109.685 Y72.052 E.05132
G1 X111.752 Y73.459 E.09622
G1 X112.752 Y74.329 E.051
G1 X116.025 Y77.47 Z.24 E.17456
G1 X119.299 Y80.611 Z.24 E.17456
G1 X122.572 Y83.752 Z.24 E.17456
G1 X125.845 Y86.892 Z.24 E.17456
G1 X129.119 Y90.033 Z.24 E.17456
G1 X132.392 Y93.174 Z.24 E.17456
G1 X134.062 Y95.079 E.09748
G1 X135.141 Y96.661 E.07369
G1 X135.951 Y98.15 E.06523
G1 X136.732 Y100.024 E.07812
G1 X137.25 Y101.753 E.06945
G1 X137.555 Y103.273 E.05966
G1 X137.769 Y105.812 E.09805
G1 X137.769 Y114.188 E.32231
G1 X137.555 Y116.727 E.09805
G1 X137.294 Y118.069 E.05261
G1 X136.931 Y119.387 E.0526
G1 X136.471 Y120.674 E.05259
G1 X135.915 Y121.923 E.05261
G1 X135.223 Y123.201 E.05592
G1 X134.555 Y124.241 E.04756
G1 X133.435 Y125.703 E.07087
G1 X132.392 Y126.826 E.05898
G1 X129.076 Y130.007 Z.24 E.17683
G1 X125.759 Y133.188 Z.24 E.17683
G1 X122.442 Y136.368 Z.24 E.17683
G1 X119.126 Y139.549 Z.24 E.17683
G1 X115.809 Y142.73 Z.24 E.17683
G1 X112.493 Y145.911 Z.24 E.17683
G1 X111.018 Y147.095 E.07278
G1 X109.308 Y148.158 E.07748
G1 X107.606 Y148.951 E.07225
G1 X105.954 Y149.503 E.06702
G1 X104.178 Y149.882 E.06988
G1 X101.889 Y150.076 E.0884
G1 X96.997 Y150.075 Z.24 E.18823
G1 X92.106 Y150.074 Z.24 E.18823
G1 X87.214 Y150.074 Z.24 E.18823
G1 X82.322 Y150.073 Z.24 E.18823
G1 X77.431 Y150.072 Z.24 E.18823
G1 X72.539 Y150.071 Z.24 E.18823
G1 X67.647 Y150.071 Z.24 E.18823
G1 X62.756 Y150.07 Z.24 E.18823
G1 X57.864 Y150.069 Z.24 E.18823
G1 X55.591 Y149.846 E.08788
G1 X53.582 Y149.366 E.07948
G1 X51.408 Y148.522 E.08974
G1 X49.433 Y147.405 E.08731
G1 X47.722 Y146.101 E.08278
G1 X46.537 Y144.953 E.06349
G1 X45.494 Y143.714 E.06232
G1 X44.443 Y142.141 E.0728
G1 X43.512 Y140.291 E.07969
G1 X42.904 Y138.611 E.06875
G1 X42.489 Y136.885 E.06831
G1 X42.262 Y135.026 E.07207
G1 X42.26 Y130.065 Z.24 E.1909
G1 X42.258 Y125.104 Z.24 E.1909
G1 X42.256 Y120.143 Z.24 E.1909
G1 X42.254 Y115.182 Z.24 E.1909
G1 X42.252 Y110.221 Z.24 E.1909
G1 X42.25 Y105.261 Z.24 E.1909
G1 X42.248 Y100.3 Z.24 E.19089
G1 X42.246 Y95.339 Z.24 E.1909
G1 X42.244 Y90.378 Z.24 E.1909
G1 X42.242 Y85.417 Z.24 E.1909
G1 X42.459 Y83.286 E.08242
G1 X42.965 Y81.194 E.08282
G1 X43.783 Y79.103 E.0864
G1 X44.9 Y77.128 E.08731
G1 X46.039 Y75.612 E.07297
G1 X47.147 Y74.428 E.0624
G1 X48.444 Y73.303 E.06607
G1 F2698.948
G1 X49.838 Y72.341 E.06517
G1 X49.838 Y72.341 F360000
G1 X50.081 Y72.693
G1 F2700
G1 X50.153 Y72.643 E.00337
G1 F2698.754
G1 X51.589 Y71.867 E.06281
G1 F2699.995
G1 X53.116 Y71.239 E.06353
G1 X54.978 Y70.711 E.07447
G1 X56.603 Y70.445 E.06336
G1 X58.252 Y70.352 E.06355
G1 X63.1 Y70.352 Z.24 E.18653
G1 X67.947 Y70.352 Z.24 E.18653
G1 X72.795 Y70.352 Z.24 E.18653
G1 X77.642 Y70.352 Z.24 E.18653
G1 X82.49 Y70.353 Z.24 E.18653
G1 X87.337 Y70.353 Z.24 E.18653
G1 X92.185 Y70.353 Z.24 E.18653
G1 X97.032 Y70.353 Z.24 E.18653
G1 F2700
G1 X101.88 Y70.353 Z.24 E.18653
G1 F2699.976
G1 X103.148 Y70.419 E.04886
G1 X104.506 Y70.606 E.05275
G1 X105.844 Y70.911 E.05281
G1 X107.031 Y71.29 E.04795
G1 X108.321 Y71.825 E.05374
G1 X109.476 Y72.426 E.0501
G1 X111.478 Y73.789 E.0932
G1 X112.455 Y74.638 E.04981
G1 X132.089 Y93.477 E1.04705
G1 X133.726 Y95.344 E.09555
G1 X134.773 Y96.88 E.07153
G1 X135.564 Y98.336 E.06376
G1 X136.33 Y100.172 E.07655
G1 X136.835 Y101.859 E.06776
G1 X137.154 Y103.489 E.06391
G1 X137.342 Y105.911 E.09348
G1 X137.341 Y114.18 E.31819
G1 X137.131 Y116.664 E.09593
G1 X136.876 Y117.974 E.05135
G1 X136.522 Y119.261 E.05136
G1 X136.072 Y120.518 E.05138
G1 X135.529 Y121.738 E.05139
G1 X134.201 Y123.999 E.1009
G1 X133.11 Y125.423 E.06903
G1 X132.089 Y126.523 E.05775
G1 X128.775 Y129.702 Z.24 E.17671
G1 X125.46 Y132.881 Z.24 E.17671
G1 X122.146 Y136.059 Z.24 E.17671
G1 X118.832 Y139.238 Z.24 E.17671
G1 X115.517 Y142.417 Z.24 E.17671
G1 X112.203 Y145.596 Z.24 E.17671
G1 X110.772 Y146.744 E.07059
G1 X109.1 Y147.783 E.07575
G1 X107.45 Y148.551 E.07003
G1 X105.843 Y149.089 E.06521
G1 X104.119 Y149.458 E.06784
G1 X101.88 Y149.647 E.08646
G1 X96.991 Y149.646 Z.24 E.18812
G1 X92.103 Y149.646 Z.24 E.18812
G1 X87.214 Y149.645 Z.24 E.18811
G1 X82.325 Y149.644 Z.24 E.18812
G1 X77.437 Y149.644 Z.24 E.18812
G1 X72.548 Y149.643 Z.24 E.18812
G1 X67.659 Y149.642 Z.24 E.18811
G1 X62.771 Y149.642 Z.24 E.18812
G1 F2700
G1 X57.882 Y149.641 Z.24 E.18812
G1 F2699.936
G1 X55.665 Y149.424 E.08572
G1 X53.711 Y148.958 E.0773
G1 X51.589 Y148.133 E.08761
G1 X49.675 Y147.052 E.08459
G1 X48.146 Y145.898 E.07371
G1 X46.852 Y144.663 E.06883
G1 X45.834 Y143.453 E.06085
G1 X44.814 Y141.927 E.07063
G1 X43.904 Y140.118 E.07792
G1 X43.315 Y138.489 E.06666
G1 X42.911 Y136.811 E.06641
G1 X42.69 Y135.006 E.06997
G1 X42.688 Y130.049 Z.24 E.19074
G1 X42.686 Y125.092 Z.24 E.19074
G1 X42.684 Y120.135 Z.24 E.19074
G1 X42.682 Y115.178 Z.24 E.19074
G1 X42.68 Y110.221 Z.24 E.19074
G1 X42.678 Y105.265 Z.24 E.19074
G1 X42.676 Y100.308 Z.24 E.19074
G1 X42.674 Y95.351 Z.24 E.19074
G1 X42.672 Y90.394 Z.24 E.19074
G1 X42.67 Y85.437 Z.24 E.19074
G1 X42.881 Y83.36 E.08033
G1 X43.373 Y81.323 E.08064
G1 X44.172 Y79.284 E.08427
G1 X45.253 Y77.37 E.08459
G1 X46.369 Y75.886 E.07145
G1 X47.45 Y74.731 E.06087
G1 X48.705 Y73.642 E.06394
G1 X50.031 Y72.727 E.06199
;WIPE_START
G1 F288000
G1 X50.081 Y72.693 E-.00072
G1 X50.153 Y72.643 E-.00104
G1 X51.589 Y71.867 E-.01938
G1 X53.116 Y71.239 E-.01961
G1 X54.978 Y70.711 E-.02298
G1 X56.603 Y70.445 E-.01955
G1 X58.252 Y70.352 E-.01961
G1 X83.272 Y70.353 E-.29711
;WIPE_END
G1 X53.62 Y78.647 F360000
G1 E.4 F3600
G1 F2699.902
G1 X54.366 Y78.222 E.03304
G1 X55.168 Y77.865 E.03378
G1 X55.929 Y77.611 E.03087
G1 X57.407 Y77.328 E.05791
G1 X58.152 Y77.283 E.02872
G1 X63.008 Y77.283 Z.24 E.18684
G1 X67.863 Y77.283 Z.24 E.18684
G1 X72.719 Y77.283 Z.24 E.18684
G1 X77.574 Y77.283 Z.24 E.18684
G1 X82.43 Y77.283 Z.24 E.18684
G1 X87.285 Y77.283 Z.24 E.18684
G1 X92.141 Y77.283 Z.24 E.18684
G1 X96.996 Y77.283 Z.24 E.18684
G1 X101.852 Y77.283 Z.24 E.18684
G1 X103.156 Y77.404 E.05039
G1 X104.178 Y77.642 E.04038
G1 X105.003 Y77.933 E.03366
G1 X105.698 Y78.255 E.02947
G1 X106.354 Y78.63 E.02908
G1 X107.443 Y79.445 E.05234
G1 X108.207 Y80.204 E.04144
G1 X109.054 Y81.324 E.05403
G1 X109.476 Y82.067 E.03288
G1 X109.815 Y82.827 E.03202
G1 X110.087 Y83.636 E.03284
G1 X110.27 Y84.425 E.03117
G1 X110.38 Y85.234 E.03142
G1 X110.397 Y88.542 Z.24 E.12729
G1 X110.414 Y91.85 Z.24 E.12729
G1 X110.492 Y92.633 E.03028
G1 X110.611 Y93.052 E.01676
G1 X110.89 Y93.644 E.02518
G1 X111.175 Y94.05 E.01909
G1 X111.644 Y94.52 E.02555
G1 X112.426 Y94.999 E.03529
G1 X112.855 Y95.152 E.01753
G1 X113.354 Y95.252 E.01958
G1 X116.861 Y95.279 Z.24 E.13497
G1 F2700
G1 X120.369 Y95.306 Z.24 E.13497
G1 F2699.659
G1 X121.477 Y95.442 E.04296
G1 X122.961 Y95.81 E.05883
G1 X123.773 Y96.111 E.03332
G1 X124.59 Y96.492 E.03469
G1 X125.346 Y96.923 E.03349
G1 X126.078 Y97.424 E.03413
G1 X126.747 Y97.967 E.03316
G1 X127.383 Y98.575 E.03386
G1 X128.283 Y99.632 E.05342
G1 X128.827 Y100.438 E.03742
G1 X129.531 Y101.796 E.05886
G1 X129.88 Y102.721 E.03804
G1 X130.252 Y104.212 E.05913
G1 X130.37 Y105.099 E.03443
G1 X130.414 Y106.025 E.03567
G1 X130.412 Y110.07 Z.24 E.15567
G1 F2700
G1 X130.41 Y114.116 Z.24 E.15567
G1 F2699.734
G1 X130.293 Y115.543 E.0551
G1 X130.138 Y116.354 E.03177
G1 X129.918 Y117.163 E.03226
G1 X129.634 Y117.955 E.03238
G1 X129.263 Y118.777 E.0347
G1 X128.851 Y119.522 E.03276
G1 X128.379 Y120.235 E.0329
G1 X127.864 Y120.895 E.03221
G1 X127.297 Y121.516 E.03236
G1 X126.686 Y122.087 E.03218
G1 X126.032 Y122.61 E.03222
G1 X125.341 Y123.08 E.03216
G1 X124.615 Y123.495 E.03218
G1 X123.852 Y123.856 E.03248
G1 X122.999 Y124.177 E.03507
G1 X122.247 Y124.395 E.03013
G1 X121.257 Y124.595 E.03886
G1 X120.498 Y124.684 E.02941
G1 X113.31 Y124.753 E.27661
G1 X112.426 Y125.001 E.03533
G1 X112.022 Y125.212 E.01754
G1 X111.493 Y125.612 E.02552
G1 X111.045 Y126.119 E.02603
G1 X110.794 Y126.526 E.0184
G1 X110.542 Y127.164 E.0264
G1 X110.443 Y127.659 E.01942
G1 X110.415 Y131.182 Z.24 E.13557
G1 X110.386 Y134.705 Z.24 E.13557
G1 X110.234 Y135.762 E.04109
G1 X110.058 Y136.466 E.02792
G1 X109.808 Y137.191 E.02951
G1 X109.457 Y137.971 E.03291
G1 X108.668 Y139.235 E.05734
G1 X108.238 Y139.761 E.02614
G1 X107.483 Y140.521 E.04122
G1 X106.797 Y141.07 E.03381
G1 X105.722 Y141.734 E.04862
G1 X104.851 Y142.127 E.03677
G1 X103.938 Y142.426 E.03697
G1 X102.692 Y142.661 E.04879
G1 X101.759 Y142.719 E.03597
G1 X96.919 Y142.719 Z.24 E.18624
G1 X92.079 Y142.719 Z.24 E.18624
G1 X87.239 Y142.719 Z.24 E.18624
G1 X82.399 Y142.719 Z.24 E.18624
G1 X77.559 Y142.718 Z.24 E.18624
G1 X72.719 Y142.718 Z.24 E.18624
G1 X67.879 Y142.718 Z.24 E.18624
G1 X63.039 Y142.718 Z.24 E.18624
G1 X58.199 Y142.718 Z.24 E.18624
G1 X56.741 Y142.578 E.05636
G1 X55.314 Y142.19 E.0569
G1 X54.267 Y141.728 E.04404
G1 X53.603 Y141.343 E.02953
G1 X52.962 Y140.89 E.0302
G1 X51.971 Y139.992 E.05146
G1 X51.445 Y139.381 E.03102
G1 X50.925 Y138.643 E.03474
G1 X50.492 Y137.869 E.03413
G1 X50.116 Y136.995 E.03661
G1 X49.771 Y135.786 E.04838
G1 X49.637 Y134.939 E.033
G1 X49.586 Y134.057 E.034
G1 X49.586 Y129.238 Z.24 E.18543
G1 X49.586 Y124.419 Z.24 E.18544
G1 X49.587 Y119.6 Z.24 E.18543
G1 X49.587 Y114.781 Z.24 E.18543
G1 X49.587 Y109.962 Z.24 E.18544
G1 X49.587 Y105.143 Z.24 E.18543
G1 X49.587 Y100.324 Z.24 E.18544
G1 X49.588 Y95.505 Z.24 E.18544
G1 X49.588 Y90.686 Z.24 E.18543
G1 X49.588 Y85.867 Z.24 E.18544
G1 X49.731 Y84.415 E.05614
G1 X50.115 Y83.008 E.05612
G1 X50.577 Y81.962 E.044
G1 X50.962 Y81.298 E.02953
G1 X51.415 Y80.657 E.0302
G1 X52.313 Y79.666 E.05146
G1 X52.923 Y79.14 E.03099
G1 X53.571 Y78.681 E.03056
G1 X53.571 Y78.681 F360000
G1 X53.818 Y79.031
G1 F2697.845
G1 X53.858 Y79.003 E.00188
G1 F2699.669
G1 X54.568 Y78.6 E.03142
G1 X55.332 Y78.261 E.03216
G1 X56.055 Y78.021 E.02931
G1 X56.727 Y77.862 E.02657
G1 X57.442 Y77.755 E.02782
G1 X58.158 Y77.712 E.0276
G1 X63.012 Y77.712 Z.24 E.18679
G1 X67.866 Y77.712 Z.24 E.18679
G1 X72.721 Y77.712 Z.24 E.18679
G1 X77.575 Y77.712 Z.24 E.18679
G1 X82.429 Y77.712 Z.24 E.18679
G1 X87.283 Y77.712 Z.24 E.18679
G1 X92.138 Y77.712 Z.24 E.18679
G1 X96.992 Y77.712 Z.24 E.18679
G1 X101.846 Y77.712 Z.24 E.18679
G1 X103.09 Y77.827 E.04807
G1 X104.068 Y78.057 E.03866
G1 X104.851 Y78.334 E.03196
G1 X106.119 Y78.988 E.0549
G1 X107.149 Y79.757 E.04946
G1 X107.883 Y80.485 E.03978
G1 X108.307 Y80.998 E.02561
G1 X108.687 Y81.545 E.02563
G1 X109.09 Y82.252 E.03131
G1 X109.413 Y82.974 E.03044
G1 X109.672 Y83.744 E.03126
G1 X109.851 Y84.512 E.03034
G1 X109.986 Y85.957 E.05585
G1 X109.997 Y92.193 E.23996
G1 X110.13 Y92.953 E.02969
G1 X110.305 Y93.443 E.02002
G1 X110.691 Y94.123 E.03009
G1 X111.016 Y94.519 E.01971
G1 X111.579 Y95.009 E.02872
G1 X112.021 Y95.279 E.01993
G1 X112.742 Y95.565 E.02985
G1 X113.293 Y95.676 E.02163
G1 X116.818 Y95.705 Z.24 E.13567
G1 X120.344 Y95.734 Z.24 E.13567
G1 X121.398 Y95.863 E.04086
G1 X122.107 Y96.012 E.02788
G1 X123.6 Y96.503 E.06048
G1 X124.385 Y96.869 E.03333
G1 X125.112 Y97.282 E.03217
G1 X125.816 Y97.763 E.03281
G1 X126.458 Y98.283 E.03179
G1 X127.072 Y98.869 E.03266
G1 X127.942 Y99.893 E.0517
G1 X128.458 Y100.656 E.03544
G1 X128.819 Y101.296 E.02827
G1 X129.14 Y101.972 E.0288
G1 X129.476 Y102.864 E.03668
G1 X129.831 Y104.291 E.05658
G1 X129.944 Y105.146 E.03319
G1 X129.986 Y106.03 E.03405
G1 X129.984 Y110.07 Z.24 E.15546
G1 F2700
G1 X129.982 Y114.11 Z.24 E.15546
G1 F2699.927
G1 X129.87 Y115.471 E.05255
G1 X129.511 Y117.027 E.06145
G1 X129.24 Y117.787 E.03105
G1 X128.884 Y118.578 E.03338
G1 X128.489 Y119.293 E.03143
G1 X127.542 Y120.612 E.06248
G1 X126.997 Y121.209 E.03111
G1 X125.784 Y122.26 E.06176
G1 X124.424 Y123.112 E.06175
G1 X123.693 Y123.458 E.03112
G1 X122.871 Y123.768 E.03381
G1 X122.153 Y123.976 E.02876
G1 X121.181 Y124.173 E.03816
G1 X120.471 Y124.256 E.02751
G1 X117.155 Y124.273 Z.24 E.1276
G1 X113.839 Y124.291 Z.24 E.1276
G1 X113.243 Y124.329 E.02298
G1 X112.733 Y124.437 E.02006
G1 X112.255 Y124.609 E.01955
G1 X111.795 Y124.848 E.01995
G1 X111.207 Y125.292 E.02835
G1 X110.843 Y125.678 E.02042
G1 X110.42 Y126.318 E.02952
G1 X110.13 Y127.047 E.03019
G1 X110.019 Y127.598 E.02163
G1 X109.96 Y134.654 E.27152
G1 X109.811 Y135.69 E.04028
G1 X109.414 Y137.024 E.05356
G1 X109.071 Y137.785 E.03212
G1 X108.33 Y138.971 E.05381
G1 X107.926 Y139.467 E.02462
G1 X107.205 Y140.195 E.03943
G1 X106.551 Y140.719 E.03225
G1 X105.519 Y141.356 E.04667
G1 X104.686 Y141.732 E.03517
G1 X103.834 Y142.01 E.03449
G1 X102.638 Y142.236 E.04684
G1 X101.752 Y142.291 E.03416
G1 X58.216 Y142.29 E1.67526
G1 X57.51 Y142.252 E.02721
G1 X56.121 Y141.997 E.05434
G1 X55.455 Y141.786 E.02688
G1 X54.472 Y141.351 E.04136
G1 X53.827 Y140.977 E.02869
G1 X53.217 Y140.546 E.02874
G1 X52.277 Y139.692 E.04887
G1 X51.776 Y139.11 E.02955
G1 X51.282 Y138.406 E.03309
G1 X50.872 Y137.67 E.03242
G1 X50.521 Y136.853 E.03422
G1 X50.19 Y135.692 E.04646
G1 X50.062 Y134.883 E.03152
G1 X50.014 Y134.051 E.03207
G1 X50.014 Y129.234 Z.24 E.18534
G1 X50.014 Y124.418 Z.24 E.18534
G1 X50.015 Y119.601 Z.24 E.18534
G1 X50.015 Y114.785 Z.24 E.18534
G1 X50.015 Y109.968 Z.24 E.18534
G1 X50.015 Y105.151 Z.24 E.18534
G1 X50.015 Y100.335 Z.24 E.18534
G1 X50.016 Y95.518 Z.24 E.18534
G1 X50.016 Y90.702 Z.24 E.18534
G1 X50.016 Y85.885 Z.24 E.18534
G1 X50.055 Y85.182 E.02709
G1 X50.308 Y83.814 E.05353
G1 X50.52 Y83.149 E.02686
G1 X50.954 Y82.167 E.04131
G1 X51.328 Y81.522 E.02869
G1 X51.759 Y80.912 E.02874
G1 X52.613 Y79.972 E.04887
G1 X53.195 Y79.472 E.02953
G1 X53.769 Y79.066 E.02705
G1 X53.769 Y79.066 F360000
