; generated by PrusaSlicer 2.7.4+MacOS-arm64 on 2024-05-22 at 21:28:17 UTC


;
;

;
;

;
;

;
;

;
;
; 

; external perimeters extrusion width = 0.45mm
; perimeters extrusion width = 0.45mm
; infill extrusion width = 0.45mm
; solid infill extrusion width = 0.45mm
; top infill extrusion width = 0.40mm
; first layer extrusion width = 0.48mm

M73 P0 R49

EXCLUDE_OBJECT_DEFINE NAME='raspicamback_stl' CENTER=98.480,94.733 POLYGON=[[110.187,78.531],[111.051,78.607],[111.893,78.832],[112.683,79.201],[113.396,79.701],[114.013,80.317],[114.513,81.031],[114.881,81.821],[115.160,83.060],[115.169,106.239],[115.107,106.799],[114.881,107.641],[114.513,108.431],[114.013,109.145],[113.396,109.761],[112.311,110.455],[111.051,110.855],[110.183,110.931],[86.474,110.917],[85.914,110.855],[85.072,110.629],[84.283,110.261],[83.569,109.761],[82.952,109.145],[82.258,108.060],[81.858,106.799],[81.783,105.931],[81.796,83.222],[81.858,82.663],[82.084,81.821],[82.452,81.031],[82.952,80.317],[83.569,79.701],[84.283,79.201],[85.072,78.832],[86.312,78.553]]

;TYPE:Custom
START_PRINT EXTRUDER=225 BED=65
G21 ; set units to millimeters
G90 ; use absolute coordinates
M83 ; use relative distances for extrusion
; Filament gcode
SET_PRESSURE_ADVANCE ADVANCE=.045
M107
;LAYER_CHANGE
;Z:0.24
;HEIGHT:0.24
G1 E-.4 F3600
G1 Z.36 F360000
G1 X76.056 Y76.392
G1 Z.24
G1 E.4 F3600
;TYPE:Skirt/Brim
;WIDTH:0.48
G1 F3000
G1 X77.354 Y75.168 E.06865
G1 F2999.998
G1 X80.96 Y72.561 E.17122
G1 X83.057 Y71.536 E.08982
G1 X84.973 Y71.262 E.07448
G1 X111.992 Y71.262 E1.03969
G1 X114.292 Y71.66 E.08982
G1 X116.005 Y72.561 E.07448
G1 X119.611 Y75.168 E.17122
G1 X121.242 Y76.837 E.0898
G1 X122.219 Y78.956 E.08979
G1 X122.452 Y80.725 E.06866
G1 X122.452 Y108.736 E1.07786
G1 X122.054 Y111.036 E.08982
G1 X120.909 Y113.069 E.08978
G1 X119.611 Y114.294 E.06868
G1 X116.005 Y116.9 E.1712
G1 X113.908 Y117.926 E.08983
G1 X111.992 Y118.2 E.07448
G1 X84.973 Y118.2 E1.03969
G1 X82.673 Y117.801 E.08983
G1 X80.96 Y116.9 E.07448
G1 X77.354 Y114.294 E.1712
G1 X75.723 Y112.625 E.0898
G1 X74.746 Y110.506 E.08979
G1 X74.513 Y108.736 E.0687
G1 X74.513 Y104.067 Z.24 E.17964
G1 X74.513 Y99.399 Z.24 E.17964
G1 X74.513 Y94.73 Z.24 E.17964
G1 X74.513 Y90.062 Z.24 E.17964
G1 X74.513 Y85.394 Z.24 E.17964
G1 X74.513 Y80.725 Z.24 E.17964
G1 X74.911 Y78.426 E.08978
G1 X76.026 Y76.445 E.08747
G1 X76.026 Y76.445 F360000
G1 X76.411 Y76.67
G1 F2999.885
G1 X76.48 Y76.552 E.00526
G1 X77.605 Y75.515 E.05888
G1 X81.211 Y72.909 E.1712
G1 X83.246 Y71.928 E.08693
G1 X84.973 Y71.69 E.06708
G1 X89.476 Y71.69 Z.24 E.17328
G1 X93.979 Y71.69 Z.24 E.17328
G1 X98.482 Y71.69 Z.24 E.17328
G1 X102.986 Y71.69 Z.24 E.17328
G1 X107.489 Y71.69 Z.24 E.17328
G1 F3000
G1 X111.992 Y71.69 Z.24 E.17328
G1 F2999.982
G1 X114.216 Y72.088 E.08694
G1 X115.754 Y72.909 E.06709
G1 X119.36 Y75.515 E.1712
G1 X120.93 Y77.139 E.08692
G1 X121.841 Y79.206 E.08692
G1 X122.023 Y80.725 E.05887
G1 X122.023 Y85.394 Z.24 E.17964
G1 X122.023 Y90.062 Z.24 E.17964
G1 X122.023 Y94.73 Z.24 E.17964
G1 X122.023 Y99.399 Z.24 E.17964
G1 X122.023 Y104.067 Z.24 E.17964
G1 X122.023 Y108.736 Z.24 E.17964
G1 X121.626 Y110.96 E.08693
G1 X120.485 Y112.909 E.0869
G1 X119.36 Y113.947 E.0589
G1 X115.754 Y116.553 E.1712
G1 X113.719 Y117.534 E.08693
G1 X111.992 Y117.771 E.06708
G1 X84.973 Y117.771 E1.03969
G1 X82.749 Y117.373 E.08694
G1 X81.211 Y116.553 E.06707
G1 X77.605 Y113.947 E.1712
G1 X76.035 Y112.322 E.08695
G1 X75.124 Y110.255 E.08692
G1 X74.942 Y108.736 E.05887
G1 X74.942 Y104.067 Z.24 E.17964
G1 X74.942 Y99.399 Z.24 E.17964
G1 X74.942 Y94.73 Z.24 E.17964
G1 X74.942 Y90.062 Z.24 E.17964
G1 X74.942 Y85.394 Z.24 E.17964
G1 X74.942 Y80.725 Z.24 E.17964
G1 X75.339 Y78.501 E.08693
G1 X76.381 Y76.722 E.07933
;WIPE_START
G1 F288000
G1 X76.411 Y76.67 E-.00071
G1 X76.48 Y76.552 E-.00162
G1 X77.605 Y75.515 E-.01817
G1 X81.211 Y72.909 E-.05283
G1 X83.246 Y71.928 E-.02683
G1 X84.973 Y71.69 E-.0207
G1 X108.48 Y71.69 E-.27914
;WIPE_END
G1 Z.36 F360000
G1 X82.963 Y81.103
G1 Z.24
G1 E.4 F3600
G1 F3000
G1 X83.596 Y80.497 E.03372
G1 F2999.634
G1 X84.311 Y80.051 E.03243
G1 X85.458 Y79.622 E.04712
G1 X86.37 Y79.042 E.04159
G1 X86.989 Y78.799 E.02559
G1 X87.863 Y78.627 E.03428
G1 X92.863 Y78.626 Z.24 E.1924
G1 X97.863 Y78.624 Z.24 E.1924
G1 X98.488 Y78.731 E.0244
G1 X99.156 Y78.619 E.02606
G1 X104.13 Y78.623 Z.24 E.19138
G1 F3000
G1 X109.103 Y78.627 Z.24 E.19138
G1 F2999.96
G1 X109.976 Y78.799 E.03424
G1 X110.595 Y79.042 E.02559
G1 X111.507 Y79.623 E.04161
G1 X112.623 Y80.036 E.04579
G1 X113.393 Y80.517 E.03494
G1 X114.018 Y81.12 E.03342
G1 X114.516 Y81.835 E.03353
G1 X114.859 Y82.566 E.03107
G1 X115.057 Y83.356 E.03134
G1 X115.094 Y94.054 E.41166
G1 X114.988 Y94.731 E.02637
G1 X115.094 Y95.405 E.02625
G1 X115.094 Y98.865 Z.24 E.13315
G1 X115.094 Y102.326 Z.24 E.13315
G1 F3000
G1 X115.094 Y105.786 Z.24 E.13315
G1 F2999.97
G1 X114.924 Y106.688 E.03532
G1 X114.704 Y107.278 E.02423
G1 X114.051 Y108.299 E.04664
G1 X113.561 Y108.805 E.0271
G1 X112.685 Y109.4 E.04075
G1 X111.827 Y109.755 E.03573
G1 X111.524 Y109.824 E.01196
G1 X110.881 Y110.261 E.02992
G1 X110.347 Y110.535 E.0231
G1 X109.052 Y110.842 E.05121
G1 X104.104 Y110.842 Z.24 E.19038
G1 X99.157 Y110.842 Z.24 E.19038
G1 X98.483 Y110.736 E.02625
G1 X97.808 Y110.842 E.02629
G1 X92.863 Y110.842 Z.24 E.1903
G1 F3000
G1 X87.917 Y110.842 Z.24 E.1903
G1 F2999.844
G1 X86.692 Y110.563 E.04835
G1 X86.119 Y110.282 E.02456
G1 X85.478 Y109.844 E.02987
G1 X84.309 Y109.409 E.048
G1 X83.588 Y108.958 E.03272
G1 X82.941 Y108.334 E.03459
G1 X82.38 Y107.505 E.03852
G1 X82.112 Y106.909 E.02515
G1 X81.871 Y105.802 E.0436
G1 X81.871 Y102.336 Z.24 E.13336
G1 X81.871 Y98.871 Z.24 E.13336
G1 X81.871 Y95.405 Z.24 E.13336
G1 X81.977 Y94.731 E.02625
G1 X81.871 Y94.057 E.02625
G1 X81.871 Y90.597 Z.24 E.13315
G1 X81.871 Y87.136 Z.24 E.13315
G1 F3000
G1 X81.871 Y83.676 Z.24 E.13315
G1 F2999.652
G1 X82.041 Y82.774 E.03532
G1 X82.265 Y82.174 E.02464
G1 F2994.415
G1 X82.931 Y81.153 E.04691
G1 X82.931 Y81.153 F360000
G1 X83.288 Y81.389
G1 F3000
G1 X83.307 Y81.36 E.00133
G1 F2994.623
G1 X83.874 Y80.823 E.03005
G1 F2999.989
G1 X84.491 Y80.441 E.02792
G1 X85.277 Y80.117 E.03271
G1 X85.672 Y80.008 E.01577
G1 X86.548 Y79.432 E.04034
G1 X87.094 Y79.215 E.02261
G1 X87.885 Y79.055 E.03105
G1 X92.865 Y79.053 Z.24 E.19161
G1 F3000
G1 X97.844 Y79.052 Z.24 E.19161
G1 F2999.671
G1 X98.487 Y79.166 E.02513
G1 X99.174 Y79.048 E.02682
G1 X104.128 Y79.051 Z.24 E.19061
G1 X109.081 Y79.055 Z.24 E.19061
G1 X109.872 Y79.215 E.03105
G1 X110.417 Y79.432 E.02257
G1 X111.293 Y80.008 E.04034
G1 X111.708 Y80.124 E.01658
G1 X112.444 Y80.426 E.03061
G1 X113.112 Y80.841 E.03026
G1 X113.704 Y81.413 E.03168
G1 X114.152 Y82.063 E.03038
G1 X114.461 Y82.727 E.02818
G1 X114.635 Y83.433 E.02798
G1 X114.645 Y86.968 Z.24 E.13601
G1 X114.655 Y90.502 Z.24 E.13601
G1 X114.665 Y94.037 Z.24 E.13601
G1 X114.554 Y94.731 E.02704
G1 X114.665 Y95.423 E.02697
G1 X114.665 Y105.765 E.39796
G1 X114.507 Y106.588 E.03225
G1 X114.312 Y107.105 E.02126
G1 X113.727 Y108.018 E.04173
G1 X113.299 Y108.465 E.02381
G1 X112.5 Y109.012 E.03726
G1 X111.683 Y109.351 E.03404
G1 X111.32 Y109.429 E.01429
G1 X110.654 Y109.898 E.03134
G1 X110.176 Y110.141 E.02063
G1 X109.027 Y110.414 E.04544
G1 X104.101 Y110.414 Z.24 E.18957
G1 F3000
G1 X99.174 Y110.414 Z.24 E.18957
G1 F2999.429
G1 X98.483 Y110.302 E.02694
G1 X97.791 Y110.414 E.02697
G1 X92.866 Y110.414 Z.24 E.18951
G1 X87.941 Y110.414 Z.24 E.18952
G1 X86.857 Y110.167 E.04278
G1 X86.347 Y109.919 E.02182
G1 X85.661 Y109.45 E.03198
G1 X85.246 Y109.334 E.01658
G1 X84.489 Y109.02 E.03154
G1 X83.868 Y108.633 E.02816
G1 X83.282 Y108.073 E.03119
G1 X82.762 Y107.31 E.03553
G1 X82.525 Y106.793 E.02188
G1 X82.3 Y105.778 E.04001
G1 X82.3 Y95.423 E.39846
G1 X82.411 Y94.731 E.02697
G1 X82.3 Y94.039 E.02697
G1 X82.3 Y83.697 E.39796
G1 X82.458 Y82.874 E.03225
G1 X82.657 Y82.348 E.02164
G1 F2996.627
G1 X83.255 Y81.439 E.04187
G1 X83.255 Y81.439 F360000
G1 X83.612 Y81.676
G1 F3000
G1 X83.649 Y81.619 E.00261
G1 F2997.008
G1 X84.15 Y81.152 E.02635
G1 F2999.319
G1 X84.67 Y80.831 E.02352
G1 X85.428 Y80.518 E.03156
G1 X85.88 Y80.396 E.01802
G1 X86.728 Y79.822 E.0394
G1 X87.201 Y79.63 E.01964
G1 X87.908 Y79.484 E.02778
G1 X97.824 Y79.481 E.38157
G1 X98.486 Y79.602 E.0259
G1 X99.193 Y79.476 E.02763
G1 X104.126 Y79.48 Z.24 E.1898
G1 X109.058 Y79.484 Z.24 E.1898
G1 X109.764 Y79.63 E.02774
G1 X110.237 Y79.822 E.01964
G1 X111.085 Y80.396 E.0394
G1 X111.558 Y80.525 E.01887
G1 X112.265 Y80.815 E.02941
G1 X112.833 Y81.166 E.02569
G1 X113.364 Y81.674 E.02828
G1 X113.789 Y82.291 E.02883
G1 X114.05 Y82.85 E.02374
G1 X114.213 Y83.511 E.0262
G1 X114.221 Y87.014 Z.24 E.1348
G1 X114.229 Y90.517 Z.24 E.1348
G1 X114.237 Y94.02 Z.24 E.1348
G1 X114.119 Y94.731 E.02773
G1 X114.237 Y95.441 E.0277
G1 X114.237 Y105.744 E.39646
G1 X114.09 Y106.486 E.02911
G1 X113.92 Y106.931 E.01833
G1 X113.401 Y107.739 E.03695
G1 X113.036 Y108.126 E.02047
G1 X112.314 Y108.625 E.03377
G1 X111.539 Y108.947 E.03229
G1 F2998.883
G1 X111.125 Y109.031 E.01626
G1 F2999.781
G1 X110.426 Y109.535 E.03316
G1 X110.006 Y109.747 E.0181
G1 X109.002 Y109.985 E.0397
G1 X104.097 Y109.985 Z.24 E.18875
G1 X99.192 Y109.985 Z.24 E.18874
G1 X98.483 Y109.868 E.02765
G1 X97.773 Y109.985 E.02769
G1 X92.869 Y109.985 Z.24 E.18871
G1 X87.965 Y109.985 Z.24 E.18871
G1 X87.02 Y109.77 E.03729
G1 X86.572 Y109.554 E.01914
G1 X85.88 Y109.066 E.03258
G1 X85.398 Y108.933 E.01924
G1 X84.669 Y108.631 E.03036
G1 X84.146 Y108.306 E.02369
G1 X83.622 Y107.812 E.02771
G1 X83.142 Y107.111 E.03269
G1 X82.938 Y106.674 E.01856
G1 X82.728 Y105.753 E.03635
G1 X82.728 Y95.441 E.3968
G1 X82.846 Y94.731 E.0277
G1 X82.728 Y94.021 E.0277
G1 X82.728 Y83.718 E.39646
G1 X82.875 Y82.976 E.02911
G1 X83.048 Y82.525 E.01859
G1 F2998.191
G1 X83.578 Y81.726 E.03689
G1 X83.578 Y81.726 F360000
G1 X83.934 Y81.964
G1 F3000
G1 X83.99 Y81.88 E.00388
G1 F2997.946
G1 X84.424 Y81.482 E.02266
G1 F2999.878
G1 X84.849 Y81.22 E.01921
G1 X85.578 Y80.92 E.03033
G1 X86.056 Y80.815 E.01883
G1 X86.911 Y80.21 E.0403
G1 X87.31 Y80.045 E.01661
G1 X87.931 Y79.912 E.02444
G1 X97.803 Y79.909 E.37987
G1 X98.485 Y80.038 E.02671
G1 X99.213 Y79.905 E.02848
G1 X109.034 Y79.912 E.37791
G1 X109.655 Y80.045 E.02444
G1 X110.055 Y80.21 E.01665
G1 X110.908 Y80.813 E.0402
G1 X111.408 Y80.927 E.01973
G1 X112.086 Y81.205 E.0282
G1 X112.553 Y81.492 E.02109
G1 X113.051 Y81.968 E.02651
G1 X113.424 Y82.517 E.02554
G1 X113.652 Y83.01 E.0209
G1 X113.79 Y83.586 E.02279
G1 X113.796 Y87.058 Z.24 E.1336
G1 X113.802 Y90.53 Z.24 E.1336
G1 X113.808 Y94.002 Z.24 E.1336
G1 X113.668 Y94.731 E.02856
G1 X113.808 Y95.459 E.02853
G1 X113.808 Y98.88 Z.24 E.13163
G1 X113.808 Y102.3 Z.24 E.13163
G1 X113.808 Y105.721 Z.24 E.13163
G1 X113.674 Y106.382 E.02595
G1 X113.529 Y106.755 E.0154
G1 X113.074 Y107.462 E.03235
G1 X112.771 Y107.789 E.01715
G1 X112.128 Y108.239 E.0302
G1 X111.396 Y108.542 E.03049
G1 X110.93 Y108.631 E.01826
G1 X110.198 Y109.172 E.03503
G1 X109.836 Y109.353 E.01557
G1 X108.977 Y109.557 E.03397
G1 X104.094 Y109.557 Z.24 E.18789
G1 F3000
G1 X99.211 Y109.557 Z.24 E.18789
G1 F2999.396
G1 X98.483 Y109.417 E.02853
G1 X97.754 Y109.557 E.02856
G1 X92.871 Y109.557 Z.24 E.18788
G1 X87.989 Y109.557 Z.24 E.18788
G1 X87.183 Y109.373 E.03181
G1 X86.797 Y109.189 E.01645
G1 X86.056 Y108.647 E.03533
G1 X85.549 Y108.532 E.02
G1 X84.849 Y108.242 E.02916
G1 X84.422 Y107.978 E.01932
G1 X83.961 Y107.548 E.02426
G1 X83.52 Y106.91 E.02984
G1 X83.349 Y106.552 E.01527
G1 X83.157 Y105.728 E.03256
G1 X83.157 Y95.459 E.39515
G1 X83.297 Y94.731 E.02853
G1 X83.157 Y94.003 E.02853
G1 X83.157 Y90.582 Z.24 E.13164
G1 X83.157 Y87.161 Z.24 E.13164
G1 X83.157 Y83.74 Z.24 E.13164
G1 X83.291 Y83.08 E.02591
G1 X83.438 Y82.703 E.01557
G1 F2998.581
G1 X83.9 Y82.014 E.03192
G1 X83.9 Y82.014 F360000
G1 X84.254 Y82.254
G1 F3000
G1 X84.329 Y82.143 E.00515
G1 F2998.28
G1 X84.695 Y81.814 E.01894
G1 F2999.678
G1 X85.028 Y81.61 E.01503
G1 X85.727 Y81.322 E.02909
G1 X86.236 Y81.231 E.0199
G1 X86.515 Y80.977 E.01452
G1 X87.096 Y80.596 E.02674
G1 X87.424 Y80.459 E.01368
G1 X87.956 Y80.341 E.02097
G1 X97.783 Y80.338 E.37814
G1 X98.482 Y80.504 E.02765
G1 X99.231 Y80.333 E.02956
G1 X104.12 Y80.337 Z.24 E.18815
G1 X109.01 Y80.341 Z.24 E.18815
G1 X109.541 Y80.459 E.02093
G1 X109.869 Y80.596 E.01368
G1 X110.45 Y80.977 E.02674
G1 X110.727 Y81.229 E.01441
G1 X111.259 Y81.329 E.02083
G1 X111.908 Y81.595 E.02699
G1 X112.277 Y81.82 E.01663
G1 X112.711 Y82.229 E.02295
G1 X113.06 Y82.744 E.02394
G1 X113.241 Y83.131 E.01644
G1 X113.368 Y83.661 E.02097
G1 X113.372 Y87.102 Z.24 E.1324
G1 X113.376 Y90.542 Z.24 E.1324
G1 F3000
G1 X113.38 Y93.983 Z.24 E.1324
G1 F2999.926
G1 X113.21 Y94.731 E.02952
G1 X113.38 Y95.478 E.02948
G1 X113.38 Y98.885 Z.24 E.1311
G1 X113.38 Y102.292 Z.24 E.1311
G1 X113.38 Y105.699 Z.24 E.1311
G1 X113.259 Y106.274 E.02261
G1 X113.139 Y106.576 E.0125
G1 X112.744 Y107.188 E.02803
G1 X112.502 Y107.454 E.01384
G1 X111.941 Y107.852 E.02647
G1 X111.254 Y108.137 E.02862
G1 X110.736 Y108.23 E.02025
G1 X109.971 Y108.808 E.03689
G1 X109.668 Y108.958 E.01301
G1 X108.952 Y109.128 E.02832
G1 X99.23 Y109.128 E.3741
G1 X98.483 Y108.958 E.02948
G1 X97.735 Y109.128 E.02952
G1 X88.013 Y109.128 E.3741
G1 X87.344 Y108.975 E.02641
G1 X87.021 Y108.824 E.01372
G1 X86.513 Y108.484 E.02352
G1 X86.236 Y108.231 E.01444
G1 X85.7 Y108.131 E.02098
G1 X85.029 Y107.852 E.02796
G1 X84.695 Y107.647 E.01508
G1 X84.299 Y107.284 E.02067
G1 X83.897 Y106.704 E.02716
G1 X83.759 Y106.427 E.01191
G1 X83.585 Y105.702 E.02869
G1 X83.585 Y95.478 E.39342
G1 X83.755 Y94.731 E.02948
G1 X83.585 Y93.983 E.02952
G1 X83.585 Y90.576 Z.24 E.13109
G1 X83.585 Y87.17 Z.24 E.13108
G1 X83.585 Y83.763 Z.24 E.13109
G1 X83.706 Y83.188 E.02261
G1 X83.827 Y82.885 E.01255
G1 X84.221 Y82.304 E.02701
G1 X84.221 Y82.304 F360000
G1 X84.571 Y82.54
G1 F2999.786
G1 X84.635 Y82.444 E.00444
G1 X84.967 Y82.146 E.01717
G1 X85.85 Y81.732 E.03753
G1 X86.454 Y81.647 E.02347
G1 X86.767 Y81.323 E.01733
G1 X87.284 Y80.982 E.02383
G1 X87.981 Y80.769 E.02804
G1 X92.872 Y80.768 Z.24 E.18818
G1 F3000
G1 X97.762 Y80.766 Z.24 E.18819
G1 F2999.16
G1 X98.186 Y80.849 E.01663
G1 X98.479 Y80.966 E.01214
G1 X98.796 Y80.844 E.01307
G1 X99.25 Y80.762 E.01775
G1 X104.117 Y80.766 Z.24 E.18728
G1 X108.984 Y80.769 Z.24 E.18728
G1 X109.681 Y80.982 E.02804
G1 X110.198 Y81.323 E.02383
G1 X110.51 Y81.645 E.01725
G1 X111.11 Y81.731 E.02332
G1 X111.731 Y81.986 E.02583
G1 X112 Y82.148 E.01208
G1 X112.398 Y82.524 E.02107
G1 X112.695 Y82.968 E.02056
G1 X112.829 Y83.253 E.01212
G1 X112.945 Y83.737 E.01915
G1 X112.947 Y87.146 Z.24 E.13118
G1 X112.949 Y90.555 Z.24 E.13118
G1 X112.951 Y93.964 Z.24 E.13118
G1 X112.869 Y94.418 E.01775
G1 X112.749 Y94.731 E.0129
G1 X112.869 Y95.044 E.0129
G1 X112.951 Y95.498 E.01775
G1 X112.951 Y98.89 Z.24 E.13054
G1 X112.951 Y102.283 Z.24 E.13054
G1 F3000
G1 X112.951 Y105.675 Z.24 E.13054
G1 F2999.791
G1 X112.75 Y106.394 E.02873
G1 X112.231 Y107.122 E.0344
G1 X111.754 Y107.466 E.02263
G1 X111.114 Y107.731 E.02665
G1 X110.491 Y107.837 E.02432
G1 X110.192 Y108.143 E.01646
G1 X109.745 Y108.444 E.02074
G1 X109.502 Y108.563 E.01041
G1 X108.927 Y108.7 E.02275
G1 X99.25 Y108.7 E.37237
G1 X98.796 Y108.617 E.01776
G1 X98.483 Y108.497 E.0129
G1 X98.169 Y108.617 E.01293
G1 X97.715 Y108.7 E.01776
G1 X88.037 Y108.7 E.37241
G1 X87.503 Y108.577 E.02109
G1 X86.766 Y108.137 E.03303
G1 X86.454 Y107.814 E.01728
G1 X85.85 Y107.729 E.02347
G1 X84.966 Y107.315 E.03756
G1 X84.635 Y107.017 E.01714
G1 X84.27 Y106.493 E.02457
G1 X84.168 Y106.297 E.0085
G1 X84.014 Y105.675 E.02466
G1 X84.014 Y102.283 Z.24 E.13054
G1 X84.014 Y98.89 Z.24 E.13054
G1 X84.014 Y95.498 Z.24 E.13054
G1 X84.096 Y95.044 E.01775
G1 X84.216 Y94.731 E.0129
G1 X84.096 Y94.418 E.0129
G1 X84.014 Y93.964 E.01775
G1 X84.014 Y90.572 Z.24 E.13054
G1 X84.014 Y87.179 Z.24 E.13054
G1 F3000
G1 X84.014 Y83.787 Z.24 E.13054
G1 F2999.8
G1 X84.214 Y83.068 E.02872
G1 F2998.964
G1 X84.537 Y82.59 E.0222
G1 X84.537 Y82.59 F360000
G1 X84.888 Y82.825
G1 F3000
G1 X84.942 Y82.745 E.00371
G1 F2999.292
G1 X85.411 Y82.376 E.02296
