; generated by PrusaSlicer 2.7.2+MacOS-arm64 on 2024-03-06 at 23:31:20 UTC


;
;

;
;

;
;

;
;

;
;
; 

; external perimeters extrusion width = 0.45mm
; perimeters extrusion width = 0.45mm
; infill extrusion width = 0.45mm
; solid infill extrusion width = 0.45mm
; top infill extrusion width = 0.40mm

M73 P0 R40

EXCLUDE_OBJECT_DEFINE NAME='Benchmade_20Bugout_20Scales_stl' CENTER=71.629,123.689 POLYGON=[[36.117,169.782],[38.872,75.493],[38.932,74.680],[39.123,73.888],[39.441,73.137],[39.876,72.448],[40.418,71.838],[41.051,71.325],[43.410,69.953],[45.942,68.937],[48.595,68.298],[51.312,68.049],[93.502,68.642],[96.211,68.967],[98.844,69.681],[101.347,70.768],[103.666,72.205],[104.285,72.736],[104.809,73.360],[105.225,74.061],[105.521,74.821],[105.690,75.618],[105.727,76.433],[105.831,170.762],[105.794,171.586],[105.622,172.393],[105.321,173.160],[104.897,173.867],[104.362,174.495],[103.732,175.027],[103.023,175.448],[99.951,176.746],[96.759,177.710],[93.482,178.330],[90.158,178.599],[51.563,178.056],[48.248,177.694],[44.990,176.983],[41.826,175.929],[38.792,174.545],[38.095,174.104],[37.480,173.555],[36.964,172.912],[36.560,172.193],[36.280,171.418],[36.131,170.607]]

;TYPE:Custom
CALCULATE_PA MATERIAL=PLA BOWDEN_LENGTH=6 LAYER_HEIGHT=0.35 NOZZLE_SIZE=0.4 PRINT_SPEED=90


START_PRINT EXTRUDER=230 BED=65
G21 ; set units to millimeters
G90 ; use absolute coordinates
M83 ; use relative distances for extrusion
; Filament gcode
M107
;LAYER_CHANGE
;Z:0.35
;HEIGHT:0.35
G1 E-1 F3000
EXCLUDE_OBJECT_START NAME='Benchmade_20Bugout_20Scales_stl'
G1 Z.35 F90000
G1 X97.964 Y71.921
G1 Z.35
G1 E1 F3000
;TYPE:Perimeter
;WIDTH:0.45
G1 F1200
G1 X98.039 Y71.943 E.00448
G1 X100.233 Y72.896 E.13701
G1 X101.916 Y73.939 E.11341
G1 X102.416 Y74.288 E.03493
G1 X102.849 Y74.75 E.03627
G1 X103.142 Y75.312 E.0363
G1 X103.307 Y75.923 E.03625
G1 X103.301 Y76.557 E.03632
G1 X103.143 Y77.23 E.0396
G1 X101.978 Y80.702 E.20977
G1 X101.077 Y84.275 E.21106
G1 X100.451 Y87.905 E.21099
G1 X100.115 Y91.397 E.20094
G1 X100.034 Y95.105 E.21244
G1 X100.202 Y110.196 E.86445
G1 X100.063 Y125.447 E.8736
G1 X99.824 Y129.697 E.24382
G1 X99.275 Y133.905 E.24307
G1 X98.407 Y138.107 E.24577
G1 X97.632 Y142.119 E.23405
G1 X97.247 Y146.189 E.23417
G1 X97.257 Y150.278 E.23421
G1 X97.603 Y153.794 E.20237
G1 X97.661 Y154.346 E.03179
G1 X98.457 Y158.356 E.23417
G1 X99.636 Y162.271 E.23419
G1 X101.188 Y166.054 E.23421
G1 X103.164 Y169.825 E.24386
G1 X103.378 Y170.428 E.03665
G1 X103.42 Y171.067 E.03668
G1 X103.41 Y171.281 E.01227
G1 X103.243 Y171.899 E.03667
G1 X102.944 Y172.466 E.03672
G1 X102.503 Y172.93 E.03667
G1 X101.959 Y173.294 E.03749
G1 X99.136 Y174.487 E.17554
G1 X96.188 Y175.378 E.1764
G1 X93.162 Y175.951 E.17641
G1 X90.093 Y176.198 E.17636
M73 P0 R39
G1 X87.015 Y176.119 E.17636
G1 X83.962 Y175.713 E.17641
G1 X82.814 Y175.433 E.06768
G1 X82.941 Y175.389 E.0077
G1 X83.431 Y175.153 E.03115
G1 X83.873 Y174.835 E.03119
G1 X84.254 Y174.446 E.03119
G1 X84.56 Y173.996 E.03117
G1 X84.784 Y173.5 E.03117
G1 X84.922 Y172.938 E.03315
G1 X84.96 Y172.43 E.02918
G1 X84.906 Y171.889 E.03114
G1 X84.758 Y171.365 E.03119
G1 X84.522 Y170.874 E.0312
G1 X84.205 Y170.432 E.03116
G1 X83.811 Y170.049 E.03147
G1 X83.366 Y169.745 E.03087
G1 X82.87 Y169.521 E.03117
G1 X82.329 Y169.385 E.03195
G1 X81.8 Y169.346 E.03038
G1 X81.258 Y169.4 E.0312
G1 X80.7 Y169.562 E.03328
G1 X80.561 Y165.167 E.25187
G1 X81.104 Y165.761 E.0461
G1 X81.698 Y166.22 E.043
G1 X82.359 Y166.576 E.043
G1 X82.926 Y166.779 E.0345
G1 X83.479 Y166.892 E.03233
G1 X84.029 Y166.942 E.03163
G1 X84.567 Y166.936 E.03082
G1 X85.303 Y166.811 E.04276
G1 X86.013 Y166.565 E.04304
G1 X86.672 Y166.206 E.04298
G1 X87.263 Y165.743 E.043
G1 X87.648 Y165.336 E.03209
G1 X87.449 Y166.094 E.04489
G1 X87.379 Y166.923 E.04765
G1 X87.428 Y167.59 E.03831
G1 X87.525 Y168.034 E.02603
G1 X87.716 Y168.654 E.03716
G1 X88.025 Y169.307 E.04138
G1 X88.409 Y169.871 E.03908
G1 X88.814 Y170.305 E.034
G1 X89.232 Y170.673 E.0319
G1 X89.777 Y171.048 E.03789
G1 X90.38 Y171.34 E.03838
G1 X90.686 Y171.441 E.01846
G1 X91.336 Y171.61 E.03847
G1 X92.165 Y171.68 E.04765
G1 X92.994 Y171.605 E.04768
G1 X93.797 Y171.388 E.04764
G1 X94.549 Y171.034 E.04761
G1 X95.229 Y170.555 E.04764
G1 X95.816 Y169.965 E.04767
G1 X96.291 Y169.282 E.04765
G1 X96.64 Y168.527 E.04764
G1 X96.853 Y167.723 E.04764
G1 X96.923 Y166.894 E.04765
G1 X96.848 Y166.065 E.04768
G1 X96.63 Y165.263 E.0476
G1 X96.276 Y164.51 E.04766
G1 X95.797 Y163.83 E.04764
G1 X95.207 Y163.243 E.04767
G1 X94.524 Y162.768 E.04765
G1 X93.769 Y162.419 E.04764
G1 X92.965 Y162.206 E.04764
G1 X92.136 Y162.136 E.04765
G1 X91.308 Y162.211 E.04762
G1 X90.505 Y162.429 E.04766
G1 X89.752 Y162.783 E.04766
G1 X89.199 Y163.159 E.0383
G1 X88.887 Y163.442 E.02413
G1 X88.485 Y163.852 E.03289
G1 X88.668 Y163.068 E.04611
G1 X88.723 Y162.472 E.03428
G1 X88.826 Y155.147 E.41961
G1 X88.773 Y154.345 E.04604
G1 X88.598 Y153.61 E.04328
G1 X88.374 Y153.053 E.03439
G1 X88.2 Y152.745 E.02026
G1 X87.898 Y152.276 E.03195
G1 X87.393 Y151.715 E.04323
G1 X86.791 Y151.239 E.04396
G1 X86.07 Y150.849 E.04695
G1 X85.434 Y150.629 E.03855
G1 X84.773 Y150.51 E.03847
G1 X83.928 Y150.493 E.04841
G1 X83.187 Y150.612 E.04299
G1 X82.528 Y150.831 E.03978
G1 X81.847 Y151.185 E.04396
G1 X81.204 Y151.676 E.04634
G1 X80.691 Y152.231 E.04329
G1 X80.375 Y152.696 E.0322
G1 X80.316 Y147.792 E.28092
G1 X80.524 Y132.251 E.89025
G1 X81.141 Y116.485 E.90375
G1 X82.004 Y103.088 E.76895
G1 X82.125 Y103.123 E.00721
G1 X82.665 Y103.192 E.03118
G1 X83.209 Y103.166 E.0312
G1 X83.74 Y103.047 E.03117
G1 X84.242 Y102.837 E.03117
G1 X84.7 Y102.543 E.03117
G1 X85.1 Y102.174 E.03117
G1 X85.43 Y101.741 E.03118
G1 X85.68 Y101.257 E.0312
G1 X85.841 Y100.737 E.03118
G1 X85.911 Y100.198 E.03113
G1 X85.885 Y99.654 E.0312
G1 X85.765 Y99.123 E.03118
G1 X85.54 Y98.588 E.03324
G1 X85.261 Y98.163 E.02912
G1 X84.892 Y97.763 E.03117
G1 X84.459 Y97.433 E.03118
G1 X83.976 Y97.183 E.03115
G1 X83.456 Y97.021 E.0312
G1 X82.916 Y96.952 E.03118
G1 X82.487 Y96.969 E.02459
G1 X83.596 Y85.025 E.68708
G1 X84.022 Y81.261 E.21697
G1 X84.246 Y81.446 E.01664
G1 X84.735 Y81.728 E.03233
G1 X85.029 Y81.836 E.01794
G1 X85.583 Y81.941 E.0323
G1 X85.896 Y81.947 E.01793
G1 X86.454 Y81.863 E.03232
G1 X86.751 Y81.765 E.01791
G1 X87.25 Y81.502 E.03231
G1 X87.499 Y81.312 E.01794
G1 X87.98 Y80.777 E.04121
G1 X91.953 Y74.74 E.41396
G1 X92.311 Y74.183 E.03793
G1 X92.532 Y73.713 E.02975
G1 X92.759 Y73.946 E.01863
G1 X93.192 Y74.276 E.03118
G1 X93.675 Y74.525 E.03113
G1 X94.195 Y74.687 E.0312
G1 X94.735 Y74.757 E.03119
G1 X95.278 Y74.731 E.03114
G1 X95.819 Y74.609 E.03177
G1 X96.312 Y74.401 E.03065
G1 X96.77 Y74.107 E.03117
G1 X97.17 Y73.738 E.03117
G1 X97.499 Y73.305 E.03115
G1 X97.749 Y72.822 E.03115
G1 X97.911 Y72.302 E.0312
G1 X97.956 Y71.981 E.01857
G1 X97.956 Y71.981 F90000
G1 X97.594 Y71.421
G1 F1200
G1 X98.168 Y71.59 E.03427
G1 X100.407 Y72.563 E.13983
G1 X102.278 Y73.723 E.12609
G1 X102.844 Y74.162 E.04103
G1 X103.156 Y74.533 E.02777
G1 X103.403 Y74.95 E.02776
G1 X103.579 Y75.401 E.02773
G1 X103.68 Y75.876 E.02782
G1 X103.702 Y76.36 E.02775
G1 X103.645 Y76.841 E.02774
G1 X103.5 Y77.342 E.02987
G1 X102.342 Y80.794 E.20856
G1 X101.446 Y84.339 E.20944
G1 X100.824 Y87.941 E.20937
G1 X100.488 Y91.433 E.20094
G1 X100.409 Y95.101 E.21015
G1 X100.577 Y110.196 E.86468
G1 X100.438 Y125.459 E.87428
G1 X100.198 Y129.732 E.24514
G1 X99.645 Y133.967 E.24464
G1 X98.775 Y138.178 E.2463
G1 X98.005 Y142.155 E.23203
G1 X97.622 Y146.189 E.2321
G1 X97.63 Y150.241 E.23209
G1 X97.976 Y153.757 E.20237
G1 X98.029 Y154.274 E.02977
G1 X98.816 Y158.249 E.2321
G1 X99.983 Y162.129 E.23208
G1 X101.52 Y165.879 E.23214
G1 X103.48 Y169.617 E.24176
G1 X103.677 Y170.117 E.03078
G1 X103.776 Y170.596 E.02802
G1 X103.794 Y171.084 E.02797
G1 X103.783 Y171.329 E.01405
G1 X103.681 Y171.809 E.02811
G1 X103.502 Y172.265 E.02806
G1 X103.25 Y172.685 E.02806
G1 X102.932 Y173.059 E.02812
G1 X102.557 Y173.375 E.02809
G1 X102.128 Y173.63 E.02859
G1 X99.263 Y174.841 E.17816
G1 X96.277 Y175.743 E.17867
G1 X93.212 Y176.323 E.17868
G1 X90.103 Y176.574 E.17866
G1 X86.985 Y176.493 E.17866
G1 X83.893 Y176.081 E.17867
G1 X81.816 Y175.583 E.12234
;WIDTH:0.437412
G1 X81.317 Y175.478 E.02823
;WIDTH:0.404747
G1 X80.751 Y175.315 E.02966
;WIDTH:0.398599
G1 X80.644 Y175.178 E.00859
G1 X80.538 Y174.857 E.01671
G1 X80.827 Y174.996 E.01585
;WIDTH:0.401667
G1 X81.281 Y175.135 E.02369
;WIDTH:0.430986
G1 X81.751 Y175.205 E.02584
;WIDTH:0.45
G1 X82.228 Y175.188 E.02734
G1 X82.695 Y175.079 E.02747
G1 X83.135 Y174.891 E.02741
G1 X83.536 Y174.629 E.02744
G1 X83.885 Y174.301 E.02743
G1 X84.173 Y173.917 E.02749
G1 X84.389 Y173.49 E.02741
G1 X84.527 Y173.031 E.02745
G1 X84.584 Y172.556 E.0274
G1 X84.558 Y172.077 E.02748
G1 X84.449 Y171.611 E.02741
G1 X84.26 Y171.17 E.02748
G1 X83.998 Y170.769 E.02744
G1 X83.745 Y170.497 E.02128
G1 X83.287 Y170.133 E.03351
G1 X83.007 Y169.988 E.01806
G1 X82.401 Y169.778 E.03674
G1 X81.925 Y169.721 E.02746
G1 X81.447 Y169.748 E.02742
G1 X80.888 Y169.889 E.03302
G1 X80.344 Y170.168 E.03502
G1 X80.138 Y163.669 E.37244
G1 X80.114 Y163.371 E.01712
;WIDTH:0.413805
G1 X80.09 Y163.073 E.01547
G1 X80.156 Y163.411 E.01782
;WIDTH:0.45
G1 X80.222 Y163.75 E.01978
G1 X80.497 Y164.382 E.03948
G1 X80.873 Y164.96 E.0395
G1 X81.338 Y165.468 E.03945
G1 X81.881 Y165.893 E.0395
G1 X82.401 Y166.184 E.03413
G1 X82.648 Y166.281 E.0152
G1 X83.171 Y166.455 E.03157
G1 X83.817 Y166.564 E.03753
G1 X84.511 Y166.565 E.03975
G1 X85.186 Y166.455 E.03917
G1 X85.839 Y166.233 E.03951
G1 X86.446 Y165.907 E.03947
G1 X86.991 Y165.485 E.03948
;WIDTH:0.487964
G1 X87.127 Y165.365 E.01144
;WIDTH:0.525929
G1 X87.262 Y165.245 E.01244
;WIDTH:0.563894
G1 X87.398 Y165.125 E.01355
;WIDTH:0.601859
G1 X87.533 Y165.006 E.01448
G1 X87.931 Y164.336 E.06272
;WIDTH:0.564137
G1 X88.009 Y164.089 E.01935
;WIDTH:0.526091
G1 X88.087 Y163.841 E.01791
;WIDTH:0.488045
G1 X88.165 Y163.593 E.0164
;WIDTH:0.45
G1 X88.295 Y163.032 E.03298
G1 X88.348 Y162.466 E.03256
G1 X88.447 Y154.977 E.429
G1 X88.407 Y154.425 E.0317
G1 X88.25 Y153.75 E.0397
G1 X87.984 Y153.11 E.0397
G1 X87.616 Y152.522 E.03973
M73 P1 R39
G1 X87.155 Y152.004 E.03972
G1 X86.608 Y151.566 E.04014
G1 X85.942 Y151.202 E.04347
G1 X85.361 Y150.996 E.03531
G1 X84.759 Y150.884 E.03507
G1 X83.981 Y150.864 E.04458
G1 X83.299 Y150.97 E.03953
G1 X82.695 Y151.166 E.03637
G1 X82.069 Y151.487 E.0403
G1 X81.475 Y151.935 E.04262
G1 X81.001 Y152.441 E.03971
G1 X80.619 Y153.019 E.03968
G1 X80.337 Y153.653 E.03975
;WIDTH:0.497896
G1 X80.255 Y153.874 E.01523
;WIDTH:0.545792
G1 X80.174 Y154.096 E.01699
;WIDTH:0.593689
G1 X80.092 Y154.317 E.01868
G1 X80.072 Y154.211 E.00855
;WIDTH:0.555354
G1 X80.052 Y154.012 E.01468
;WIDTH:0.520236
G1 X80.032 Y153.812 E.01367
;WIDTH:0.485118
G1 X80.012 Y153.612 E.01259
;WIDTH:0.45
G1 X79.941 Y147.792 E.33339
G1 X80.15 Y132.242 E.89077
G1 X80.767 Y116.465 E.90438
G1 X81.662 Y102.571 E.79748
G1 X82.227 Y102.762 E.03416
G1 X82.703 Y102.819 E.02746
G1 X83.181 Y102.792 E.02742
G1 X83.648 Y102.683 E.02747
G1 X84.088 Y102.495 E.02741
G1 X84.489 Y102.233 E.02744
G1 X84.839 Y101.905 E.02747
G1 X85.126 Y101.521 E.02746
G1 X85.342 Y101.094 E.02741
G1 X85.481 Y100.635 E.02747
G1 X85.538 Y100.16 E.0274
G1 X85.511 Y99.681 E.02748
G1 X85.402 Y99.215 E.02741
G1 X85.213 Y98.774 E.02748
G1 X84.951 Y98.373 E.02744
G1 X84.624 Y98.024 E.02739
G1 X84.24 Y97.737 E.02746
G1 X83.813 Y97.521 E.02741
G1 X83.354 Y97.382 E.02747
G1 X82.878 Y97.325 E.02746
G1 X82.4 Y97.352 E.02742
G1 X82.068 Y97.427 E.0195
G1 X83.223 Y84.987 E.71561
G1 X83.758 Y80.254 E.27283
G1 X83.919 Y80.575 E.02057
G1 X84.433 Y81.122 E.04299
G1 X85.098 Y81.468 E.04294
G1 X85.84 Y81.576 E.04295
G1 X86.398 Y81.492 E.03232
G1 X86.576 Y81.434 E.01072
G1 X87.075 Y81.171 E.03231
G1 X87.225 Y81.057 E.01079
G1 X87.666 Y80.571 E.03759
G1 X91.817 Y74.265 E.43243
G1 X92.085 Y73.814 E.03005
G1 X92.269 Y73.304 E.03106
;WIDTH:0.45217
G1 X92.332 Y72.707 E.03458
G1 X92.626 Y73.226 E.03436
;WIDTH:0.45
G1 X92.997 Y73.653 E.0324
G1 X93.411 Y73.972 E.02994
G1 X93.838 Y74.188 E.02741
G1 X94.297 Y74.327 E.02747
G1 X94.773 Y74.384 E.02746
G1 X95.251 Y74.357 E.02742
G1 X95.717 Y74.248 E.02741
G1 X96.158 Y74.059 E.02748
G1 X96.559 Y73.797 E.02744
G1 X96.908 Y73.469 E.02743
G1 X97.195 Y73.086 E.02741
G1 X97.446 Y72.567 E.03302
G1 X97.584 Y71.958 E.03577
G1 X97.592 Y71.481 E.02733
G1 E-1 F3000
G1 X97.592 Y71.481 F90000
G1 X97.347 Y71.59
G1 X95.589 Y164.233
G1 X95.961 Y164.779
G1 X96.273 Y165.473
G1 X96.459 Y166.211
G1 X96.515 Y166.97
G1 X96.438 Y167.727
G1 X96.231 Y168.459
G1 X95.899 Y169.144
G1 X95.454 Y169.761
G1 X95.449 Y169.766
G1 X95.469 Y169.787
G1 E1 F3000
G1 F1200
G1 X94.968 Y170.286 E.0405
G1 X94.339 Y170.724 E.0439
G1 X93.643 Y171.046 E.04393
G1 X92.902 Y171.242 E.0439
G1 X92.138 Y171.307 E.04392
G1 X91.374 Y171.237 E.04394
G1 X90.789 Y171.081 E.03468
G1 X90.543 Y171.002 E.0148
G1 X89.941 Y170.711 E.0383
G1 X89.452 Y170.369 E.03418
G1 X89.083 Y170.044 E.02816
G1 X88.716 Y169.656 E.03059
G1 X88.335 Y169.096 E.0388
G1 X88.058 Y168.501 E.03759
G1 X87.889 Y167.942 E.03345
G1 X87.801 Y167.563 E.02229
G1 X87.753 Y166.896 E.0383
G1 X87.822 Y166.132 E.04394
;WIDTH:0.498371
G1 X87.897 Y165.761 E.02448
;WIDTH:0.546742
G1 X87.973 Y165.39 E.02729
;WIDTH:0.5743
G1 X87.981 Y165.328 E.00477
;WIDTH:0.601859
G1 X87.989 Y165.267 E.00495
G1 X88.259 Y164.756 E.04651
;WIDTH:0.564137
G1 X88.352 Y164.581 E.01481
G1 X88.464 Y164.457 E.01248
;WIDTH:0.526091
G1 X88.577 Y164.334 E.01151
;WIDTH:0.488045
G1 X88.689 Y164.211 E.0105
;WIDTH:0.45
G1 X88.854 Y163.997 E.01548
G1 X89.333 Y163.531 E.03828
G1 X89.763 Y163.229 E.0301
G1 X90.048 Y163.045 E.01943
G1 X90.658 Y162.771 E.0383
G1 X91.4 Y162.575 E.04396
G1 X92.163 Y162.51 E.04386
G1 X92.927 Y162.579 E.04394
G1 X93.667 Y162.78 E.04392
G1 X94.361 Y163.106 E.04392
G1 X94.988 Y163.547 E.04391
G1 X95.062 Y163.611 E.0056
G1 X95.528 Y164.091 E.03832
G1 X95.966 Y164.72 E.0439
G1 X96.288 Y165.416 E.04393
G1 X96.484 Y166.157 E.0439
G1 X96.549 Y166.921 E.04392
G1 X96.48 Y167.685 E.04394
G1 X96.279 Y168.425 E.04392
G1 X95.953 Y169.119 E.04392
G1 X95.512 Y169.745 E.04386
G1 X95.512 Y169.745 F90000
G1 X95.208 Y169.526
;TYPE:External perimeter
G1 F1200
G1 X94.707 Y170.017 E.04018
G1 X94.128 Y170.414 E.04021
G1 X93.489 Y170.704 E.04019
G1 X92.81 Y170.878 E.04015
G1 X92.11 Y170.933 E.04022
G1 X91.412 Y170.865 E.04017
G1 X90.891 Y170.72 E.03098
G1 X90.104 Y170.373 E.04927
G1 X89.671 Y170.065 E.03044
G1 X89.352 Y169.783 E.02439
G1 X89.021 Y169.439 E.02734
G1 X88.645 Y168.886 E.0383
G1 X88.4 Y168.347 E.03391
G1 X88.252 Y167.85 E.0297
G1 X88.157 Y167.287 E.0327
G1 X88.142 Y166.689 E.03426
G1 X88.195 Y166.17 E.02988
G1 X88.38 Y165.505 E.03954
G1 X88.646 Y164.944 E.03556
G1 X88.993 Y164.43 E.03552
G1 X89.41 Y163.98 E.03514
G1 X89.62 Y163.779 E.01665
G1 X90.173 Y163.403 E.0383
G1 X90.812 Y163.113 E.04019
G1 X91.492 Y162.938 E.04022
G1 X92.191 Y162.884 E.04016
G1 X92.889 Y162.952 E.04017
G1 X93.565 Y163.141 E.04021
G1 X94.198 Y163.443 E.04017
G1 X94.793 Y163.873 E.04205
G1 X95.259 Y164.352 E.03828
G1 X95.656 Y164.931 E.04021
G1 X95.946 Y165.57 E.04019
G1 X96.121 Y166.249 E.04016
G1 X96.175 Y166.949 E.04021
G1 X96.107 Y167.647 E.04017
G1 X95.919 Y168.323 E.04019
G1 X95.616 Y168.955 E.04015
G1 X95.243 Y169.477 E.03675
;WIPE_START
G1 F72000
G1 X95.208 Y169.526 E-.00238
G1 X94.707 Y170.017 E-.02777
G1 X94.128 Y170.414 E-.02779
G1 X93.489 Y170.704 E-.02778
G1 X92.81 Y170.878 E-.02775
G1 X92.11 Y170.933 E-.02779
G1 X91.412 Y170.865 E-.02776
G1 X90.891 Y170.72 E-.02141
G1 X90.104 Y170.373 E-.03405
G1 X89.671 Y170.065 E-.02103
G1 X89.352 Y169.783 E-.01685
G1 X89.021 Y169.439 E-.0189
G1 X88.645 Y168.886 E-.02647
G1 X88.4 Y168.347 E-.02344
G1 X88.252 Y167.85 E-.02053
G1 X88.157 Y167.287 E-.0226
G1 X88.142 Y166.689 E-.02368
G1 X88.195 Y166.17 E-.02065
G1 X88.38 Y165.505 E-.02732
G1 X88.646 Y164.944 E-.02458
G1 X88.993 Y164.43 E-.02455
G1 X89.41 Y163.98 E-.02428
G1 X89.62 Y163.779 E-.01151
G1 X90.173 Y163.403 E-.02647
G1 X90.812 Y163.113 E-.02778
G1 X91.492 Y162.938 E-.02779
G1 X92.191 Y162.884 E-.02775
