; generated by PrusaSlicer 2.7.2+MacOS-arm64 on 2024-03-05 at 05:55:47 UTC


;
;

;
;

;
;

;
;

;
;
; 

; external perimeters extrusion width = 0.45mm
; perimeters extrusion width = 0.45mm
; infill extrusion width = 0.45mm
; solid infill extrusion width = 0.45mm
; top infill extrusion width = 0.40mm

; external perimeters extrusion width = 0.45mm
; perimeters extrusion width = 0.45mm
; infill extrusion width = 0.45mm
; solid infill extrusion width = 0.45mm
; top infill extrusion width = 0.40mm

M73 P0 R69

EXCLUDE_OBJECT_DEFINE NAME='Bugout_Scale_Honeycomb_left' CENTER=17.338,55.414 POLYGON=[[18.736,1.422],[20.538,1.502],[22.822,1.774],[27.300,2.695],[27.761,2.844],[28.222,3.187],[28.775,3.889],[28.935,4.323],[28.997,9.532],[29.589,23.201],[29.925,36.425],[29.931,49.773],[29.690,63.115],[28.947,77.644],[27.937,92.822],[26.823,102.555],[26.603,105.489],[26.422,106.247],[26.043,107.239],[25.250,108.673],[24.937,108.978],[23.921,109.632],[20.584,110.786],[18.640,111.293],[16.398,111.499],[14.307,111.484],[13.298,111.357],[12.249,111.102],[9.993,110.372],[6.851,108.816],[4.847,107.606],[4.230,106.990],[3.899,106.438],[3.366,103.295],[3.322,102.731],[3.380,101.972],[3.955,100.563],[5.256,95.744],[5.693,92.841],[5.987,89.947],[6.162,84.504],[5.909,77.972],[5.948,73.081],[5.709,61.400],[5.713,55.724],[6.179,49.182],[6.642,45.533],[7.454,40.150],[7.621,38.452],[7.905,33.873],[7.962,30.289],[7.881,28.219],[7.599,25.177],[7.194,22.551],[6.619,20.236],[5.673,17.834],[3.213,12.986],[1.837,11.056],[1.618,10.483],[1.593,9.744],[1.902,8.258],[2.500,6.507],[2.884,5.683],[3.136,5.419],[3.762,5.017],[6.225,3.761],[7.736,3.129],[9.192,2.658],[13.324,1.717],[15.702,1.479]]
EXCLUDE_OBJECT_DEFINE NAME='Bugout_Scale_Honeycomb_left' CENTER=75.178,162.511 POLYGON=[[76.576,108.519],[78.379,108.599],[80.662,108.872],[85.141,109.792],[85.601,109.942],[86.062,110.284],[86.615,110.987],[86.776,111.421],[86.837,116.629],[87.429,130.298],[87.765,143.523],[87.771,156.871],[87.530,170.213],[86.787,184.742],[85.778,199.919],[84.663,209.653],[84.443,212.586],[84.262,213.345],[83.884,214.336],[83.090,215.771],[82.777,216.076],[81.761,216.729],[78.424,217.883],[76.480,218.391],[74.239,218.597],[72.148,218.581],[71.138,218.454],[70.089,218.200],[67.833,217.470],[64.691,215.914],[62.687,214.704],[62.071,214.087],[61.740,213.535],[61.206,210.392],[61.162,209.828],[61.220,209.069],[61.795,207.660],[63.096,202.841],[63.533,199.939],[63.827,197.045],[64.002,191.601],[63.749,185.069],[63.788,180.179],[63.549,168.497],[63.554,162.822],[64.019,156.280],[64.483,152.630],[65.294,147.247],[65.461,145.550],[65.745,140.970],[65.802,137.387],[65.721,135.317],[65.439,132.275],[65.034,129.648],[64.459,127.333],[63.514,124.932],[61.053,120.083],[59.678,118.154],[59.458,117.580],[59.433,116.841],[59.743,115.356],[60.340,113.605],[60.724,112.781],[60.977,112.516],[61.602,112.114],[64.065,110.859],[65.577,110.227],[67.032,109.755],[71.164,108.815],[73.542,108.576]]

;TYPE:Custom
CALCULATE_PA MATERIAL=PLA BOWDEN_LENGTH=6 LAYER_HEIGHT=0.2 NOZZLE_SIZE=0.4 PRINT_SPEED=0


START_PRINT EXTRUDER=230 BED=65
G21 ; set units to millimeters
G90 ; use absolute coordinates
M83 ; use relative distances for extrusion
; Filament gcode
M107
;LAYER_CHANGE
;Z:0.2
;HEIGHT:0.2
G1 E-1 F3000
EXCLUDE_OBJECT_START NAME='Bugout_Scale_Honeycomb_left'
G1 Z.2 F90000
G1 X21.21 Y55.345
G1 Z.2
G1 E1 F3000
;TYPE:External perimeter
;WIDTH:0.45
G1 F2100
G1 X20.67 Y58.328 E.10774
G1 X17.817 Y59.352 E.10773
G1 X15.504 Y57.393 E.10773
G1 X16.044 Y54.411 E.10771
G1 X16.246 Y54.338 E.00763
G1 X18.896 Y53.387 E.10007
G1 X21.164 Y55.306 E.10559
G1 X21.14 Y55.706 F90000
G1 E-1 F3000
G1 X12.425 Y58.685 F90000
G1 E1 F3000
G1 F2100
G1 X12.628 Y58.612 E.00767
G1 X15.278 Y57.661 E.10007
G1 X17.591 Y59.619 E.10771
G1 X17.052 Y62.602 E.10774
G1 X14.199 Y63.626 E.10773
G1 X11.885 Y61.667 E.10776
G1 X12.414 Y58.744 E.10557
G1 X12.772 Y58.564 F90000
G1 E-1 F3000
G1 X12.105 Y58.614 F90000
G1 X11.561 Y61.622
G1 X8.684 Y62.655
G1 X8.674 Y62.646
G1 X8.688 Y62.629
G1 E1 F3000
G1 F2100
G1 X7.488 Y61.613 E.05588
G1 X7.468 Y57.489 E.14657
G1 X7.68 Y57.413 E.008
G1 X9.767 Y56.664 E.07881
G1 X12.081 Y58.622 E.10773
G1 X11.541 Y61.605 E.10774
G1 X8.745 Y62.609 E.10559
G1 X8.411 Y62.389 F90000
G1 E-1 F3000
G1 X8.394 Y62.409 F90000
G1 X7.336 Y61.685
G1 X7.238 Y61.456
G1 X7.236 Y61.286
G1 X7.234 Y61.059
G1 X7.231 Y60.633
G1 X7.228 Y60.328
G1 X7.224 Y59.466
G1 X7.223 Y59.161
G1 X7.222 Y58.77
G1 X7.222 Y57.694
G1 X7.229 Y56.485
G1 X7.229 Y56.428
G1 X7.234 Y56.109
G1 X7.241 Y55.8
G1 X7.254 Y55.371
G1 X7.268 Y55.049
G1 X7.277 Y54.847
G1 X7.294 Y54.525
G1 X7.296 Y54.482
G1 X7.315 Y54.176
G1 X7.343 Y53.746
G1 X7.371 Y53.316
G1 X7.462 Y52.026
G1 X7.715 Y51.584
G1 X7.855 Y51.525
G1 X7.757 Y51.293
G1 E1 F3000
G1 F2100
G1 X10.189 Y53.352 E.11325
G1 X9.649 Y56.334 E.10771
G1 X7.466 Y57.118 E.08244
G1 X7.501 Y55.38 E.06178
G1 X7.543 Y54.5 E.03131
G1 X7.753 Y51.353 E.1121
G1 X8.09 Y51.569 F90000
G1 E-1 F3000
G1 X8.101 Y51.555 F90000
G1 X10.41 Y53.11
G1 X13.277 Y52.405
G1 X13.702 Y52.628
G1 X15.723 Y54.34
G1 X15.721 Y54.352
G1 X15.699 Y54.348
G1 E1 F3000
G1 F2100
G1 X15.16 Y57.331 E.10774
G1 X12.307 Y58.355 E.10773
G1 X9.993 Y56.397 E.10773
G1 X10.533 Y53.414 E.10774
G1 X10.733 Y53.342 E.00755
G1 X13.275 Y52.429 E.096
G1 X13.689 Y52.647 E.01663
G1 X15.653 Y54.31 E.09147
G1 X15.63 Y54.709 F90000
G1 E-1 F3000
G1 X15.656 Y54.714 F90000
G1 X15.723 Y54.34
G1 X13.702 Y52.628
G1 X13.277 Y52.405
G1 X10.41 Y53.11
G1 X8.068 Y51.138
G1 X8.07 Y50.902
G1 X8.01 Y50.686
G1 X7.754 Y50.757
G1 E1 F3000
;TYPE:Perimeter
G1 F2100
G1 X7.44 Y50.491 E.01463
G1 X7.619 Y48.727 E.06302
G1 X7.745 Y47.689 E.03716
G1 X8.234 Y48.103 E.02277
G1 X7.765 Y50.698 E.09372
G1 E-1 F3000
G1 X7.765 Y50.698 F90000
G1 X7.995 Y50.634
G1 X8.068 Y51.138
G1 X10.41 Y53.11
G1 X13.125 Y52.137
G1 X13.287 Y52.077
G1 X13.29 Y52.064
G1 X13.268 Y52.06
G1 E1 F3000
;TYPE:External perimeter
G1 F2100
G1 X10.415 Y53.085 E.10774
G1 X8.101 Y51.126 E.10776
G1 X8.641 Y48.143 E.10774
G1 X11.319 Y47.182 E.10112
G1 X11.494 Y47.119 E.00661
G1 X13.807 Y49.078 E.10773
G1 X13.278 Y52.001 E.10557
G1 X12.921 Y52.181 F90000
G1 E-1 F3000
G1 X13.588 Y52.131 F90000
G1 X14.132 Y49.123
G1 X15.729 Y48.542
G1 X18.387 Y49.688
G1 X18.946 Y49.631
G1 X19.11 Y49.83
G1 X19.129 Y49.849
G1 X19.093 Y49.885
G1 E1 F3000
G1 F2100
G1 X19.318 Y50.075 E.01047
G1 X18.778 Y53.057 E.10771
G1 X15.925 Y54.081 E.10773
G1 X13.612 Y52.123 E.10771
G1 X14.151 Y49.14 E.10774
G1 X14.329 Y49.076 E.00672
G1 X15.72 Y48.577 E.05252
G1 X16.236 Y49.134 E.02699
G1 X16.708 Y49.485 E.02091
G1 X17.237 Y49.745 E.02095
G1 X17.805 Y49.902 E.02094
G1 X18.392 Y49.953 E.02094
G1 X19.034 Y49.89 E.02293
G1 X19.304 Y50.185 F90000
G1 X18.512 Y49.532
;TYPE:Perimeter
G1 F2100
G1 X18.389 Y49.545 E.0044
G1 X17.878 Y49.5 E.01823
G1 X17.382 Y49.362 E.0183
G1 X17.251 Y49.298 E.00518
G1 X17.822 Y49.483 E.02133
G1 X18.453 Y49.528 E.02248
G1 X18.453 Y49.528 F90000
G1 X17.14 Y49.244
G1 F2100
G1 X16.921 Y49.136 E.00868
G1 X16.668 Y48.948 E.0112
G1 X17.089 Y49.212 E.01766
G1 X17.089 Y49.212 F90000
G1 X16.59 Y48.89
G1 F2100
G1 X16.509 Y48.83 E.00358
G1 X15.929 Y48.203 E.03036
G1 X15.799 Y47.813 E.01461
G1 X16.131 Y48.408 E.02422
G1 X16.549 Y48.847 E.02154
G1 X16.549 Y48.847 F90000
G1 X15.624 Y47.149
G1 F2100
G1 X15.777 Y47.749 E.02201
G1 X15.657 Y47.387 E.01355
G1 X15.632 Y47.209 E.00639
G1 X15.632 Y47.209 F90000
G1 X15.772 Y45.767
G1 F2100
G1 X15.613 Y46.386 E.02271
G1 X15.608 Y47.027 E.02278
G1 X15.586 Y46.871 E.0056
G1 X15.613 Y46.35 E.01854
G1 X15.737 Y45.844 E.01852
G1 X15.747 Y45.821 E.00089
G1 X15.747 Y45.821 F90000
G1 X16.095 Y45.166
G1 F2100
G1 X15.798 Y45.709 E.022
G1 X15.952 Y45.369 E.01327
G1 X16.06 Y45.215 E.00669
G1 E-1 F3000
G1 X16.06 Y45.215 F90000
G1 X17.83 Y44.026
G1 E1 F3000
G1 F2100
G1 X17.202 Y44.226 E.02342
G1 X16.612 Y44.596 E.02475
G1 X16.168 Y45.062 E.02288
G1 X16.252 Y44.943 E.00518
G1 X16.882 Y44.331 E.03122
G1 X17.746 Y44.036 E.03245
G1 X17.771 Y44.033 E.00089
G1 E-1 F3000
G1 X17.771 Y44.033 F90000
G1 X17.812 Y44.188
G1 X17.909 Y44.166
G1 X18.464 Y44.132
G1 X18.564 Y44.133
G1 X19.109 Y44.236
G1 X19.206 Y44.261
G1 X19.73 Y44.454
G1 X19.828 Y44.497
G1 X20.239 Y44.881
G1 X20.245 Y44.886
G1 X20.05 Y45.082
G1 E1 F3000
;TYPE:External perimeter
G1 F2100
G1 X20.11 Y45.131 E.00275
G1 X20.458 Y45.612 E.0211
G1 X20.663 Y46.13 E.0198
G1 X20.751 Y46.754 E.0224
G1 X20.663 Y47.379 E.02243
G1 X20.458 Y47.897 E.0198
G1 X20.109 Y48.379 E.02115
G1 X19.616 Y48.777 E.02252
G1 X19.116 Y49.012 E.01964
G1 X18.532 Y49.126 E.02115
G1 X17.9 Y49.081 E.02252
G1 X17.374 Y48.91 E.01966
G1 X16.872 Y48.595 E.02106
G1 X16.461 Y48.164 E.02117
G1 X16.171 Y47.644 E.02116
G1 X16.015 Y47.033 E.02241
G1 X16.019 Y46.439 E.02111
G1 X16.158 Y45.899 E.01982
G1 X16.461 Y45.344 E.02247
G1 X16.872 Y44.913 E.02117
G1 X17.375 Y44.598 E.02109
G1 X17.94 Y44.418 E.02108
G1 X18.492 Y44.383 E.01966
G1 X19.115 Y44.496 E.0225
G1 X19.653 Y44.751 E.02116
G1 X20.004 Y45.043 E.01623
G1 X20.262 Y45.349 F90000
G1 E-1 F3000
G1 X20.481 Y45.198 F90000
G1 X20.312 Y44.953
G1 X20.239 Y44.881
G1 X19.828 Y44.497
G1 X19.73 Y44.454
G1 X19.206 Y44.261
G1 X19.109 Y44.236
G1 X18.564 Y44.133
G1 X18.464 Y44.132
G1 X18.459 Y43.977
G1 E1 F3000
;TYPE:Perimeter
G1 F2100
G1 X17.97 Y44.008 E.01741
G1 X18.308 Y43.966 E.01211
G1 X18.4 Y43.973 E.00328
G1 X18.4 Y43.973 F90000
G1 X19.14 Y44.087
G1 F2100
G1 X18.593 Y43.988 E.01976
G1 X18.873 Y44.01 E.00998
G1 X19.082 Y44.07 E.00773
G1 X19.082 Y44.07 F90000
G1 X20.739 Y44.015
G1 F2100
G1 X20.209 Y44.482 E.02511
G1 X20.764 Y45.34 E.03632
G1 X20.41 Y44.851 E.02146
G1 X19.874 Y44.406 E.02476
G1 X19.301 Y44.133 E.02256
G1 X19.677 Y44.242 E.01391
G1 X20.611 Y43.907 E.03527
G1 X20.693 Y43.976 E.00381
G1 X20.693 Y43.976 F90000
G1 X21.096 Y44.242
;TYPE:External perimeter
G1 F2100
G1 X22.936 Y45.801 E.08571
G1 X22.397 Y48.783 E.1077
G1 X20.919 Y49.314 E.05582
G1 X20.677 Y48.984 E.01454
G1 X21.107 Y48.416 E.02532
G1 X21.387 Y47.829 E.02311
G1 X21.542 Y47.197 E.02313
G1 X21.566 Y46.548 E.02308
G1 X21.45 Y45.88 E.0241
G1 X21.223 Y45.3 E.02214
G1 X20.741 Y44.555 E.03154
G1 X21.051 Y44.282 E.01468
G1 X21.39 Y44.494 F90000
G1 X20.827 Y45.438
;TYPE:Perimeter
G1 F2100
G1 X20.859 Y45.487 E.00208
G1 X21.056 Y45.991 E.01923
G1 X21.158 Y46.576 E.02111
G1 X21.153 Y46.691 E.00409
G1 X21.06 Y46.025 E.0239
G1 X20.849 Y45.494 E.02031
G1 X20.849 Y45.494 F90000
G1 X21.147 Y46.864
G1 F2100
G1 X21.137 Y47.141 E.00985
G1 X21.069 Y47.416 E.01007
G1 X21.139 Y46.923 E.0177
G1 X21.139 Y46.923 F90000
G1 X21.041 Y47.531
G1 F2100
G1 X21.001 Y47.691 E.00586
G1 X20.858 Y47.993 E.01188
G1 X21.019 Y47.587 E.01552
G1 X21.019 Y47.587 F90000
G1 X20.794 Y48.127
G1 F2100
G1 X20.758 Y48.204 E.00302
G1 X20.169 Y48.981 E.03465
G1 X20.484 Y49.409 E.01889
G1 X19.556 Y49.743 E.03505
G1 X19.225 Y49.463 E.01541
G1 X18.635 Y49.52 E.02107
G1 X19.244 Y49.402 E.02205
G1 X19.834 Y49.124 E.02318
G1 X20.407 Y48.661 E.02618
G1 X20.759 Y48.175 E.02133
G1 E-1 F3000
G1 X20.759 Y48.175 F90000
G1 X20.901 Y48.246
G1 X20.357 Y48.982
G1 X19.642 Y50.12
G1 X19.098 Y53.128
G1 X21.431 Y55.104
G1 X21.443 Y55.099
G1 X21.436 Y55.078
G1 E1 F3000
;TYPE:External perimeter
G1 F2100
G1 X19.123 Y53.12 E.10771
G1 X19.662 Y50.137 E.10774
G1 X22.353 Y49.171 E.10162
G1 X22.515 Y49.113 E.00612
G1 X24.828 Y51.071 E.10771
G1 X24.289 Y54.054 E.10774
G1 X21.492 Y55.058 E.10562
G1 X21.158 Y54.838 F90000
G1 E-1 F3000
G1 X21.141 Y54.858 F90000
G1 X22.598 Y55.009
G1 X24.412 Y54.358
G1 X26.942 Y56.1
G1 X27.667 Y55.84
G1 X28.108 Y55.708
G1 X28.095 Y55.663
G1 E1 F3000
G1 F2100
G1 X26.946 Y56.075 E.04338
G1 X24.633 Y54.116 E.10773
G1 X25.173 Y51.134 E.10771
G1 X25.373 Y51.062 E.00755
G1 X28.153 Y50.064 E.10498
G1 X28.095 Y55.603 E.19687
G1 X27.74 Y55.787 F90000
G1 E-1 F3000
G1 X27.749 Y55.816 F90000
G1 X28.143 Y55.698
G1 X28.348 Y55.165
G1 X28.352 Y54.751
G1 X28.363 Y53.794
G1 X28.394 Y50.659
G1 X28.176 Y50.032
G1 X28.361 Y49.556
G1 E1 F3000
;TYPE:Perimeter
G1 F2100
G1 X28.556 Y48.481 E.03883
G1 X28.55 Y49.489 E.03583
G1 X28.418 Y49.536 E.00498
G1 E-1 F3000
G1 X28.418 Y49.536 F90000
G1 X28.159 Y49.364
G1 X27.928 Y49.798
G1 X25.472 Y50.678
G1 X25.062 Y50.825
G1 X25.054 Y50.804
G1 E1 F3000
;TYPE:External perimeter
G1 F2100
G1 X22.741 Y48.846 E.10771
G1 X23.281 Y45.863 E.10774
G1 X23.483 Y45.79 E.00763
G1 X26.133 Y44.839 E.10007
G1 X28.175 Y46.567 E.09507
G1 X28.165 Y48.356 E.06358
G1 X27.907 Y49.78 E.05143
G1 X25.111 Y50.784 E.10559
G1 X24.777 Y50.564 F90000
G1 E-1 F3000
G1 X24.76 Y50.584 F90000
G1 X22.717 Y48.854
G1 X23.261 Y45.846
G1 X26.136 Y44.814
G1 X26.877 Y41.585
G1 X26.899 Y41.589
G1 E1 F3000
G1 F2100
G1 X28.181 Y41.129 E.04841
G1 X28.18 Y46.113 E.17714
G1 X26.36 Y44.572 E.08476
G1 X26.888 Y41.648 E.1056
G1 X27.246 Y41.469 F90000
G1 X26.555 Y41.527
G1 F2100
G1 X26.015 Y44.509 E.10771
G1 X23.162 Y45.534 E.10774
G1 X20.849 Y43.575 E.10773
G1 X21.389 Y40.592 E.10774
G1 X24.023 Y39.647 E.09946
G1 X24.241 Y39.568 E.00824
G1 X26.509 Y41.488 E.10561
G1 X26.485 Y41.887 F90000
G1 E-1 F3000
G1 X26.776 Y41.285 F90000
G1 X24.443 Y39.31
G1 X24.908 Y36.743
G1 X24.985 Y36.314
G1 X24.663 Y36.256
G1 E1 F3000
G1 F2100
G1 X24.123 Y39.239 E.10774
G1 X21.27 Y40.263 E.10773
G1 X18.957 Y38.304 E.10773
M73 P0 R68
G1 X19.054 Y37.765 E.01946
G1 X20.698 Y37.214 E.06162
G1 X21.384 Y36.966 E.02593
G1 X22.074 Y36.658 E.02686
G1 X23.254 Y36.06 E.04702
G1 X23.762 Y35.75 E.02115
G1 X23.935 Y35.64 E.00729
G1 X24.617 Y36.217 E.03175
G1 X24.593 Y36.617 F90000
G1 E-1 F3000
G1 X24.92 Y36.676 F90000
G1 X24.443 Y39.31
G1 X26.776 Y41.285
G1 X26.788 Y41.281
G1 X26.781 Y41.26
G1 E1 F3000
G1 F2100
G1 X24.468 Y39.301 E.10773
G1 X25.007 Y36.318 E.10774
G1 X25.21 Y36.246 E.00766
G1 X27.86 Y35.294 E.10008
G1 X28.138 Y35.53 E.01296
G1 X28.181 Y40.757 E.18578
G1 X26.837 Y41.239 E.05075
G1 X26.503 Y41.019 F90000
G1 E-1 F3000
G1 X26.486 Y41.04 F90000
G1 X26.776 Y41.285
G1 X28.227 Y40.791
G1 X28.425 Y40.292
G1 X28.423 Y39.917
G1 X28.408 Y37.64
G1 X28.404 Y37.083
G1 X28.397 Y36.454
G1 X28.393 Y36.131
G1 X28.389 Y35.805
G1 X28.349 Y35.429
G1 X28.042 Y35.327
G1 X28.148 Y35.005
G1 E1 F3000
;TYPE:Perimeter
G1 F2100
G1 X28.481 Y33.166 E.06642
G1 X28.522 Y35.322 E.07664
G1 X28.194 Y35.044 E.01528
G1 E-1 F3000
G1 X28.194 Y35.044 F90000
G1 X27.827 Y34.854
G1 X27.761 Y34.982
G1 X24.884 Y36.014
G1 X24.227 Y35.458
G1 X24.241 Y35.441
G1 E1 F3000
;TYPE:External perimeter
G1 F2100
G1 X25.332 Y34.578 E.04944
G1 X25.88 Y34.178 E.02411
G1 X26.339 Y33.882 E.01941
G1 X26.762 Y33.649 E.01716
G1 X27.221 Y33.423 E.01818
G1 X28.09 Y33.04 E.03375
G1 X27.742 Y34.965 E.06953
G1 X24.889 Y35.989 E.10773
G1 X24.287 Y35.48 E.02802
G1 X24.56 Y35.187 F90000
G1 E-1 F3000
G1 X24.456 Y35.108 F90000
G1 X24.233 Y35.859
G1 X24.687 Y36.247
G1 X24.143 Y39.256
G1 X21.369 Y40.576
G1 X21.288 Y41.016
G1 X21.034 Y42.425
G1 X20.527 Y43.517
G1 X20.505 Y43.513
G1 E1 F3000
G1 F2100
G1 X19.663 Y43.815 E.03179
G1 X18.947 Y43.607 E.0265
G1 X18.298 Y43.556 E.02314
G1 X17.653 Y43.638 E.02311
G1 X16.896 Y43.897 E.02844
G1 X15.338 Y42.578 E.07255
G1 X15.878 Y39.595 E.10774
G1 X16.111 Y39.512 E.00879
G1 X18.731 Y38.571 E.09894
G1 X20.968 Y40.465 E.10418
G1 X20.96 Y40.997 E.01891
G1 X20.515 Y43.454 E.08875
G1 X20.158 Y43.633 F90000
G1 E-1 F3000
G1 X20.242 Y43.72 F90000
G1 X20.086 Y43.873
G1 X19.672 Y44.093
G1 X16.886 Y43.945
G1 X15.117 Y42.82
G1 X13.081 Y43.551
G1 X12.149 Y43.561
G1 X12.141 Y43.54
G1 E1 F3000
G1 F2100
G1 X9.828 Y41.581 E.10773
G1 X10.367 Y38.599 E.1077
G1 X12.29 Y37.909 E.07261
G1 X12.412 Y37.865 E.00461
G1 X13.006 Y38.106 E.02278
G1 X13.365 Y38.235 E.01356
G1 X13.805 Y38.378 E.01644
G1 X14.344 Y38.526 E.01987
G1 X15.534 Y39.533 E.05541
G1 X14.994 Y42.516 E.10774
G1 X12.198 Y43.52 E.10559
G1 X11.864 Y43.3 F90000
G1 X11.915 Y43.807
G1 F2100
G1 X11.376 Y46.79 E.10774
G1 X8.523 Y47.814 E.10773
G1 X8.162 Y47.508 E.01682
G1 X8.599 Y44.494 E.10824
G1 X8.984 Y42.07 E.08723
G1 X9.602 Y41.848 E.02334
G1 X11.869 Y43.768 E.10559
G1 X11.846 Y44.168 F90000
G1 E-1 F3000
G1 X12.172 Y44.227 F90000
G1 X11.742 Y46.604
G1 X11.698 Y46.848
G1 X11.72 Y46.852
G1 E1 F3000
G1 F2100
