; generated by PrusaSlicer 2.7.2+MacOS-arm64 on 2024-03-04 at 02:41:35 UTC


;
;

;
;

;
;

;
;

;
;
; 

; external perimeters extrusion width = 0.45mm
; perimeters extrusion width = 0.45mm
; infill extrusion width = 0.45mm
; solid infill extrusion width = 0.45mm
; top infill extrusion width = 0.40mm
; support material extrusion width = 0.36mm

; external perimeters extrusion width = 0.45mm
; perimeters extrusion width = 0.45mm
; infill extrusion width = 0.45mm
; solid infill extrusion width = 0.45mm
; top infill extrusion width = 0.40mm
; support material extrusion width = 0.36mm

M73 P0 R72

EXCLUDE_OBJECT_DEFINE NAME='Bugout_Scale_Honeycomb_right' CENTER=25.967,153.038 POLYGON=[[25.760,99.053],[29.270,99.246],[32.670,99.916],[35.569,100.759],[37.080,101.391],[38.598,102.139],[39.999,102.923],[40.421,103.313],[40.805,104.137],[41.403,105.888],[41.713,107.373],[41.688,108.112],[41.468,108.686],[40.093,110.615],[37.632,115.464],[36.687,117.865],[36.111,120.180],[35.707,122.807],[35.424,125.849],[35.344,127.919],[35.400,131.503],[35.684,136.082],[35.852,137.779],[36.663,143.162],[37.126,146.812],[37.592,153.354],[37.597,159.029],[37.358,170.711],[37.397,175.601],[37.143,182.133],[37.318,187.577],[37.612,190.471],[38.049,193.373],[39.350,198.192],[39.925,199.601],[39.983,200.360],[39.939,200.924],[39.406,204.067],[39.075,204.619],[38.458,205.236],[36.454,206.446],[32.867,208.179],[30.007,208.986],[28.632,209.126],[26.555,209.113],[24.666,208.923],[22.721,208.415],[19.384,207.261],[18.369,206.608],[18.056,206.303],[17.262,204.868],[16.883,203.877],[16.703,203.118],[16.482,200.185],[15.368,190.451],[14.208,172.649],[13.517,157.526],[13.352,143.711],[13.385,133.653],[13.716,120.830],[14.308,107.161],[14.370,101.953],[14.530,101.519],[15.284,100.630],[15.544,100.474],[16.286,100.247],[20.483,99.404],[21.668,99.237],[23.697,99.073]]
EXCLUDE_OBJECT_DEFINE NAME='Bugout_Scale_Honeycomb_left' CENTER=98.541,65.265 POLYGON=[[99.563,9.135],[101.157,9.403],[103.444,10.032],[106.651,11.448],[108.707,12.568],[109.350,13.156],[109.705,13.693],[110.377,16.809],[110.446,17.371],[110.422,18.131],[109.910,19.565],[108.824,24.437],[108.516,27.355],[108.350,30.260],[108.417,35.706],[108.959,42.220],[109.137,47.107],[109.893,58.767],[110.140,64.437],[109.965,70.993],[109.664,74.660],[109.092,80.074],[109.000,81.776],[108.919,86.364],[109.021,89.947],[109.193,92.011],[109.610,95.038],[110.131,97.644],[110.808,99.931],[111.859,102.288],[114.532,107.023],[115.992,108.890],[116.236,109.453],[116.294,110.190],[116.051,111.687],[115.531,113.463],[115.184,114.303],[114.944,114.579],[114.336,115.008],[111.931,116.372],[110.450,117.070],[109.016,117.605],[104.930,118.728],[102.565,119.072],[98.664,119.281],[95.439,119.092],[90.701,118.318],[90.191,118.098],[89.981,117.920],[89.398,117.243],[89.219,116.816],[88.891,111.156],[87.801,98.866],[87.250,91.715],[86.592,80.590],[85.931,62.634],[85.860,58.116],[85.901,48.768],[86.294,28.361],[86.976,18.588],[87.066,15.647],[87.359,14.395],[87.761,13.378],[88.408,12.236],[89.285,11.544],[89.931,11.219],[93.364,9.900],[94.764,9.496],[96.994,9.190]]

;TYPE:Custom
CALCULATE_PA MATERIAL=PLA BOWDEN_LENGTH=6 LAYER_HEIGHT=0.2 NOZZLE_SIZE=0.4 PRINT_SPEED=0


START_PRINT EXTRUDER=210 BED=65
G21 ; set units to millimeters
G90 ; use absolute coordinates
M83 ; use relative distances for extrusion
; Filament gcode
M107
;LAYER_CHANGE
;Z:0.2
;HEIGHT:0.2
G1 E-2 F3000
EXCLUDE_OBJECT_START NAME='Bugout_Scale_Honeycomb_right'
G1 Z.2 F60000
G1 X28.2 Y206.181
G1 Z.2
G1 E2 F3000
;TYPE:Support material interface
;WIDTH:0.36
G1 F2400
G1 X28.175 Y205.786 E.01044
G1 X27.732 Y205.343 E.01652
G1 X27.996 Y204.888 E.01387
G1 X28.398 Y205.29 E.01499
G1 X28.519 Y205.149 E.0049
G1 X28.795 Y204.968 E.0087
G1 X28.375 Y204.548 E.01566
G1 X28.893 Y204.346 E.01466
G1 X29.415 Y204.869 E.01948
G1 X29.738 Y204.989 E.00908
G1 X29.964 Y205.149 E.0073
G1 X30.182 Y205.433 E.00944
G1 X30.301 Y205.755 E.00905
G1 X30.825 Y206.278 E.01952
G1 X30.862 Y205.739 E.01424
G1 X30.817 Y205.552 E.00507
G1 X29.611 Y204.345 E.04499
G1 X29.966 Y204.47 E.00992
G1 X29.966 Y204.47 F60000
G1 X29.382 Y205.203
;TYPE:Support material
G1 F2400
G1 X29.621 Y205.308 E.00688
G1 X29.863 Y205.549 E.009
G1 X29.967 Y205.788 E.00687
G1 X29.978 Y206.015 E.00599
G1 X29.881 Y206.277 E.00737
G1 X29.743 Y206.457 E.00598
G1 X29.382 Y206.655 E.01086
G1 X29.155 Y206.665 E.00599
G1 X28.893 Y206.569 E.00736
G1 X28.714 Y206.431 E.00596
G1 X28.516 Y206.07 E.01086
G1 X28.505 Y205.843 E.00599
G1 X28.602 Y205.581 E.00737
G1 X28.74 Y205.401 E.00598
G1 X29.101 Y205.203 E.01086
G1 X29.336 Y205.194 E.0062
G1 X29.336 Y205.194 F60000
G1 X29.518 Y206.444
G1 F2400
G1 X29.518 Y205.588 E.02257
G1 X29.299 Y205.478 E.00646
G1 X29.184 Y205.478 E.00303
G1 X29.121 Y205.504 E.0018
G1 X29.121 Y206.509 E.0265
G1 X29.121 Y206.509 F60000
G1 X29.07 Y207.546
;TYPE:Support material interface
G1 F2400
G1 X28.73 Y207.478 E.00914
G1 X28.397 Y207.322 E.0097
G1 X28.049 Y207.043 E.01176
G1 X27.811 Y206.714 E.01071
G1 X27.661 Y206.335 E.01075
G1 X27.611 Y205.941 E.01047
G1 X29.223 Y207.553 E.06011
G1 X29.536 Y207.534 E.00827
G1 X29.83 Y207.441 E.00813
G1 X29.384 Y206.995 E.01663
G1 X29.881 Y206.773 E.01435
G1 X30.288 Y207.18 E.01518
G1 X30.571 Y206.874 E.01099
G1 X30.617 Y206.79 E.00253
G1 X30.202 Y206.375 E.01547
G1 X30.288 Y206.167 E.00593
G1 X30.312 Y205.908 E.00686
G1 E-2 F3000
G1 X30.312 Y205.908 F60000
G1 X28.894 Y203.212
G1 X28.699 Y202.842
G1 X27.673 Y200.891
G1 E2 F3000
;TYPE:Support material
G1 F2400
G1 X28.211 Y201.45 E.02046
G1 X28.587 Y201.706 E.01199
G1 X28.178 Y201.773 E.01093
G1 X27.456 Y202.028 E.02019
G1 X26.625 Y202.54 E.02573
G1 X26.196 Y201.868 E.02102
G1 X27.558 Y200.715 E.04705
G1 X27.647 Y200.851 E.00429
G1 X27.647 Y200.851 F60000
G1 X27.536 Y201.849
G1 F2400
G1 X27.536 Y201.176 E.01774
G1 X27.501 Y201.137 E.00138
G1 X27.14 Y201.444 E.01249
G1 X27.14 Y201.877 E.01142
G1 X26.743 Y202.11 E.01214
G1 X26.743 Y201.592 E.01366
G1 E-2 F3000
G1 X26.743 Y201.592 F60000
G1 X26.218 Y200.356
G1 X24.472 Y198.901
G1 X24.121 Y198.445
G1 X23.901 Y197.913
G1 X23.826 Y197.342
G1 X23.895 Y195.518
G1 X23.169 Y192.194
G1 X20.39 Y190.878
G1 X19.845 Y187.866
G1 X21.987 Y185.66
G1 X21.442 Y182.649
G1 X18.562 Y181.615
G1 X17.596 Y180.065
G1 X17.094 Y178.884
G1 E2 F3000
;TYPE:Support material interface
G1 F2400
G1 X16.024 Y177.815 E.03988
G1 X15.941 Y177.327 E.01305
G1 X15.976 Y177.047 E.00744
G1 X16.548 Y177.619 E.02133
G1 X16.793 Y178.049 E.01305
G1 X17.007 Y178.227 E.00734
G1 X17.28 Y178.351 E.00791
G1 X17.861 Y178.932 E.02166
G1 X18.381 Y178.733 E.01468
G1 X17.96 Y178.312 E.0157
G1 X18.139 Y178.227 E.00522
G1 X18.38 Y178.013 E.0085
G1 X18.778 Y178.411 E.01484
G1 X19.064 Y177.978 E.01368
G1 X18.625 Y177.539 E.01637
G1 X18.638 Y177.182 E.00942
G1 X18.638 Y177.182 F60000
G1 X17.714 Y176.601
;TYPE:Support material
G1 F2400
G1 X17.953 Y176.706 E.00688
G1 X18.194 Y176.947 E.00899
G1 X18.298 Y177.186 E.00687
G1 X18.309 Y177.413 E.00599
G1 X18.212 Y177.675 E.00737
G1 X18.074 Y177.855 E.00598
G1 X17.714 Y178.052 E.01082
G1 X17.486 Y178.063 E.00602
G1 X17.225 Y177.967 E.00733
G1 X17.045 Y177.829 E.00598
G1 X16.847 Y177.468 E.01086
G1 X16.836 Y177.241 E.00599
G1 X16.933 Y176.979 E.00737
G1 X17.071 Y176.799 E.00598
G1 X17.432 Y176.601 E.01086
G1 X17.667 Y176.592 E.0062
G1 X18.023 Y177.695 F60000
G1 F2400
G1 X18.023 Y177.268 E.01126
G1 X17.956 Y177.106 E.00462
G1 X17.794 Y176.944 E.00604
G1 X17.631 Y176.876 E.00466
G1 X17.627 Y177.778 E.02378
G1 X17.515 Y177.778 E.00295
G1 X17.26 Y177.64 E.00764
G1 X17.231 Y176.856 E.02068
G1 X17.231 Y176.856 F60000
G1 X16.507 Y177.472
;TYPE:Support material interface
G1 F2400
G1 X16.502 Y177.208 E.00696
G1 X16.587 Y176.94 E.00741
G1 X16.162 Y176.514 E.01587
G1 X16.489 Y176.122 E.01346
G1 X16.886 Y176.519 E.0148
G1 X17.361 Y176.275 E.01408
G1 X16.927 Y175.841 E.01618
G1 X17.46 Y175.699 E.01454
G1 X19.193 Y177.388 E.0638
G1 X19.19 Y177.109 E.00736
G1 X19.095 Y176.741 E.01002
G1 X18.902 Y176.382 E.01075
G1 X18.556 Y176.032 E.01298
G1 X18.255 Y175.845 E.00934
G1 E-2 F3000
G1 X18.255 Y175.845 F60000
G1 X16.38 Y178.441
G1 E2 F3000
G1 F2400
G1 X16.691 Y178.699 E.01065
G1 E-2 F3000
G1 X16.691 Y178.699 F60000
G1 X17.542 Y174.585
G1 X19.113 Y174.598
G1 X19.681 Y174.508
G1 X19.936 Y174.323
G1 X19.716 Y173.104
G1 X16.937 Y171.788
G1 X16.424 Y170.919
G1 X16.276 Y170.098
G1 X16.218 Y169.684
G1 X16.392 Y168.777
G1 X18.829 Y166.518
G1 X18.284 Y163.506
G1 X20.426 Y161.3
G1 X20.176 Y158.236
G1 X22.318 Y156.03
G1 X21.88 Y153.606
G1 X22.214 Y152.449
G1 X24.21 Y150.759
G1 X24.04 Y149.818
G1 X23.747 Y148.197
G1 X22.969 Y148.337
G1 E2 F3000
;TYPE:Support material
G1 F2400
G1 X23.351 Y150.451 E.05664
G1 X21.712 Y151.839 E.05663
G1 X19.829 Y151.163 E.05275
G1 X19.613 Y150.685 E.01383
G1 X19.309 Y148.999 E.04517
G1 X20.948 Y147.612 E.05661
G1 X22.924 Y148.321 E.05535
G1 X22.924 Y148.321 F60000
G1 X22.78 Y150.748
G1 F2400
G1 X22.78 Y148.893 E.04891
G1 X22.718 Y148.55 E.00919
G1 X22.383 Y148.43 E.00938
G1 X22.383 Y150.896 E.06502
G1 X21.987 Y151.232 E.01369
G1 X21.987 Y148.288 E.07762
G1 X21.591 Y148.146 E.01109
G1 X21.591 Y151.492 E.08822
G1 X21.194 Y151.349 E.01113
G1 X21.194 Y148.003 E.08822
G1 X21.006 Y147.936 E.00526
G1 X20.798 Y148.112 E.00718
G1 X20.798 Y151.207 E.0816
G1 X20.402 Y151.065 E.01109
G1 X20.402 Y148.448 E.069
G1 X20.005 Y148.783 E.0137
G1 X20.005 Y151.074 E.0604
G1 E-2 F3000
G1 X20.005 Y151.074 F60000
G1 X23.953 Y149.335
G1 X23.96 Y147.694
G1 X24.125 Y147.234
G1 X26.67 Y146.738
G1 X26.928 Y146.539
G1 X27.116 Y146.426
G1 X27.576 Y146.169
G1 X28.415 Y146.478
G1 X28.747 Y146.597
G1 X28.48 Y147.34
G1 E2 F3000
G1 F2400
G1 X28.862 Y149.454 E.05664
G1 X27.223 Y150.842 E.05663
G1 X25.201 Y150.116 E.05664
G1 X24.882 Y148.349 E.04734
G1 X25.612 Y148.29 E.01931
G1 X26.364 Y148.081 E.02058
G1 X27.017 Y147.756 E.01923
G1 X27.563 Y147.35 E.01794
G1 X27.803 Y147.097 E.00919
G1 X28.435 Y147.324 E.01771
G1 X28.435 Y147.324 F60000
G1 X28.329 Y149.719
G1 F2400
G1 X28.329 Y148.108 E.04247
G1 X28.228 Y147.553 E.01487
G1 X27.932 Y147.447 E.00829
G1 X27.932 Y149.867 E.0638
G1 X27.536 Y150.203 E.01369
G1 X27.536 Y147.726 E.06531
G1 X27.14 Y148.016 E.01294
G1 X27.14 Y150.509 E.06573
G1 X26.743 Y150.366 E.01113
G1 X26.743 Y148.213 E.05676
G1 X26.347 Y148.387 E.0114
G1 X26.347 Y150.224 E.04843
G1 X25.95 Y150.082 E.01112
G1 X25.95 Y148.497 E.04179
G1 X25.554 Y148.582 E.01068
G1 X25.554 Y150.091 E.03979
G1 E-2 F3000
G1 X25.554 Y150.091 F60000
G1 X25.43 Y147.275
G1 X25.417 Y146.974
G1 X25.233 Y142.806
G1 E2 F3000
G1 F2400
G1 X25.616 Y142.93 E.01061
G1 X25.956 Y143.146 E.01062
G1 X26.231 Y143.439 E.01059
G1 X26.425 Y143.793 E.01064
G1 X26.526 Y144.183 E.01062
G1 X26.526 Y144.585 E.0106
G1 X26.425 Y144.975 E.01062
G1 X26.231 Y145.329 E.01064
G1 X25.956 Y145.622 E.01059
G1 X25.616 Y145.838 E.01062
G1 X25.233 Y145.962 E.01061
G1 X24.831 Y145.988 E.01062
G1 X24.435 Y145.912 E.01063
G1 X24.071 Y145.741 E.0106
G1 X23.761 Y145.484 E.01062
G1 X23.524 Y145.158 E.01063
G1 X23.376 Y144.784 E.0106
G1 X23.325 Y144.384 E.01063
G1 X23.376 Y143.984 E.01063
G1 X23.524 Y143.61 E.0106
G1 X23.761 Y143.284 E.01063
G1 X24.071 Y143.027 E.01062
G1 X24.435 Y142.856 E.0106
G1 X24.831 Y142.78 E.01063
G1 X25.185 Y142.803 E.00935
G1 X25.185 Y142.803 F60000
G1 X25.95 Y145.419
G1 F2400
G1 X25.95 Y143.557 E.04909
G1 X25.772 Y143.368 E.00685
G1 X25.554 Y143.229 E.00682
G1 X25.554 Y145.539 E.0609
G1 X25.158 Y145.681 E.01109
G1 X25.158 Y143.087 E.06839
G1 X24.849 Y143.068 E.00816
G1 X24.761 Y143.084 E.00236
M73 P0 R71
G1 X24.761 Y145.684 E.06855
G1 X24.365 Y145.564 E.01091
G1 X24.365 Y143.204 E.06222
G1 X23.969 Y143.483 E.01277
G1 X23.969 Y145.471 E.05241
G1 E-2 F3000
G1 X23.969 Y145.471 F60000
G1 X22.864 Y142.765
G1 X22.917 Y142.137
G1 X21.939 Y138.203
G1 X21.521 Y138.053
G1 X21.51 Y138.049
G1 X21.243 Y138.793
G1 E2 F3000
G1 F2400
G1 X21.625 Y140.906 E.05661
G1 X19.986 Y142.294 E.05663
G1 X18.02 Y141.588 E.05507
G1 X18.057 Y139.053 E.06684
G1 X19.221 Y138.067 E.04022
G1 X21.198 Y138.777 E.05538
G1 X21.198 Y138.777 F60000
G1 X21.194 Y141.084
G1 F2400
G1 X21.194 Y140.129 E.02518
G1 X20.991 Y139.006 E.03009
G1 X20.798 Y138.936 E.00541
G1 X20.798 Y141.232 E.06053
G1 X20.402 Y141.568 E.01369
G1 X20.402 Y138.794 E.07314
G1 X20.005 Y138.652 E.01112
G1 X20.005 Y141.904 E.08574
G1 X19.927 Y141.97 E.00269
G1 X19.609 Y141.855 E.00892
G1 X19.609 Y138.509 E.08822
G1 X19.28 Y138.391 E.00922
G1 X19.213 Y138.448 E.00232
G1 X19.213 Y141.713 E.08608
G1 X18.816 Y141.571 E.01112
G1 X18.816 Y138.784 E.07348
G1 X18.42 Y139.119 E.01368
G1 X18.42 Y141.58 E.06488
G1 E-2 F3000
G1 X18.42 Y141.58 F60000
G1 X19.171 Y137.21
G1 X19.223 Y136.91
G1 X19.663 Y134.35
G1 E2 F3000
G1 F2400
G1 X21.629 Y135.303 E.0576
G1 X23.245 Y135.866 E.04512
G1 X21.878 Y137.023 E.04722
G1 X19.856 Y136.298 E.05663
G1 X19.485 Y134.244 E.05503
G1 X19.622 Y134.325 E.0042
G1 X19.622 Y134.325 F60000
G1 X22.383 Y136.408
G1 F2400
G1 X22.383 Y135.877 E.014
G1 X21.987 Y135.739 E.01106
G1 X21.987 Y136.557 E.02157
G1 X21.819 Y136.699 E.0058
G1 X21.591 Y136.617 E.00639
G1 X21.591 Y135.593 E.027
G1 X21.194 Y135.426 E.01136
G1 X21.194 Y136.475 E.02766
G1 X20.798 Y136.332 E.0111
G1 X20.798 Y135.245 E.02866
G1 X20.402 Y135.046 E.01168
G1 X20.402 Y136.19 E.03016
G1 X20.108 Y136.085 E.00823
G1 X20.005 Y135.517 E.01522
G1 X20.005 Y134.684 E.02196
G1 E-2 F3000
G1 X20.005 Y134.684 F60000
G1 X24.412 Y135.444
G1 X28.41 Y136.134
G1 X32.264 Y136.799
G1 E2 F3000
G1 F2400
G1 X32.646 Y138.913 E.05664
G1 X31.007 Y140.3 E.05661
G1 X28.985 Y139.575 E.05663
G1 X28.603 Y137.461 E.05664
G1 X29.327 Y136.848 E.02501
G1 X30.915 Y136.315 E.04416
G1 X32.219 Y136.783 E.03653
G1 X32.292 Y139.025 F60000
G1 F2400
G1 X32.292 Y138.559 E.01229
G1 X32.012 Y137.012 E.04145
G1 X31.896 Y136.97 E.00325
G1 X31.896 Y139.174 E.05811
G1 X31.499 Y139.509 E.0137
G1 X31.499 Y136.828 E.07069
G1 X31.103 Y136.686 E.01109
G1 X31.103 Y139.845 E.08329
G1 X30.948 Y139.976 E.00535
G1 X30.707 Y139.889 E.00676
G1 X30.707 Y136.705 E.08395
G1 X30.31 Y136.848 E.01113
G1 X30.31 Y139.747 E.07643
G1 X29.914 Y139.605 E.01109
G1 X29.914 Y136.977 E.06929
G1 X29.518 Y137.092 E.01087
G1 X29.518 Y139.463 E.06251
G1 X29.237 Y139.362 E.00787
G1 X29.121 Y138.722 E.01715
G1 X29.121 Y137.21 E.03986
G1 E-2 F3000
G1 X29.121 Y137.21 F60000
G1 X32.519 Y140.056
G1 X32.752 Y140.251
G1 X33.767 Y141.101
G1 E2 F3000
G1 F2400
G1 X34.271 Y144.447 E.08921
G1 X32.604 Y143.849 E.04669
G1 X32.222 Y141.735 E.05664
G1 X33.674 Y140.506 E.05015
G1 X33.76 Y141.054 E.01463
G1 X33.76 Y141.054 F60000
G1 X33.877 Y144.154
G1 F2400
G1 X33.877 Y143.725 E.01131
G1 X33.481 Y141.119 E.0695
G1 X33.481 Y143.86 E.07227
G1 X33.085 Y143.718 E.01109
G1 X33.085 Y141.378 E.06169
G1 X32.688 Y141.714 E.01371
G1 X32.688 Y143.514 E.04746
G1 E-2 F3000
G1 X32.688 Y143.514 F60000
G1 X33.352 Y144.957
G1 X34.21 Y145.583
G1 X34.257 Y145.6
G1 X33.99 Y146.344
G1 E2 F3000
G1 F2400
G1 X34.373 Y148.457 E.05662
G1 X32.733 Y149.845 E.05665
G1 X30.712 Y149.119 E.05662
G1 X30.33 Y147.006 E.05661
G1 X31.969 Y145.618 E.05663
G1 X33.945 Y146.328 E.05536
G1 X33.945 Y146.328 F60000
G1 X33.877 Y148.689
G1 F2400
G1 X33.877 Y147.323 E.03601
G1 X33.739 Y146.557 E.02052
G1 X33.481 Y146.464 E.00723
G1 X33.481 Y148.838 E.06259
G1 X33.085 Y149.174 E.01369
G1 X33.085 Y146.322 E.07519
G1 X32.688 Y146.18 E.01112
G1 X32.675 Y149.521 E.08809
G1 X32.292 Y149.383 E.01073
G1 X32.292 Y146.037 E.08822
G1 X32.027 Y145.942 E.00742
G1 X31.896 Y146.054 E.00454
G1 X31.896 Y149.241 E.08403
G1 X31.499 Y149.099 E.01112
G1 X31.499 Y146.389 E.07145
G1 X31.103 Y146.725 E.01369
G1 X31.103 Y148.956 E.05882
G1 X30.963 Y148.906 E.00392
G1 X30.707 Y147.487 E.03802
G1 X30.707 Y146.874 E.01616
G1 E-2 F3000
G1 X30.707 Y146.874 F60000
G1 X30.571 Y145.766
G1 X31.613 Y144.491
G1 X31.068 Y141.48
G1 X28.289 Y140.164
G1 X27.744 Y137.153
G1 X26.75 Y114.627
G1 X26.599 Y113.396
G1 E2 F3000
;TYPE:Support material interface
G1 F2400
G1 X26.153 Y113.155 E.01337
G1 X25.123 Y112.125 E.0384
G1 X24.865 Y111.619 E.01497
G1 X24.689 Y110.972 E.01768
G1 X27.32 Y113.603 E.0981
G1 X27.69 Y113.656 E.00985
