; generated by PrusaSlicer 2.7.2+MacOS-arm64 on 2024-03-05 at 01:56:48 UTC


;
;

;
;

;
;

;
;

;
;
; 

; external perimeters extrusion width = 0.45mm
; perimeters extrusion width = 0.45mm
; infill extrusion width = 0.45mm
; solid infill extrusion width = 0.45mm
; top infill extrusion width = 0.40mm

; external perimeters extrusion width = 0.45mm
; perimeters extrusion width = 0.45mm
; infill extrusion width = 0.45mm
; solid infill extrusion width = 0.45mm
; top infill extrusion width = 0.40mm

M73 P0 R72

EXCLUDE_OBJECT_DEFINE NAME='Bugout_Scale_Honeycomb_right' CENTER=22.485,60.239 POLYGON=[[22.278,6.254],[25.788,6.447],[29.188,7.116],[32.087,7.960],[33.598,8.592],[35.116,9.340],[36.517,10.124],[36.939,10.514],[37.323,11.338],[37.921,13.089],[38.230,14.574],[38.205,15.313],[37.986,15.886],[36.611,17.816],[34.150,22.664],[33.205,25.066],[32.629,27.381],[32.224,30.008],[31.942,33.050],[31.861,35.120],[31.918,38.703],[32.202,43.283],[32.369,44.980],[33.181,50.363],[33.644,54.013],[34.110,60.555],[34.114,66.230],[33.876,77.912],[33.915,82.802],[33.661,89.334],[33.836,94.777],[34.130,97.672],[34.567,100.574],[35.868,105.393],[36.443,106.802],[36.501,107.561],[36.457,108.125],[35.924,111.268],[35.593,111.820],[34.976,112.437],[32.972,113.647],[29.385,115.380],[26.525,116.187],[25.150,116.327],[23.072,116.313],[21.183,116.123],[19.239,115.616],[15.902,114.462],[14.886,113.809],[14.574,113.504],[13.780,112.069],[13.401,111.077],[13.221,110.319],[13.000,107.385],[11.886,97.652],[10.726,79.850],[10.035,64.727],[9.870,50.911],[9.903,40.854],[10.234,28.031],[10.826,14.362],[10.888,9.154],[11.048,8.719],[11.802,7.831],[12.062,7.675],[12.804,7.448],[17.001,6.605],[18.186,6.438],[20.215,6.273]]
EXCLUDE_OBJECT_DEFINE NAME='Bugout_Scale_Honeycomb_right' CENTER=83.825,148.445 POLYGON=[[83.618,94.460],[87.128,94.653],[90.528,95.323],[93.427,96.166],[94.938,96.798],[96.456,97.546],[97.857,98.330],[98.279,98.720],[98.663,99.544],[99.261,101.295],[99.571,102.780],[99.546,103.519],[99.326,104.092],[97.951,106.022],[95.490,110.871],[94.545,113.272],[93.969,115.587],[93.564,118.214],[93.282,121.256],[93.201,123.326],[93.258,126.909],[93.542,131.489],[93.709,133.186],[94.521,138.569],[94.984,142.219],[95.450,148.761],[95.454,154.436],[95.216,166.118],[95.255,171.008],[95.001,177.540],[95.176,182.983],[95.470,185.878],[95.907,188.780],[97.208,193.599],[97.783,195.008],[97.841,195.767],[97.797,196.331],[97.264,199.474],[96.933,200.026],[96.316,200.643],[94.312,201.853],[90.725,203.586],[87.865,204.393],[86.490,204.533],[84.412,204.519],[82.523,204.329],[80.579,203.822],[77.242,202.668],[76.227,202.015],[75.914,201.710],[75.120,200.275],[74.741,199.284],[74.561,198.525],[74.340,195.592],[73.226,185.858],[72.066,168.056],[71.375,152.933],[71.210,139.118],[71.243,129.060],[71.574,116.237],[72.166,102.568],[72.228,97.360],[72.388,96.925],[73.142,96.037],[73.402,95.881],[74.144,95.654],[78.341,94.811],[79.526,94.644],[81.555,94.479]]

;TYPE:Custom
CALCULATE_PA MATERIAL=PLA BOWDEN_LENGTH=6 LAYER_HEIGHT=0.2 NOZZLE_SIZE=0.4 PRINT_SPEED=0


START_PRINT EXTRUDER=230 BED=65
G21 ; set units to millimeters
G90 ; use absolute coordinates
M83 ; use relative distances for extrusion
; Filament gcode
M107
;LAYER_CHANGE
;Z:0.2
;HEIGHT:0.2
G1 E-1 F3000
EXCLUDE_OBJECT_START NAME='Bugout_Scale_Honeycomb_right'
G1 Z.2 F90000
G1 X88.738 Y151.721
G1 Z.2
G1 E1 F3000
;TYPE:External perimeter
;WIDTH:0.45
G1 F1800
G1 X89.278 Y154.704 E.10774
G1 X86.964 Y156.662 E.10773
G1 X84.112 Y155.638 E.1077
G1 X83.572 Y152.656 E.10771
G1 X83.736 Y152.517 E.00764
G1 X85.885 Y150.697 E.10009
G1 X88.682 Y151.701 E.10562
G1 X88.8 Y152.083 F90000
G1 E-1 F3000
G1 X80.375 Y151.694 F90000
G1 E1 F3000
G1 F1800
G1 X83.228 Y152.718 E.10773
G1 X83.767 Y155.701 E.10774
G1 X81.454 Y157.659 E.10771
G1 X78.601 Y156.635 E.10773
G1 X78.061 Y153.652 E.10774
G1 X78.226 Y153.513 E.00767
G1 X80.329 Y151.733 E.09792
G1 X80.719 Y151.822 F90000
G1 E-1 F3000
G1 X80.173 Y151.435 F90000
G1 X77.84 Y153.411
G1 X75.385 Y152.529
G1 X74.975 Y152.382
G1 X74.864 Y152.691
G1 E1 F3000
G1 F1800
G1 X77.717 Y153.715 E.10773
G1 X78.257 Y156.697 E.10771
G1 X75.943 Y158.656 E.10776
G1 X73.326 Y157.716 E.09883
G1 X73.242 Y155.957 E.06259
G1 X73.181 Y154.116 E.06547
G1 X73.31 Y154.006 E.00603
G1 X74.818 Y152.729 E.07023
G1 X75.208 Y152.818 F90000
G1 E-1 F3000
G1 X75.217 Y152.794 F90000
G1 X74.86 Y152.665
G1 X73.514 Y153.774
G1 X73.283 Y153.893
G1 X73.168 Y153.668
G1 E1 F3000
G1 F1800
G1 X73.107 Y150.989 E.09524
G1 X73.073 Y149.073 E.06811
G1 X74.099 Y149.441 E.03874
G1 X74.638 Y152.424 E.10774
G1 X73.213 Y153.63 E.06635
G1 X73.153 Y153.234 F90000
G1 E-1 F3000
G1 X73.092 Y153.266 F90000
G1 X73.138 Y153.354
G1 X73.423 Y153.482
G1 X74.662 Y152.432
G1 X74.159 Y149.649
G1 X74.121 Y149.437
G1 X74.443 Y149.379
G1 E1 F3000
G1 F1800
G1 X74.607 Y149.24 E.00764
G1 X76.756 Y147.42 E.10009
G1 X79.609 Y148.444 E.10773
G1 X80.149 Y151.427 E.10774
G1 X77.835 Y153.385 E.10773
G1 X74.982 Y152.361 E.10773
G1 X74.454 Y149.438 E.10557
G1 X74.726 Y149.144 F90000
G1 E-1 F3000
G1 X74.709 Y149.124 F90000
G1 X76.752 Y147.394
G1 X80.044 Y148.276
G1 X82.262 Y146.398
G1 X85.139 Y147.431
G1 X85.142 Y147.443
G1 X85.12 Y147.447
G1 E1 F3000
G1 F1800
G1 X85.659 Y150.43 E.10774
G1 X83.346 Y152.389 E.10773
G1 X80.493 Y151.364 E.10774
G1 X79.954 Y148.382 E.1077
G1 X80.118 Y148.243 E.00764
G1 X82.267 Y146.423 E.10009
G1 X85.063 Y147.427 E.10559
G1 X85.181 Y147.809 F90000
G1 E-1 F3000
G1 X85.207 Y147.804 F90000
G1 X85.984 Y150.384
G1 X88.366 Y151.239
G1 X89.138 Y152.091
G1 X89.602 Y154.658
G1 X92.48 Y155.691
G1 X92.49 Y155.683
G1 X92.475 Y155.666
G1 E1 F3000
G1 F1800
G1 X89.622 Y154.642 E.10773
G1 X89.083 Y151.659 E.10774
G1 X89.247 Y151.52 E.00764
G1 X91.396 Y149.7 E.10009
G1 X93.695 Y150.525 E.08681
G1 X93.676 Y154.649 E.14657
G1 X92.521 Y155.627 E.05379
G1 X92.131 Y155.538 F90000
G1 E-1 F3000
G1 X92.019 Y155.85 F90000
G1 X92.377 Y155.978
G1 X92.907 Y158.534
G1 X92.921 Y158.986
G1 X93.575 Y159.407
G1 E1 F3000
G1 F1800
G1 X93.452 Y164.941 E.19673
G1 X91.349 Y164.186 E.07941
G1 X90.809 Y161.203 E.10774
G1 X90.973 Y161.064 E.00764
G1 X93.122 Y159.245 E.10007
G1 X93.519 Y159.387 E.01499
G1 X93.564 Y159.785 F90000
G1 X93.244 Y158.612
;TYPE:Perimeter
G1 F1800
G1 X93.99 Y158.554 E.02659
G1 X93.976 Y159.119 E.02009
G1 X93.291 Y158.873 E.02587
G1 X93.254 Y158.671 E.0073
G1 X93.254 Y158.671 F90000
G1 X93.114 Y158.213
;TYPE:External perimeter
G1 F1800
G1 X92.701 Y155.933 E.08235
G1 X93.671 Y155.111 E.04519
G1 X93.608 Y158.175 E.10892
G1 X93.174 Y158.209 E.01547
G1 X93.046 Y157.83 F90000
G1 X92.896 Y158.978
G1 F1800
G1 X90.583 Y160.936 E.10771
G1 X87.73 Y159.912 E.10773
G1 X87.191 Y156.93 E.1077
G1 X87.355 Y156.79 E.00766
G1 X89.504 Y154.971 E.10007
G1 X92.357 Y155.995 E.10773
G1 X92.886 Y158.919 E.10561
G1 X92.614 Y159.212 F90000
G1 E-1 F3000
G1 X92.631 Y159.232 F90000
G1 X90.588 Y160.962
G1 X87.607 Y160.216
G1 X85.956 Y161.614
G1 X85.087 Y161.95
G1 X85.072 Y161.933
G1 E1 F3000
G1 F1800
G1 X82.22 Y160.909 E.1077
G1 X81.68 Y157.926 E.10774
G1 X81.844 Y157.787 E.00764
G1 X83.993 Y155.968 E.10007
G1 X86.846 Y156.992 E.10773
G1 X87.386 Y159.975 E.10774
G1 X85.118 Y161.894 E.10559
G1 X84.728 Y161.805 F90000
G1 E-1 F3000
G1 X85.274 Y162.191 F90000
G1 X85.818 Y165.2
G1 X88.696 Y166.232
G1 X91.029 Y164.257
G1 X91.026 Y164.244
G1 X91.004 Y164.248
G1 E1 F3000
G1 F1800
G1 X88.691 Y166.207 E.10773
G1 X85.838 Y165.183 E.10773
G1 X85.299 Y162.2 E.10774
G1 X85.463 Y162.061 E.00764
G1 X87.612 Y160.242 E.10007
G1 X90.465 Y161.266 E.10773
G1 X90.994 Y164.189 E.10557
G1 X90.722 Y164.483 F90000
G1 E-1 F3000
G1 X90.739 Y164.503 F90000
G1 X88.696 Y166.232
G1 X85.818 Y165.2
G1 X84.974 Y162.246
G1 X82.097 Y161.213
G1 X79.764 Y163.188
G1 X79.766 Y163.201
G1 X79.788 Y163.197
G1 E1 F3000
G1 F1800
G1 X79.952 Y163.058 E.00764
G1 X82.101 Y161.238 E.10009
G1 X84.954 Y162.263 E.10774
G1 X85.494 Y165.245 E.10771
G1 X83.18 Y167.204 E.10776
G1 X80.328 Y166.18 E.1077
G1 X79.799 Y163.256 E.10561
G1 X80.071 Y162.963 F90000
G1 E-1 F3000
G1 X80.054 Y162.943 F90000
G1 X82.097 Y161.213
G1 X84.974 Y162.246
G1 X85.518 Y165.252
G1 X88.595 Y166.532
G1 X88.573 Y166.536
G1 E1 F3000
G1 F1800
G1 X89.112 Y169.519 E.10774
G1 X86.799 Y171.478 E.10773
G1 X83.946 Y170.454 E.10773
G1 X83.407 Y167.471 E.10774
G1 X83.571 Y167.332 E.00764
G1 X85.72 Y165.512 E.10009
G1 X88.516 Y166.516 E.10559
G1 X88.634 Y166.898 F90000
G1 E-1 F3000
G1 X88.96 Y166.839 F90000
G1 X89.437 Y169.474
G1 X92.314 Y170.506
G1 X92.324 Y170.498
G1 X92.309 Y170.481
G1 E1 F3000
G1 F1800
G1 X89.457 Y169.457 E.1077
G1 X88.917 Y166.474 E.10774
G1 X89.081 Y166.335 E.00764
G1 X91.23 Y164.516 E.10007
G1 X93.448 Y165.312 E.08375
G1 X93.434 Y167.887 E.09152
G1 X93.458 Y169.508 E.05762
G1 X92.355 Y170.442 E.05137
G1 X91.965 Y170.353 F90000
G1 E-1 F3000
G1 X91.956 Y170.378 F90000
G1 X92.211 Y170.794
G1 X92.952 Y174.035
G1 X93.609 Y174.031
G1 X93.495 Y179.009
G1 X93.289 Y179.781
G1 X93.258 Y179.77
G1 X93.265 Y179.749
G1 E1 F3000
G1 F1800
G1 X91.183 Y179.001 E.07863
G1 X90.644 Y176.019 E.1077
G1 X90.808 Y175.88 E.00764
G1 X92.957 Y174.06 E.10009
G1 X93.348 Y174.201 E.01477
G1 X93.277 Y175.745 E.05493
G1 X93.23 Y177.492 E.06211
G1 X93.226 Y178.041 E.01951
G1 X93.264 Y179.689 E.05859
G1 X92.872 Y179.61 F90000
G1 E-1 F3000
G1 X92.865 Y179.629 F90000
G1 X93.289 Y179.781
G1 X93.496 Y179.009
G1 X93.581 Y174.495
G1 X93.609 Y174.031
G1 X93.762 Y173.917
G1 E1 F3000
;TYPE:Perimeter
G1 F1800
G1 X93.125 Y173.688 E.02406
G1 X93.069 Y173.377 E.01123
G1 X93.796 Y173.324 E.02591
G1 X93.766 Y173.857 E.01897
G1 X93.766 Y173.857 F90000
G1 X92.939 Y172.979
;TYPE:External perimeter
G1 F1800
G1 X92.536 Y170.748 E.08058
G1 X93.477 Y169.951 E.04383
G1 X93.473 Y171.605 E.05879
G1 X93.431 Y172.942 E.04754
G1 X92.999 Y172.974 E.0154
G1 X92.871 Y172.595 F90000
G1 X92.191 Y170.81
G1 F1800
G1 X92.731 Y173.793 E.10774
G1 X90.417 Y175.752 E.10776
G1 X87.565 Y174.727 E.10771
G1 X87.025 Y171.745 E.10771
G1 X87.189 Y171.606 E.00764
G1 X89.338 Y169.786 E.10009
G1 X92.135 Y170.79 E.10562
G1 X92.253 Y171.172 F90000
G1 E-1 F3000
G1 X92.279 Y171.168 F90000
G1 X92.211 Y170.794
G1 X89.334 Y169.761
G1 X86.7 Y171.79
G1 X83.823 Y170.758
G1 X81.49 Y172.733
G1 X81.492 Y172.746
G1 X81.515 Y172.742
G1 E1 F3000
G1 F1800
G1 X81.679 Y172.603 E.00764
G1 X83.828 Y170.783 E.10009
G1 X86.681 Y171.807 E.10773
G1 X87.22 Y174.79 E.10774
G1 X84.907 Y176.748 E.10771
G1 X82.054 Y175.724 E.10773
G1 X81.525 Y172.801 E.10557
G1 X81.797 Y172.507 F90000
G1 E-1 F3000
G1 X81.19 Y172.787 F90000
G1 X79.529 Y172.191
G1 X78.936 Y171.978
G1 X78.928 Y171.999
G1 E1 F3000
G1 F1800
G1 X81.17 Y172.804 E.08466
G1 X81.71 Y175.787 E.10774
G1 X79.396 Y177.745 E.10773
G1 X76.543 Y176.721 E.10773
G1 X76.438 Y176.136 E.02112
G1 X77.223 Y175.768 E.03081
G1 X77.767 Y175.372 E.02391
G1 X78.226 Y174.879 E.02394
G1 X78.583 Y174.309 E.0239
G1 X78.825 Y173.681 E.02392
G1 X78.943 Y173.018 E.02393
G1 X78.929 Y172.059 E.03409
G1 X79.321 Y172.138 F90000
G1 E-1 F3000
G1 X79.427 Y171.833 F90000
G1 X81.293 Y172.5
G1 X83.626 Y170.525
G1 X83.624 Y170.512
G1 X83.602 Y170.516
G1 E1 F3000
G1 F1800
G1 X81.288 Y172.474 E.10773
G1 X78.436 Y171.45 E.1077
G1 X77.896 Y168.468 E.10771
G1 X78.06 Y168.329 E.00764
G1 X80.209 Y166.509 E.10009
G1 X83.062 Y167.533 E.10773
G1 X83.591 Y170.457 E.10561
G1 X83.319 Y170.75 F90000
G1 E-1 F3000
G1 X83.336 Y170.77 F90000
G1 X81.293 Y172.5
G1 X78.905 Y171.967
G1 X77.226 Y175.289
G1 X76.005 Y175.912
G1 X76.229 Y176.268
G1 X74.073 Y177.652
G1 X74.495 Y177.618
G1 E1 F3000
;TYPE:Perimeter
G1 F1800
G1 X74.351 Y175.733 E.06719
G1 X74.405 Y175.759 E.00213
G1 X75.214 Y175.923 E.02934
G1 X75.568 Y175.903 E.0126
G1 X75.695 Y176.602 E.02525
G1 X74.541 Y177.579 E.05374
G1 E-1 F3000
G1 X74.541 Y177.579 F90000
G1 X74.817 Y177.906
G1 X76.037 Y175.423
G1 X76.569 Y175.25
G1 X76.683 Y175.19
G1 X77.155 Y174.891
G1 X77.251 Y174.806
G1 X77.635 Y174.397
G1 X77.705 Y174.296
G1 X77.977 Y173.8
G1 X78.02 Y173.686
G1 X78.161 Y173.138
G1 X78.176 Y173.017
G1 X78.176 Y172.451
G1 X78.161 Y172.33
G1 X77.95 Y171.804
G1 X77.907 Y171.7
G1 X77.698 Y171.232
G1 X77.961 Y171.115
G1 E1 F3000
G1 F1800
G1 X78.077 Y171.754 E.02308
G1 X78.52 Y171.913 E.01673
G1 X78.535 Y172.985 E.0381
G1 X78.431 Y173.571 E.02115
G1 X78.217 Y174.126 E.02114
G1 X77.902 Y174.63 E.02112
G1 X77.496 Y175.065 E.02115
G1 X77.015 Y175.416 E.02116
G1 X75.981 Y175.9 E.04058
G1 X76.137 Y176.761 E.0311
G1 X74.148 Y178.445 E.09263
G1 X73.891 Y175.05 E.12101
G1 X73.928 Y175.081 E.00172
G1 X74.543 Y175.373 E.0242
G1 X75.241 Y175.514 E.02531
G1 X75.934 Y175.474 E.02467
G1 X76.575 Y175.271 E.0239
G1 X76.693 Y175.209 E.00474
G1 X77.19 Y174.894 E.02091
G1 X77.67 Y174.392 E.02469
G1 X78.012 Y173.783 E.02482
G1 X78.192 Y173.107 E.02486
G1 X78.192 Y172.36 E.02655
G1 X78.012 Y171.687 E.02476
G1 X77.7 Y171.12 E.023
G1 X77.192 Y170.574 E.02651
G1 X76.6 Y170.205 E.02479
G1 X75.913 Y169.992 E.02556
G1 X75.24 Y169.954 E.02396
G1 X74.558 Y170.087 E.0247
G1 X73.918 Y170.395 E.02524
G1 X73.6 Y170.659 E.01469
G1 X73.563 Y170.015 E.02293
G1 X74.942 Y169.659 E.05062
G1 X75.507 Y169.62 E.02013
G1 X76.09 Y169.689 E.02087
G1 X76.65 Y169.867 E.02088
G1 X77.853 Y170.519 E.04863
G1 X77.95 Y171.056 E.01939
G1 X77.95 Y171.056 F90000
G1 X77.825 Y170.041
;TYPE:External perimeter
G1 F1800
G1 X76.81 Y169.491 E.04103
G1 X76.177 Y169.29 E.0236
G1 X75.517 Y169.211 E.02362
G1 X74.876 Y169.256 E.02284
G1 X73.925 Y169.501 E.0349
G1 X73.853 Y168.222 E.04553
G1 X73.959 Y168.132 E.00494
G1 X74.699 Y167.506 E.03445
G1 X77.552 Y168.53 E.10773
G1 X77.814 Y169.982 E.05244
G1 X77.441 Y169.838 F90000
G1 E-1 F3000
G1 X77.456 Y169.926 F90000
G1 X77.539 Y169.911
G1 X77.791 Y169.729
G1 X77.571 Y168.513
G1 X74.797 Y167.193
G1 X74.271 Y166.325
G1 X74.197 Y165.916
G1 X74.161 Y165.718
G1 X73.74 Y165.794
G1 E1 F3000
;TYPE:Perimeter
G1 F1800
G1 X73.968 Y167.058 E.04565
G1 X73.812 Y167.19 E.00726
G1 X73.743 Y165.854 E.04755
G1 X73.743 Y165.854 F90000
G1 X73.883 Y164.299
G1 F1800
G1 X74.411 Y167.217 E.10539
G1 X73.45 Y168.03 E.04474
G1 X73.242 Y164.069 E.14097
G1 X73.826 Y164.278 E.02205
G1 E-1 F3000
G1 X73.826 Y164.278 F90000
G1 X74.236 Y164.327
G1 X74.253 Y164.185
G1 X76.586 Y162.21
G1 X79.463 Y163.243
G1 X79.466 Y163.255
G1 X79.444 Y163.259
G1 E1 F3000
;TYPE:External perimeter
G1 F1800
G1 X79.983 Y166.242 E.10774
G1 X77.67 Y168.201 E.10773
G1 X74.817 Y167.177 E.10773
G1 X74.277 Y164.194 E.10774
G1 X74.442 Y164.055 E.00767
G1 X76.591 Y162.235 E.10009
G1 X79.387 Y163.239 E.10559
G1 X79.505 Y163.621 F90000
G1 E-1 F3000
G1 X79.531 Y163.617 F90000
G1 X79.463 Y163.243
G1 X76.586 Y162.21
G1 X76.576 Y162.218
G1 X76.365 Y161.968
G1 E1 F3000
G1 F1800
G1 X74.051 Y163.927 E.10776
G1 X73.619 Y163.771 E.01632
G1 X73.392 Y159.062 E.16756
G1 X73.345 Y158.095 E.03441
G1 X75.825 Y158.985 E.09365
G1 X76.354 Y161.909 E.10561
G1 X76.082 Y162.202 F90000
G1 E-1 F3000
G1 X76.689 Y161.922 F90000
G1 X79.566 Y162.955
G1 X79.576 Y162.947
G1 X79.562 Y162.93
G1 E1 F3000
G1 F1800
G1 X76.709 Y161.906 E.10773
G1 X76.169 Y158.923 E.10774
G1 X76.334 Y158.784 E.00767
G1 X78.483 Y156.965 E.10007
G1 X81.336 Y157.989 E.10773
G1 X81.875 Y160.971 E.1077
G1 X79.608 Y162.891 E.10559
G1 X79.218 Y162.802 F90000
G1 E-1 F3000
G1 X79.209 Y162.827 F90000
G1 X79.463 Y163.243
G1 X80.007 Y166.251
G1 X77.872 Y168.459
G1 X77.978 Y171.004
G1 X78.081 Y171.296
G1 X78.256 Y171.603
G1 X81.19 Y172.787
G1 X81.734 Y175.795
G1 X79.598 Y178.004
G1 X79.744 Y178.808
G1 X79.84 Y181.053
G1 X79.818 Y181.057
G1 E1 F3000
G1 F1800
G1 X77.504 Y183.016 E.10776
G1 X74.745 Y182.025 E.10419
G1 X74.554 Y178.635 E.12068
G1 X74.692 Y178.518 E.00643
G1 X76.425 Y177.051 E.0807
G1 X79.278 Y178.075 E.10773
G1 X79.807 Y180.998 E.10557
G1 X79.535 Y181.291 F90000
G1 X80.162 Y180.995
G1 F1800
G1 X79.622 Y178.012 E.10774
G1 X79.787 Y177.873 E.00767
G1 X81.936 Y176.054 E.10007
G1 X84.789 Y177.078 E.10773
G1 X85.328 Y180.06 E.1077
G1 X83.015 Y182.019 E.10773
G1 X80.218 Y181.015 E.10562
G1 X80.101 Y180.633 F90000
G1 E-1 F3000
G1 X80.075 Y180.638 F90000
G1 X80.142 Y181.012
G1 X83.019 Y182.045
G1 X85.353 Y180.069
G1 X85.109 Y177.007
