; generated by PrusaSlicer 2.7.2+MacOS-arm64 on 2024-03-04 at 03:16:45 UTC


;
;

;
;

;
;

;
;

;
;
; 

; external perimeters extrusion width = 0.45mm
; perimeters extrusion width = 0.45mm
; infill extrusion width = 0.45mm
; solid infill extrusion width = 0.45mm
; top infill extrusion width = 0.40mm
; support material extrusion width = 0.36mm

M73 P0 R41

EXCLUDE_OBJECT_DEFINE NAME='Bugout_Scale_Honeycomb_left' CENTER=85.670,117.167 POLYGON=[[86.692,61.037],[88.286,61.305],[90.572,61.934],[93.780,63.350],[95.836,64.470],[96.479,65.058],[96.834,65.595],[97.506,68.711],[97.575,69.273],[97.551,70.033],[97.039,71.467],[95.953,76.339],[95.645,79.257],[95.479,82.162],[95.546,87.608],[96.088,94.122],[96.266,99.009],[97.022,110.669],[97.269,116.339],[97.094,122.895],[96.793,126.562],[96.221,131.975],[96.129,133.678],[96.048,138.266],[96.150,141.848],[96.322,143.913],[96.739,146.940],[97.260,149.546],[97.937,151.833],[98.988,154.190],[101.661,158.925],[103.121,160.792],[103.365,161.354],[103.423,162.092],[103.179,163.589],[102.660,165.365],[102.313,166.205],[102.073,166.481],[101.465,166.910],[99.060,168.274],[97.579,168.972],[96.145,169.507],[92.059,170.630],[89.694,170.974],[85.792,171.183],[82.568,170.994],[77.830,170.220],[77.320,170.000],[77.110,169.822],[76.527,169.145],[76.348,168.718],[76.020,163.058],[74.930,150.768],[74.379,143.617],[73.721,132.492],[73.060,114.536],[72.989,110.018],[73.030,100.670],[73.423,80.263],[74.105,70.490],[74.195,67.549],[74.488,66.297],[74.890,65.280],[75.537,64.138],[76.414,63.446],[77.060,63.121],[80.493,61.802],[81.893,61.398],[84.123,61.092]]

;TYPE:Custom
CALCULATE_PA MATERIAL=PLA BOWDEN_LENGTH=6 LAYER_HEIGHT=0.2 NOZZLE_SIZE=0.4 PRINT_SPEED=0


START_PRINT EXTRUDER=210 BED=65
G21 ; set units to millimeters
G90 ; use absolute coordinates
M83 ; use relative distances for extrusion
; Filament gcode
M107
;LAYER_CHANGE
;Z:0.2
;HEIGHT:0.2
G1 E-2 F3000
EXCLUDE_OBJECT_START NAME='Bugout_Scale_Honeycomb_left'
G1 Z.2 F78000
G1 X78.497 Y166.003
G1 Z.2
G1 E2 F3000
;TYPE:Support material interface
;WIDTH:0.36
G1 F1800
G1 X78.415 Y165.771 E.00649
G1 X78.405 Y165.533 E.00628
G1 X78.458 Y165.318 E.00584
G1 X78.019 Y164.879 E.01637
G1 X78.324 Y164.466 E.01354
G1 X78.72 Y164.862 E.01477
G1 X79.162 Y164.585 E.01375
G1 X78.741 Y164.163 E.01572
G1 X79.283 Y163.987 E.01502
G1 X79.947 Y164.65 E.02474
G1 X80.227 Y164.848 E.00904
G1 X80.426 Y165.129 E.00908
G1 X81.095 Y165.798 E.02494
G1 X81.09 Y165.344 E.01197
G1 X80.978 Y164.962 E.0105
G1 X80.122 Y164.107 E.0319
G1 X80.122 Y164.107 F78000
G1 X79.588 Y164.874
;TYPE:Support material
G1 F1800
G1 X79.832 Y164.967 E.00688
G1 X80.083 Y165.198 E.00899
G1 X80.198 Y165.432 E.00687
G1 X80.219 Y165.658 E.00598
G1 X80.134 Y165.924 E.00736
G1 X80.004 Y166.11 E.00598
G1 X79.653 Y166.323 E.01082
G1 X79.426 Y166.344 E.00601
G1 X79.16 Y166.259 E.00736
G1 X78.975 Y166.129 E.00596
G1 X78.761 Y165.778 E.01084
G1 X78.74 Y165.551 E.00601
G1 X78.825 Y165.286 E.00734
G1 X78.955 Y165.1 E.00598
G1 X79.307 Y164.886 E.01086
G1 X79.541 Y164.867 E.00619
G1 X79.541 Y164.867 F78000
G1 X79.883 Y166.026
G1 F1800
G1 X79.883 Y165.431 E.01569
G1 X79.778 Y165.278 E.00489
G1 X79.517 Y165.152 E.00764
G1 X79.486 Y166.056 E.02385
G1 X79.181 Y165.931 E.00869
G1 X79.09 Y165.807 E.00406
G1 X79.09 Y165.173 E.01672
G1 X79.09 Y165.173 F78000
G1 X80.491 Y165.269
;TYPE:Support material interface
G1 F1800
G1 X80.555 Y165.676 E.01086
G1 X80.493 Y165.916 E.00654
G1 X80.922 Y166.344 E.01598
G1 X80.621 Y166.763 E.0136
G1 X80.222 Y166.364 E.01488
G1 X79.775 Y166.635 E.01378
G1 X80.203 Y167.064 E.01598
G1 X79.845 Y167.195 E.01005
G1 X79.637 Y167.217 E.00551
G1 X78.733 Y166.361 E.03282
G1 X77.868 Y165.448 E.03316
G1 X77.849 Y165.677 E.00606
G1 X77.919 Y166.08 E.01078
G1 X78.03 Y166.329 E.00719
G1 X78.761 Y167.06 E.02726
G1 X79.077 Y167.183 E.00894
G1 E-2 F3000
G1 X79.077 Y167.183 F78000
G1 X82.218 Y165.621
G1 X87.007 Y163.24
G1 X88.219 Y162.637
G1 E2 F3000
G1 F1800
G1 X87.766 Y162.401 E.01347
G1 X86.731 Y161.366 E.03859
G1 X86.51 Y160.976 E.01182
G1 X86.286 Y160.203 E.02122
G1 X88.918 Y162.835 E.09814
G1 X89.67 Y162.867 E.01984
G1 X88.955 Y162.153 E.02664
G1 X89.369 Y162.214 E.01103
G1 X89.72 Y162.198 E.00926
G1 X90.287 Y162.766 E.02116
G1 X90.816 Y162.576 E.01482
G1 X90.295 Y162.054 E.01944
G1 X90.784 Y161.824 E.01425
G1 X91.278 Y162.318 E.01842
G1 X91.68 Y162.001 E.0135
G1 X91.193 Y161.514 E.01816
G1 X91.528 Y161.13 E.01344
G1 X92.017 Y161.619 E.01823
G1 X92.297 Y161.18 E.01373
G1 X91.788 Y160.671 E.01898
G1 X91.967 Y160.131 E.015
G1 X92.513 Y160.677 E.02036
G1 X92.65 Y160.094 E.01579
G1 X92.008 Y159.452 E.02394
G1 X91.931 Y159.006 E.01193
G1 X91.931 Y159.006 F78000
G1 X92.257 Y158.031
G1 F1800
G1 X91.904 Y157.536 E.01603
G1 X91.452 Y157.107 E.01643
G1 X91.074 Y156.862 E.01188
G1 X91.074 Y156.862 F78000
G1 X90.359 Y156.548
G1 F1800
G1 X90.658 Y156.664 E.00846
G1 X92.455 Y158.462 E.06702
G1 X92.656 Y159.174 E.01951
G1 X92.672 Y159.397 E.00589
G1 X91.668 Y158.393 E.03744
G1 X91.299 Y157.895 E.01634
G1 X90.728 Y157.454 E.01902
G1 X89.708 Y156.434 E.03803
G1 X89.015 Y156.46 E.01828
G1 X89.661 Y157.106 E.02409
G1 X88.981 Y157.145 E.01796
G1 X88.432 Y156.596 E.02047
G1 X87.928 Y156.811 E.01445
G1 X88.442 Y157.325 E.01917
G1 X87.984 Y157.586 E.0139
G1 X87.491 Y157.093 E.01838
G1 X87.116 Y157.437 E.01342
G1 X87.602 Y157.923 E.01812
G1 X87.291 Y158.332 E.01355
G1 X86.798 Y157.838 E.0184
G1 X86.656 Y158.044 E.0066
G1 X86.539 Y158.298 E.00737
G1 X87.059 Y158.819 E.01941
G1 X86.92 Y159.398 E.0157
G1 X86.348 Y158.826 E.02133
G1 X86.247 Y159.445 E.01654
G1 X86.957 Y160.155 E.02647
G1 X87.152 Y160.719 E.01573
G1 X87.278 Y160.963 E.00724
G1 E-2 F3000
G1 X87.278 Y160.963 F78000
G1 X86.656 Y156.338
G1 X84.99 Y135.073
G1 X84.837 Y134.318
G1 X84.417 Y133.993
G1 X84.194 Y133.82
G1 X83.711 Y134.445
G1 E2 F3000
;TYPE:Support material
G1 F1800
G1 X82.122 Y135.08 E.04512
G1 X80.027 Y136.232 E.06304
G1 X80.307 Y134.164 E.05502
G1 X82.294 Y133.35 E.05661
G1 X83.673 Y134.416 E.04595
G1 X83.673 Y134.416 F78000
G1 X83.053 Y134.546
G1 F1800
G1 X83.053 Y134.298 E.00654
G1 X82.657 Y133.991 E.01321
G1 X82.657 Y134.549 E.01471
G1 X82.261 Y134.71 E.01127
G1 X82.25 Y133.676 E.02726
G1 X81.864 Y133.834 E.011
G1 X81.864 Y134.887 E.02776
G1 X81.468 Y135.08 E.01161
G1 X81.468 Y133.997 E.02855
G1 X81.072 Y134.159 E.01128
G1 X81.072 Y135.297 E.03
G1 X80.675 Y135.523 E.01204
G1 X80.675 Y134.167 E.03575
G1 E-2 F3000
G1 X80.675 Y134.167 F78000
G1 X80.962 Y133.042
G1 X82.303 Y132.168
G1 X82.364 Y131.728
G1 X82.638 Y129.693
G1 X82.652 Y129.588
G1 X81.869 Y129.482
G1 E2 F3000
G1 F1800
G1 X81.581 Y131.61 E.05662
G1 X79.594 Y132.425 E.05662
G1 X78.387 Y131.491 E.04024
G1 X78.238 Y128.96 E.06685
G1 X80.17 Y128.168 E.05505
G1 X81.832 Y129.453 E.05539
G1 X81.832 Y129.453 F78000
G1 X81.468 Y131.382
G1 F1800
G1 X81.468 Y129.532 E.04878
G1 X81.072 Y129.226 E.01319
G1 X81.072 Y131.511 E.06024
G1 X80.675 Y131.673 E.0113
G1 X80.675 Y128.919 E.07261
G1 X80.279 Y128.613 E.01319
G1 X80.279 Y131.836 E.08498
G1 X79.883 Y131.998 E.01128
G1 X79.883 Y128.594 E.08975
G1 X79.486 Y128.757 E.01131
G1 X79.486 Y131.981 E.085
G1 X79.09 Y131.674 E.01321
G1 X79.09 Y128.919 E.07264
G1 X78.694 Y129.082 E.01129
G1 X78.694 Y131.548 E.06502
G1 E-2 F3000
G1 X78.694 Y131.548 F78000
G1 X81.625 Y128.294
G1 X82.412 Y128.524
G1 X83.106 Y128.195
G1 X82.705 Y127.096
M73 P0 R40
G1 X85.25 Y124.271
G1 E2 F3000
G1 F1800
G1 X85.638 Y124.378 E.01061
G1 X85.987 Y124.579 E.01062
G1 X86.275 Y124.86 E.01061
G1 X86.485 Y125.204 E.01063
G1 X86.602 Y125.589 E.01061
G1 X86.62 Y125.992 E.01064
G1 X86.537 Y126.386 E.01062
G1 X86.359 Y126.747 E.01061
G1 X86.097 Y127.052 E.0106
G1 X85.767 Y127.283 E.01062
G1 X85.39 Y127.424 E.01061
G1 X84.989 Y127.467 E.01063
G1 X84.591 Y127.41 E.0106
G1 X84.219 Y127.254 E.01064
G1 X83.898 Y127.012 E.0106
G1 X83.647 Y126.697 E.01062
G1 X83.482 Y126.33 E.01061
G1 X83.414 Y125.932 E.01065
G1 X83.447 Y125.53 E.01063
G1 X83.578 Y125.15 E.0106
G1 X83.8 Y124.814 E.01062
G1 X84.099 Y124.544 E.01062
G1 X84.455 Y124.356 E.01061
G1 X84.847 Y124.264 E.01062
G1 X85.202 Y124.27 E.00936
G1 X86.224 Y126.685 F78000
G1 F1800
G1 X86.224 Y125.328 E.03578
G1 X86.05 Y125.039 E.00889
G1 X85.828 Y124.822 E.00818
G1 X85.828 Y126.892 E.05458
G1 X85.432 Y127.104 E.01184
G1 X85.432 Y124.617 E.06557
G1 X85.035 Y124.552 E.01061
G1 X85.035 Y127.175 E.06916
G1 X84.639 Y127.12 E.01054
G1 X84.639 Y124.606 E.06628
G1 X84.243 Y124.799 E.01161
G1 X84.243 Y126.915 E.05579
G1 X84.099 Y126.806 E.00476
G1 X83.846 Y126.444 E.01164
G1 X83.846 Y125.003 E.03799
G1 E-2 F3000
G1 X83.846 Y125.003 F78000
G1 X83.65 Y123.515
G1 X84.015 Y119.524
G1 X83.664 Y119.252
G1 X83.655 Y119.245
G1 X83.171 Y119.87
G1 E2 F3000
G1 F1800
G1 X82.883 Y121.999 E.05664
G1 X80.896 Y122.813 E.05661
G1 X79.197 Y121.499 E.05663
G1 X79.425 Y119.817 E.04475
G1 X79.772 Y119.253 E.01746
G1 X81.472 Y118.556 E.04844
G1 X83.134 Y119.841 E.05539
G1 X83.134 Y119.841 F78000
G1 X82.657 Y121.937
G1 F1800
G1 X82.657 Y119.833 E.05547
G1 X82.261 Y119.527 E.01319
G1 X82.261 Y121.945 E.06375
G1 X81.864 Y122.108 E.01131
G1 X81.864 Y119.22 E.07614
G1 X81.468 Y118.914 E.01319
G1 X81.468 Y122.27 E.08848
G1 X81.072 Y122.432 E.01128
G1 X81.072 Y119.029 E.08972
G1 X80.675 Y119.191 E.0113
G1 X80.675 Y122.282 E.0815
G1 X80.279 Y121.975 E.01321
G1 X80.279 Y119.354 E.0691
G1 X79.965 Y119.483 E.00895
G1 X79.883 Y119.613 E.00405
G1 X79.883 Y121.849 E.05895
G1 E-2 F3000
G1 X79.883 Y121.849 F78000
G1 X83.774 Y121.309
G1 X84.313 Y119.565
G1 X87.144 Y118.404
G1 X88.888 Y119.753
G1 X89.204 Y119.997
G1 X88.721 Y120.622
G1 E2 F3000
G1 F1800
G1 X88.432 Y122.75 E.05662
G1 X87.767 Y123.023 E.01895
G1 X87.516 Y122.782 E.00917
G1 X86.953 Y122.4 E.01794
G1 X86.285 Y122.104 E.01926
G1 X85.526 Y121.929 E.02054
G1 X84.793 Y121.903 E.01934
G1 X85.034 Y120.123 E.04736
G1 X87.022 Y119.308 E.05665
G1 X88.683 Y120.593 E.05537
G1 X88.683 Y120.593 F78000
G1 X88.206 Y122.689
G1 F1800
G1 X88.206 Y120.585 E.05547
G1 X87.81 Y120.278 E.01321
G1 X87.81 Y122.664 E.06291
G1 X87.413 Y122.367 E.01307
G1 X87.413 Y119.972 E.06314
G1 X87.017 Y119.665 E.01321
G1 X87.017 Y122.111 E.06449
G1 X86.621 Y121.939 E.01138
G1 X86.621 Y119.781 E.0569
G1 X86.224 Y119.943 E.0113
G1 X86.224 Y121.792 E.04875
G1 X85.828 Y121.701 E.01071
G1 X85.828 Y120.106 E.04205
G1 X85.432 Y120.268 E.01128
G1 X85.432 Y121.782 E.03992
G1 E-2 F3000
G1 X85.432 Y121.782 F78000
G1 X89.386 Y121.599
G1 X89.862 Y120.316
G1 X90.023 Y120.249
G1 X92.693 Y119.156
G1 X94.432 Y120.501
G1 X94.753 Y120.749
G1 X94.27 Y121.374
G1 E2 F3000
G1 F1800
G1 X93.982 Y123.502 E.05662
G1 X91.994 Y124.316 E.05664
G1 X90.295 Y123.003 E.05661
G1 X90.584 Y120.874 E.05665
G1 X92.571 Y120.06 E.05661
G1 X94.232 Y121.344 E.05535
G1 X94.232 Y121.344 F78000
G1 X93.755 Y123.441
G1 F1800
G1 X93.755 Y121.336 E.0555
G1 X93.359 Y121.03 E.01319
G1 X93.359 Y123.449 E.06378
G1 X92.962 Y123.611 E.0113
G1 X92.962 Y120.723 E.07614
G1 X92.566 Y120.417 E.01319
G1 X92.566 Y123.774 E.08851
G1 X92.169 Y123.936 E.0113
G1 X92.169 Y120.533 E.08972
G1 X91.773 Y120.695 E.01128
G1 X91.773 Y123.785 E.08147
G1 X91.377 Y123.478 E.01321
G1 X91.377 Y120.858 E.06908
G1 X90.98 Y121.02 E.0113
G1 X90.98 Y123.352 E.06148
G1 E-2 F3000
G1 X90.98 Y123.352 F78000
G1 X92.247 Y125.067
G1 X92.431 Y125.315
G1 X94.123 Y127.606
G1 E2 F3000
G1 F1800
G1 X93.924 Y129.348 E.04623
G1 X92.419 Y128.184 E.05016
G1 X92.707 Y126.056 E.05662
G1 X94.346 Y125.384 E.0467
G1 X94.128 Y127.559 E.05763
G1 X94.128 Y127.559 F78000
G1 X93.755 Y129.037
G1 F1800
G1 X93.755 Y125.935 E.08179
G1 X93.359 Y126.097 E.01128
G1 X93.359 Y128.55 E.06467
G1 X92.962 Y128.244 E.01322
G1 X92.962 Y126.106 E.05637
G1 E-2 F3000
G1 X92.962 Y126.106 F78000
G1 X92.966 Y129.606
G1 X93.399 Y130.319
G1 X93.451 Y130.36
G1 X92.968 Y130.985
G1 E2 F3000
G1 F1800
G1 X92.68 Y133.114 E.05664
G1 X91.354 Y133.657 E.03778
G1 X89.744 Y133.195 E.04416
G1 X88.993 Y132.614 E.02503
G1 X89.282 Y130.486 E.05662
G1 X91.269 Y129.671 E.05662
G1 X92.93 Y130.956 E.05537
G1 X92.93 Y130.956 F78000
G1 X92.566 Y132.891
G1 F1800
G1 X92.566 Y131.035 E.04893
G1 X92.169 Y130.729 E.01322
G1 X92.169 Y133.014 E.06024
G1 X91.773 Y133.177 E.01129
G1 X91.773 Y130.422 E.07264
G1 X91.377 Y130.116 E.01319
G1 X91.346 Y133.352 E.08532
G1 X90.98 Y133.229 E.01018
G1 X90.98 Y130.098 E.08255
G1 X90.584 Y130.261 E.01129
G1 X90.584 Y133.111 E.07514
G1 X90.188 Y133.003 E.01082
G1 X90.188 Y130.423 E.06802
G1 X89.791 Y130.585 E.0113
G1 X89.791 Y132.871 E.06027
G1 X89.395 Y132.564 E.01321
G1 X89.395 Y130.712 E.04883
G1 E-2 F3000
G1 X89.026 Y129.737 F78000
G1 X88.446 Y129.65
G1 X86.909 Y128.462
G1 X87.845 Y126.623
G1 X87.602 Y125.371
G1 X87.441 Y124.835
G1 X87.403 Y124.746
G1 X86.631 Y123.42
G1 X84.32 Y123.015
G1 X83.902 Y122.597
G1 X84.199 Y119.287
G1 X81.778 Y117.415
G1 X82.075 Y114.105
G1 X79.654 Y112.234
G1 X79.951 Y108.924
G1 X77.531 Y107.052
G1 X77.828 Y103.742
G1 X75.407 Y101.87
G1 X75.187 Y100.885
G1 X75.299 Y100.058
G1 X75.372 Y99.647
G1 X75.818 Y98.838
G1 X78.535 Y97.4
G1 X78.702 Y96.173
G1 X78.439 Y95.999
G1 X77.902 Y95.994
G1 X76.247 Y96.022
G1 X75.804 Y94.855
G1 E2 F3000
;TYPE:Support material interface
G1 F1800
G1 X75.454 Y94.717 E.00992
G1 X74.774 Y94.037 E.02535
G1 X74.646 Y93.752 E.00824
G1 X74.577 Y93.349 E.01078
G1 X74.594 Y93.139 E.00555
G1 X76.347 Y94.891 E.06534
G1 X76.572 Y94.867 E.00597
G1 X76.916 Y94.741 E.00966
G1 X76.488 Y94.313 E.01596
G1 X76.939 Y94.045 E.01383
G1 X77.339 Y94.446 E.01493
G1 X77.643 Y94.03 E.01358
G1 X77.215 Y93.602 E.01596
G1 X77.282 Y93.348 E.00693
G1 X77.237 Y92.979 E.0098
G1 X77.237 Y92.979 F78000
G1 X76.316 Y92.546
;TYPE:Support material
G1 F1800
G1 X76.56 Y92.639 E.00688
G1 X76.811 Y92.869 E.00898
G1 X76.926 Y93.104 E.0069
G1 X76.947 Y93.33 E.00598
G1 X76.862 Y93.596 E.00736
G1 X76.732 Y93.782 E.00598
G1 X76.38 Y93.995 E.01085
G1 X76.154 Y94.016 E.00598
G1 X75.888 Y93.931 E.00736
G1 X75.702 Y93.801 E.00598
G1 X75.489 Y93.449 E.01085
G1 X75.468 Y93.223 E.00598
G1 X75.553 Y92.957 E.00736
G1 X75.683 Y92.771 E.00598
G1 X76.035 Y92.558 E.01085
G1 X76.269 Y92.538 E.00619
G1 X76.269 Y92.538 F78000
G1 X76.316 Y93.864
G1 F1800
G1 X76.316 Y92.849 E.02676
G1 X76.245 Y92.823 E.00199
G1 X76.13 Y92.829 E.00304
G1 X75.919 Y92.946 E.00636
G1 X75.919 Y93.785 E.02212
G1 X75.919 Y93.785 F78000
G1 X75.253 Y93.735
;TYPE:Support material interface
G1 F1800
G1 X75.143 Y93.443 E.00823
G1 X75.18 Y93.005 E.01159
G1 X74.743 Y92.556 E.01652
G1 X75.041 Y92.147 E.01334
G1 X75.438 Y92.544 E.0148
G1 X75.876 Y92.263 E.01372
G1 X75.455 Y91.842 E.0157
G1 X75.994 Y91.662 E.01498
G1 X76.639 Y92.307 E.02405
G1 X76.954 Y92.52 E.01003
G1 X77.172 Y92.839 E.01019
G1 X77.819 Y93.487 E.02414
G1 X77.818 Y93.015 E.01244
G1 X77.714 Y92.663 E.00968
G1 X76.815 Y91.763 E.03354
G1 E-2 F3000
G1 X76.815 Y91.763 F78000
G1 X77.141 Y90.698
G1 X76.652 Y90.069
G1 X77.12 Y89.226
G1 X79.837 Y87.788
G1 X80.248 Y84.756
G1 X78.011 Y82.647
G1 X78.422 Y79.614
G1 X81.139 Y78.176
G1 X81.911 Y74.093
G1 X81.668 Y73.571
G1 X81.567 Y73.004
G1 X81.617 Y72.431
G1 X81.814 Y71.889
G1 X82.144 Y71.418
G1 X83.578 Y69.697
G1 X84.182 Y67.726
G1 E2 F3000
;TYPE:Support material
G1 F1800
G1 X84.987 Y68.162 E.02414
G1 X85.719 Y68.385 E.02018
G1 X86.131 Y68.433 E.01094
G1 X85.751 Y68.722 E.01259
G1 X85.312 Y69.206 E.01723
G1 X85.147 Y69.469 E.00819
G1 X83.735 Y68.377 E.04706
G1 X84.145 Y67.696 E.02096
G1 X84.145 Y67.696 F78000
G1 X85.432 Y68.861
G1 F1800
G1 X85.432 Y68.595 E.00701
G1 X85.035 Y68.475 E.01093
G1 X85.035 Y69.022 E.01442
G1 X84.639 Y68.715 E.01321
G1 X84.639 Y68.306 E.01078
G1 X84.243 Y68.097 E.01181
G1 X84.243 Y68.589 E.01297
G1 E-2 F3000
G1 X84.243 Y68.589 F78000
G1 X85.191 Y66.986
G1 X85.392 Y66.645
G1 X85.965 Y65.677
G1 E2 F3000
;TYPE:Support material interface
G1 F1800
G1 X85.107 Y64.818 E.03201
G1 X84.967 Y64.258 E.01522
G1 X84.989 Y63.982 E.0073
G1 X85.636 Y64.629 E.02412
G1 X85.85 Y64.942 E.01
G1 X86.16 Y65.153 E.00989
G1 X86.8 Y65.793 E.02386
G1 X87.356 Y65.629 E.01528
G1 X86.926 Y65.2 E.01601
G1 X87.365 Y64.92 E.01373
G1 X87.762 Y65.316 E.01478
G1 X88.056 Y64.891 E.01363
G1 X87.624 Y64.459 E.01611
