; generated by PrusaSlicer 2.7.2+MacOS-arm64 on 2024-03-04 at 07:25:14 UTC


;
;

;
;

;
;

;
;

;
;
; 

; external perimeters extrusion width = 0.45mm
; perimeters extrusion width = 0.45mm
; infill extrusion width = 0.45mm
; solid infill extrusion width = 0.45mm
; top infill extrusion width = 0.40mm

; external perimeters extrusion width = 0.45mm
; perimeters extrusion width = 0.45mm
; infill extrusion width = 0.45mm
; solid infill extrusion width = 0.45mm
; top infill extrusion width = 0.40mm

M73 P0 R78

EXCLUDE_OBJECT_DEFINE NAME='Bugout_Scale_Honeycomb_right' CENTER=127.896,169.857 POLYGON=[[108.296,121.727],[109.014,121.935],[111.005,123.202],[111.837,123.854],[112.599,124.779],[112.820,125.736],[112.841,127.455],[113.584,131.433],[113.934,133.068],[114.669,135.542],[115.642,137.720],[116.942,140.038],[118.593,142.608],[120.404,145.066],[122.058,147.076],[125.103,150.508],[127.530,152.958],[132.254,157.463],[133.885,159.160],[136.924,162.552],[140.747,167.405],[147.756,176.753],[150.800,180.581],[154.624,185.882],[158.116,190.062],[160.131,192.161],[162.263,194.178],[166.257,197.172],[167.577,197.928],[168.091,198.490],[168.404,198.961],[169.805,201.463],[169.984,202.075],[169.893,203.269],[169.060,205.457],[167.303,209.032],[165.548,211.430],[164.831,212.152],[163.193,213.453],[161.301,214.671],[159.457,215.469],[156.117,216.617],[154.690,216.724],[153.456,216.277],[152.489,215.766],[151.453,215.005],[149.472,212.830],[143.070,206.357],[134.109,196.384],[129.026,190.605],[122.654,183.223],[117.837,177.342],[111.567,169.456],[105.135,161.132],[98.403,152.030],[90.447,140.898],[87.287,136.758],[87.146,136.317],[87.192,135.152],[87.437,134.653],[88.010,133.906],[90.532,130.983],[91.783,129.717],[93.534,128.188],[95.958,126.364],[97.978,125.087],[101.812,123.282],[103.249,122.756],[104.829,122.323],[107.222,121.846]]
EXCLUDE_OBJECT_DEFINE NAME='Bugout_Scale_Honeycomb_left' CENTER=130.522,54.207 POLYGON=[[107.623,5.777],[108.578,5.954],[109.134,6.266],[111.257,8.193],[111.864,8.884],[112.174,9.450],[112.518,10.687],[114.539,15.252],[116.025,17.782],[117.617,20.218],[120.906,24.559],[125.212,29.477],[128.258,33.302],[135.793,42.233],[139.360,46.647],[143.114,52.025],[145.050,55.154],[147.805,59.848],[148.743,61.273],[151.403,65.011],[153.614,67.833],[154.979,69.391],[157.112,71.578],[159.079,73.365],[160.983,74.802],[163.228,76.074],[168.191,78.295],[168.829,78.519],[170.123,78.807],[170.763,79.068],[171.242,79.475],[171.736,80.188],[172.184,81.145],[172.821,82.883],[173.039,83.944],[172.879,84.567],[172.362,85.824],[171.653,87.361],[170.876,88.803],[170.041,90.085],[168.285,92.387],[167.421,93.415],[166.367,94.500],[164.324,96.300],[162.708,97.582],[160.002,99.347],[156.588,101.148],[155.489,101.622],[154.915,101.646],[154.044,101.448],[153.646,101.211],[153.282,100.821],[150.322,97.201],[141.262,86.949],[132.938,77.189],[126.585,69.392],[118.022,58.551],[109.045,46.360],[100.235,33.928],[98.359,31.217],[93.489,23.525],[91.815,21.106],[91.306,19.925],[90.891,18.043],[90.868,17.566],[91.163,16.488],[91.982,15.037],[93.763,12.318],[94.353,11.585],[95.702,10.249],[97.999,8.444],[99.441,7.713],[101.196,7.003],[105.075,6.094]]

;TYPE:Custom
CALCULATE_PA MATERIAL=PLA BOWDEN_LENGTH=6 LAYER_HEIGHT=0.2 NOZZLE_SIZE=0.4 PRINT_SPEED=0


START_PRINT EXTRUDER=230 BED=65
G21 ; set units to millimeters
G90 ; use absolute coordinates
M83 ; use relative distances for extrusion
; Filament gcode
M107
;LAYER_CHANGE
;Z:0.2
;HEIGHT:0.2
G1 E-2 F3000
EXCLUDE_OBJECT_START NAME='Bugout_Scale_Honeycomb_left'
G1 Z.2 F78000
G1 X137.067 Y51.475
G1 Z.2
G1 E2 F3000
;TYPE:External perimeter
;WIDTH:0.45
G1 F1200
G1 X135.555 Y53.966 E.10357
G1 X135.096 Y54.057 E.01663
G1 X132.464 Y53.999 E.09357
G1 X131.006 Y51.341 E.10775
G1 X131.118 Y51.157 E.00766
G1 X132.58 Y48.75 E.10009
G1 X135.61 Y48.817 E.10772
G1 X137.038 Y51.422 E.10558
G1 X136.873 Y51.787 F78000
G1 E-2 F3000
G1 X132.633 Y59.604 F78000
G1 E2 F3000
G1 F1200
G1 X132.34 Y59.597 E.01042
G1 X130.882 Y56.939 E.10775
G1 X131.011 Y56.728 E.00879
G1 X132.456 Y54.349 E.09893
G1 X135.486 Y54.416 E.10772
G1 X136.943 Y57.074 E.10773
G1 X136.078 Y58.498 E.05922
G1 X135.327 Y58.39 E.02697
G1 X134.764 Y58.412 E.02002
G1 X134.163 Y58.545 E.02188
G1 X133.624 Y58.779 E.02088
G1 X133.136 Y59.109 E.02094
G1 X132.676 Y59.562 E.02295
G1 X132.281 Y59.503 F78000
G1 E-2 F3000
G1 X132.417 Y62.04 F78000
G1 E2 F3000
;TYPE:Perimeter
G1 F1200
G1 X132.397 Y61.958 E.003
G1 X132.365 Y60.983 E.03467
G1 X131.851 Y60.848 E.01889
G1 X132.363 Y60.005 E.03505
G1 X132.797 Y60.015 E.01543
G1 X133.218 Y59.599 E.02104
G1 X132.819 Y60.075 E.02208
G1 X132.518 Y60.702 E.02472
G1 X132.382 Y61.396 E.02513
G1 X132.414 Y61.98 E.02079
G1 E-2 F3000
G1 X132.414 Y61.98 F78000
G1 X133.304 Y59.514
G1 E2 F3000
G1 F1200
G1 X133.395 Y59.425 E.00452
G1 X133.82 Y59.138 E.01823
G1 X134.29 Y58.934 E.01821
G1 X134.47 Y58.894 E.00655
G1 X133.836 Y59.133 E.02408
G1 X133.353 Y59.479 E.02112
G1 E-2 F3000
G1 X133.353 Y59.479 F78000
G1 X133.441 Y59.6
G1 X133.364 Y59.665
G1 X132.986 Y60.073
G1 X132.919 Y60.153
G1 X132.587 Y60.616
G1 X132.555 Y60.727
G1 X132.533 Y61.404
G1 X132.563 Y61.959
G1 X132.574 Y62.058
G1 X132.741 Y62.593
G1 X132.773 Y62.683
G1 X133.066 Y63.16
G1 X133.117 Y63.239
G1 X133.183 Y63.307
G1 X133.489 Y63.601
G1 X133.665 Y63.417
G1 E2 F3000
;TYPE:External perimeter
G1 F1200
G1 X133.315 Y63.08 E.01727
G1 X133.281 Y63.026 E.00227
G1 X133.001 Y62.575 E.01887
G1 X132.823 Y62.008 E.02112
G1 X132.791 Y61.419 E.02096
G1 X132.803 Y61.351 E.00245
G1 X132.907 Y60.832 E.01881
G1 X133.164 Y60.297 E.02109
G1 X133.546 Y59.842 E.02111
G1 X134.03 Y59.495 E.02117
G1 X134.623 Y59.272 E.02252
G1 X135.172 Y59.208 E.01964
G1 X135.761 Y59.285 E.02111
G1 X136.314 Y59.506 E.02117
G1 X136.794 Y59.858 E.02116
G1 X137.191 Y60.348 E.02241
G1 X137.434 Y60.89 E.02111
G1 X137.533 Y61.439 E.01983
G1 X137.488 Y62.069 E.02245
G1 X137.295 Y62.632 E.02115
G1 X136.969 Y63.128 E.0211
G1 X136.53 Y63.528 E.02111
G1 X136.043 Y63.789 E.01964
G1 X135.429 Y63.946 E.02252
G1 X134.834 Y63.938 E.02115
G1 X134.323 Y63.801 E.0188
G1 X134.258 Y63.782 E.00241
G1 X133.743 Y63.491 E.02102
G1 X133.709 Y63.458 E.00168
G1 X133.42 Y63.181 F78000
G1 E-2 F3000
G1 X133.244 Y63.365 F78000
G1 X133.183 Y63.307
G1 X133.117 Y63.239
G1 X133.066 Y63.16
G1 X132.773 Y62.683
G1 X132.741 Y62.593
G1 X132.574 Y62.058
G1 X132.563 Y61.959
G1 X132.533 Y61.404
G1 X132.555 Y60.727
G1 X132.587 Y60.616
G1 X132.919 Y60.153
G1 X132.986 Y60.073
G1 X133.364 Y59.665
G1 X133.441 Y59.6
G1 X133.893 Y59.277
G1 X133.984 Y59.235
G1 X134.504 Y59.039
G1 X134.602 Y59.019
G1 X134.628 Y59.016
G1 X134.61 Y58.863
G1 E2 F3000
;TYPE:Perimeter
G1 F1200
G1 X134.817 Y58.818 E.00753
G1 X135.108 Y58.806 E.01035
G1 X134.67 Y58.857 E.01567
G1 X134.67 Y58.857 F78000
G1 X136.42 Y58.609
;TYPE:External perimeter
G1 F1200
G1 X136.562 Y58.376 E.0097
G1 X137.242 Y57.255 E.0466
G1 X140.273 Y57.322 E.10775
G1 X141.73 Y59.98 E.10773
G1 X140.156 Y62.571 E.10775
G1 X138.256 Y62.529 E.06754
G1 X138.36 Y61.668 E.03082
G1 X138.32 Y61.072 E.02123
G1 X138.169 Y60.494 E.02123
G1 X137.914 Y59.953 E.02126
G1 X137.562 Y59.47 E.02124
G1 X137.127 Y59.06 E.02125
G1 X136.471 Y58.641 E.02767
G1 X136.626 Y58.273 F78000
G1 X135.205 Y58.802
;TYPE:Perimeter
G1 F1200
G1 X135.306 Y58.798 E.00359
G1 X136.151 Y58.92 E.03034
G1 X136.498 Y59.141 E.01462
G1 X135.865 Y58.888 E.02423
G1 X135.264 Y58.81 E.02154
G1 X135.264 Y58.81 F78000
G1 X137.021 Y59.519
G1 F1200
G1 X136.551 Y59.176 E.02068
G1 X136.876 Y59.383 E.01369
G1 X136.977 Y59.478 E.00493
G1 X136.977 Y59.478 F78000
G1 X137.117 Y59.609
G1 F1200
G1 X137.256 Y59.74 E.00679
G1 X137.562 Y60.162 E.01853
G1 X137.785 Y60.633 E.01852
G1 X137.812 Y60.739 E.00389
G1 X137.541 Y60.133 E.02359
G1 X137.154 Y59.656 E.02183
G1 X137.154 Y59.656 F78000
G1 X137.93 Y61.35
G1 F1200
G1 X137.839 Y60.841 E.01838
G1 X137.916 Y61.138 E.0109
G1 X137.926 Y61.29 E.00541
G1 X137.926 Y61.29 F78000
G1 X137.938 Y61.471
G1 F1200
G1 X137.951 Y61.658 E.00666
G1 X137.846 Y62.529 E.03118
G1 X137.36 Y63.302 E.03245
G1 X137.301 Y63.363 E.00302
G1 X137.663 Y62.813 E.0234
G1 X137.891 Y62.151 E.02488
G1 X137.934 Y61.531 E.02209
G1 E-2 F3000
G1 X137.934 Y61.531 F78000
G1 X137.786 Y61.521
G1 X137.75 Y62.042
G1 X137.735 Y62.141
G1 X137.561 Y62.669
G1 X137.518 Y62.76
G1 X137.214 Y63.225
G1 X137.151 Y63.304
G1 X136.238 Y64.31
G1 X135.827 Y64.469
G1 X135.644 Y64.901
G1 X135.519 Y65.444
G1 X135.525 Y65.455
G1 X135.545 Y65.445
G1 E2 F3000
;TYPE:External perimeter
G1 F1200
G1 X136.009 Y64.681 E.03177
G1 X136.697 Y64.391 E.02654
G1 X137.232 Y64.023 E.02308
G1 X137.683 Y63.554 E.02313
G1 X138.025 Y63.009 E.02287
G1 X138.109 Y62.876 E.00559
G1 X140.149 Y62.921 E.07252
G1 X141.606 Y65.579 E.10773
G1 X140.032 Y68.17 E.10775
G1 X137.102 Y68.105 E.10416
G1 X136.774 Y67.687 E.01888
G1 X135.574 Y65.497 E.08875
G1 X135.739 Y65.133 F78000
G1 X136.828 Y63.807
;TYPE:Perimeter
G1 F1200
G1 X137.205 Y63.463 E.01814
G1 X136.968 Y63.711 E.01219
G1 X136.877 Y63.773 E.00391
G1 X136.877 Y63.773 F78000
G1 X136.268 Y64.13
G1 F1200
G1 X136.676 Y63.911 E.01646
G1 X136.5 Y64.032 E.00759
G1 X136.323 Y64.107 E.00683
G1 X136.323 Y64.107 F78000
G1 X135.214 Y65.205
G1 F1200
G1 X135.047 Y65.202 E.00594
G1 X135.165 Y64.505 E.02512
G1 X134.208 Y64.192 E.03579
G1 X134.777 Y64.345 E.02094
G1 X135.478 Y64.354 E.02492
G1 X136.138 Y64.185 E.02421
G1 X135.73 Y64.357 E.01574
G1 X135.245 Y65.154 E.03316
G1 X135.245 Y65.154 F78000
G1 X134.083 Y64.151
G1 F1200
G1 X134.028 Y64.133 E.00206
G1 X133.558 Y63.865 E.01923
G1 X133.522 Y63.834 E.00169
G1 X134.031 Y64.121 E.02077
G1 X134.031 Y64.121 F78000
G1 X133.413 Y63.739
G1 F1200
G1 X133.11 Y63.474 E.01431
G1 X133.04 Y63.381 E.00414
G1 X133.37 Y63.697 E.01624
G1 X133.37 Y63.697 F78000
G1 X132.934 Y63.239
G1 F1200
G1 X132.771 Y63.022 E.00965
G1 X132.682 Y62.833 E.00742
G1 X132.902 Y63.188 E.01484
G1 X132.902 Y63.188 F78000
G1 X132.602 Y62.662
G1 F1200
G1 X132.53 Y62.509 E.00601
G1 X132.452 Y62.184 E.01188
G1 X132.584 Y62.605 E.01568
G1 E-2 F3000
G1 X132.439 Y62.665 F78000
G1 X134.31 Y64.382
G1 X135.007 Y64.6
G1 X134.645 Y65.272
G1 X134.626 Y65.272
G1 X134.626 Y65.249
G1 E2 F3000
;TYPE:External perimeter
G1 F1200
G1 X132.216 Y65.196 E.08568
G1 X130.758 Y62.538 E.10775
G1 X131.573 Y61.196 E.0558
G1 X131.969 Y61.3 E.01455
G1 X131.992 Y62.012 E.02532
G1 X132.144 Y62.645 E.02314
G1 X132.421 Y63.233 E.0231
G1 X132.81 Y63.753 E.02308
G1 X133.321 Y64.199 E.02411
G1 X133.862 Y64.507 E.02213
G1 X134.705 Y64.783 E.03153
G1 X134.636 Y65.19 E.01467
G1 X134.239 Y65.239 F78000
G1 E-2 F3000
G1 X134.239 Y65.263 F78000
G1 X132.202 Y65.218
G1 X130.465 Y62.684
G1 X127.637 Y62.621
G1 X127.422 Y62.617
G1 X127.421 Y62.639
G1 E2 F3000
G1 F1200
G1 X130.452 Y62.706 E.10775
G1 X131.909 Y65.364 E.10773
G1 X130.335 Y67.955 E.10775
G1 X127.661 Y67.896 E.09506
G1 X126.544 Y66.499 E.06357
G1 X125.848 Y65.23 E.05144
G1 X125.96 Y65.046 E.00766
G1 X127.39 Y62.69 E.09795
G1 X127.788 Y62.651 F78000
G1 E-2 F3000
G1 X127.789 Y62.625 F78000
G1 X127.409 Y62.616
G1 X125.821 Y65.229
G1 X125.902 Y65.637
G1 X125.636 Y65.69
G1 E2 F3000
;TYPE:Perimeter
G1 F1200
G1 X126.162 Y66.649 E.03887
G1 X125.532 Y65.861 E.03586
G1 X125.604 Y65.741 E.00497
G1 E-2 F3000
G1 X125.604 Y65.741 F78000
G1 X125.914 Y65.712
G1 X125.945 Y66.042
G1 X126.337 Y66.637
G1 X127.37 Y67.928
G1 X127.59 Y68.038
G1 X130.341 Y68.283
G1 X131.811 Y70.963
G1 X131.804 Y70.974
G1 X131.785 Y70.963
G1 E2 F3000
;TYPE:External perimeter
G1 F1200
G1 X131.078 Y72.127 E.0484
G1 X128.484 Y68.922 E.14654
G1 X127.944 Y68.252 E.03058
G1 X130.328 Y68.305 E.08475
G1 X131.756 Y70.91 E.10558
G1 X131.591 Y71.275 F78000
G1 X132.092 Y70.795
G1 F1200
G1 X130.634 Y68.137 E.10775
G1 X130.746 Y67.953 E.00766
G1 X132.208 Y65.546 E.10009
G1 X135.238 Y65.613 E.10772
G1 X136.695 Y68.271 E.10773
G1 X135.122 Y70.862 E.10773
G1 X132.152 Y70.796 E.10558
G1 X131.919 Y70.471 F78000
G1 X132.084 Y71.144
G1 F1200
G1 X135.114 Y71.212 E.10772
G1 X136.571 Y73.869 E.1077
G1 X134.998 Y76.46 E.10773
G1 X134.634 Y76.452 E.01294
G1 X131.312 Y72.416 E.18579
G1 X131.414 Y72.248 E.00699
G1 X132.053 Y71.196 E.04375
G1 X132.451 Y71.157 F78000
G1 E-2 F3000
G1 X132.451 Y71.13 F78000
G1 X135.128 Y71.189
G1 X136.865 Y73.723
G1 X137.101 Y73.729
G1 X137.719 Y74.047
G1 X137.718 Y74.07
G1 E2 F3000
G1 F1200
G1 X137.414 Y75.426 E.04939
G1 X137.24 Y76.08 E.02405
G1 X137.148 Y76.374 E.01095
G1 X136.884 Y77.053 E.02589
G1 X136.675 Y77.505 E.0177
G1 X136.237 Y78.357 E.03405
G1 X135.297 Y76.642 E.06951
G1 X135.409 Y76.458 E.00766
G1 X136.87 Y74.051 E.10007
G1 X137.658 Y74.069 E.02801
G1 X137.63 Y74.468 F78000
G1 E-2 F3000
G1 X137.761 Y74.463 F78000
G1 X137.747 Y74.048
G1 X136.858 Y74.028
G1 X135.271 Y76.641
G1 X135.303 Y76.795
G1 X134.956 Y76.867
G1 E2 F3000
;TYPE:Perimeter
G1 F1200
G1 X135.857 Y78.51 E.0666
G1 X134.463 Y76.856 E.07688
G1 X134.896 Y76.865 E.01539
G1 E-2 F3000
G1 X134.896 Y76.865 F78000
G1 X136.878 Y73.701
G1 E2 F3000
;TYPE:External perimeter
G1 F1200
G1 X135.421 Y71.043 E.10773
G1 X136.912 Y68.588 E.10209
G1 X136.994 Y68.453 E.00561
G1 X140.025 Y68.52 E.10775
G1 X140.288 Y68.999 E.01942
G1 X139.129 Y70.834 E.07714
G1 X138.98 Y71.087 E.01044
G1 X138.729 Y71.565 E.01919
G1 X138.092 Y72.977 E.05505
G1 X137.828 Y73.722 E.02809
G1 X136.938 Y73.703 E.03164
G1 X136.705 Y73.377 F78000
G1 E-2 F3000
G1 X136.682 Y73.39 F78000
G1 X135.395 Y71.043
G1 X136.982 Y68.43
G1 X140.045 Y68.192
G1 X140.773 Y67.632
G1 X141.012 Y67.3
G1 X141.436 Y66.601
G1 X141.632 Y65.579
G1 X140.43 Y62.752
G1 X141.784 Y60.522
G1 X142.01 Y60.15
G1 X142.029 Y60.162
G1 E2 F3000
G1 F1200
G1 X145.059 Y60.229 E.10772
G1 X146.516 Y62.887 E.10773
G1 X145.389 Y64.744 E.0772
G1 X144.775 Y64.929 E.02279
G1 X144.414 Y65.055 E.01359
G1 X143.983 Y65.221 E.01642
G1 X143.471 Y65.445 E.01986
G1 X141.913 Y65.411 E.05539
G1 X140.456 Y62.753 E.10773
G1 X140.584 Y62.541 E.0088
G1 X141.998 Y60.213 E.09681
G1 X142.396 Y60.174 F78000
G1 E-2 F3000
G1 X142.396 Y60.148 F78000
G1 X142.016 Y60.139
G1 X140.43 Y62.752
G1 X141.899 Y65.433
G1 X142.344 Y65.58
G1 X142.459 Y65.638
G1 X142.163 Y66.231
G1 E2 F3000
;TYPE:Perimeter
G1 F1200
G1 X143.633 Y66.263 E.05226
G1 X144.292 Y65.975 E.02556
G1 X144.695 Y65.82 E.01535
G1 X145.027 Y65.704 E.0125
G1 X145.923 Y65.432 E.03328
G1 X147.456 Y62.908 E.10496
G1 X146.332 Y60.857 E.08312
G1 X147.121 Y62.069 E.0514
G1 X147.954 Y63.273 E.05203
G1 X148.732 Y64.369 E.04777
G1 X150.218 Y66.417 E.08993
G1 X151.363 Y67.904 E.0667
G1 X151.958 Y68.639 E.03361
G1 X152.596 Y69.399 E.03527
G1 X153.413 Y70.325 E.04389
G1 X154.806 Y71.811 E.07239
G1 X155.37 Y72.378 E.02842
G1 X156.192 Y73.173 E.04064
G1 X157.495 Y74.363 E.06272
G1 X158.649 Y75.322 E.05333
G1 X159.495 Y75.955 E.03755
G1 X160.066 Y76.337 E.02442
G1 X161.008 Y76.916 E.0393
G1 X161.826 Y77.366 E.03318
G1 X162.657 Y77.788 E.03312
G1 X164.024 Y78.42 E.05353
G1 X165.905 Y79.214 E.07257
G1 X167.5 Y79.946 E.06237
G1 X168.231 Y80.213 E.02766
G1 X168.645 Y80.317 E.01517
G1 X169.372 Y80.462 E.02635
G1 X169.624 Y80.528 E.00926
G1 X169.859 Y80.617 E.00893
G1 X169.998 Y80.787 E.0078
G1 X170.17 Y81.056 E.01135
G1 X170.349 Y81.409 E.01407
G1 X170.512 Y81.784 E.01453
G1 X170.925 Y82.883 E.04173
G1 X171.221 Y83.765 E.03307
G1 X171.237 Y83.834 E.00252
G1 X171.056 Y84.32 E.01843
G1 X170.752 Y85.039 E.02774
G1 X170.416 Y85.791 E.02927
G1 X169.784 Y87.087 E.05125
G1 X169.413 Y87.76 E.02731
G1 X169.147 Y88.198 E.01821
G1 X168.334 Y89.392 E.05134
G1 X167.424 Y90.59 E.05347
G1 X166.573 Y91.654 E.04842
G1 X165.83 Y92.502 E.04007
G1 X165.331 Y93.012 E.02536
G1 X164.741 Y93.57 E.02886
G1 X163.548 Y94.616 E.05639
G1 X162.873 Y95.177 E.03119
G1 X162.028 Y95.851 E.03842
G1 X161.538 Y96.222 E.02184
G1 X160.812 Y96.73 E.03149
G1 X159.907 Y97.322 E.03844
G1 X159.394 Y97.633 E.02132
G1 X158.901 Y97.909 E.02008
G1 X156.439 Y99.203 E.09885
G1 X156.744 Y98.926 E.01464
G1 X157.183 Y98.26 E.02835
G1 X157.446 Y97.499 E.02862
G1 X157.506 Y96.65 E.03025
G1 X157.373 Y95.914 E.02658
G1 X157.047 Y95.184 E.02841
G1 X156.51 Y94.521 E.03032
G1 X155.861 Y94.047 E.02856
G1 X155.117 Y93.751 E.02846
