; generated by PrusaSlicer 2.7.2+MacOS-arm64 on 2024-03-04 at 13:43:43 UTC


;
;

;
;

;
;

;
;

;
;
; 

; external perimeters extrusion width = 0.45mm
; perimeters extrusion width = 0.45mm
; infill extrusion width = 0.45mm
; solid infill extrusion width = 0.45mm
; top infill extrusion width = 0.40mm

M73 P0 R26

EXCLUDE_OBJECT_DEFINE NAME='Bugout_Scale_Honeycomb_left' CENTER=89.069,108.954 POLYGON=[[90.466,54.962],[92.269,55.042],[94.553,55.314],[99.031,56.235],[99.492,56.384],[99.953,56.727],[100.506,57.429],[100.666,57.863],[100.728,63.072],[101.320,76.744],[101.656,89.966],[101.661,103.314],[101.420,116.656],[100.677,131.185],[99.668,146.362],[98.553,156.095],[98.333,159.029],[98.152,159.787],[97.774,160.779],[96.980,162.214],[96.667,162.519],[95.652,163.172],[92.315,164.326],[90.370,164.833],[88.129,165.040],[86.038,165.024],[85.029,164.897],[83.980,164.642],[81.723,163.913],[78.582,162.356],[76.578,161.146],[75.961,160.530],[75.630,159.978],[75.097,156.835],[75.053,156.271],[75.111,155.512],[75.686,154.103],[76.986,149.284],[77.423,146.382],[77.718,143.487],[77.892,138.044],[77.639,131.512],[77.678,126.622],[77.439,114.940],[77.444,109.265],[77.909,102.723],[78.373,99.073],[79.184,93.690],[79.351,91.993],[79.636,87.413],[79.692,83.830],[79.612,81.760],[79.329,78.718],[78.925,76.091],[78.349,73.776],[77.404,71.374],[74.943,66.526],[73.568,64.596],[73.348,64.023],[73.323,63.284],[73.633,61.799],[74.231,60.047],[74.614,59.224],[74.867,58.959],[75.493,58.557],[77.956,57.301],[79.467,56.669],[80.923,56.198],[85.054,55.258],[87.433,55.019]]

;TYPE:Custom
CALCULATE_PA MATERIAL=PLA BOWDEN_LENGTH=6 LAYER_HEIGHT=0.2 NOZZLE_SIZE=0.4 PRINT_SPEED=0


START_PRINT EXTRUDER=230 BED=65
G21 ; set units to millimeters
G90 ; use absolute coordinates
M83 ; use relative distances for extrusion
; Filament gcode
M107
;LAYER_CHANGE
;Z:0.2
;HEIGHT:0.2
G1 E-2 F3000
EXCLUDE_OBJECT_START NAME='Bugout_Scale_Honeycomb_left'
G1 Z.2 F78000
G1 X92.94 Y108.886
G1 Z.2
G1 E2 F3000
;TYPE:External perimeter
;WIDTH:0.45
G1 F1200
G1 X92.401 Y111.868 E.1077
G1 X89.548 Y112.892 E.10773
G1 X87.234 Y110.934 E.10773
G1 X87.774 Y107.951 E.10774
G1 X87.977 Y107.878 E.00767
G1 X90.627 Y106.927 E.10007
G1 X92.894 Y108.847 E.10559
G1 X92.871 Y109.246 F78000
G1 E-2 F3000
G1 X84.155 Y112.225 F78000
G1 E2 F3000
G1 F1200
G1 X84.358 Y112.152 E.00767
G1 X87.008 Y111.201 E.10007
G1 X89.322 Y113.159 E.10773
G1 X88.782 Y116.142 E.10774
G1 X85.929 Y117.166 E.10773
G1 X83.616 Y115.208 E.10771
G1 X84.145 Y112.284 E.10561
G1 X84.502 Y112.105 F78000
G1 E-2 F3000
G1 X83.835 Y112.154 F78000
G1 X83.291 Y115.162
G1 X80.414 Y116.195
G1 X80.404 Y116.187
G1 X80.419 Y116.169
G1 E2 F3000
G1 F1200
G1 X79.218 Y115.153 E.05591
G1 X79.199 Y111.029 E.14657
G1 X79.411 Y110.953 E.008
G1 X81.498 Y110.204 E.07881
G1 X83.811 Y112.163 E.10773
G1 X83.272 Y115.145 E.1077
G1 X80.475 Y116.149 E.10562
G1 X80.141 Y115.929 F78000
G1 E-2 F3000
G1 X80.124 Y115.949 F78000
G1 X79.067 Y115.225
G1 X78.969 Y114.997
G1 X78.967 Y114.827
G1 X78.965 Y114.599
G1 X78.961 Y114.174
G1 X78.959 Y113.868
G1 X78.955 Y113.007
G1 X78.953 Y112.701
G1 X78.953 Y112.31
G1 X78.952 Y111.235
G1 X78.959 Y110.025
G1 X78.96 Y109.968
G1 X78.964 Y109.649
G1 X78.971 Y109.341
G1 X78.984 Y108.911
G1 X78.999 Y108.589
G1 X79.008 Y108.387
G1 X79.024 Y108.065
G1 X79.027 Y108.022
G1 X79.046 Y107.717
G1 X79.073 Y107.286
G1 X79.102 Y106.856
G1 X79.192 Y105.566
G1 X79.446 Y105.125
G1 X79.586 Y105.065
G1 X79.488 Y104.833
G1 E2 F3000
G1 F1200
G1 X81.919 Y106.892 E.11323
G1 X81.38 Y109.875 E.10774
G1 X79.196 Y110.658 E.08246
G1 X79.232 Y108.92 E.06178
G1 X79.273 Y108.04 E.03131
G1 X79.484 Y104.893 E.1121
G1 X79.82 Y105.109 F78000
G1 E-2 F3000
G1 X79.832 Y105.095 F78000
G1 X82.141 Y106.65
G1 X85.008 Y105.945
G1 X85.433 Y106.169
G1 X87.454 Y107.88
G1 X87.452 Y107.893
G1 X87.43 Y107.889
G1 E2 F3000
G1 F1200
G1 X86.89 Y110.871 E.10771
G1 X84.037 Y111.895 E.10773
G1 X81.724 Y109.937 E.10771
G1 X82.263 Y106.954 E.10774
G1 X82.463 Y106.882 E.00755
G1 X85.006 Y105.97 E.09602
G1 X85.42 Y106.187 E.01661
G1 X87.384 Y107.85 E.09147
G1 X87.36 Y108.249 F78000
G1 E-2 F3000
G1 X87.386 Y108.254 F78000
G1 X87.454 Y107.88
G1 X85.433 Y106.169
G1 X85.008 Y105.945
G1 X82.141 Y106.65
G1 X79.799 Y104.678
G1 X79.8 Y104.442
G1 X79.74 Y104.226
G1 X79.485 Y104.298
G1 E2 F3000
;TYPE:Perimeter
G1 F1200
G1 X79.17 Y104.031 E.01468
G1 X79.35 Y102.268 E.06298
G1 X79.475 Y101.229 E.03719
G1 X79.965 Y101.643 E.0228
G1 X79.496 Y104.239 E.09376
G1 E-2 F3000
G1 X79.496 Y104.239 F78000
G1 X79.726 Y104.174
G1 X79.799 Y104.678
G1 X82.141 Y106.65
G1 X84.855 Y105.677
G1 X85.018 Y105.617
G1 X85.02 Y105.605
G1 X84.998 Y105.601
G1 E2 F3000
;TYPE:External perimeter
G1 F1200
G1 X82.145 Y106.625 E.10773
G1 X79.832 Y104.666 E.10773
G1 X80.371 Y101.684 E.1077
G1 X83.05 Y100.722 E.10117
G1 X83.224 Y100.659 E.00658
G1 X85.538 Y102.618 E.10776
G1 X85.009 Y105.542 E.10561
G1 X84.651 Y105.721 F78000
G1 E-2 F3000
G1 X85.318 Y105.672 F78000
G1 X85.862 Y102.664
G1 X87.459 Y102.082
G1 X90.117 Y103.229
G1 X90.676 Y103.171
G1 X90.841 Y103.37
G1 X90.86 Y103.39
G1 X90.824 Y103.425
G1 E2 F3000
G1 F1200
G1 X91.048 Y103.615 E.01044
G1 X90.509 Y106.598 E.10774
G1 X87.656 Y107.622 E.10773
G1 X85.342 Y105.663 E.10776
G1 X85.882 Y102.68 E.10774
G1 X86.06 Y102.616 E.00672
G1 X87.451 Y102.117 E.05252
G1 X87.966 Y102.674 E.02696
G1 X88.439 Y103.026 E.02096
G1 X88.968 Y103.285 E.02093
G1 X89.535 Y103.443 E.02092
G1 X90.122 Y103.494 E.02094
G1 X90.764 Y103.431 E.02293
G1 X91.035 Y103.725 F78000
G1 X90.243 Y103.073
;TYPE:Perimeter
G1 F1200
G1 X90.12 Y103.085 E.00439
G1 X89.608 Y103.04 E.01827
G1 X89.113 Y102.903 E.01825
G1 X88.982 Y102.838 E.0052
G1 X89.552 Y103.024 E.02131
G1 X90.183 Y103.068 E.02248
G1 X90.183 Y103.068 F78000
G1 X88.871 Y102.784
G1 F1200
G1 X88.652 Y102.677 E.00866
G1 X88.399 Y102.489 E.0112
G1 X88.82 Y102.752 E.01764
G1 X88.82 Y102.752 F78000
G1 X88.321 Y102.43
G1 F1200
G1 X88.239 Y102.37 E.00361
G1 X87.659 Y101.743 E.03036
G1 X87.529 Y101.353 E.01461
G1 X87.862 Y101.948 E.02423
G1 X88.279 Y102.387 E.02152
G1 X88.279 Y102.387 F78000
G1 X87.355 Y100.689
G1 F1200
G1 X87.508 Y101.289 E.02201
G1 X87.387 Y100.927 E.01357
G1 X87.363 Y100.749 E.00638
G1 X87.363 Y100.749 F78000
G1 X87.502 Y99.307
G1 F1200
G1 X87.343 Y99.926 E.02271
G1 X87.338 Y100.567 E.02278
G1 X87.317 Y100.411 E.00559
G1 X87.344 Y99.89 E.01854
G1 X87.467 Y99.384 E.01851
G1 X87.477 Y99.362 E.00086
G1 X87.477 Y99.362 F78000
G1 X87.825 Y98.706
G1 F1200
G1 X87.528 Y99.249 E.022
G1 X87.683 Y98.909 E.01328
G1 X87.791 Y98.755 E.00669
G1 E-2 F3000
G1 X87.791 Y98.755 F78000
G1 X89.561 Y97.566
G1 E2 F3000
G1 F1200
G1 X88.933 Y97.766 E.02342
G1 X88.343 Y98.136 E.02475
G1 X87.898 Y98.602 E.0229
G1 X87.982 Y98.483 E.00518
G1 X88.612 Y97.872 E.03119
G1 X89.476 Y97.577 E.03245
G1 X89.501 Y97.574 E.00089
G1 E-2 F3000
G1 X89.501 Y97.574 F78000
G1 X89.542 Y97.728
G1 X89.64 Y97.707
G1 X90.194 Y97.672
G1 X90.294 Y97.673
G1 X90.84 Y97.776
G1 X90.937 Y97.801
G1 X91.461 Y97.994
G1 X91.559 Y98.037
G1 X91.85 Y98.309
G1 X91.655 Y98.517
G1 E2 F3000
;TYPE:External perimeter
G1 F1200
G1 X91.841 Y98.672 E.00861
G1 X92.189 Y99.152 E.02107
G1 X92.394 Y99.67 E.0198
G1 X92.482 Y100.295 E.02243
G1 X92.394 Y100.919 E.0224
G1 X92.189 Y101.437 E.0198
G1 X91.84 Y101.919 E.02115
G1 X91.347 Y102.317 E.02252
G1 X90.847 Y102.552 E.01964
G1 X90.263 Y102.666 E.02115
G1 X89.631 Y102.621 E.02252
G1 X89.105 Y102.45 E.01966
G1 X88.602 Y102.136 E.02107
G1 X88.192 Y101.705 E.02114
G1 X87.901 Y101.185 E.02118
G1 X87.745 Y100.573 E.02245
G1 X87.75 Y99.979 E.02111
G1 X87.888 Y99.439 E.01981
G1 X88.192 Y98.885 E.02246
G1 X88.602 Y98.454 E.02114
G1 X89.105 Y98.139 E.02109
G1 X89.671 Y97.958 E.02112
G1 X90.222 Y97.923 E.01962
G1 X90.846 Y98.036 E.02254
G1 X91.384 Y98.292 E.02118
G1 X91.609 Y98.479 E.0104
G1 X91.894 Y98.76 F78000
G1 E-2 F3000
G1 X92.119 Y98.604 F78000
G1 X92.042 Y98.493
G1 X91.97 Y98.421
G1 X91.559 Y98.037
G1 X91.461 Y97.994
G1 X90.937 Y97.801
G1 X90.84 Y97.776
G1 X90.294 Y97.673
G1 X90.194 Y97.672
G1 X90.19 Y97.518
G1 E2 F3000
;TYPE:Perimeter
G1 F1200
G1 X89.7 Y97.548 E.01745
G1 X90.039 Y97.506 E.01214
G1 X90.13 Y97.513 E.00324
G1 X90.13 Y97.513 F78000
G1 X90.87 Y97.627
G1 F1200
G1 X90.323 Y97.528 E.01976
G1 X90.604 Y97.55 E.01002
G1 X90.812 Y97.61 E.00769
G1 X90.812 Y97.61 F78000
G1 X92.469 Y97.555
G1 F1200
G1 X91.939 Y98.022 E.02511
G1 X92.494 Y98.88 E.03632
G1 X92.14 Y98.391 E.02146
G1 X91.605 Y97.946 E.02473
G1 X91.031 Y97.674 E.02258
G1 X91.407 Y97.783 E.01391
G1 X92.342 Y97.447 E.03531
G1 X92.423 Y97.516 E.00378
G1 X92.423 Y97.516 F78000
G1 X92.826 Y97.783
;TYPE:External perimeter
G1 F1200
G1 X94.667 Y99.341 E.08572
G1 X94.127 Y102.324 E.10774
G1 X92.65 Y102.854 E.05577
G1 X92.408 Y102.525 E.01452
G1 X92.838 Y101.956 E.02535
G1 X93.117 Y101.369 E.0231
G1 X93.272 Y100.738 E.02309
G1 X93.296 Y100.088 E.02312
G1 X93.18 Y99.421 E.02406
G1 X92.953 Y98.841 E.02214
G1 X92.472 Y98.095 E.03155
G1 X92.781 Y97.822 E.01465
G1 X93.121 Y98.034 F78000
G1 X92.558 Y98.978
;TYPE:Perimeter
G1 F1200
G1 X92.589 Y99.027 E.00206
G1 X92.786 Y99.531 E.01923
G1 X92.888 Y100.116 E.02111
G1 X92.884 Y100.231 E.00409
G1 X92.79 Y99.565 E.02391
G1 X92.58 Y99.034 E.02029
G1 X92.58 Y99.034 F78000
G1 X92.877 Y100.404
G1 F1200
G1 X92.867 Y100.681 E.00985
G1 X92.8 Y100.956 E.01006
G1 X92.869 Y100.463 E.01769
G1 X92.869 Y100.463 F78000
G1 X92.771 Y101.071
G1 F1200
G1 X92.732 Y101.232 E.00589
G1 X92.588 Y101.533 E.01186
G1 X92.749 Y101.127 E.01552
G1 X92.749 Y101.127 F78000
G1 X92.525 Y101.667
G1 F1200
G1 X92.488 Y101.744 E.00304
G1 X91.9 Y102.521 E.03463
G1 X92.215 Y102.949 E.01889
G1 X91.286 Y103.283 E.03509
G1 X90.955 Y103.003 E.01541
G1 X90.366 Y103.061 E.02104
G1 X90.974 Y102.942 E.02202
G1 X91.565 Y102.664 E.02321
G1 X92.138 Y102.202 E.02616
G1 X92.49 Y101.716 E.02133
G1 E-2 F3000
G1 X92.49 Y101.716 F78000
G1 X92.632 Y101.786
G1 X92.087 Y102.522
G1 X91.373 Y103.66
G1 X90.829 Y106.669
G1 X93.162 Y108.644
G1 X93.174 Y108.64
G1 X93.166 Y108.618
G1 E2 F3000
;TYPE:External perimeter
G1 F1200
G1 X90.853 Y106.66 E.10771
G1 X91.393 Y103.677 E.10774
G1 X94.084 Y102.711 E.10162
G1 X94.245 Y102.653 E.00608
G1 X96.559 Y104.612 E.10776
G1 X96.019 Y107.594 E.10771
G1 X93.223 Y108.598 E.10559
G1 X92.889 Y108.378 F78000
M73 P1 R26
G1 E-2 F3000
G1 X92.872 Y108.398 F78000
G1 X94.328 Y108.549
G1 X96.142 Y107.898
G1 X98.672 Y109.641
G1 X99.398 Y109.38
G1 X99.839 Y109.249
G1 X99.825 Y109.203
G1 E2 F3000
G1 F1200
G1 X98.677 Y109.615 E.04335
G1 X96.364 Y107.657 E.10771
G1 X96.903 Y104.674 E.10774
G1 X97.104 Y104.602 E.00759
G1 X99.884 Y103.604 E.10498
G1 X99.826 Y109.143 E.19687
G1 X99.47 Y109.327 F78000
G1 E-2 F3000
G1 X99.479 Y109.356 F78000
G1 X99.874 Y109.238
G1 X100.078 Y108.706
G1 X100.083 Y108.292
G1 X100.093 Y107.334
G1 X100.125 Y104.2
G1 X99.906 Y103.572
G1 X100.092 Y103.097
G1 E2 F3000
;TYPE:Perimeter
G1 F1200
G1 X100.286 Y102.021 E.03886
G1 X100.281 Y103.029 E.03583
G1 X100.148 Y103.076 E.00501
G1 E-2 F3000
G1 X100.148 Y103.076 F78000
G1 X99.889 Y102.904
G1 X99.658 Y103.338
G1 X97.202 Y104.219
G1 X96.792 Y104.366
G1 X96.785 Y104.345
G1 E2 F3000
;TYPE:External perimeter
G1 F1200
G1 X94.472 Y102.386 E.10773
G1 X95.011 Y99.403 E.10774
G1 X95.214 Y99.331 E.00766
G1 X97.864 Y98.379 E.10008
G1 X99.906 Y100.108 E.0951
G1 X99.895 Y101.896 E.06355
G1 X99.638 Y103.32 E.05143
G1 X96.841 Y104.324 E.10562
G1 X96.507 Y104.104 F78000
G1 E-2 F3000
G1 X96.49 Y104.124 F78000
G1 X94.447 Y102.395
G1 X94.991 Y99.387
G1 X97.867 Y98.354
G1 X98.608 Y95.125
G1 X98.63 Y95.129
G1 E2 F3000
G1 F1200
G1 X99.911 Y94.669 E.04837
G1 X99.91 Y99.653 E.17714
G1 X98.09 Y98.112 E.08476
G1 X98.619 Y95.188 E.10561
G1 X98.977 Y95.009 F78000
G1 X98.285 Y95.067
G1 F1200
G1 X97.746 Y98.05 E.10774
G1 X94.893 Y99.074 E.10773
G1 X92.58 Y97.115 E.10773
G1 X93.119 Y94.133 E.1077
G1 X95.754 Y93.187 E.0995
G1 X95.972 Y93.108 E.00824
G1 X98.239 Y95.028 E.10559
G1 X98.216 Y95.428 F78000
G1 E-2 F3000
G1 X98.507 Y94.825 F78000
G1 X96.174 Y92.85
G1 X96.638 Y90.283
G1 X96.716 Y89.855
G1 X96.393 Y89.796
G1 E2 F3000
G1 F1200
G1 X95.854 Y92.779 E.10774
G1 X93.001 Y93.803 E.10773
G1 X90.688 Y91.845 E.10771
G1 X90.785 Y91.306 E.01946
G1 X92.429 Y90.754 E.06164
G1 X93.115 Y90.506 E.02593
G1 X93.805 Y90.198 E.02686
G1 X94.985 Y89.6 E.04702
G1 X95.492 Y89.291 E.0211
G1 X95.665 Y89.18 E.00731
G1 X96.347 Y89.758 E.03177
G1 X96.324 Y90.157 F78000
G1 E-2 F3000
G1 X96.65 Y90.216 F78000
G1 X96.174 Y92.85
G1 X98.507 Y94.825
G1 X98.519 Y94.821
G1 X98.511 Y94.8
G1 E2 F3000
G1 F1200
G1 X96.198 Y92.841 E.10773
G1 X96.738 Y89.859 E.10771
G1 X96.94 Y89.786 E.00763
G1 X99.59 Y88.835 E.10007
G1 X99.868 Y89.07 E.01294
G1 X99.911 Y94.297 E.18578
G1 X98.568 Y94.78 E.05072
G1 X98.234 Y94.56 F78000
G1 E-2 F3000
G1 X98.217 Y94.58 F78000
G1 X98.507 Y94.825
G1 X99.958 Y94.331
G1 X100.156 Y93.832
G1 X100.154 Y93.458
G1 X100.139 Y91.181
G1 X100.135 Y90.623
G1 X100.128 Y89.994
G1 X100.124 Y89.671
G1 X100.119 Y89.345
G1 X100.079 Y88.969
G1 X99.772 Y88.868
G1 X99.879 Y88.545
G1 E2 F3000
;TYPE:Perimeter
G1 F1200
G1 X100.211 Y86.706 E.06642
G1 X100.253 Y88.862 E.07664
G1 X99.924 Y88.584 E.01531
G1 E-2 F3000
G1 X99.924 Y88.584 F78000
G1 X99.558 Y88.394
G1 X99.492 Y88.522
G1 X96.615 Y89.555
G1 X95.957 Y88.998
G1 X95.972 Y88.981
G1 E2 F3000
;TYPE:External perimeter
G1 F1200
G1 X97.062 Y88.119 E.04939
G1 X97.61 Y87.718 E.02413
G1 X98.07 Y87.422 E.01944
G1 X98.492 Y87.19 E.01712
G1 X98.952 Y86.964 E.01822
G1 X99.82 Y86.58 E.03373
G1 X99.472 Y88.505 E.06953
G1 X96.619 Y89.529 E.10773
G1 X96.018 Y89.02 E.02799
G1 X96.291 Y88.727 F78000
G1 E-2 F3000
G1 X96.186 Y88.649 F78000
G1 X95.963 Y89.399
G1 X96.418 Y89.788
G1 X95.873 Y92.796
G1 X93.099 Y94.116
G1 X93.019 Y94.557
G1 X92.765 Y95.966
G1 X92.257 Y97.057
G1 X92.235 Y97.053
G1 E2 F3000
G1 F1200
G1 X91.394 Y97.355 E.03176
G1 X90.677 Y97.147 E.02653
G1 X90.029 Y97.097 E.0231
G1 X89.384 Y97.178 E.0231
G1 X88.626 Y97.437 E.02847
G1 X87.069 Y96.118 E.07253
G1 X87.609 Y93.136 E.10771
G1 X87.842 Y93.052 E.0088
G1 X90.461 Y92.112 E.0989
G1 X92.699 Y94.006 E.1042
G1 X92.69 Y94.537 E.01888
G1 X92.246 Y96.994 E.08874
G1 X91.888 Y97.173 F78000
G1 E-2 F3000
G1 X91.973 Y97.26 F78000
G1 X91.817 Y97.413
G1 X91.403 Y97.634
G1 X88.617 Y97.485
G1 X86.847 Y96.36
G1 X84.811 Y97.091
G1 X83.879 Y97.101
G1 X83.872 Y97.08
G1 E2 F3000
G1 F1200
G1 X81.558 Y95.122 E.10773
G1 X82.098 Y92.139 E.10774
G1 X84.02 Y91.449 E.07258
G1 X84.142 Y91.405 E.00461
G1 X84.736 Y91.647 E.0228
G1 X85.096 Y91.776 E.01359
G1 X85.536 Y91.918 E.01643
G1 X86.074 Y92.066 E.01983
G1 X87.264 Y93.073 E.05541
G1 X86.725 Y96.056 E.10774
G1 X83.928 Y97.06 E.10562
G1 X83.594 Y96.84 F78000
G1 X83.646 Y97.347
G1 F1200
G1 X83.106 Y100.33 E.10774
G1 X80.253 Y101.354 E.10773
G1 X79.892 Y101.048 E.01682
G1 X80.33 Y98.034 E.10825
G1 X80.715 Y95.61 E.08723
G1 X81.332 Y95.389 E.02329
G1 X83.6 Y97.309 E.10561
G1 X83.576 Y97.708 F78000
G1 E-2 F3000
G1 X83.903 Y97.767 F78000
G1 X83.472 Y100.144
G1 X83.428 Y100.388
G1 X83.45 Y100.392
G1 E2 F3000
G1 F1200
G1 X83.99 Y97.41 E.10771
G1 X84.223 Y97.326 E.0088
G1 X86.843 Y96.386 E.09893
G1 X88.293 Y97.614 E.06753
G1 X87.672 Y98.218 E.03079
G1 X87.328 Y98.706 E.02122
G1 X87.081 Y99.251 E.02127
G1 X86.939 Y99.831 E.02122
G1 X86.908 Y100.428 E.02125
G1 X86.989 Y101.02 E.02124
G1 X87.255 Y101.816 E.02983
G1 X85.764 Y102.351 E.0563
G1 X83.496 Y100.431 E.10561
G1 X83.52 Y100.032 F78000
G1 E-2 F3000
G1 X83.494 Y100.027 F78000
G1 X83.426 Y100.401
G1 X85.759 Y102.376
G1 X87.459 Y102.082
G1 X90.117 Y103.229
G1 X90.676 Y103.171
G1 X91.073 Y103.606
G1 X90.829 Y106.669
G1 X93.162 Y108.644
G1 X96.142 Y107.898
G1 X98.133 Y109.584
G1 X98.465 Y109.865
G1 X98.451 Y109.882
G1 E2 F3000
G1 F1200
G1 X97.911 Y112.865 E.10774
G1 X95.058 Y113.889 E.10773
G1 X92.745 Y111.931 E.10771
G1 X93.285 Y108.948 E.10774
G1 X93.487 Y108.875 E.00763
G1 X96.137 Y107.924 E.10007
G1 X98.405 Y109.844 E.10561
G1 X98.382 Y110.243 F78000
G1 X99.822 Y109.576
G1 F1200
G1 X99.727 Y114.173 E.16342
G1 X98.256 Y112.927 E.06852
G1 X98.795 Y109.945 E.1077
G1 X99.765 Y109.596 E.03664
G1 X99.816 Y109.993 F78000
G1 E-2 F3000
