; generated by PrusaSlicer 2.7.2+MacOS-arm64 on 2024-03-04 at 07:17:10 UTC


;
;

;
;

;
;

;
;

;
;
; 

; external perimeters extrusion width = 0.45mm
; perimeters extrusion width = 0.45mm
; infill extrusion width = 0.45mm
; solid infill extrusion width = 0.45mm
; top infill extrusion width = 0.40mm

; external perimeters extrusion width = 0.45mm
; perimeters extrusion width = 0.45mm
; infill extrusion width = 0.45mm
; solid infill extrusion width = 0.45mm
; top infill extrusion width = 0.40mm

M73 P0 R76

EXCLUDE_OBJECT_DEFINE NAME='Bugout_Scale_Honeycomb_right' CENTER=108.841,173.226 POLYGON=[[76.529,132.874],[77.876,133.178],[79.594,133.716],[80.466,134.132],[81.057,134.576],[81.547,135.427],[82.069,137.065],[83.941,140.653],[84.752,142.115],[86.177,144.267],[87.744,146.066],[89.663,147.904],[91.993,149.880],[93.643,151.134],[96.610,153.143],[100.525,155.536],[102.011,156.373],[106.886,158.796],[110.141,160.510],[115.767,163.881],[120.419,167.132],[129.851,174.028],[133.879,176.801],[139.085,180.755],[143.644,183.734],[146.184,185.153],[148.812,186.460],[153.505,188.159],[154.989,188.496],[155.844,189.038],[157.651,190.733],[158.151,191.227],[158.501,191.760],[158.763,192.929],[158.605,195.265],[157.968,199.197],[156.988,202.003],[156.513,202.903],[155.327,204.625],[153.872,206.342],[152.341,207.644],[149.482,209.716],[148.148,210.235],[146.837,210.168],[145.763,209.961],[144.550,209.536],[142.021,208.034],[134.009,203.710],[122.527,196.787],[115.979,192.742],[107.730,187.542],[101.406,183.322],[93.108,177.609],[84.526,171.525],[75.433,164.786],[64.573,156.458],[60.342,153.421],[60.079,153.040],[59.783,151.913],[59.871,151.364],[60.201,150.482],[61.761,146.951],[62.588,145.374],[63.816,143.401],[65.603,140.949],[66.672,139.662],[68.128,138.204],[70.302,136.293],[71.524,135.370],[72.908,134.495],[75.058,133.340],[76.038,132.916]]
EXCLUDE_OBJECT_DEFINE NAME='Bugout_Scale_Honeycomb_left' CENTER=149.606,64.068 POLYGON=[[150.627,7.939],[152.222,8.207],[154.508,8.836],[157.716,10.251],[159.771,11.371],[160.415,11.960],[160.770,12.497],[161.442,15.613],[161.511,16.174],[161.486,16.935],[160.975,18.368],[159.888,23.240],[159.581,26.159],[159.415,29.064],[159.481,34.509],[160.024,41.024],[160.202,45.911],[160.958,57.571],[161.205,63.240],[161.030,69.797],[160.728,73.463],[160.156,78.877],[160.064,80.580],[159.983,85.168],[160.085,88.750],[160.258,90.814],[160.675,93.841],[161.195,96.447],[161.873,98.735],[162.924,101.092],[165.597,105.826],[167.056,107.693],[167.301,108.256],[167.359,108.993],[167.115,110.491],[166.596,112.267],[166.249,113.107],[166.008,113.382],[165.401,113.812],[162.996,115.175],[161.514,115.874],[160.081,116.409],[155.995,117.532],[153.629,117.875],[149.729,118.084],[146.503,117.896],[141.766,117.122],[141.255,116.901],[141.046,116.724],[140.462,116.047],[140.283,115.620],[139.955,109.960],[138.865,97.670],[138.315,90.518],[137.656,79.393],[136.996,61.437],[136.924,56.919],[136.966,47.572],[137.359,27.164],[138.041,17.391],[138.131,14.451],[138.423,13.199],[138.826,12.182],[139.472,11.040],[140.350,10.348],[140.996,10.022],[144.429,8.704],[145.829,8.299],[148.059,7.994]]

;TYPE:Custom
CALCULATE_PA MATERIAL=PLA BOWDEN_LENGTH=6 LAYER_HEIGHT=0.2 NOZZLE_SIZE=0.4 PRINT_SPEED=0


START_PRINT EXTRUDER=230 BED=65
G21 ; set units to millimeters
G90 ; use absolute coordinates
M83 ; use relative distances for extrusion
; Filament gcode
M107
;LAYER_CHANGE
;Z:0.2
;HEIGHT:0.2
G1 E-2 F3000
EXCLUDE_OBJECT_START NAME='Bugout_Scale_Honeycomb_left'
G1 Z.2 F78000
G1 X156.492 Y65.762
G1 Z.2
G1 E2 F3000
;TYPE:External perimeter
;WIDTH:0.45
G1 F1200
G1 X153.796 Y66.867 E.10356
G1 X153.373 Y66.668 E.01661
G1 X151.29 Y65.058 E.09357
G1 X151.697 Y62.054 E.10774
G1 X151.896 Y61.972 E.00765
G1 X154.501 Y60.904 E.10006
G1 X156.899 Y62.759 E.10775
G1 X156.5 Y65.703 E.10559
G1 X156.151 Y65.898 F78000
G1 E-2 F3000
G1 X148.097 Y69.667 F78000
G1 E2 F3000
G1 F1200
G1 X147.864 Y69.488 E.01044
G1 X148.271 Y66.484 E.10774
G1 X148.5 Y66.39 E.0088
G1 X151.076 Y65.334 E.09895
G1 X153.474 Y67.189 E.10775
G1 X153.067 Y70.192 E.10771
G1 X151.524 Y70.824 E.05926
G1 X150.985 Y70.291 E.02694
G1 X150.497 Y69.96 E.02096
G1 X149.957 Y69.725 E.02093
G1 X149.383 Y69.593 E.02093
G1 X148.795 Y69.568 E.02092
G1 X148.156 Y69.659 E.02294
G1 X147.873 Y69.377 F78000
G1 E-2 F3000
G1 X146.475 Y71.499 F78000
G1 E2 F3000
;TYPE:Perimeter
G1 F1200
G1 X146.508 Y71.421 E.00301
G1 X147.062 Y70.618 E.03467
G1 X146.728 Y70.204 E.01891
G1 X147.641 Y69.83 E.03507
G1 X147.984 Y70.095 E.01541
G1 X148.57 Y70.011 E.02104
G1 X147.968 Y70.156 E.02201
G1 X147.39 Y70.46 E.02321
G1 X146.838 Y70.948 E.02619
G1 X146.508 Y71.449 E.02132
G1 X146.508 Y71.449 F78000
G1 X146.662 Y73.35
;TYPE:External perimeter
G1 F1200
G1 X146.588 Y72.917 E.01561
G1 X146.583 Y72.816 E.00359
G1 X146.639 Y72.24 E.02057
G1 X146.821 Y71.714 E.01978
G1 X147.149 Y71.217 E.02116
G1 X147.623 Y70.797 E.02251
G1 X148.112 Y70.54 E.01963
G1 X148.691 Y70.401 E.02116
G1 X149.324 Y70.417 E.0225
G1 X149.857 Y70.565 E.01966
G1 X150.374 Y70.858 E.02112
G1 X150.825 Y71.3 E.02244
G1 X151.115 Y71.776 E.01981
G1 X151.293 Y72.343 E.02112
G1 X151.321 Y72.974 E.02245
G1 X151.194 Y73.555 E.02114
G1 X150.927 Y74.087 E.02116
G1 X150.537 Y74.535 E.02111
G1 X150.084 Y74.851 E.01963
G1 X149.492 Y75.078 E.02253
G1 X148.9 Y75.139 E.02115
G1 X148.353 Y75.059 E.01965
G1 X147.766 Y74.821 E.02251
G1 X147.291 Y74.461 E.02118
G1 X146.922 Y73.996 E.0211
G1 X146.68 Y73.454 E.0211
G1 X146.672 Y73.409 E.00162
G1 X146.605 Y73.015 F78000
G1 E-2 F3000
G1 X146.353 Y73.058 F78000
G1 X146.339 Y72.973
G1 X146.326 Y72.879
G1 X146.332 Y72.785
G1 X146.379 Y72.227
G1 X146.407 Y72.135
G1 X146.591 Y71.606
G1 X146.641 Y71.52
G1 X146.947 Y71.056
G1 X147.367 Y70.524
G1 X147.458 Y70.454
G1 X148 Y70.279
G1 X148.101 Y70.254
G1 X148.648 Y70.15
G1 X148.702 Y70.147
G1 X148.693 Y69.993
G1 E2 F3000
;TYPE:Perimeter
G1 F1200
G1 X148.815 Y69.976 E.00438
G1 X149.328 Y69.998 E.01825
G1 X149.829 Y70.113 E.01827
G1 X149.963 Y70.172 E.0052
G1 X149.385 Y70.012 E.02132
G1 X148.753 Y69.995 E.02247
G1 X148.753 Y69.995 F78000
G1 X150.076 Y70.221
G1 F1200
G1 X150.3 Y70.319 E.00869
G1 X150.561 Y70.495 E.01119
G1 X150.128 Y70.251 E.01766
G1 X150.128 Y70.251 F78000
G1 X150.644 Y70.551
G1 F1200
G1 X150.725 Y70.607 E.0035
G1 X151.332 Y71.207 E.03033
G1 X151.481 Y71.593 E.01471
G1 X151.147 Y71.045 E.02281
G1 X150.687 Y70.593 E.02292
G1 X150.687 Y70.593 F78000
G1 X151.734 Y71.117
;TYPE:External perimeter
G1 F1200
G1 X151.986 Y71.013 E.00969
G1 X153.199 Y70.516 E.04659
G1 X155.597 Y72.37 E.10773
G1 X155.19 Y75.374 E.10774
G1 X152.386 Y76.523 E.1077
G1 X150.882 Y75.361 E.06755
G1 X151.477 Y74.73 E.03082
G1 X151.799 Y74.226 E.02126
G1 X152.021 Y73.672 E.02121
G1 X152.137 Y73.085 E.02127
G1 X152.141 Y72.488 E.02122
G1 X152.034 Y71.9 E.02124
G1 X151.755 Y71.173 E.02768
G1 X152.099 Y70.968 F78000
G1 X151.676 Y72.206
;TYPE:Perimeter
G1 F1200
G1 X151.503 Y71.65 E.0207
G1 X151.641 Y72.01 E.0137
G1 X151.666 Y72.147 E.00495
G1 X151.666 Y72.147 F78000
G1 X151.7 Y72.335
G1 F1200
G1 X151.734 Y72.523 E.00679
G1 X151.73 Y73.044 E.01852
G1 X151.629 Y73.556 E.01855
G1 X151.588 Y73.657 E.00387
G1 X151.73 Y73.008 E.02361
G1 X151.702 Y72.395 E.02181
G1 X151.702 Y72.395 F78000
G1 X151.301 Y74.249
G1 F1200
G1 X151.549 Y73.755 E.01965
G1 X151.435 Y74.039 E.01088
G1 X151.333 Y74.198 E.00671
G1 X151.333 Y74.198 F78000
G1 X151.233 Y74.355
G1 F1200
G1 X151.154 Y74.478 E.0052
G1 X150.552 Y75.117 E.0312
G1 X149.702 Y75.45 E.03245
G1 X149.621 Y75.464 E.00292
G1 X150.276 Y75.214 E.02492
G1 X150.811 Y74.84 E.0232
G1 X151.193 Y74.401 E.02068
G1 E-2 F3000
M73 P0 R75
G1 X151.193 Y74.401 F78000
G1 X151.077 Y74.301
G1 X150.765 Y74.668
G1 X150.693 Y74.739
G1 X150.239 Y75.06
G1 X150.151 Y75.108
G1 X149.63 Y75.302
G1 X149.533 Y75.328
G1 X148.211 Y75.597
G1 X147.775 Y75.479
G1 X147.371 Y75.717
G1 X146.949 Y76.08
G1 X146.947 Y76.093
G1 X146.969 Y76.096
G1 E2 F3000
;TYPE:External perimeter
G1 F1200
G1 X147.796 Y75.757 E.03177
G1 X148.521 Y75.932 E.02651
G1 X149.171 Y75.954 E.02312
G1 X149.812 Y75.844 E.02311
G1 X150.411 Y75.61 E.02286
G1 X150.558 Y75.552 E.00562
G1 X152.172 Y76.8 E.07251
G1 X151.765 Y79.804 E.10774
G1 X148.96 Y80.953 E.10773
G1 X146.641 Y79.16 E.10418
G1 X146.626 Y78.629 E.01888
G1 X146.961 Y76.155 E.08873
G1 X147.31 Y75.96 F78000
G1 X148.974 Y75.54
;TYPE:Perimeter
G1 F1200
G1 X149.481 Y75.488 E.01811
G1 X149.143 Y75.546 E.01219
G1 X149.034 Y75.542 E.00388
G1 X149.034 Y75.542 F78000
G1 X148.332 Y75.467
G1 F1200
G1 X148.79 Y75.534 E.01645
G1 X148.577 Y75.527 E.00757
G1 X148.39 Y75.481 E.00684
G1 E-2 F3000
G1 X148.39 Y75.481 F78000
G1 X146.63 Y74.282
G1 E2 F3000
G1 F1200
G1 X147.004 Y74.754 E.0214
G1 X147.563 Y75.178 E.02494
G1 X148.195 Y75.434 E.02423
G1 X147.764 Y75.33 E.01576
G1 X146.845 Y75.706 E.03529
G1 X146.713 Y75.604 E.00593
G1 X147.222 Y75.114 E.02511
G1 X146.664 Y74.331 E.03417
G1 X146.664 Y74.331 F78000
G1 X146.561 Y74.186
G1 F1200
G1 X146.528 Y74.139 E.00204
G1 X146.309 Y73.645 E.01921
G1 X146.298 Y73.598 E.00172
G1 X146.537 Y74.132 E.02079
G1 X146.537 Y74.132 F78000
G1 X146.267 Y73.457
G1 F1200
G1 X146.181 Y73.064 E.0143
G1 X146.18 Y72.907 E.00558
G1 X146.182 Y72.961 E.00192
G1 X146.257 Y73.398 E.01576
G1 X146.257 Y73.398 F78000
G1 X146.179 Y72.77
G1 F1200
G1 X146.177 Y72.499 E.00963
G1 X146.232 Y72.221 E.01007
G1 X146.185 Y72.71 E.01746
G1 X146.185 Y72.71 F78000
G1 X146.255 Y72.105
G1 F1200
G1 X146.288 Y71.943 E.00588
G1 X146.418 Y71.635 E.01188
G1 X146.275 Y72.048 E.01553
G1 E-2 F3000
G1 X146.275 Y72.048 F78000
G1 X146.123 Y72.011
G1 X146.607 Y74.507
G1 X147.038 Y75.096
G1 X146.348 Y75.422
G1 X146.332 Y75.41
G1 X146.346 Y75.393
G1 E2 F3000
;TYPE:External perimeter
G1 F1200
G1 X144.439 Y73.918 E.08569
G1 X144.845 Y70.914 E.10774
G1 X146.298 Y70.319 E.0558
G1 X146.554 Y70.637 E.01451
G1 X146.15 Y71.224 E.02533
G1 X145.896 Y71.823 E.02312
G1 X145.77 Y72.46 E.02308
G1 X145.774 Y73.11 E.0231
G1 X145.92 Y73.772 E.02409
G1 X146.172 Y74.341 E.02212
G1 X146.687 Y75.065 E.03158
G1 X146.389 Y75.351 E.01468
G1 X146.041 Y75.154 F78000
G1 E-2 F3000
G1 X146.026 Y75.174 F78000
G1 X144.415 Y73.927
G1 X144.523 Y70.857
G1 X142.104 Y68.987
G1 X142.092 Y68.992
G1 X142.101 Y69.013
G1 E2 F3000
G1 F1200
G1 X144.499 Y70.867 E.10773
G1 X144.092 Y73.871 E.10774
G1 X141.287 Y75.02 E.10773
G1 X139.171 Y73.384 E.09506
G1 X139.102 Y71.596 E.0636
G1 X139.296 Y70.162 E.05143
G1 X139.495 Y70.081 E.00764
G1 X142.045 Y69.036 E.09795
G1 X142.389 Y69.24 F78000
G1 E-2 F3000
G1 X142.405 Y69.22 F78000
G1 X142.104 Y68.987
G1 X139.275 Y70.146
G1 X139.098 Y70.521
G1 X138.852 Y70.406
G1 E2 F3000
;TYPE:Perimeter
G1 F1200
G1 X138.705 Y71.494 E.03902
G1 X138.667 Y70.482 E.03599
G1 X138.797 Y70.429 E.00499
G1 E-2 F3000
G1 X138.797 Y70.429 F78000
G1 X139.063 Y70.589
G1 X138.892 Y70.873
G1 X138.854 Y71.584
G1 X138.918 Y73.237
G1 X139.029 Y73.457
G1 X141.097 Y75.287
G1 X140.687 Y78.316
G1 X140.675 Y78.321
G1 X140.666 Y78.301
G1 E2 F3000
;TYPE:External perimeter
G1 F1200
G1 X139.406 Y78.817 E.04839
G1 X139.223 Y74.698 E.14654
G1 X139.187 Y73.839 E.03056
G1 X141.073 Y75.297 E.08473
G1 X140.674 Y78.241 E.10559
G1 X140.325 Y78.436 F78000
G1 X141.013 Y78.348
G1 F1200
G1 X141.42 Y75.344 E.10774
G1 X141.619 Y75.262 E.00765
G1 X144.224 Y74.194 E.10006
G1 X146.622 Y76.049 E.10775
G1 X146.215 Y79.052 E.10771
G1 X143.411 Y80.202 E.10771
G1 X141.06 Y78.384 E.10563
G1 X141.066 Y77.984 F78000
G1 X140.799 Y78.624
G1 F1200
G1 X143.197 Y80.479 E.10775
G1 X142.79 Y83.482 E.10771
G1 X139.985 Y84.632 E.10775
G1 X139.697 Y84.409 E.01295
G1 X139.423 Y79.188 E.18582
G1 X139.605 Y79.114 E.00698
G1 X140.743 Y78.647 E.04372
G1 X141.087 Y78.852 F78000
G1 E-2 F3000
G1 X141.103 Y78.831 F78000
G1 X143.221 Y80.469
G1 X143.113 Y83.539
G1 X143.3 Y83.684
G1 X143.607 Y84.307
G1 X143.594 Y84.325
G1 E2 F3000
G1 F1200
G1 X142.543 Y85.235 E.04941
G1 X142.014 Y85.658 E.02407
G1 X141.766 Y85.84 E.01093
G1 X141.151 Y86.229 E.02586
G1 X140.714 Y86.469 E.01772
G1 X139.855 Y86.894 E.03406
G1 X140.118 Y84.956 E.06951
G1 X140.317 Y84.874 E.00765
G1 X142.923 Y83.806 E.1001
G1 X143.546 Y84.288 E.028
G1 X143.286 Y84.593 F78000
G1 E-2 F3000
G1 X143.394 Y84.667 F78000
G1 X143.63 Y84.325
G1 X142.926 Y83.78
G1 X140.097 Y84.94
G1 X140.032 Y85.082
G1 X139.71 Y84.934
G1 E2 F3000
;TYPE:Perimeter
G1 F1200
G1 X139.459 Y86.79 E.06657
G1 X139.319 Y84.631 E.07689
G1 X139.663 Y84.897 E.01546
G1 E-2 F3000
G1 X139.663 Y84.897 F78000
G1 X140.037 Y85.07
G1 X140.097 Y84.94
G1 X142.926 Y83.78
G1 X142.936 Y83.788
G1 X143.137 Y83.529
G1 E2 F3000
;TYPE:External perimeter
G1 F1200
G1 X143.543 Y80.526 E.1077
G1 X146.202 Y79.436 E.10214
G1 X146.348 Y79.376 E.00561
G1 X148.746 Y81.23 E.10773
G1 X148.673 Y81.772 E.01944
G1 X146.65 Y82.56 E.07716
G1 X146.381 Y82.675 E.0104
G1 X145.895 Y82.911 E.0192
G1 X144.543 Y83.668 E.05507
G1 X143.889 Y84.111 E.02807
G1 X143.184 Y83.566 E.03167
G1 X143.19 Y83.166 F78000
G1 E-2 F3000
G1 X143.164 Y83.162 F78000
G1 X143.523 Y80.51
G1 X146.193 Y79.415
G1 X146.352 Y79.351
G1 X148.957 Y80.979
G1 X149.875 Y80.961
G1 X150.265 Y80.835
G1 X151.021 Y80.526
G1 X151.785 Y79.82
G1 X152.498 Y76.831
G1 X155.327 Y75.672
G1 X155.337 Y75.68
G1 X155.323 Y75.698
G1 E2 F3000
G1 F1200
G1 X157.721 Y77.552 E.10773
G1 X157.314 Y80.556 E.10774
G1 X155.304 Y81.379 E.07719
G1 X154.7 Y81.164 E.02279
G1 X154.335 Y81.051 E.01358
G1 X153.889 Y80.929 E.01643
G1 X153.345 Y80.805 E.01983
G1 X152.112 Y79.851 E.05541
G1 X152.518 Y76.847 E.10774
G1 X152.748 Y76.753 E.00883
G1 X155.268 Y75.721 E.09678
G1 X155.611 Y75.925 F78000
G1 E-2 F3000
G1 X155.627 Y75.905 F78000
G1 X155.327 Y75.672
G1 X152.498 Y76.831
G1 X152.088 Y79.861
G1 X152.358 Y80.244
G1 X152.416 Y80.358
G1 X151.826 Y80.659
G1 E2 F3000
;TYPE:Perimeter
G1 F1200
G1 X152.989 Y81.559 E.05227
G1 X153.691 Y81.718 E.02558
G1 X154.107 Y81.833 E.01534
G1 X154.443 Y81.937 E.0125
G1 X155.325 Y82.251 E.03327
G1 X158.058 Y81.131 E.10497
G1 X158.372 Y78.813 E.08314
G1 X158.287 Y80.257 E.05141
G1 X158.241 Y81.72 E.05202
G1 X158.216 Y83.064 E.04778
G1 X158.195 Y85.593 E.08989
G1 X158.226 Y87.285 E.06015
G1 X158.264 Y88.219 E.03322
G1 X158.323 Y89.202 E.035
G1 X158.443 Y90.633 E.05104
G1 X158.628 Y92.252 E.05792
G1 X158.798 Y93.447 E.0429
G1 X158.987 Y94.578 E.04075
G1 X159.12 Y95.288 E.02567
G1 X159.328 Y96.311 E.0371
G1 X159.737 Y97.955 E.06021
G1 X159.993 Y98.782 E.03077
G1 X160.292 Y99.612 E.03135
G1 X160.639 Y100.454 E.03237
G1 X161.028 Y101.298 E.03303
G1 X161.446 Y102.13 E.03309
G1 X162.17 Y103.452 E.05357
G1 X163.212 Y105.207 E.07254
G1 X164.06 Y106.744 E.06239
G1 X164.49 Y107.392 E.02764
G1 X164.761 Y107.722 E.01518
G1 X165.26 Y108.271 E.02637
G1 X165.423 Y108.474 E.00925
G1 X165.559 Y108.685 E.00892
G1 X165.57 Y108.904 E.00779
G1 X165.548 Y109.223 E.01136
G1 X165.483 Y109.613 E.01405
G1 X165.389 Y110.017 E.01474
G1 X165.257 Y110.504 E.01793
G1 X164.914 Y111.648 E.04245
G1 X164.762 Y112.086 E.01648
G1 X164.322 Y112.375 E.01871
G1 X162.932 Y113.178 E.05705
G1 X161.656 Y113.845 E.05117
G1 X160.957 Y114.166 E.02734
G1 X160.483 Y114.36 E.0182
G1 X159.119 Y114.838 E.05137
G1 X157.873 Y115.206 E.04618
G1 X156.536 Y115.568 E.04923
G1 X155.256 Y115.853 E.04661
G1 X154.553 Y115.966 E.02531
G1 X153.747 Y116.064 E.02886
G1 X152.17 Y116.197 E.05625
G1 X150.627 Y116.275 E.05491
G1 X149.588 Y116.294 E.03693
G1 X149.058 Y116.285 E.01884
G1 X148.198 Y116.248 E.03059
G1 X147.026 Y116.156 E.04178
G1 X146.472 Y116.085 E.01985
G1 X143.709 Y115.665 E.09933
G1 X144.132 Y115.622 E.01511
G1 X144.845 Y115.36 E.027
G1 X145.006 Y115.267 E.00661
G1 X145.542 Y114.892 E.02325
G1 X146.065 Y114.294 E.02824
G1 X146.427 Y113.578 E.02852
G1 X146.599 Y112.793 E.02856
G1 X146.561 Y111.94 E.03035
G1 X146.321 Y111.177 E.02843
G1 X145.933 Y110.538 E.02657
G1 X145.326 Y109.942 E.03023
G1 X144.628 Y109.549 E.02847
G1 X144.001 Y109.376 E.02312
G1 X143.819 Y109.339 E.0066
G1 X143.055 Y109.33 E.02716
G1 X142.281 Y109.517 E.0283
G1 X141.737 Y109.804 E.02186
G1 X141.306 Y104.786 E.179
G1 X141.477 Y105.07 E.01178
G1 X142.091 Y105.743 E.03238
G1 X142.827 Y106.282 E.03242
G1 X143.646 Y106.66 E.03206
