; generated by PrusaSlicer 2.7.2+MacOS-arm64 on 2024-03-07 at 03:24:17 UTC


;
;

;
;

;
;

;
;

;
;
; 

; external perimeters extrusion width = 0.45mm
; perimeters extrusion width = 0.45mm
; infill extrusion width = 0.45mm
; solid infill extrusion width = 0.45mm
; top infill extrusion width = 0.40mm

M73 P0 R53

EXCLUDE_OBJECT_DEFINE NAME='Benchmade_20Bugout_20Scales_stl' CENTER=51.775,110.084 POLYGON=[[16.540,156.390],[18.730,62.086],[18.786,61.272],[18.972,60.479],[19.285,59.726],[19.717,59.034],[20.254,58.422],[20.885,57.905],[23.235,56.519],[25.761,55.488],[28.410,54.832],[31.125,54.567],[73.318,54.908],[76.029,55.217],[78.667,55.915],[81.176,56.987],[83.504,58.410],[84.125,58.938],[84.653,59.559],[85.073,60.257],[85.374,61.015],[85.548,61.812],[85.590,62.626],[86.258,156.953],[86.226,157.777],[86.059,158.584],[85.762,159.353],[85.342,160.063],[84.812,160.694],[84.185,161.230],[83.478,161.655],[80.414,162.971],[77.228,163.955],[73.955,164.595],[70.633,164.883],[32.035,164.571],[28.718,164.229],[25.455,163.537],[22.285,162.502],[19.243,161.136],[18.543,160.700],[17.925,160.154],[17.405,159.515],[16.997,158.798],[16.712,158.024],[16.558,157.214]]

;TYPE:Custom
CALCULATE_PA MATERIAL=PLA BOWDEN_LENGTH=6 LAYER_HEIGHT=0.2 NOZZLE_SIZE=0.4 PRINT_SPEED=70


START_PRINT EXTRUDER=230 BED=65
G21 ; set units to millimeters
G90 ; use absolute coordinates
M83 ; use relative distances for extrusion
; Filament gcode
M107
;LAYER_CHANGE
;Z:0.2
;HEIGHT:0.2
G1 E-1 F3000
EXCLUDE_OBJECT_START NAME='Benchmade_20Bugout_20Scales_stl'
G1 Z.2 F60000
G1 X60.494 Y157.234
G1 Z.2
G1 E1 F3000
;TYPE:External perimeter
;WIDTH:0.45
G1 F1800
G1 X60.219 Y149.945 E.27159
G1 X59.932 Y134.241 E.58482
G1 X60.047 Y118.58 E.58313
G1 X60.57 Y102.793 E.58813
M73 P0 R52
G1 X61.414 Y88.324 E.53965
G1 X61.591 Y88.449 E.00807
G1 X61.965 Y88.627 E.01542
G1 X62.364 Y88.738 E.01542
G1 X62.776 Y88.777 E.01541
G1 X63.189 Y88.745 E.01542
G1 X63.59 Y88.641 E.01542
G1 X63.967 Y88.469 E.01543
G1 X64.308 Y88.234 E.01542
G1 X64.603 Y87.943 E.01543
G1 X64.843 Y87.606 E.0154
G1 X65.021 Y87.232 E.01542
G1 X65.132 Y86.833 E.01542
G1 X65.171 Y86.419 E.01548
G1 X65.131 Y85.977 E.01652
G1 X65.035 Y85.607 E.01423
G1 X64.863 Y85.23 E.01543
G1 X64.628 Y84.889 E.01542
G1 X64.337 Y84.594 E.01543
G1 X64 Y84.354 E.0154
G1 X63.626 Y84.176 E.01542
G1 X63.227 Y84.065 E.01542
G1 X62.815 Y84.026 E.01541
G1 X62.402 Y84.059 E.01543
G1 X62.001 Y84.162 E.01542
G1 X61.708 Y84.296 E.012
G1 X62.839 Y71.285 E.48627
G1 X63.984 Y60.584 E.40071
G1 X64.08 Y60.089 E.01877
G1 X64.246 Y59.623 E.01842
G1 X64.482 Y59.186 E.01849
G1 X64.78 Y58.79 E.01845
G1 X65.135 Y58.444 E.01846
G1 X65.538 Y58.155 E.01846
G1 X65.98 Y57.93 E.01847
G1 X66.297 Y57.825 E.01243
G1 X65.992 Y58.022 E.01352
G1 X65.46 Y58.501 E.02665
G1 X65.01 Y59.059 E.02669
G1 X64.655 Y59.681 E.02667
G1 X64.403 Y60.351 E.02665
G1 X64.262 Y61.044 E.02633
G1 X63.732 Y65.419 E.16409
G1 X63.72 Y65.737 E.01185
G1 X63.763 Y66.061 E.01217
G1 X63.859 Y66.374 E.01219
G1 X64.006 Y66.666 E.01217
G1 X64.2 Y66.929 E.01217
G1 X64.436 Y67.156 E.01219
G1 X64.706 Y67.341 E.01219
G1 X65.003 Y67.478 E.01218
G1 X65.318 Y67.564 E.01216
G1 X65.644 Y67.595 E.01219
G1 X65.97 Y67.572 E.01217
G1 X66.288 Y67.495 E.01218
G1 X66.588 Y67.365 E.01217
G1 X66.863 Y67.187 E.0122
G1 X67.104 Y66.966 E.01218
G1 X67.299 Y66.715 E.01183
G1 X71.534 Y60.194 E.28951
G1 X71.699 Y59.889 E.01291
G1 X71.813 Y59.551 E.01328
G1 X71.87 Y59.199 E.01328
G1 X71.869 Y58.843 E.01326
G1 X71.808 Y58.492 E.01326
G1 X71.691 Y58.155 E.01328
G1 X71.519 Y57.843 E.01327
G1 X71.298 Y57.563 E.01328
G1 X71.034 Y57.324 E.01326
G1 X70.734 Y57.131 E.01328
G1 X70.407 Y56.991 E.01324
G1 X70.059 Y56.906 E.01334
G1 X69.767 Y56.89 E.01089
G1 X70.771 Y56.71 E.03798
G1 X72.68 Y56.645 E.07112
G1 X72.647 Y56.689 E.00205
G1 X72.469 Y57.064 E.01546
G1 X72.358 Y57.463 E.01542
G1 X72.319 Y57.875 E.01541
G1 X72.352 Y58.29 E.0155
G1 X72.469 Y58.718 E.01652
G1 X72.628 Y59.066 E.01425
G1 X72.862 Y59.407 E.0154
G1 X73.153 Y59.702 E.01543
G1 X73.49 Y59.942 E.0154
G1 X73.864 Y60.12 E.01542
G1 X74.263 Y60.231 E.01542
G1 X74.676 Y60.27 E.01545
G1 X75.088 Y60.238 E.01539
G1 X75.489 Y60.134 E.01542
G1 X75.866 Y59.962 E.01543
G1 X76.207 Y59.727 E.01542
G1 X76.502 Y59.436 E.01543
G1 X76.743 Y59.099 E.01543
G1 X76.921 Y58.725 E.01542
G1 X77.031 Y58.326 E.01541
G1 X77.07 Y57.914 E.01541
G1 X77.038 Y57.501 E.01542
G1 X76.963 Y57.214 E.01104
G1 X78.103 Y57.546 E.04421
G1 X80.385 Y58.52 E.09238
G1 X82.498 Y59.813 E.09224
G1 X82.906 Y60.159 E.01992
G1 X83.252 Y60.565 E.01986
G1 X83.527 Y61.023 E.01989
G1 X83.724 Y61.519 E.01987
G1 X83.838 Y62.041 E.01989
G1 X83.865 Y62.574 E.01987
G1 X83.806 Y63.104 E.01986
G1 X83.657 Y63.631 E.02039
G1 X82.524 Y67.069 E.13478
G1 X81.654 Y70.596 E.13526
G1 X81.055 Y74.18 E.1353
G1 X80.736 Y77.739 E.13305
G1 X80.683 Y81.318 E.13327
G1 X80.942 Y96.417 E.56227
G1 X80.894 Y111.692 E.56875
G1 X80.679 Y115.983 E.15997
G1 X80.148 Y120.243 E.15984
G1 X79.303 Y124.462 E.16021
G1 X78.561 Y128.407 E.14946
G1 X78.202 Y132.414 E.14979
G1 X78.231 Y136.437 E.1498
G1 X78.649 Y140.439 E.14982
G1 X79.452 Y144.381 E.14979
G1 X80.631 Y148.228 E.14981
G1 X82.176 Y151.943 E.14981
G1 X84.066 Y155.478 E.14925
G1 X84.31 Y155.976 E.02065
G1 X84.466 Y156.493 E.02011
G1 X84.534 Y157.029 E.02012
G1 X84.513 Y157.568 E.02008
G1 X84.404 Y158.097 E.02011
G1 X84.209 Y158.601 E.02012
G1 X83.934 Y159.065 E.02008
G1 X83.587 Y159.479 E.02011
G1 X83.176 Y159.829 E.0201
G1 X82.711 Y160.109 E.02021
G1 X79.818 Y161.352 E.11724
G1 X76.807 Y162.282 E.11734
G1 X73.715 Y162.886 E.1173
G1 X70.575 Y163.158 E.11735
G1 X67.425 Y163.096 E.11731
G1 X64.298 Y162.699 E.11736
G1 X61.234 Y161.972 E.11725
G1 X61.031 Y161.879 E.00831
G1 X60.917 Y161.782 E.00557
G1 X60.818 Y161.606 E.00752
G1 X60.751 Y161.433 E.00691
G1 X60.687 Y161.168 E.01015
G1 X60.66 Y160.924 E.00914
G1 X60.64 Y160.515 E.01525
G1 X60.733 Y160.61 E.00495
G1 X61.071 Y160.85 E.01543
G1 X61.445 Y161.028 E.01542
G1 X61.844 Y161.138 E.01541
G1 X62.256 Y161.178 E.01541
G1 X62.669 Y161.145 E.01543
G1 X63.07 Y161.041 E.01542
G1 X63.446 Y160.869 E.0154
G1 X63.788 Y160.634 E.01545
G1 X64.083 Y160.344 E.0154
G1 X64.323 Y160.006 E.01543
G1 X64.501 Y159.632 E.01542
G1 X64.612 Y159.233 E.01542
G1 X64.651 Y158.821 E.01541
G1 X64.618 Y158.408 E.01543
G1 X64.514 Y158.007 E.01542
G1 X64.342 Y157.631 E.0154
G1 X64.107 Y157.289 E.01545
G1 X63.817 Y156.994 E.0154
G1 X63.48 Y156.754 E.0154
G1 X63.106 Y156.576 E.01542
G1 X62.707 Y156.466 E.01541
G1 X62.294 Y156.426 E.01545
G1 X61.881 Y156.459 E.01543
G1 X61.481 Y156.563 E.01539
G1 X61.104 Y156.735 E.01543
G1 X60.763 Y156.97 E.01542
G1 X60.537 Y157.192 E.0118
G1 X60.537 Y157.192 F60000
G1 X60.87 Y156.402
;TYPE:Perimeter
G1 F1800
G1 X60.646 Y150.453 E.22166
G1 X60.767 Y150.735 E.01143
G1 X61.149 Y151.33 E.02633
G1 X61.624 Y151.855 E.02636
G1 X62.179 Y152.294 E.02635
G1 X62.798 Y152.636 E.02633
G1 X63.466 Y152.871 E.02637
G1 X64.163 Y152.993 E.02635
G1 X64.87 Y152.999 E.02633
G1 X65.569 Y152.888 E.02635
G1 X66.24 Y152.663 E.02635
G1 X66.865 Y152.332 E.02633
G1 X67.427 Y151.902 E.02635
G1 X67.911 Y151.385 E.02637
G1 X68.302 Y150.796 E.02632
G1 X68.592 Y150.15 E.02637
G1 X68.771 Y149.466 E.02633
G1 X68.833 Y148.787 E.02539
G1 X68.893 Y141.358 E.27662
G1 X68.853 Y140.748 E.02276
G1 X68.696 Y140.057 E.02638
G1 X68.426 Y139.398 E.02652
G1 X68.051 Y138.793 E.0265
G1 X67.581 Y138.259 E.02649
G1 X67.027 Y137.808 E.0266
G1 X66.369 Y137.442 E.02803
G1 X65.741 Y137.214 E.02488
G1 X65.087 Y137.091 E.02478
G1 X64.332 Y137.071 E.02812
G1 X63.625 Y137.177 E.02662
G1 X62.949 Y137.398 E.02648
G1 X62.318 Y137.727 E.0265
G1 X61.768 Y138.142 E.02565
G1 X61.28 Y138.654 E.02634
G1 X60.865 Y139.267 E.02756
G1 X60.573 Y139.915 E.02646
G1 X60.451 Y140.375 E.01772
G1 X60.339 Y134.239 E.2285
G1 X60.454 Y118.589 E.58272
G1 X60.977 Y102.811 E.5878
G1 X61.783 Y88.992 E.51541
G1 X62.29 Y89.14 E.01967
G1 X62.773 Y89.186 E.01807
G1 X63.257 Y89.148 E.01808
G1 X63.727 Y89.026 E.01808
G1 X64.168 Y88.824 E.01806
G1 X64.568 Y88.549 E.01807
G1 X64.914 Y88.209 E.01806
G1 X65.196 Y87.813 E.0181
G1 X65.404 Y87.375 E.01805
G1 X65.534 Y86.907 E.01809
G1 X65.58 Y86.42 E.01821
G1 X65.533 Y85.907 E.01918
G1 X65.42 Y85.47 E.01681
G1 X65.218 Y85.029 E.01806
G1 X64.943 Y84.629 E.01807
G1 X64.602 Y84.283 E.01809
G1 X64.207 Y84.001 E.01807
G1 X63.769 Y83.793 E.01805
G1 X63.301 Y83.663 E.01809
G1 X62.818 Y83.617 E.01807
G1 X62.334 Y83.656 E.01808
G1 X62.169 Y83.698 E.00634
G1 X63.245 Y71.324 E.46247
G1 X63.712 Y66.953 E.16367
G1 X63.893 Y67.198 E.01134
G1 X64.177 Y67.473 E.01472
G1 X64.504 Y67.697 E.01476
G1 X64.863 Y67.862 E.01471
G1 X65.245 Y67.966 E.01474
G1 X65.639 Y68.004 E.01474
G1 X66.033 Y67.976 E.01471
G1 X66.418 Y67.882 E.01476
G1 X66.781 Y67.725 E.01473
G1 X67.113 Y67.51 E.01473
G1 X67.404 Y67.242 E.01473
G1 X67.631 Y66.951 E.01374
G1 X71.885 Y60.402 E.29077
G1 X72.073 Y60.051 E.01483
G1 X72.21 Y59.65 E.01578
G1 X72.272 Y59.267 E.01445
G1 X72.547 Y59.667 E.01807
G1 X72.888 Y60.013 E.01809
G1 X73.283 Y60.295 E.01807
G1 X73.721 Y60.503 E.01805
G1 X74.189 Y60.633 E.01809
G1 X74.672 Y60.679 E.01807
G1 X75.156 Y60.641 E.01808
G1 X75.626 Y60.519 E.01808
G1 X76.067 Y60.317 E.01806
G1 X76.467 Y60.042 E.01807
G1 X76.813 Y59.702 E.01806
G1 X77.095 Y59.306 E.0181
G1 X77.304 Y58.868 E.01807
G1 X77.433 Y58.4 E.01808
G1 X77.479 Y57.917 E.01807
G1 X77.469 Y57.785 E.00493
G1 X77.966 Y57.93 E.01928
G1 X80.198 Y58.883 E.09036
G1 X82.259 Y60.144 E.08996
G1 X82.617 Y60.448 E.01749
G1 X82.92 Y60.804 E.01741
G1 X83.161 Y61.204 E.01739
G1 X83.333 Y61.638 E.01738
G1 X83.433 Y62.095 E.01742
G1 X83.457 Y62.562 E.01741
G1 X83.405 Y63.026 E.01738
G1 X83.268 Y63.512 E.0188
G1 X82.133 Y66.956 E.13502
G1 X81.255 Y70.514 E.13645
G1 X80.651 Y74.128 E.13643
G1 X80.329 Y77.717 E.13417
G1 X80.276 Y81.318 E.13409
G1 X80.535 Y96.42 E.56239
G1 X80.487 Y111.681 E.56823
G1 X80.273 Y115.947 E.15904
G1 X79.746 Y120.178 E.15875
G1 X78.904 Y124.385 E.15975
G1 X78.157 Y128.351 E.15027
G1 X77.795 Y132.397 E.15125
G1 X77.824 Y136.46 E.15128
G1 X77.853 Y136.73 E.01011
G1 X78.246 Y140.501 E.14117
G1 X79.057 Y144.482 E.15127
G1 X80.247 Y148.366 E.15125
G1 X81.808 Y152.117 E.15127
G1 X83.703 Y155.664 E.14973
G1 X83.93 Y156.125 E.01913
G1 X84.066 Y156.578 E.01761
G1 X84.126 Y157.047 E.0176
G1 X84.107 Y157.519 E.01759
G1 X84.012 Y157.982 E.0176
G1 X83.841 Y158.422 E.01758
G1 X83.601 Y158.829 E.01759
G1 X83.297 Y159.191 E.0176
G1 X82.937 Y159.498 E.01762
G1 X82.524 Y159.746 E.01794
G1 X79.678 Y160.97 E.11535
G1 X76.708 Y161.886 E.11572
G1 X73.658 Y162.482 E.11571
G1 X70.562 Y162.751 E.11571
G1 X67.454 Y162.689 E.11575
G1 X64.371 Y162.298 E.11571
G1 X61.351 Y161.582 E.11556
G1 X61.241 Y161.528 E.00456
G1 X61.151 Y161.339 E.00779
G1 X61.302 Y161.411 E.00623
G1 X61.77 Y161.54 E.01808
G1 X62.253 Y161.586 E.01807
G1 X62.737 Y161.548 E.01808
G1 X63.206 Y161.426 E.01804
G1 X63.648 Y161.225 E.01808
G1 X64.048 Y160.949 E.01809
G1 X64.394 Y160.609 E.01806
G1 X64.675 Y160.214 E.01805
G1 X64.884 Y159.775 E.0181
G1 X65.013 Y159.308 E.01804
G1 X65.06 Y158.824 E.01811
G1 X65.021 Y158.341 E.01804
G1 X64.899 Y157.871 E.01808
G1 X64.698 Y157.429 E.01808
G1 X64.423 Y157.029 E.01807
G1 X64.082 Y156.683 E.01809
G1 X63.687 Y156.402 E.01805
G1 X63.249 Y156.193 E.01807
G1 X62.781 Y156.064 E.01808
G1 X62.298 Y156.018 E.01807
G1 X61.814 Y156.056 E.01808
G1 X61.344 Y156.178 E.01808
G1 X60.924 Y156.376 E.01729
G1 X60.924 Y156.376 F60000
G1 X61.254 Y155.781
G1 F1800
G1 X61.107 Y151.891 E.14494
G1 X61.345 Y152.153 E.01318
G1 X61.953 Y152.634 E.02887
G1 X62.631 Y153.008 E.02883
G1 X63.362 Y153.266 E.02886
G1 X64.126 Y153.4 E.02888
G1 X64.901 Y153.406 E.02886
G1 X65.666 Y153.285 E.02884
G1 X66.401 Y153.039 E.02886
G1 X67.086 Y152.675 E.02888
G1 X67.701 Y152.204 E.02884
G1 X67.869 Y152.026 E.00911
G1 X67.792 Y152.301 E.01063
G1 X67.712 Y153.142 E.03145
G1 X67.779 Y153.983 E.03141
G1 X67.991 Y154.8 E.03143
G1 X68.341 Y155.568 E.03142
G1 X68.82 Y156.264 E.03146
G1 X69.412 Y156.866 E.03144
G1 X70.1 Y157.355 E.03143
G1 X70.862 Y157.718 E.03143
G1 X71.675 Y157.943 E.03141
G1 X72.516 Y158.024 E.03146
G1 X73.357 Y157.957 E.03141
G1 X74.175 Y157.745 E.03146
G1 X74.943 Y157.394 E.03144
G1 X75.638 Y156.916 E.03141
G1 X76.24 Y156.324 E.03144
G1 X76.73 Y155.636 E.03145
G1 X77.092 Y154.874 E.03141
G1 X77.318 Y154.06 E.03145
G1 X77.398 Y153.22 E.03142
G1 X77.331 Y152.378 E.03145
G1 X77.119 Y151.561 E.03143
G1 X76.769 Y150.793 E.03142
G1 X76.29 Y150.098 E.03143
G1 X75.698 Y149.496 E.03144
G1 X75.01 Y149.006 E.03145
G1 X74.248 Y148.643 E.03143
G1 X73.434 Y148.418 E.03144
G1 X72.594 Y148.338 E.03142
G1 X71.752 Y148.405 E.03145
G1 X70.935 Y148.617 E.03143
G1 X70.167 Y148.967 E.03142
G1 X69.472 Y149.446 E.03143
G1 X69.102 Y149.81 E.01933
G1 X69.173 Y149.536 E.01054
G1 X69.24 Y148.807 E.02726
G1 X69.3 Y141.346 E.27781
G1 X69.257 Y140.69 E.02448
G1 X69.086 Y139.934 E.02886
G1 X68.79 Y139.212 E.02905
G1 X68.379 Y138.55 E.02901
G1 X67.864 Y137.965 E.02902
G1 X67.256 Y137.47 E.02919
G1 X66.539 Y137.07 E.03057
G1 X65.849 Y136.82 E.02733
G1 X65.131 Y136.685 E.0272
G1 X64.307 Y136.663 E.03069
G1 X63.531 Y136.78 E.02922
G1 X62.79 Y137.021 E.02901
G1 X62.1 Y137.382 E.029
G1 X61.497 Y137.836 E.0281
G1 X60.965 Y138.394 E.02871
G1 X60.826 Y138.593 E.00904
G1 X60.746 Y134.236 E.16225
G1 X60.861 Y118.597 E.58231
G1 X61.383 Y102.83 E.58739
G1 X62.16 Y89.526 E.4962
G1 X62.216 Y89.542 E.00217
G1 X62.77 Y89.595 E.02072
G1 X63.325 Y89.551 E.02073
G1 X63.863 Y89.411 E.0207
G1 X64.37 Y89.18 E.02074
G1 X64.828 Y88.864 E.02072
G1 X65.225 Y88.474 E.02072
G1 X65.548 Y88.02 E.02075
G1 X65.787 Y87.518 E.0207
G1 X65.935 Y86.981 E.02074
G1 X65.989 Y86.421 E.02095
G1 X65.935 Y85.837 E.02184
G1 X65.805 Y85.334 E.01934
G1 X65.574 Y84.827 E.02074
G1 X65.258 Y84.369 E.02072
G1 X64.868 Y83.972 E.02072
G1 X64.414 Y83.649 E.02075
G1 X63.912 Y83.41 E.0207
G1 X63.375 Y83.262 E.02074
G1 X62.821 Y83.209 E.02072
G1 X62.619 Y83.225 E.00754
G1 X63.65 Y71.363 E.44333
G1 X64.024 Y67.862 E.1311
G1 X64.302 Y68.052 E.01254
G1 X64.724 Y68.246 E.01729
G1 X65.172 Y68.368 E.01729
G1 X65.634 Y68.412 E.01728
G1 X66.097 Y68.379 E.01728
G1 X66.547 Y68.269 E.01725
G1 X66.974 Y68.086 E.0173
G1 X67.363 Y67.833 E.01728
G1 X67.705 Y67.519 E.01729
G1 X67.963 Y67.187 E.01566
G1 X72.236 Y60.609 E.29206
G1 X72.465 Y60.164 E.01863
G1 X72.623 Y60.324 E.00837
G1 X73.076 Y60.647 E.02072
G1 X73.578 Y60.886 E.0207
G1 X74.115 Y61.035 E.02075
G1 X74.669 Y61.088 E.02072
G1 X75.224 Y61.044 E.02073
G1 X75.763 Y60.904 E.02073
G1 X76.269 Y60.673 E.02071
G1 X76.727 Y60.357 E.02072
G1 X77.124 Y59.967 E.02072
G1 X77.447 Y59.513 E.02075
G1 X77.686 Y59.011 E.0207
G1 X77.835 Y58.474 E.02075
G1 X77.849 Y58.322 E.00568
G1 X80.01 Y59.246 E.08751
G1 X82.02 Y60.475 E.08772
G1 X82.329 Y60.737 E.01508
G1 X82.588 Y61.042 E.0149
G1 X82.795 Y61.385 E.01492
G1 X82.943 Y61.758 E.01494
G1 X83.028 Y62.149 E.0149
G1 X83.049 Y62.549 E.01491
G1 X83.004 Y62.947 E.01491
G1 X82.878 Y63.393 E.01726
G1 X81.741 Y66.844 E.13529
G1 X80.856 Y70.432 E.1376
G1 X80.247 Y74.076 E.13756
G1 X79.922 Y77.696 E.13533
G1 X79.869 Y81.319 E.13491
G1 X80.128 Y96.423 E.56246
G1 X80.08 Y111.67 E.5677
G1 X79.867 Y115.912 E.15814
G1 X79.344 Y120.113 E.15763
G1 X78.504 Y124.307 E.15926
G1 X77.754 Y128.295 E.15109
G1 X77.387 Y132.381 E.15275
G1 X77.418 Y136.483 E.15274
G1 X77.844 Y140.563 E.15274
G1 X78.662 Y144.582 E.15271
G1 X79.864 Y148.504 E.15273
G1 X81.439 Y152.292 E.15275
G1 X83.341 Y155.849 E.15019
G1 X83.55 Y156.274 E.01763
G1 X83.666 Y156.663 E.01511
G1 X83.718 Y157.065 E.01509
G1 X83.702 Y157.469 E.01505
G1 X83.62 Y157.866 E.01509
G1 X83.474 Y158.244 E.01509
G1 X83.268 Y158.593 E.01509
G1 X83.007 Y158.903 E.01509
G1 X82.699 Y159.166 E.01508
G1 X82.338 Y159.383 E.01568
G1 X79.537 Y160.587 E.11352
G1 X76.609 Y161.491 E.1141
G1 X73.601 Y162.079 E.11412
G1 X70.548 Y162.344 E.1141
G1 X67.484 Y162.283 E.11411
G1 X64.444 Y161.896 E.1141
G1 X63.596 Y161.696 E.03244
G1 X63.849 Y161.58 E.01036
G1 X64.308 Y161.264 E.02075
G1 X64.705 Y160.874 E.02072
G1 X65.027 Y160.421 E.02069
G1 X65.267 Y159.918 E.02075
