; generated by PrusaSlicer 2.7.2+MacOS-arm64 on 2024-03-04 at 21:40:02 UTC


;
;

;
;

;
;

;
;

;
;
; 

; external perimeters extrusion width = 0.45mm
; perimeters extrusion width = 0.45mm
; infill extrusion width = 0.45mm
; solid infill extrusion width = 0.45mm
; top infill extrusion width = 0.40mm

; external perimeters extrusion width = 0.45mm
; perimeters extrusion width = 0.45mm
; infill extrusion width = 0.45mm
; solid infill extrusion width = 0.45mm
; top infill extrusion width = 0.40mm

M73 P0 R51

EXCLUDE_OBJECT_DEFINE NAME='Bugout_Scale_Honeycomb_right' CENTER=98.720,66.241 POLYGON=[[98.512,12.256],[102.023,12.450],[105.422,13.119],[108.321,13.962],[109.832,14.594],[111.350,15.342],[112.751,16.127],[113.174,16.516],[113.557,17.340],[114.155,19.091],[114.465,20.577],[114.440,21.316],[114.220,21.889],[112.845,23.819],[110.384,28.667],[109.439,31.069],[108.863,33.384],[108.459,36.010],[108.176,39.052],[108.096,41.122],[108.152,44.706],[108.437,49.285],[108.604,50.983],[109.415,56.366],[109.879,60.015],[110.344,66.557],[110.349,72.233],[110.110,83.914],[110.149,88.805],[109.896,95.337],[110.070,100.780],[110.365,103.674],[110.802,106.577],[112.102,111.396],[112.677,112.805],[112.735,113.564],[112.691,114.128],[112.158,117.271],[111.827,117.823],[111.210,118.439],[109.206,119.649],[105.620,121.383],[102.759,122.190],[101.384,122.330],[99.307,122.316],[97.418,122.126],[95.474,121.619],[92.136,120.465],[91.121,119.811],[90.808,119.506],[90.014,118.072],[89.636,117.080],[89.455,116.322],[89.235,113.388],[88.120,103.655],[86.961,85.852],[86.269,70.730],[86.105,56.914],[86.138,46.856],[86.468,34.037],[87.060,20.364],[87.122,15.156],[87.282,14.722],[88.037,13.833],[88.296,13.677],[89.038,13.451],[93.236,12.607],[94.421,12.440],[96.449,12.276]]
EXCLUDE_OBJECT_DEFINE NAME='Bugout_Scale_Honeycomb_right' CENTER=155.906,160.171 POLYGON=[[155.698,106.186],[159.209,106.379],[162.608,107.049],[165.507,107.892],[167.019,108.524],[168.536,109.272],[169.937,110.057],[170.360,110.446],[170.744,111.270],[171.341,113.021],[171.651,114.507],[171.626,115.246],[171.406,115.819],[170.031,117.749],[167.570,122.597],[166.625,124.998],[166.050,127.314],[165.645,129.940],[165.363,132.982],[165.282,135.052],[165.339,138.636],[165.623,143.215],[165.790,144.912],[166.601,150.295],[167.065,153.945],[167.530,160.487],[167.535,166.162],[167.296,177.844],[167.335,182.735],[167.082,189.267],[167.257,194.710],[167.551,197.604],[167.988,200.507],[169.289,205.326],[169.864,206.735],[169.922,207.494],[169.878,208.057],[169.344,211.201],[169.013,211.753],[168.397,212.369],[166.393,213.579],[162.806,215.313],[159.946,216.120],[158.570,216.260],[156.493,216.246],[154.604,216.056],[152.660,215.549],[149.323,214.395],[148.307,213.741],[147.994,213.436],[147.200,212.001],[146.822,211.010],[146.641,210.252],[146.421,207.318],[145.306,197.585],[144.147,179.782],[143.455,164.658],[143.291,150.844],[143.324,140.786],[143.655,127.964],[144.247,114.294],[144.308,109.086],[144.469,108.652],[145.223,107.763],[145.483,107.607],[146.224,107.381],[150.422,106.537],[151.607,106.370],[153.635,106.206]]

;TYPE:Custom
CALCULATE_PA MATERIAL=PLA BOWDEN_LENGTH=6 LAYER_HEIGHT=0.2 NOZZLE_SIZE=0.4 PRINT_SPEED=0


START_PRINT EXTRUDER=230 BED=65
G21 ; set units to millimeters
G90 ; use absolute coordinates
M83 ; use relative distances for extrusion
; Filament gcode
M107
;LAYER_CHANGE
;Z:0.2
;HEIGHT:0.2
G1 E-1 F3000
EXCLUDE_OBJECT_START NAME='Bugout_Scale_Honeycomb_right'
G1 Z.2 F78000
G1 X160.819 Y163.448
G1 Z.2
G1 E1 F3000
;TYPE:External perimeter
;WIDTH:0.45
G1 F1200
G1 X161.358 Y166.43 E.1077
G1 X159.045 Y168.389 E.10773
G1 X156.192 Y167.365 E.10773
G1 X155.653 Y164.382 E.10774
G1 X155.817 Y164.243 E.00764
G1 X157.966 Y162.423 E.10009
G1 X160.762 Y163.427 E.10559
G1 X160.88 Y163.81 F78000
G1 E-1 F3000
G1 X152.455 Y163.42 F78000
G1 E1 F3000
G1 F1200
G1 X155.308 Y164.444 E.10773
G1 X155.848 Y167.427 E.10774
G1 X153.534 Y169.386 E.10776
G1 X150.682 Y168.362 E.1077
G1 X150.142 Y165.379 E.10774
G1 X150.306 Y165.24 E.00764
G1 X152.41 Y163.459 E.09797
G1 X152.8 Y163.548 F78000
G1 E-1 F3000
G1 X152.254 Y163.162 F78000
G1 X149.921 Y165.137
G1 X147.465 Y164.256
G1 X147.055 Y164.109
G1 X146.945 Y164.417
G1 E1 F3000
G1 F1200
G1 X149.798 Y165.441 E.10773
G1 X150.337 Y168.424 E.10774
G1 X148.024 Y170.382 E.10771
G1 X145.406 Y169.443 E.09885
G1 X145.323 Y167.684 E.06259
G1 X145.262 Y165.842 E.0655
G1 X145.391 Y165.733 E.006
G1 X146.899 Y164.456 E.07023
G1 X147.289 Y164.545 F78000
G1 E-1 F3000
G1 X147.298 Y164.52 F78000
G1 X146.94 Y164.392
G1 X145.595 Y165.501
G1 X145.363 Y165.619
G1 X145.248 Y165.395
G1 E1 F3000
G1 F1200
G1 X145.187 Y162.715 E.09528
G1 X145.154 Y160.799 E.06811
G1 X146.179 Y161.167 E.03871
G1 X146.719 Y164.15 E.10774
G1 X145.294 Y165.356 E.06635
G1 X145.234 Y164.961 F78000
G1 E-1 F3000
G1 X145.173 Y164.992 F78000
G1 X145.219 Y165.08
G1 X145.503 Y165.208
G1 X146.743 Y164.159
G1 X146.24 Y161.375
G1 X146.201 Y161.163
G1 X146.524 Y161.105
G1 E1 F3000
G1 F1200
G1 X146.688 Y160.966 E.00764
G1 X148.837 Y159.146 E.10009
G1 X151.69 Y160.17 E.10773
G1 X152.229 Y163.153 E.10774
G1 X149.916 Y165.112 E.10773
G1 X147.063 Y164.088 E.10773
G1 X146.534 Y161.164 E.10561
G1 X146.806 Y160.871 F78000
G1 E-1 F3000
G1 X146.789 Y160.851 F78000
G1 X148.832 Y159.121
G1 X152.124 Y160.002
G1 X154.343 Y158.124
G1 X157.22 Y159.157
G1 X157.222 Y159.17
G1 X157.2 Y159.174
G1 E1 F3000
G1 F1200
G1 X157.74 Y162.156 E.10771
G1 X155.426 Y164.115 E.10776
G1 X152.574 Y163.091 E.1077
G1 X152.034 Y160.108 E.10774
G1 X152.198 Y159.969 E.00764
G1 X154.347 Y158.15 E.10007
G1 X157.144 Y159.153 E.10561
G1 X157.262 Y159.536 F78000
G1 E-1 F3000
G1 X157.288 Y159.531 F78000
G1 X158.064 Y162.111
G1 X160.446 Y162.966
G1 X161.219 Y163.818
G1 X161.683 Y166.385
G1 X164.56 Y167.418
G1 X164.57 Y167.409
G1 X164.556 Y167.392
G1 E1 F3000
G1 F1200
G1 X161.703 Y166.368 E.10773
G1 X161.163 Y163.385 E.10774
G1 X161.327 Y163.246 E.00764
G1 X163.477 Y161.427 E.10009
G1 X165.775 Y162.252 E.08678
G1 X165.756 Y166.376 E.14657
G1 X164.601 Y167.353 E.05377
G1 X164.211 Y167.264 F78000
G1 E-1 F3000
G1 X164.099 Y167.576 F78000
G1 X164.457 Y167.705
G1 X164.987 Y170.26
G1 X165.001 Y170.713
G1 X165.656 Y171.134
G1 E1 F3000
G1 F1200
G1 X165.533 Y176.668 E.19673
G1 X163.429 Y175.913 E.07945
G1 X162.89 Y172.93 E.10774
G1 X163.054 Y172.791 E.00764
G1 X165.203 Y170.971 E.10009
G1 X165.6 Y171.114 E.015
G1 X165.645 Y171.511 F78000
G1 X165.324 Y170.338
;TYPE:Perimeter
G1 F1200
G1 X166.07 Y170.28 E.02659
G1 X166.057 Y170.845 E.02009
G1 X165.372 Y170.599 E.02587
G1 X165.335 Y170.397 E.0073
G1 X165.335 Y170.397 F78000
G1 X165.194 Y169.94
;TYPE:External perimeter
G1 F1200
G1 X164.782 Y167.659 E.08238
G1 X165.752 Y166.838 E.04517
G1 X165.689 Y169.901 E.10889
G1 X165.254 Y169.935 E.01551
G1 X165.126 Y169.556 F78000
G1 X164.977 Y170.704
G1 F1200
G1 X162.664 Y172.663 E.10773
G1 X159.811 Y171.639 E.10773
G1 X159.271 Y168.656 E.10774
G1 X159.435 Y168.517 E.00764
G1 X161.585 Y166.697 E.10012
G1 X164.437 Y167.721 E.1077
G1 X164.966 Y170.645 E.10561
G1 X164.694 Y170.938 F78000
G1 E-1 F3000
G1 X164.711 Y170.958 F78000
G1 X162.668 Y172.688
G1 X159.688 Y171.943
G1 X158.037 Y173.341
G1 X157.168 Y173.677
G1 X157.153 Y173.66
G1 E1 F3000
G1 F1200
G1 X154.3 Y172.635 E.10774
G1 X153.761 Y169.653 E.1077
G1 X153.925 Y169.514 E.00764
G1 X156.074 Y167.694 E.10009
G1 X158.927 Y168.718 E.10773
G1 X159.466 Y171.701 E.10774
G1 X157.199 Y173.621 E.10559
G1 X156.809 Y173.532 F78000
G1 E-1 F3000
G1 X157.355 Y173.918 F78000
G1 X157.899 Y176.926
G1 X160.776 Y177.959
G1 X163.109 Y175.984
G1 X163.107 Y175.971
G1 X163.085 Y175.975
G1 E1 F3000
G1 F1200
G1 X160.772 Y177.933 E.10771
G1 X157.919 Y176.909 E.10773
G1 X157.379 Y173.927 E.10771
G1 X157.543 Y173.788 E.00764
G1 X159.692 Y171.968 E.10009
G1 X162.545 Y172.992 E.10773
G1 X163.074 Y175.916 E.10561
G1 X162.802 Y176.209 F78000
G1 E-1 F3000
G1 X162.819 Y176.229 F78000
G1 X160.776 Y177.959
G1 X157.899 Y176.926
G1 X157.055 Y173.972
G1 X154.177 Y172.939
G1 X151.844 Y174.915
G1 X151.847 Y174.927
G1 X151.869 Y174.923
G1 E1 F3000
G1 F1200
G1 X152.033 Y174.784 E.00764
G1 X154.182 Y172.965 E.10007
G1 X157.035 Y173.989 E.10773
G1 X157.574 Y176.972 E.10774
G1 X155.261 Y178.93 E.10771
G1 X152.408 Y177.906 E.10773
G1 X151.879 Y174.982 E.10561
G1 X152.151 Y174.689 F78000
G1 E-1 F3000
G1 X152.134 Y174.669 F78000
G1 X154.177 Y172.939
G1 X157.055 Y173.972
G1 X157.598 Y176.979
G1 X160.675 Y178.259
G1 X160.653 Y178.263
G1 E1 F3000
G1 F1200
G1 X161.193 Y181.246 E.10774
G1 X158.88 Y183.204 E.10771
G1 X156.027 Y182.18 E.10773
G1 X155.487 Y179.197 E.10774
G1 X155.651 Y179.058 E.00764
G1 X157.8 Y177.239 E.10007
G1 X160.597 Y178.243 E.10562
G1 X160.715 Y178.625 F78000
G1 E-1 F3000
G1 X161.041 Y178.566 F78000
G1 X161.517 Y181.2
G1 X164.395 Y182.233
G1 X164.405 Y182.224
G1 X164.39 Y182.207
G1 E1 F3000
G1 F1200
G1 X161.537 Y181.183 E.10773
G1 X160.998 Y178.201 E.1077
G1 X161.162 Y178.061 E.00766
G1 X163.311 Y176.242 E.10007
G1 X165.529 Y177.038 E.08375
G1 X165.515 Y179.614 E.09156
G1 X165.539 Y181.235 E.05762
G1 X164.436 Y182.169 E.05137
G1 X164.046 Y182.08 F78000
G1 E-1 F3000
G1 X164.037 Y182.104 F78000
G1 X164.292 Y182.52
G1 X165.033 Y185.761
G1 X165.689 Y185.757
G1 X165.576 Y190.735
G1 X165.369 Y191.507
G1 X165.338 Y191.496
G1 X165.346 Y191.475
G1 E1 F3000
G1 F1200
G1 X163.264 Y190.728 E.07862
G1 X162.724 Y187.745 E.10774
G1 X162.888 Y187.606 E.00764
G1 X165.038 Y185.787 E.10009
G1 X165.429 Y185.927 E.01476
G1 X165.358 Y187.471 E.05493
G1 X165.311 Y189.218 E.06211
G1 X165.306 Y189.768 E.01955
G1 X165.344 Y191.415 E.05855
G1 X164.952 Y191.337 F78000
G1 E-1 F3000
G1 X164.946 Y191.355 F78000
G1 X165.369 Y191.507
G1 X165.576 Y190.735
G1 X165.661 Y186.222
G1 X165.689 Y185.757
G1 X165.843 Y185.643
G1 E1 F3000
;TYPE:Perimeter
G1 F1200
G1 X165.206 Y185.415 E.02405
G1 X165.15 Y185.104 E.01123
G1 X165.877 Y185.05 E.02591
G1 X165.846 Y185.583 E.01898
G1 X165.846 Y185.583 F78000
G1 X165.02 Y184.705
;TYPE:External perimeter
G1 F1200
G1 X164.616 Y182.474 E.08058
G1 X165.557 Y181.678 E.04381
G1 X165.553 Y183.331 E.05875
G1 X165.512 Y184.669 E.04758
G1 X165.08 Y184.701 E.0154
G1 X164.952 Y184.322 F78000
G1 X164.272 Y182.537
G1 F1200
G1 X164.811 Y185.519 E.1077
G1 X162.498 Y187.478 E.10773
G1 X159.645 Y186.454 E.10773
G1 X159.106 Y183.471 E.10774
G1 X159.27 Y183.332 E.00764
G1 X161.419 Y181.513 E.10007
G1 X164.215 Y182.516 E.10557
G1 X164.333 Y182.899 F78000
G1 E-1 F3000
G1 X164.359 Y182.894 F78000
G1 X164.292 Y182.52
G1 X161.414 Y181.487
G1 X158.781 Y183.517
G1 X155.904 Y182.484
G1 X153.571 Y184.459
G1 X153.573 Y184.472
G1 X153.595 Y184.468
G1 E1 F3000
G1 F1200
G1 X153.759 Y184.329 E.00764
G1 X155.908 Y182.509 E.10009
G1 X158.761 Y183.534 E.10774
G1 X159.301 Y186.516 E.10771
G1 X156.987 Y188.475 E.10776
G1 X154.135 Y187.451 E.1077
G1 X153.606 Y184.527 E.10561
G1 X153.878 Y184.234 F78000
G1 E-1 F3000
G1 X153.27 Y184.514 F78000
G1 X151.609 Y183.917
G1 X151.016 Y183.704
G1 X151.009 Y183.725
G1 E1 F3000
G1 F1200
G1 X153.251 Y184.53 E.08466
G1 X153.79 Y187.513 E.10774
G1 X151.477 Y189.472 E.10773
G1 X148.624 Y188.448 E.10773
G1 X148.518 Y187.862 E.02117
M73 P0 R50
G1 X149.304 Y187.494 E.03085
G1 X149.848 Y187.098 E.02391
G1 X150.307 Y186.606 E.02391
G1 X150.664 Y186.035 E.02393
G1 X150.905 Y185.407 E.02391
G1 X151.024 Y184.745 E.02391
G1 X151.009 Y183.785 E.03412
G1 X151.402 Y183.864 F78000
G1 E-1 F3000
G1 X151.507 Y183.559 F78000
G1 X153.374 Y184.226
G1 X155.707 Y182.251
G1 X155.704 Y182.238
G1 X155.682 Y182.242
G1 E1 F3000
G1 F1200
G1 X153.369 Y184.201 E.10773
G1 X150.516 Y183.177 E.10773
G1 X149.977 Y180.194 E.10774
G1 X150.141 Y180.055 E.00764
G1 X152.29 Y178.236 E.10007
G1 X155.143 Y179.26 E.10773
G1 X155.672 Y182.183 E.10557
G1 X155.4 Y182.477 F78000
G1 E-1 F3000
G1 X155.417 Y182.497 F78000
G1 X153.374 Y184.226
G1 X150.986 Y183.693
G1 X149.306 Y187.015
G1 X148.086 Y187.639
G1 X148.309 Y187.995
G1 X146.153 Y189.378
G1 X146.575 Y189.345
G1 E1 F3000
;TYPE:Perimeter
G1 F1200
G1 X146.432 Y187.46 E.06719
G1 X146.486 Y187.485 E.00211
G1 X147.295 Y187.649 E.02934
G1 X147.649 Y187.629 E.0126
G1 X147.775 Y188.329 E.02528
G1 X146.621 Y189.306 E.05374
G1 E-1 F3000
G1 X146.621 Y189.306 F78000
G1 X146.898 Y189.633
G1 X148.118 Y187.15
G1 X148.649 Y186.977
G1 X148.763 Y186.917
G1 X149.235 Y186.617
G1 X149.332 Y186.532
G1 X149.715 Y186.124
G1 X149.785 Y186.022
G1 X150.058 Y185.526
G1 X150.101 Y185.412
G1 X150.242 Y184.864
G1 X150.256 Y184.743
G1 X150.256 Y184.177
G1 X150.242 Y184.056
G1 X150.03 Y183.53
G1 X149.987 Y183.427
G1 X149.778 Y182.959
G1 X150.042 Y182.841
G1 E1 F3000
G1 F1200
G1 X150.157 Y183.481 E.02311
G1 X150.6 Y183.64 E.01673
G1 X150.616 Y184.712 E.0381
G1 X150.512 Y185.297 E.02112
G1 X150.298 Y185.852 E.02114
G1 X149.982 Y186.357 E.02117
G1 X149.577 Y186.792 E.02112
G1 X149.096 Y187.142 E.02114
G1 X148.062 Y187.626 E.04058
G1 X148.218 Y188.488 E.03113
G1 X146.228 Y190.172 E.09265
G1 X145.972 Y186.777 E.12101
G1 X146.009 Y186.807 E.00169
G1 X146.623 Y187.1 E.02418
G1 X147.322 Y187.24 E.02534
G1 X148.015 Y187.201 E.02467
G1 X148.656 Y186.998 E.0239
G1 X148.774 Y186.935 E.00475
G1 X149.27 Y186.62 E.02088
G1 X149.751 Y186.118 E.02471
G1 X150.092 Y185.509 E.02481
G1 X150.272 Y184.834 E.02483
G1 X150.272 Y184.087 E.02655
G1 X150.093 Y183.413 E.02479
G1 X149.781 Y182.846 E.023
G1 X149.272 Y182.3 E.02653
G1 X148.68 Y181.931 E.02479
G1 X147.994 Y181.718 E.02553
G1 X147.32 Y181.68 E.02399
G1 X146.639 Y181.814 E.02467
G1 X145.999 Y182.121 E.02523
G1 X145.681 Y182.386 E.01471
G1 X145.643 Y181.742 E.02293
G1 X147.022 Y181.385 E.05063
G1 X147.588 Y181.346 E.02016
G1 X148.171 Y181.416 E.02087
G1 X148.731 Y181.594 E.02088
G1 X149.934 Y182.246 E.04863
G1 X150.031 Y182.782 E.01936
G1 X149.905 Y181.767 F78000
;TYPE:External perimeter
G1 F1200
G1 X148.891 Y181.217 E.041
G1 X148.258 Y181.016 E.0236
G1 X147.598 Y180.937 E.02362
G1 X146.956 Y180.982 E.02287
G1 X146.006 Y181.228 E.03488
G1 X145.934 Y179.948 E.04556
G1 X146.04 Y179.859 E.00492
G1 X146.779 Y179.232 E.03444
G1 X149.632 Y180.256 E.10773
G1 X149.895 Y181.708 E.05245
G1 X149.522 Y181.564 F78000
G1 E-1 F3000
G1 X149.537 Y181.652 F78000
G1 X149.62 Y181.638
G1 X149.872 Y181.455
G1 X149.652 Y180.24
G1 X146.878 Y178.92
G1 X146.352 Y178.051
G1 X146.278 Y177.643
G1 X146.242 Y177.444
G1 X145.82 Y177.521
G1 E1 F3000
;TYPE:Perimeter
G1 F1200
G1 X146.049 Y178.784 E.04562
G1 X145.893 Y178.916 E.00726
G1 X145.823 Y177.581 E.04751
G1 X145.823 Y177.581 F78000
G1 X145.963 Y176.025
G1 F1200
G1 X146.491 Y178.943 E.10539
G1 X145.53 Y179.756 E.04474
G1 X145.323 Y175.795 E.14097
G1 X145.907 Y176.005 E.02206
G1 E-1 F3000
G1 X145.907 Y176.005 F78000
G1 X146.317 Y176.054
G1 X146.334 Y175.911
G1 X148.667 Y173.936
G1 X151.544 Y174.969
G1 X151.546 Y174.982
G1 X151.524 Y174.986
G1 E1 F3000
;TYPE:External perimeter
G1 F1200
G1 X152.064 Y177.968 E.10771
G1 X149.75 Y179.927 E.10776
G1 X146.898 Y178.903 E.1077
G1 X146.358 Y175.92 E.10774
G1 X146.522 Y175.781 E.00764
G1 X148.671 Y173.962 E.10007
G1 X151.468 Y174.965 E.10561
G1 X151.586 Y175.348 F78000
G1 E-1 F3000
G1 X151.612 Y175.343 F78000
G1 X151.544 Y174.969
G1 X148.667 Y173.936
G1 X148.657 Y173.945
G1 X148.445 Y173.695
G1 E1 F3000
G1 F1200
G1 X146.132 Y175.653 E.10771
G1 X145.699 Y175.498 E.01635
M73 P1 R50
G1 X145.473 Y170.788 E.16759
G1 X145.426 Y169.822 E.03437
G1 X147.906 Y170.712 E.09365
G1 X148.434 Y173.635 E.10557
G1 X148.162 Y173.929 F78000
G1 E-1 F3000
G1 X148.77 Y173.649 F78000
G1 X151.647 Y174.682
G1 X151.657 Y174.673
G1 X151.642 Y174.656
G1 E1 F3000
G1 F1200
G1 X148.79 Y173.632 E.1077
G1 X148.25 Y170.65 E.10771
G1 X148.414 Y170.511 E.00764
G1 X150.563 Y168.691 E.10009
G1 X153.416 Y169.715 E.10773
G1 X153.956 Y172.698 E.10774
G1 X151.688 Y174.618 E.10561
G1 X151.298 Y174.529 F78000
G1 E-1 F3000
G1 X151.289 Y174.553 F78000
G1 X151.544 Y174.969
G1 X152.088 Y177.977
G1 X149.952 Y180.185
G1 X150.059 Y182.731
G1 X150.161 Y183.022
G1 X150.336 Y183.329
G1 X153.27 Y184.514
G1 X153.815 Y187.522
G1 X151.679 Y189.73
G1 X151.824 Y190.534
G1 X151.92 Y192.78
G1 X151.898 Y192.784
G1 E1 F3000
G1 F1200
