; generated by PrusaSlicer 2.7.2+MacOS-arm64 on 2024-03-06 at 20:49:54 UTC


;
;

;
;

;
;

;
;

;
;
; 

; external perimeters extrusion width = 0.45mm
; perimeters extrusion width = 0.45mm
; infill extrusion width = 0.45mm
; solid infill extrusion width = 0.45mm
; top infill extrusion width = 0.40mm

M73 P0 R59

EXCLUDE_OBJECT_DEFINE NAME='Benchmade_20Bugout_20Scales_stl' CENTER=71.696,124.091 POLYGON=[[36.879,170.712],[38.220,76.392],[38.268,75.578],[38.448,74.783],[38.754,74.028],[39.179,73.332],[39.711,72.715],[40.337,72.192],[42.675,70.785],[45.191,69.731],[47.834,69.052],[50.547,68.762],[92.741,68.723],[95.455,69.008],[98.099,69.682],[100.617,70.731],[102.958,72.134],[103.584,72.655],[104.118,73.272],[104.544,73.966],[104.852,74.721],[105.033,75.516],[105.082,76.330],[106.599,170.647],[106.575,171.472],[106.415,172.281],[106.125,173.052],[105.712,173.766],[105.187,174.402],[104.565,174.943],[103.862,175.374],[100.810,176.718],[97.633,177.731],[94.366,178.400],[91.046,178.718],[52.447,178.753],[49.127,178.442],[45.858,177.779],[42.679,176.772],[39.625,175.434],[38.921,175.004],[38.298,174.464],[37.772,173.829],[37.357,173.116],[37.066,172.345],[36.905,171.536]]

;TYPE:Custom
CALCULATE_PA MATERIAL=PLA BOWDEN_LENGTH=6 LAYER_HEIGHT=0.2 NOZZLE_SIZE=0.4 PRINT_SPEED=0


START_PRINT EXTRUDER=230 BED=65
G21 ; set units to millimeters
G90 ; use absolute coordinates
M83 ; use relative distances for extrusion
; Filament gcode
M107
;LAYER_CHANGE
;Z:0.2
;HEIGHT:0.2
G1 E-1 F3000
EXCLUDE_OBJECT_START NAME='Benchmade_20Bugout_20Scales_stl'
G1 Z.2 F90000
G1 X42.959 Y159.887
G1 Z.2
G1 E1 F3000
;TYPE:Perimeter
;WIDTH:0.467257
G1 F1200
G1 X42.919 Y160 E.00444
G1 X42.211 Y160.912 E.04277
G1 X42.679 Y159.419 E.05797
;WIDTH:0.465459
G1 X42.843 Y158.816 E.02305
;WIDTH:0.415695
G1 X43.006 Y158.213 E.02033
;WIDTH:0.411982
G1 X43.045 Y158.156 E.00223
;WIDTH:0.458033
G1 X43.084 Y158.098 E.00253
;WIDTH:0.504084
G1 X43.124 Y158.041 E.0028
;WIDTH:0.550136
G1 X43.163 Y157.984 E.00306
;WIDTH:0.596187
G1 X43.202 Y157.927 E.00334
;WIDTH:0.642238
G1 X43.241 Y157.87 E.00361
G1 X43.254 Y157.939 E.00367
;WIDTH:0.596187
G1 X43.267 Y158.008 E.00339
;WIDTH:0.550136
G1 X43.281 Y158.077 E.00312
;WIDTH:0.504084
G1 X43.294 Y158.146 E.00283
;WIDTH:0.458033
G1 X43.307 Y158.216 E.00258
;WIDTH:0.411982
G1 X43.32 Y158.285 E.00226
;WIDTH:0.415695
G1 X43.205 Y158.899 E.02033
;WIDTH:0.465459
G1 X43.087 Y159.528 E.02361
;WIDTH:0.467257
G1 X42.979 Y159.831 E.01192
;WIPE_START
G1 F72000
G1 X42.959 Y159.887 E-.00235
G1 X42.919 Y160 E-.00474
G1 X42.211 Y160.912 E-.0457
G1 X42.679 Y159.419 E-.06193
G1 X42.843 Y158.816 E-.02474
G1 X43.006 Y158.213 E-.02473
G1 X43.045 Y158.156 E-.00273
G1 X43.084 Y158.098 E-.00277
G1 X43.124 Y158.041 E-.00276
G1 X43.163 Y157.984 E-.00273
G1 X43.202 Y157.927 E-.00273
G1 X43.241 Y157.87 E-.00273
G1 X43.254 Y157.939 E-.00278
G1 X43.267 Y158.008 E-.00278
G1 X43.281 Y158.077 E-.00279
G1 X43.294 Y158.146 E-.00278
G1 X43.307 Y158.216 E-.00282
G1 X43.32 Y158.285 E-.00278
G1 X43.205 Y158.899 E-.02473
G1 X43.087 Y159.528 E-.02533
G1 X42.979 Y159.831 E-.01273
;WIPE_END
G1 E-.73984 F3000
G1 X40.207 Y165.751 F90000
G1 E1 F3000
;WIDTH:0.449999
G1 F1200
G1 X40.099 Y166.498 E.02683
G1 X40.107 Y168.076 E.05608
G1 X40.122 Y168.244 E.00599
G1 X40.432 Y169.963 E.06208
G1 X41.022 Y171.606 E.06205
G1 X41.875 Y173.13 E.06207
G1 X42.853 Y174.368 E.05607
G1 X42.968 Y174.491 E.00598
G1 X44.271 Y175.654 E.06207
;WIDTH:0.486754
G1 X45.589 Y176.522 E.06115
;WIDTH:0.515686
G1 X45.736 Y176.615 E.00718
G1 X45.564 Y176.576 E.00728
;WIDTH:0.486754
G1 X44.054 Y176.117 E.06116
;WIDTH:0.449999
G1 X43.045 Y175.798 E.03761
G1 X40.107 Y174.51 E.11401
G1 X39.537 Y174.162 E.02374
G1 X39.043 Y173.735 E.02321
G1 X38.627 Y173.232 E.0232
G1 X38.322 Y172.707 E.02158
G1 X38.067 Y172.053 E.02495
G1 X37.941 Y171.418 E.02301
G1 X37.92 Y170.765 E.02322
G1 X38.007 Y170.119 E.02317
G1 X38.199 Y169.495 E.0232
G1 X38.522 Y168.85 E.02564
G1 X40.178 Y165.804 E.12322
G1 E-1 F3000
G1 X40.178 Y165.804 F90000
G1 X39.802 Y165.599
G1 X43.683 Y158.472
G1 X44.975 Y149.657
G1 X44.983 Y149.599
G1 X44.469 Y149.523
G1 E1 F3000
;WIDTH:0.63246
G1 F1200
G1 X44.448 Y149.456 E.00361
;WIDTH:0.587696
G1 X44.426 Y149.389 E.00335
;WIDTH:0.542932
G1 X44.405 Y149.323 E.00302
;WIDTH:0.498167
G1 X44.384 Y149.256 E.00279
;WIDTH:0.453403
G1 X44.362 Y149.189 E.00253
;WIDTH:0.408639
G1 X44.341 Y149.122 E.00224
;WIDTH:0.410107
G1 X44.374 Y148.418 E.02259
;WIDTH:0.456339
G1 X44.407 Y147.713 E.02547
;WIDTH:0.502572
G1 X44.441 Y147.009 E.02829
;WIDTH:0.548804
G1 X44.474 Y146.305 E.03113
G1 X44.455 Y146.203 E.00458
;WIDTH:0.517017
G1 X44.3 Y144.528 E.06963
;WIDTH:0.483508
G1 X44.145 Y142.854 E.06467
;WIDTH:0.449999
G1 X44.092 Y142.263 E.02109
G1 X43.403 Y138.455 E.13754
G1 X42.573 Y134.152 E.15575
G1 X42.067 Y129.837 E.15441
G1 X41.88 Y125.484 E.15485
G1 X41.94 Y110.293 E.53991
G1 X42.308 Y95.093 E.54038
G1 X42.228 Y90.605 E.15953
G1 X41.756 Y86.39 E.15074
G1 X41.707 Y86.083 E.01105
G1 X40.807 Y81.834 E.15437
G1 X39.518 Y77.697 E.15401
G1 X39.33 Y77.01 E.02531
G1 X39.263 Y76.368 E.02294
G1 X39.301 Y75.724 E.02293
G1 X39.443 Y75.095 E.02292
G1 X39.685 Y74.497 E.02293
G1 X40.021 Y73.946 E.02294
G1 X40.443 Y73.458 E.02293
G1 X40.942 Y73.041 E.02311
G1 X43.146 Y71.714 E.09144
G1 X45.523 Y70.719 E.09158
G1 X46.915 Y70.361 E.05108
G1 X46.788 Y70.582 E.00906
G1 X46.596 Y71.112 E.02003
G1 X46.535 Y71.452 E.01228
G1 X46.535 Y72.023 E.02029
G1 X46.597 Y72.371 E.01256
G1 X46.79 Y72.9 E.02001
G1 X46.967 Y73.206 E.01256
G1 X47.327 Y73.634 E.01988
G1 X47.6 Y73.864 E.01269
G1 X48.088 Y74.145 E.02001
G1 X48.42 Y74.266 E.01256
G1 X48.975 Y74.363 E.02002
G1 X49.329 Y74.363 E.01258
G1 X49.883 Y74.264 E.02
G1 X50.215 Y74.143 E.01256
G1 X50.638 Y73.898 E.01737
G1 X50.973 Y73.634 E.01516
G1 X51.335 Y73.202 E.02003
G1 X51.514 Y72.886 E.01291
;WIDTH:0.454999
G1 X51.706 Y72.367 E.01991
G1 X51.654 Y72.918 E.01991
;WIDTH:0.449999
G1 X51.677 Y73.253 E.01193
G1 X51.79 Y73.717 E.01697
G1 X52.033 Y74.238 E.02043
G1 X55.896 Y80.278 E.25482
G1 X56.317 Y80.91 E.02699
G1 X56.738 Y81.347 E.02157
G1 X57.229 Y81.627 E.02009
G1 X57.551 Y81.737 E.01209
G1 X58.117 Y81.818 E.02032
G1 X58.713 Y81.731 E.02141
G1 X59.033 Y81.617 E.01207
G1 X59.397 Y81.414 E.01481
G1 X59.665 Y81.197 E.01226
G1 X59.945 Y80.879 E.01506
G1 X60.123 Y80.592 E.012
;WIDTH:0.498718
G1 X60.224 Y80.357 E.01018
;WIDTH:0.547437
G1 X60.324 Y80.122 E.01125
;WIDTH:0.596156
G1 X60.425 Y79.888 E.01231
G1 X60.423 Y79.292 E.02879
;WIDTH:0.594375
G1 X59.944 Y74.927 E.21142
;WIDTH:0.610868
G1 X59.885 Y74.568 E.01804
;WIDTH:0.626778
G1 X59.753 Y73.995 E.02997
G1 X59.5 Y73.351 E.03527
;WIDTH:0.623824
G1 X59.084 Y72.667 E.0406
;WIDTH:0.603598
G1 X58.73 Y72.248 E.02685
;WIDTH:0.570923
G1 X58.351 Y71.904 E.0236
;WIDTH:0.528862
G1 X58.138 Y71.746 E.01125
;WIDTH:0.498358
G1 X57.926 Y71.589 E.01049
;WIDTH:0.467853
G1 X57.622 Y71.422 E.01287
;WIDTH:0.425886
G1 X57.317 Y71.255 E.01163
;WIDTH:0.383918
G1 X56.615 Y70.969 E.02257
;WIDTH:0.379903
G1 X56.117 Y70.838 E.01515
;WIDTH:0.405126
G1 X55.619 Y70.707 E.01628
;WIDTH:0.405656
G1 X54.553 Y70.509 E.03434
;WIDTH:0.437629
G1 X53.974 Y70.465 E.02001
;WIDTH:0.449999
G1 X53.261 Y70.6 E.02579
G1 X52.767 Y70.854 E.01974
G1 X52.499 Y71.056 E.01193
G1 X52.059 Y71.543 E.02333
;WIDTH:0.47639
G1 X51.773 Y72.112 E.0241
G1 X51.774 Y72.018 E.00356
;WIDTH:0.470041
G1 X51.748 Y71.277 E.02765
;WIDTH:0.449999
G1 X51.561 Y70.72 E.02088
G1 X51.332 Y70.272 E.01788
G1 X50.942 Y69.818 E.02127
G1 X53.184 Y69.908 E.07975
G1 X53.981 Y70.05 E.02877
;WIDTH:0.437629
G1 X54.619 Y70.153 E.02227
;WIDTH:0.405656
G1 X55.685 Y70.351 E.03434
;WIDTH:0.405126
G1 X56.132 Y70.485 E.01476
;WIDTH:0.374739
G1 X56.875 Y70.729 E.02266
;WIDTH:0.399943
G1 X57.615 Y71.005 E.02462
;WIDTH:0.435668
G1 X57.907 Y71.13 E.01089
;WIDTH:0.471393
G1 X58.2 Y71.256 E.01193
;WIDTH:0.500128
G1 X58.429 Y71.392 E.01063
;WIDTH:0.528862
G1 X58.657 Y71.528 E.01126
;WIDTH:0.570923
G1 X59.123 Y71.896 E.02737
;WIDTH:0.602867
G1 X59.569 Y72.379 E.03214
;WIDTH:0.627558
G1 X59.866 Y72.806 E.02655
;WIDTH:0.631017
G1 X60.136 Y73.326 E.03008
G1 X60.303 Y73.798 E.02571
;WIDTH:0.626778
G1 X60.38 Y74.139 E.01782
;WIDTH:0.610959
G1 X60.492 Y74.869 E.03663
;WIDTH:0.594375
G1 X60.934 Y79.238 E.21143
;WIDTH:0.557169
G1 X60.936 Y79.26 E.00099
;WIDTH:0.596156
G1 X60.977 Y79.876 E.02982
G1 X61.016 Y80.029 E.00763
;WIDTH:0.547437
G1 X61.055 Y80.181 E.00691
;WIDTH:0.498718
G1 X61.094 Y80.334 E.00628
;WIDTH:0.449999
G1 X61.887 Y88.515 E.29213
G1 X62.611 Y98.388 E.35184
G1 X62.394 Y98.205 E.01009
G1 X61.66 Y97.823 E.02941
G1 X61.204 Y97.719 E.01662
G1 X60.649 Y97.708 E.01973
G1 X60.109 Y97.805 E.0195
G1 X59.779 Y97.926 E.01249
G1 X59.292 Y98.208 E.02
G1 X59.021 Y98.436 E.01259
G1 X58.659 Y98.867 E.02
G1 X58.483 Y99.174 E.01258
G1 X58.291 Y99.703 E.02
G1 X58.23 Y100.051 E.01256
G1 X58.23 Y100.614 E.02001
G1 X58.292 Y100.962 E.01256
G1 X58.485 Y101.491 E.02001
G1 X58.662 Y101.797 E.01256
G1 X59.025 Y102.228 E.02003
G1 X59.295 Y102.455 E.01254
G1 X59.783 Y102.736 E.02001
G1 X60.116 Y102.857 E.01259
G1 X60.67 Y102.954 E.01999
G1 X61.024 Y102.954 E.01258
G1 X61.578 Y102.856 E.02
G1 X61.91 Y102.734 E.01257
G1 X62.398 Y102.452 E.02003
G1 X62.668 Y102.225 E.01254
G1 X62.875 Y101.979 E.01143
G1 X62.955 Y103.07 E.03888
G1 X63.664 Y117.385 E.5094
G1 X64.04 Y131.844 E.51406
G1 X64.075 Y146.191 E.50991
G1 X64.054 Y147.986 E.0638
G1 X63.306 Y147.948 E.02662
G1 X62.855 Y147.845 E.01644
G1 X62.332 Y147.632 E.02007
G1 X61.888 Y147.345 E.01879
G1 X57.433 Y143.91 E.19994
G1 X57.1 Y143.583 E.01659
G1 X56.973 Y143.325 E.01022
G1 X56.917 Y142.962 E.01305
G1 X56.907 Y132.413 E.37492
G1 X56.801 Y131.34 E.03832
G1 X56.529 Y130.388 E.03519
G1 X56.095 Y129.498 E.03519
G1 X55.514 Y128.697 E.03517
G1 X54.803 Y128.008 E.03519
G1 X53.982 Y127.454 E.0352
G1 X53.078 Y127.051 E.03518
G1 X52.293 Y126.841 E.02888
G1 X51.816 Y126.784 E.01707
G1 X51.131 Y126.74 E.0244
G1 X50.146 Y126.843 E.0352
G1 X49.194 Y127.115 E.03519
G1 X48.304 Y127.548 E.03518
G1 X47.503 Y128.129 E.03517
G1 X46.814 Y128.841 E.03521
G1 X46.26 Y129.661 E.03517
G1 X45.856 Y130.565 E.03519
G1 X45.616 Y131.525 E.03517
G1 X45.542 Y132.423 E.03202
G1 X45.551 Y142.3 E.35104
G1 X45.532 Y142.898 E.02126
;WIDTH:0.483508
G1 X45.272 Y144.559 E.06467
;WIDTH:0.517017
G1 X45.012 Y146.221 E.06963
;WIDTH:0.548804
G1 X44.977 Y146.345 E.00569
G1 X44.898 Y147.046 E.03116
;WIDTH:0.502572
G1 X44.819 Y147.746 E.02827
;WIDTH:0.456339
G1 X44.739 Y148.447 E.02547
;WIDTH:0.410107
G1 X44.66 Y149.148 E.02262
;WIDTH:0.408639
G1 X44.628 Y149.21 E.00223
;WIDTH:0.453403
G1 X44.596 Y149.273 E.00253
;WIDTH:0.498167
G1 X44.565 Y149.335 E.00276
;WIDTH:0.542932
G1 X44.533 Y149.398 E.00308
;WIDTH:0.587696
G1 X44.501 Y149.461 E.00336
;WIDTH:0.63246
G1 X44.496 Y149.47 E.00053
G1 E-1 F3000
G1 X44.496 Y149.47 F90000
G1 X43.376 Y160.006
G1 E1 F3000
;WIDTH:0.449999
G1 F1200
G1 X43.238 Y160.267 E.01049
;WIDTH:0.47867
G1 X42.131 Y161.668 E.06793
;WIDTH:0.511937
G1 X41.982 Y161.892 E.01102
G1 X41.662 Y162.522 E.02893
;WIDTH:0.479438
G1 X41.341 Y163.153 E.02698
;WIDTH:0.446939
G1 X41.301 Y163.246 E.00357
;WIDTH:0.475582
G1 X41.034 Y163.988 E.02979
;WIDTH:0.504823
G1 X40.766 Y164.731 E.03185
G1 X40.743 Y164.833 E.00422
;WIDTH:0.501396
G1 X40.701 Y165.171 E.01363
;WIDTH:0.475698
G1 X40.659 Y165.508 E.01283
;WIDTH:0.449999
G1 X40.507 Y166.496 E.03553
G1 X40.523 Y168.175 E.05968
G1 X40.816 Y169.828 E.05967
G1 X41.378 Y171.41 E.05967
G1 X42.194 Y172.877 E.05966
G1 X43.241 Y174.19 E.05969
G1 X44.491 Y175.311 E.05967
G1 X45.819 Y176.163 E.05608
G1 X46.288 Y176.373 E.01826
;WIDTH:0.498307
G1 X46.814 Y176.625 E.02319
;WIDTH:0.546615
G1 X47.34 Y176.876 E.02563
G1 X47.445 Y176.906 E.0048
;WIDTH:0.53747
G1 X48.982 Y177.265 E.06815
;WIDTH:0.519403
G1 X49.284 Y177.308 E.01269
G1 X52.106 Y177.595 E.118
;WIDTH:0.521312
G1 X52.484 Y177.607 E.0158
G1 X55.228 Y177.599 E.11461
;WIDTH:0.523087
G1 X55.697 Y177.564 E.01972
G1 X58.334 Y177.281 E.11118
;WIDTH:0.501513
G1 X58.344 Y177.28 E.0004
;WIDTH:0.52472
G1 X58.887 Y177.181 E.02322
G1 X61.39 Y176.644 E.10768
;WIDTH:0.501469
G1 X61.454 Y176.628 E.00264
;WIDTH:0.522083
G1 X63.191 Y176.083 E.07616
G1 X63.123 Y176.217 E.00629
G1 X62.841 Y176.555 E.01842
G1 X62.398 Y176.832 E.02186
;WIDTH:0.525903
G1 X62.138 Y176.928 E.01169
G1 X61.488 Y177.091 E.02826
;WIDTH:0.52472
G1 X58.99 Y177.651 E.10769
G1 X58.385 Y177.737 E.02571
;WIDTH:0.523087
G1 X55.75 Y178.041 E.1112
G1 X55.243 Y178.059 E.02127
;WIDTH:0.521312
G1 X52.487 Y178.085 E.11512
G1 X52.07 Y178.056 E.01746
;WIDTH:0.519403
G1 X49.237 Y177.782 E.1184
G1 X48.881 Y177.718 E.01505
;WIDTH:0.53747
G1 X47.337 Y177.389 E.06816
;WIDTH:0.546615
G1 X47.191 Y177.355 E.00659
G1 X46.615 Y177.262 E.02566
;WIDTH:0.498307
G1 X46.039 Y177.17 E.02319
;WIDTH:0.449999
G1 X42.902 Y176.18 E.11691
G1 X39.918 Y174.872 E.1158
G1 X39.296 Y174.492 E.02591
G1 X38.751 Y174.02 E.02562
G1 X38.292 Y173.466 E.02557
G1 X37.954 Y172.884 E.02392
G1 X37.675 Y172.167 E.02734
G1 X37.535 Y171.464 E.02548
G1 X37.512 Y170.744 E.0256
G1 X37.608 Y170.031 E.02557
G1 X37.82 Y169.343 E.02559
G1 X38.161 Y168.662 E.02707
G1 X40.024 Y165.229 E.13882
;WIDTH:0.477411
G1 X40.18 Y164.898 E.01388
;WIDTH:0.504823
G1 X40.335 Y164.566 E.01478
G1 X40.63 Y163.834 E.03183
;WIDTH:0.475582
G1 X40.925 Y163.102 E.02981
;WIDTH:0.446939
G1 X40.977 Y162.978 E.00474
;WIDTH:0.479438
G1 X41.269 Y162.334 E.02695
;WIDTH:0.511937
G1 X41.56 Y161.689 E.02898
G1 X41.634 Y161.407 E.01194
;WIDTH:0.47867
G1 X42.156 Y159.7 E.06791
;WIDTH:0.449999
G1 X42.724 Y157.884 E.06763
G1 X43.53 Y154.05 E.13924
G1 X43.962 Y150.156 E.13925
G1 X44.016 Y146.239 E.13923
G1 X43.691 Y142.335 E.13923
G1 X43.003 Y138.532 E.13736
G1 X42.171 Y134.214 E.15629
G1 X41.661 Y129.87 E.15545
G1 X41.473 Y125.492 E.15574
G1 X41.533 Y110.287 E.54041
G1 X41.902 Y95.083 E.54053
G1 X41.823 Y90.651 E.15754
G1 X41.351 Y86.436 E.15074
G1 X41.308 Y86.167 E.00968
G1 X40.418 Y81.955 E.153
G1 X39.128 Y77.811 E.15425
G1 X38.929 Y77.086 E.02672
G1 X38.854 Y76.378 E.0253
G1 X38.896 Y75.667 E.02531
G1 X39.053 Y74.973 E.02529
G1 X39.32 Y74.313 E.0253
G1 X39.691 Y73.706 E.02528
G1 X40.156 Y73.166 E.02533
G1 X40.705 Y72.708 E.02541
G1 X42.961 Y71.35 E.09359
G1 X45.393 Y70.332 E.0937
G1 X47.705 Y69.738 E.08484
;WIDTH:0.45435
G1 X48.424 Y69.627 E.02613
G1 X48.01 Y69.848 E.01686
;WIDTH:0.449999
G1 X47.638 Y70.106 E.01609
G1 X47.276 Y70.537 E.02
G1 X47.17 Y70.721 E.00755
G1 X46.978 Y71.251 E.02003
G1 X46.942 Y71.455 E.00736
G1 X46.942 Y72.023 E.02019
G1 X46.979 Y72.231 E.00751
G1 X47.172 Y72.76 E.02001
G1 X47.278 Y72.944 E.00755
G1 X47.639 Y73.372 E.0199
G1 X47.803 Y73.511 E.00764
G1 X48.291 Y73.792 E.02001
G1 X48.491 Y73.865 E.00757
G1 X49.045 Y73.962 E.01999
G1 X49.257 Y73.962 E.00753
G1 X49.812 Y73.863 E.02004
G1 X50.011 Y73.791 E.00752
G1 X50.434 Y73.546 E.01737
G1 X50.661 Y73.372 E.01017
G1 X51.033 Y72.928 E.02059
G1 X51.295 Y72.298 E.02425
G1 X51.357 Y72.019 E.01016
G1 X51.357 Y71.455 E.02005
G1 X51.234 Y71.013 E.01631
G1 X51.02 Y70.534 E.01865
G1 X50.658 Y70.103 E.02
G1 X50.495 Y69.967 E.00754
G1 X50.007 Y69.686 E.02001
G1 X49.587 Y69.552 E.01567
G1 X49.18 Y69.527 E.01449
G1 X49.591 Y69.5 E.01464
G1 X50.569 Y69.396 E.03496
G1 X53.203 Y69.498 E.09369
G1 X55.795 Y69.98 E.0937
G1 X58.29 Y70.832 E.0937
G1 X58.878 Y71.136 E.02353
G1 X59.412 Y71.525 E.02348
G1 X59.882 Y71.99 E.0235
G1 X60.276 Y72.521 E.0235
G1 X60.586 Y73.105 E.0235
G1 X60.789 Y73.689 E.02197
G1 X60.928 Y74.402 E.02582
G1 X62.293 Y88.481 E.50273
G1 X63.083 Y99.253 E.38388
;WIDTH:0.487614
G1 X63.078 Y99.441 E.0073
;WIDTH:0.525228
G1 X63.073 Y99.63 E.00796
;WIDTH:0.562842
G1 X63.068 Y99.819 E.00858
G1 X62.95 Y99.587 E.01182
;WIDTH:0.525228
G1 X62.833 Y99.356 E.0109
;WIDTH:0.487614
G1 X62.716 Y99.125 E.01005
;WIDTH:0.449999
G1 X62.353 Y98.694 E.02003
G1 X62.191 Y98.558 E.00752
G1 X61.703 Y98.277 E.02001
G1 X61.282 Y98.143 E.0157
G1 X60.721 Y98.109 E.01998
G1 X60.181 Y98.206 E.0195
G1 X59.983 Y98.279 E.0075
G1 X59.495 Y98.561 E.02003
G1 X59.333 Y98.697 E.00752
G1 X58.971 Y99.129 E.02003
G1 X58.866 Y99.313 E.00753
G1 X58.673 Y99.842 E.02001
