; generated by SuperSlicer 2.5.59.9 on 2024-05-17 at 03:38:01 UTC


;
;

;
;

;
;

;
;

;
;
; 

; external perimeters extrusion width = 0.42mm
; perimeters extrusion width = 0.45mm
; infill extrusion width = 0.45mm
; solid infill extrusion width = 0.45mm
; top infill extrusion width = 0.42mm

; external perimeters extrusion width = 0.42mm
; perimeters extrusion width = 0.45mm
; infill extrusion width = 0.45mm
; solid infill extrusion width = 0.45mm
; top infill extrusion width = 0.42mm

; external perimeters extrusion width = 0.42mm
; perimeters extrusion width = 0.45mm
; infill extrusion width = 0.45mm
; solid infill extrusion width = 0.45mm
; top infill extrusion width = 0.42mm

; external perimeters extrusion width = 0.42mm
; perimeters extrusion width = 0.45mm
; infill extrusion width = 0.45mm
; solid infill extrusion width = 0.45mm
; top infill extrusion width = 0.42mm

; object:{"name":"Camera%20Angle%20Adapter","id":"Camera%20Angle%20Adapter.stl id:0 copy 0","object_center":[34.478348,56.775200,0.000000],"boundingbox_center":[34.478348,56.775200,2.500000],"boundingbox_size":[27.000000,17.749924,5.000000]}
EXCLUDE_OBJECT_DEFINE NAME=Camera_20Angle_20Adapter_stl_id_0_copy_0 CENTER=34.478348,56.775200 POLYGON=[[20.98,56.15],[21.45,55.47],[41.01,48.08],[41.32,47.98],[41.63,47.92],[41.96,47.90],[42.28,47.92],[42.60,47.97],[42.91,48.06],[43.21,48.19],[43.49,48.35],[43.75,48.55],[43.99,48.77],[44.19,49.02],[44.37,49.29],[47.73,55.22],[47.98,56.15],[47.98,62.15],[47.98,62.26],[47.97,62.33],[47.97,62.38],[47.97,62.39],[47.96,62.52],[47.90,62.88],[47.81,63.23],[47.68,63.57],[47.51,63.90],[47.31,64.21],[47.08,64.49],[46.82,64.75],[46.54,64.98],[46.23,65.18],[45.90,65.35],[45.56,65.48],[45.21,65.57],[44.84,65.63],[44.48,65.65],[21.48,65.65],[20.98,65.15],[20.98,56.15]]
; object:{"name":"2020%20Mount","id":"2020%20Mount.stl id:1 copy 0","object_center":[99.381285,32.796760,0.000000],"boundingbox_center":[99.381285,32.796760,7.748985],"boundingbox_size":[19.999999,22.000000,15.497971]}
EXCLUDE_OBJECT_DEFINE NAME=2020_20Mount_stl_id_1_copy_0 CENTER=99.381285,32.796760 POLYGON=[[89.38,22.30],[89.88,21.80],[108.88,21.80],[109.38,22.30],[109.38,36.05],[109.36,36.60],[109.30,37.15],[109.20,37.69],[109.07,38.23],[108.89,38.76],[108.68,39.27],[108.43,39.76],[108.15,40.24],[107.84,40.69],[107.49,41.12],[107.11,41.53],[106.71,41.90],[106.28,42.25],[105.82,42.57],[105.35,42.85],[104.85,43.10],[104.34,43.31],[103.81,43.48],[103.28,43.62],[102.73,43.72],[102.18,43.78],[101.63,43.80],[97.13,43.80],[96.58,43.78],[96.03,43.72],[95.48,43.62],[94.95,43.48],[94.42,43.31],[93.91,43.10],[93.42,42.85],[92.94,42.57],[92.49,42.25],[92.06,41.90],[91.65,41.53],[91.27,41.12],[90.93,40.69],[90.61,40.24],[90.33,39.76],[90.08,39.27],[89.87,38.76],[89.70,38.23],[89.56,37.69],[89.46,37.15],[89.40,36.60],[89.38,36.05],[89.38,22.30]]
; object:{"name":"LensClamp","id":"LensClamp.stl id:2 copy 0","object_center":[91.035600,137.517059,0.000000],"boundingbox_center":[91.035600,137.517059,3.000000],"boundingbox_size":[9.000000,41.000000,6.000000]}
EXCLUDE_OBJECT_DEFINE NAME=LensClamp_stl_id_2_copy_0 CENTER=91.035600,137.517059 POLYGON=[[86.54,117.52],[87.04,117.02],[95.04,117.02],[95.54,117.52],[95.54,157.52],[95.04,158.02],[87.04,158.02],[86.54,157.52],[86.54,117.52]]
; object:{"name":"LensMount","id":"LensMount.stl id:3 copy 0","object_center":[19.500001,134.650162,0.000000],"boundingbox_center":[19.500001,134.650162,14.875000],"boundingbox_size":[29.000000,48.000000,29.750000]}
EXCLUDE_OBJECT_DEFINE NAME=LensMount_stl_id_3_copy_0 CENTER=19.500001,134.650162 POLYGON=[[5.00,111.15],[5.50,110.65],[33.50,110.65],[34.00,111.15],[34.00,158.15],[33.50,158.65],[5.50,158.65],[5.00,158.15],[5.00,111.15]]
; plater:{"center":[57.190643,90.223461,0.000000],"boundingbox_center":[57.190643,90.223461,14.875000],"boundingbox_size":[104.381284,136.853402,29.750000]}

M73 P0 R67
M107
;TYPE:Custom
CALCULATE_PA MATERIAL=PLA BOWDEN_LENGTH=6 LAYER_HEIGHT=0.24 NOZZLE_SIZE=0.4 PRINT_SPEED=0
START_PRINT EXTRUDER=210 BED=60
SET_VELOCITY_LIMIT ACCEL=500


M107
G21 ; set units to millimeters
G90 ; use absolute coordinates
M83 ; use relative distances for extrusion
; Filament gcode
M104 S210 ; set temperature
M109 S210 ; set temperature and wait for it to be reached
M190 S60 ; set bed temperature and wait for it to be reached
;LAYER_CHANGE
;Z:0.24
;HEIGHT:0.24
;BEFORE_LAYER_CHANGE
G92 E0.0

G1 E-0.4 F3600
M73 P0 R66
G1 Z0.4 F300000
;AFTER_LAYER_CHANGE
;0.24
SET_VELOCITY_LIMIT ACCEL=3000


CALCULATE_PA MATERIAL=PLA BOWDEN_LENGTH=6.0 LAYER_HEIGHT=0.2 NOZZLE_SIZE=0.4 PRINT_SPEED=80


G92 E0
G1 X5.22507 Y106.44743
G1 Z0.24
G1 E0.4 F3600
;TYPE:Skirt
;WIDTH:0.45
M107
G1 F1800
G1 X33.80972 Y106.45132 E1.02293
G1 F1799.90479
G1 X34.72833 Y106.60938 E.03336
G1 X35.60006 Y106.95028 E.0335
G1 X36.38008 Y107.46059 E.03336
G1 X37.01996 Y108.06786 E.03157
G1 X37.53872 Y108.76347 E0.03105
G1 X37.92432 Y109.55432 E.03149
G1 X38.2027 Y110.87118 E.04817
G1 X38.2027 Y115.62543 Z.24 E.17014
G1 X38.2027 Y120.37969 Z.24 E.17014
G1 X38.2027 Y125.13395 Z.24 E.17014
G1 X38.2027 Y129.88821 Z.24 E.17014
G1 X38.2027 Y134.64247 Z.24 E.17013
G1 X38.2027 Y139.39673 Z.24 E.17014
G1 X38.2027 Y144.15099 Z.24 E.17013
G1 X38.2027 Y148.90524 Z.24 E.17014
G1 X38.2027 Y153.6595 Z.24 E.17014
G1 X38.2027 Y158.41376 Z.24 E.17014
G1 X38.04186 Y159.37435 E0.03485
G1 X37.66104 Y160.32545 E.03666
G1 X36.99221 Y161.26111 E.04116
G1 X36.11559 Y162.04413 E0.04206
G1 X35.58667 Y162.35574 E.02197
G1 X35.02128 Y162.60175 E.02207
G1 X33.77533 Y162.85286 E0.04548
G1 X29.01884 Y162.85286 Z.24 E.17022
G1 X24.26235 Y162.85286 Z.24 E.17021
G1 X19.50587 Y162.85286 Z.24 E.17022
G1 X14.74938 Y162.85286 Z.24 E.17022
G1 X9.99289 Y162.85286 Z.24 E.17021
G1 X5.2364 Y162.85286 Z.24 E.17022
G1 X4.27581 Y162.69202 E0.03485
G1 X3.3247 Y162.3112 E.03666
G1 X2.38905 Y161.64236 E.04116
G1 X1.60602 Y160.76573 E0.04206
G1 X1.2944 Y160.23679 E.02197
G1 X1.0484 Y159.67139 E.02207
G1 X0.7973 Y158.42548 E0.04548
G1 X.7973 Y153.67159 Z.24 E.17012
G1 X.7973 Y148.91769 Z.24 E.17012
G1 X.7973 Y144.1638 Z.24 E.17012
G1 X.7973 Y139.40991 Z.24 E.17012
G1 X.7973 Y134.65602 Z.24 E.17012
G1 X.7973 Y129.90213 Z.24 E.17012
G1 X.7973 Y125.14825 Z.24 E.17012
G1 X.7973 Y120.39436 Z.24 E.17012
G1 X.7973 Y115.64046 Z.24 E.17012
G1 X.7973 Y110.88657 Z.24 E.17012
G1 X0.95813 Y109.92601 E0.03485
G1 X1.33894 Y108.9749 E.03666
G1 X2.00779 Y108.03922 E.04116
G1 X2.88444 Y107.25617 E0.04206
G1 X3.41337 Y106.94456 E.02197
G1 X3.97879 Y106.69855 E.02207
G1 X5.16625 Y106.45928 E.04335
M107
G1 X5.24405 Y106.84609 F300000
M107
G1 F1800
G1 X33.79237 Y106.84981 E1.02163
G1 F1799.94678
G1 X34.6395 Y106.99837 E.03078
G1 X35.43413 Y107.31317 E.03059
G1 X36.14551 Y107.78322 E0.03051
G1 X36.73231 Y108.34417 E.02905
G1 X37.20734 Y108.98559 E0.02856
G1 X37.55493 Y109.70575 E.02862
G1 X37.80421 Y110.89184 E0.04337
G1 X37.80421 Y115.64235 Z.24 E.17
G1 X37.80421 Y120.39285 Z.24 E.17
G1 X37.80421 Y125.14336 Z.24 E.17
G1 X37.80421 Y129.89388 Z.24 E.17
G1 X37.80421 Y134.64438 Z.24 E.17
G1 X37.80421 Y139.3949 Z.24 E.17
G1 X37.80421 Y144.1454 Z.24 E.17
G1 X37.80421 Y148.8959 Z.24 E.17
G1 X37.80421 Y153.64642 Z.24 E.17
G1 F1800
G1 X37.80421 Y158.39693 Z.24 E.17
G1 F1799.98181
G1 X37.65266 Y159.28612 E.03228
G1 X37.30078 Y160.15344 E.0335
G1 X36.68185 Y161.01022 E0.03782
G1 X35.89648 Y161.71071 E.03766
G1 X35.39509 Y162.0061 E.02083
G1 X34.88237 Y162.22766 E.01999
G1 X33.75554 Y162.45437 E0.04113
G1 X29.00515 Y162.45438 Z.24 E.17
G1 X24.25477 Y162.45438 Z.24 E.17
G1 X19.50438 Y162.45438 Z.24 E.17
G1 X14.754 Y162.45438 Z.24 E.17
G1 X10.00362 Y162.45438 Z.24 E.17
G1 F1800
G1 X5.25323 Y162.45438 Z.24 E.17
G1 F1799.97144
G1 X4.36405 Y162.30283 E.03228
G1 X3.49671 Y161.95094 E.0335
G1 X2.63994 Y161.33201 E0.03782
G1 X1.93944 Y160.54662 E.03766
G1 X1.64404 Y160.04521 E.02083
G1 X1.42248 Y159.53249 E.01999
G1 X1.19579 Y158.40569 E0.04113
G1 X1.19579 Y153.65546 Z.24 E.16999
G1 X1.19579 Y148.90523 Z.24 E.16999
G1 X1.19579 Y144.155 Z.24 E.16999
G1 X1.19579 Y139.40477 Z.24 E.16999
G1 X1.19579 Y134.65454 Z.24 E.16999
G1 X1.19579 Y129.90431 Z.24 E.16999
G1 X1.19579 Y125.15408 Z.24 E.16999
G1 X1.19579 Y120.40385 Z.24 E.16999
G1 X1.19579 Y115.65363 Z.24 E.16999
G1 F1800
G1 X1.19579 Y110.9034 Z.24 E.16999
G1 F1799.93506
G1 X1.34733 Y110.01425 E.03228
G1 X1.6992 Y109.1469 E.0335
G1 X2.31815 Y108.2901 E0.03782
G1 X3.10354 Y107.5896 E.03766
G1 X3.60495 Y107.2942 E.02083
G1 X4.11769 Y107.07264 E.01999
G1 X5.18523 Y106.85792 E.03897
M107
G1 X5.26287 Y107.24476 F300000
M107
G1 F1799.97253
G1 X10.01492 Y107.24535 Z.24 E.17006
G1 X14.76697 Y107.24594 Z.24 E.17006
G1 X19.51902 Y107.24654 Z.24 E.17006
G1 X24.27107 Y107.24712 Z.24 E.17006
G1 X29.02312 Y107.24771 Z.24 E.17006
G1 X33.77517 Y107.24831 Z.24 E.17006
G1 X34.51174 Y107.37639 E0.02675
G1 X35.26771 Y107.67587 E.0291
G1 X35.90936 Y108.1047 E.02762
G1 X36.44395 Y108.61971 E0.02656
G1 X36.85664 Y109.17575 E.02478
G1 X37.18547 Y109.85705 E0.02707
G1 X37.40571 Y110.91235 E.03858
G1 X37.40571 Y115.6591 Z.24 E.16987
G1 X37.40571 Y120.40584 Z.24 E.16987
G1 X37.40571 Y125.15258 Z.24 E.16987
G1 X37.40571 Y129.89932 Z.24 E.16987
G1 X37.40571 Y134.64606 Z.24 E.16987
G1 X37.40571 Y139.39281 Z.24 E.16987
G1 X37.40571 Y144.13954 Z.24 E.16987
G1 X37.40571 Y148.88629 Z.24 E.16987
G1 X37.40571 Y153.63303 Z.24 E.16987
G1 X37.40571 Y158.37978 Z.24 E.16987
G1 X37.26378 Y159.19641 E.02966
G1 X36.94124 Y159.97999 E0.03032
G1 X36.39977 Y160.72795 E.03304
G1 X35.67637 Y161.37794 E.0348
G1 X35.22537 Y161.64533 E0.01876
G1 X34.7435 Y161.85356 E.01879
G1 X33.73578 Y162.05587 E0.03678
G1 X28.99154 Y162.05586 Z.24 E.16978
G1 X24.24731 Y162.05586 Z.24 E.16978
G1 X19.50308 Y162.05586 Z.24 E.16978
G1 X14.75885 Y162.05586 Z.24 E.16978
G1 X10.01461 Y162.05586 Z.24 E.16978
G1 X5.27038 Y162.05586 Z.24 E.16978
G1 X4.45375 Y161.91394 E.02966
G1 X3.67017 Y161.59142 E.03032
G1 X2.92221 Y161.04993 E0.03304
G1 X2.27221 Y160.32652 E.0348
G1 X2.00481 Y159.87549 E0.01876
G1 X1.79658 Y159.39362 E.01879
G1 X1.59429 Y158.38593 E0.03678
G1 X1.59429 Y153.63939 Z.24 E.16986
G1 X1.59429 Y148.89285 Z.24 E.16986
G1 X1.59429 Y144.14632 Z.24 E.16986
G1 X1.59429 Y139.39978 Z.24 E.16986
G1 X1.59429 Y134.65323 Z.24 E.16986
G1 X1.59429 Y129.90669 Z.24 E.16986
G1 X1.59429 Y125.16016 Z.24 E.16986
G1 X1.59429 Y120.41362 Z.24 E.16986
G1 X1.59429 Y115.66708 Z.24 E.16986
G1 X1.59429 Y110.92055 Z.24 E.16986
G1 X1.73621 Y110.10394 E.02966
G1 X2.05874 Y109.32036 E.03032
G1 X2.60023 Y108.57238 E0.03304
G1 X3.32365 Y107.92237 E.0348
G1 X3.77467 Y107.65497 E0.01876
G1 X4.25655 Y107.44674 E.01879
G1 X5.20405 Y107.25657 E0.03458
M107
G1 X5.28155 Y107.64346 F300000
M107
G1 F1799.85181
G1 X10.02755 Y107.64402 Z.24 E.16984
G1 X14.77355 Y107.64458 Z.24 E.16984
G1 X19.51956 Y107.64513 Z.24 E.16984
G1 X24.26556 Y107.64568 Z.24 E.16984
G1 X29.01156 Y107.64624 Z.24 E.16984
G1 F1800
G1 X33.75756 Y107.6468 Z.24 E.16984
G1 F1799.86926
G1 X34.42162 Y107.7651 E.02414
G1 X35.09935 Y108.03767 E.02614
G1 X35.67148 Y108.42488 E0.02472
G1 X36.15447 Y108.89406 E.0241
G1 X36.52451 Y109.39677 E.02234
G1 X36.81544 Y110.0069 E.02419
G1 X37.00722 Y110.93272 E0.03383
G1 X37.00722 Y115.67567 Z.24 E.16973
G1 X37.00722 Y120.41862 Z.24 E.16973
G1 X37.00722 Y125.16158 Z.24 E.16973
G1 X37.00722 Y129.90453 Z.24 E.16973
G1 X37.00722 Y134.64748 Z.24 E.16973
M73 P1 R66
G1 X37.00722 Y139.39043 Z.24 E.16973
G1 X37.00722 Y144.13339 Z.24 E.16973
G1 X37.00722 Y148.87634 Z.24 E.16973
G1 X37.00722 Y153.61929 Z.24 E.16973
G1 X37.00722 Y158.36224 Z.24 E.16973
G1 X36.87527 Y159.10509 E.027
G1 X36.58253 Y159.8049 E.02715
G1 X36.11692 Y160.44649 E.02837
G1 X35.45591 Y161.04538 E.03192
G1 X35.03333 Y161.29591 E.01758
G1 X34.60557 Y161.47913 E0.01665
G1 X33.71606 Y161.65738 E.03246
G1 X28.97803 Y161.65738 Z.24 E.16956
G1 X24.24001 Y161.65738 Z.24 E.16955
G1 X19.50199 Y161.65738 Z.24 E.16956
G1 X14.76396 Y161.65738 Z.24 E.16956
G1 X10.02594 Y161.65738 Z.24 E.16955
G1 X5.28791 Y161.65738 Z.24 E.16956
G1 X4.54508 Y161.52544 E.027
G1 X3.84526 Y161.2327 E.02715
G1 X3.20368 Y160.76709 E.02837
G1 X2.60477 Y160.10605 E.03192
G1 X2.35422 Y159.68346 E.01758
G1 X2.17102 Y159.2557 E0.01665
G1 X1.99278 Y158.36623 E.03246
G1 X1.99278 Y153.62341 Z.24 E.16973
G1 X1.99278 Y148.8806 Z.24 E.16973
G1 X1.99278 Y144.13779 Z.24 E.16973
G1 X1.99278 Y139.39496 Z.24 E.16973
G1 X1.99278 Y134.65215 Z.24 E.16973
G1 X1.99278 Y129.90933 Z.24 E.16973
G1 X1.99278 Y125.16652 Z.24 E.16973
G1 X1.99278 Y120.42371 Z.24 E.16973
G1 X1.99278 Y115.68089 Z.24 E.16973
G1 F1800
G1 X1.99278 Y110.93807 Z.24 E.16973
G1 F1799.86865
G1 X2.12472 Y110.19528 E.027
G1 X2.41746 Y109.49544 E.02715
G1 X2.88307 Y108.85384 E.02837
G1 X3.54411 Y108.25493 E.03192
G1 X3.96671 Y108.00438 E.01758
G1 X4.39447 Y107.82118 E0.01665
G1 X5.22272 Y107.65524 E.03023
M107
G1 X5.30007 Y108.04218 F300000
M107
G1 F1800
G1 X33.73946 Y108.04529 E1.01773
G1 F1799.8197
G1 X34.32952 Y108.15336 E.02147
G1 X34.92882 Y108.39846 E0.02317
G1 X35.43169 Y108.74362 E.02183
G1 X35.86377 Y109.16712 E.02165
G1 X36.19136 Y109.61625 E0.01989
G1 X36.44478 Y110.1551 E.02131
G1 X36.60872 Y110.95292 E.02915
G1 X36.60872 Y115.69205 Z.24 E.16959
G1 X36.60872 Y120.4312 Z.24 E.16959
G1 X36.60872 Y125.17033 Z.24 E.16959
G1 X36.60872 Y129.90947 Z.24 E.16959
G1 X36.60872 Y134.64861 Z.24 E.1696
G1 X36.60872 Y139.38774 Z.24 E.16959
G1 X36.60872 Y144.12689 Z.24 E.16959
G1 X36.60872 Y148.86603 Z.24 E.16959
G1 X36.60872 Y153.60516 Z.24 E.16959
G1 X36.60872 Y158.3443 Z.24 E.16959
G1 X36.48719 Y159.01187 E.02428
G1 X36.22476 Y159.62796 E0.02396
G1 X35.83324 Y160.16591 E.02381
G1 X35.23416 Y160.71367 E.02905
G1 X34.86415 Y160.93488 E.01543
G1 X34.46769 Y161.10468 E0.01543
G1 X33.69639 Y161.25888 E.02815
G1 X28.96463 Y161.25888 Z.24 E.16933
G1 X24.23288 Y161.25888 Z.24 E.16933
G1 X19.50113 Y161.25888 Z.24 E.16933
G1 X14.76937 Y161.25888 Z.24 E.16933
G1 X10.03762 Y161.25888 Z.24 E.16933
G1 X5.30586 Y161.25888 Z.24 E.16933
G1 X4.6383 Y161.13736 E.02428
G1 X4.0222 Y160.87492 E0.02396
G1 X3.48425 Y160.4834 E.02381
G1 X2.93648 Y159.88429 E.02905
G1 X2.71527 Y159.51428 E.01543
G1 X2.54547 Y159.11782 E0.01543
G1 X2.39128 Y158.34654 E.02815
G1 X2.39128 Y153.6075 Z.24 E.16959
G1 X2.39128 Y148.86844 Z.24 E.16959
G1 X2.39128 Y144.12939 Z.24 E.16959
G1 X2.39128 Y139.39034 Z.24 E.16959
G1 X2.39128 Y134.65129 Z.24 E.16959
G1 X2.39128 Y129.91223 Z.24 E.16959
G1 X2.39128 Y125.17319 Z.24 E.16959
G1 X2.39128 Y120.43414 Z.24 E.16959
G1 X2.39128 Y115.69508 Z.24 E.16959
G1 X2.39128 Y110.95603 Z.24 E.16959
G1 X2.5128 Y110.28849 E.02428
G1 X2.77523 Y109.67238 E0.02396
G1 X3.16676 Y109.13441 E.02381
G1 X3.76586 Y108.58664 E.02905
G1 X4.13588 Y108.36543 E.01543
G1 X4.53235 Y108.19563 E0.01543
G1 X5.24123 Y108.05394 E.02587
M107
G1 X5.31835 Y108.44093 F300000
M107
G1 F1799.9812
G1 X10.05209 Y108.44141 Z.24 E.1694
G1 X14.78583 Y108.44188 Z.24 E.1694
G1 X19.51957 Y108.44235 Z.24 E.1694
G1 X24.2533 Y108.44283 Z.24 E.1694
G1 X28.98704 Y108.44331 Z.24 E.1694
G1 X33.72078 Y108.44378 Z.24 E.1694
G1 X34.23509 Y108.54106 E0.01873
G1 X34.75581 Y108.75807 E.02019
G1 X35.18973 Y109.06071 E.01893
G1 X35.57175 Y109.43877 E0.01923
G1 X35.85707 Y109.83399 E.01744
G1 X36.0734 Y110.30143 E0.01843
G1 X36.21023 Y110.97297 E.02453
G1 X36.21023 Y115.70826 Z.24 E.16946
G1 X36.21023 Y120.44354 Z.24 E.16946
G1 X36.21023 Y125.17883 Z.24 E.16946
G1 X36.21023 Y129.91412 Z.24 E.16946
G1 X36.21023 Y134.64941 Z.24 E.16945
G1 X36.21023 Y139.3847 Z.24 E.16946
G1 X36.21023 Y144.11998 Z.24 E.16946
G1 X36.21023 Y148.85527 Z.24 E.16946
G1 X36.21023 Y153.59056 Z.24 E.16946
G1 X36.21023 Y158.32585 Z.24 E.16946
G1 X36.09964 Y158.91646 E0.0215
G1 X35.8681 Y159.44887 E.02078
G1 X35.54863 Y159.88632 E0.01938
G1 X35.01088 Y160.383 E.0262
G1 X34.69456 Y160.57401 E0.01322
G1 X34.32985 Y160.73021 E.0142
G1 X33.67677 Y160.86039 E0.02383
G1 X28.95136 Y160.8604 Z.24 E.16911
G1 X24.22595 Y160.8604 Z.24 E.1691
G1 X19.50054 Y160.8604 Z.24 E.1691
G1 X14.77513 Y160.8604 Z.24 E.16911
G1 X10.04972 Y160.8604 Z.24 E.1691
G1 X5.32431 Y160.8604 Z.24 E.16911
