; generated by SuperSlicer 2.5.59.8 on 2024-04-13 at 01:43:03 UTC


;
;

;
;

;
;

;
;

;
;
; 

; external perimeters extrusion width = 0.40mm
; perimeters extrusion width = 0.40mm
; infill extrusion width = 0.40mm
; solid infill extrusion width = 0.40mm
; top infill extrusion width = 0.40mm

; object:{"name":"cable_guide","id":"cable_guide.stl id:0 copy 0","object_center":[90.319161,114.625053,0.000000],"boundingbox_center":[90.319161,114.625053,8.815256],"boundingbox_size":[21.982613,34.199999,17.630512]}
EXCLUDE_OBJECT_DEFINE NAME=cable_guide_stl_id_0_copy_0 CENTER=90.319161,114.625053 POLYGON=[[79.33,100.53],[79.33,98.53],[79.33,98.44],[79.34,98.35],[79.36,98.27],[79.39,98.18],[79.42,98.10],[79.46,98.03],[79.51,97.95],[79.56,97.88],[79.62,97.82],[79.69,97.76],[79.75,97.71],[79.83,97.66],[79.91,97.62],[79.99,97.59],[80.07,97.56],[80.15,97.54],[80.24,97.53],[80.33,97.53],[100.31,97.53],[100.40,97.53],[100.48,97.54],[100.57,97.56],[100.65,97.59],[100.73,97.62],[100.81,97.66],[100.88,97.71],[100.95,97.76],[101.02,97.82],[101.08,97.88],[101.13,97.95],[101.18,98.03],[101.22,98.10],[101.25,98.18],[101.28,98.27],[101.29,98.35],[101.31,98.44],[101.31,98.53],[101.31,100.53],[101.31,120.73],[101.31,122.73],[101.31,122.81],[101.29,122.90],[101.28,122.98],[101.25,123.07],[101.22,123.15],[101.18,123.23],[101.13,123.30],[101.08,123.37],[95.32,129.73],[93.32,131.73],[87.32,131.73],[85.32,129.73],[79.56,123.37],[79.51,123.30],[79.46,123.23],[79.42,123.15],[79.39,123.07],[79.36,122.98],[79.34,122.90],[79.33,122.81],[79.33,122.73],[79.33,120.73],[79.33,100.53]]
; plater:{"center":[90.319161,114.625053,0.000000],"boundingbox_center":[90.319161,114.625053,8.815256],"boundingbox_size":[21.982613,34.199999,17.630512]}

M73 P0 R37
M107
;TYPE:Custom
CALCULATE_PA MATERIAL=ABS BOWDEN_LENGTH=6 LAYER_HEIGHT=0.24 NOZZLE_SIZE=0.4 PRINT_SPEED=95


START_PRINT EXTRUDER=270 BED=100

M107
G21 ; set units to millimeters
G90 ; use absolute coordinates
M83 ; use relative distances for extrusion
ACTIVATE_EXTRUDER EXTRUDER=extruder
; Filament gcode
M104 S270 T0 ; set temperature
M109 S270 T0 ; set temperature and wait for it to be reached
M190 S100 ; set bed temperature and wait for it to be reached
;LAYER_CHANGE
;Z:0.24
;HEIGHT:0.24
;BEFORE_LAYER_CHANGE
G92 E0.0

G1 E-1.5 F3000
M73 P0 R36
G1 Z0.2 F3600000
G1 Z0.24
;AFTER_LAYER_CHANGE
;0.24




CALCULATE_PA MATERIAL=ABS BOWDEN_LENGTH=6.0 LAYER_HEIGHT=0.2 NOZZLE_SIZE=0.4 PRINT_SPEED=95


G92 E0
G1 Z0.44
G1 X73.495 Y82.16
G1 Z0.24
G1 E1.5 F3000
;TYPE:Skirt
;WIDTH:0.4
M107
G1 F2400
G1 X77.351 Y79.789 E0.1574
G1 X81.142 Y78.41 E0.14028
G1 X84.962 Y77.794 E0.13456
G1 X95.67 Y77.789 E0.37233
G1 X98.978 Y78.282 E0.1163
G1 X102.176 Y79.296 E0.11667
G1 X105.187 Y80.811 E0.11719
G1 X107.902 Y82.769 E0.1164
G1 X110.537 Y85.463 E0.13107
G1 X112.66 Y88.607 E0.13192
G1 X114.414 Y92.908 E0.16151
G1 X115.159 Y97.285 E0.15437
G1 X115.193 Y102.842 E0.19324
G1 X115.166 Y103.215 E0.01302
G1 X115.194 Y103.577 E0.01263
G1 X115.194 Y110.273 E0.23284
M73 P1 R36
G1 X115.167 Y110.625 E0.01227
G1 X115.194 Y110.977 E0.01227
G1 X115.194 Y117.673 E0.23285
G1 X115.167 Y118.025 E0.01227
G1 X115.194 Y118.377 E0.01227
G1 X115.194 Y123.149 E0.16594
G1 X115.092 Y124.524 E0.04792
G1 X114.834 Y133.075 E0.2975
G1 X113.353 Y137.906 E0.17569
G1 X110.679 Y142.203 E0.17599
G1 X106.515 Y146.522 E0.20861
G1 X102.273 Y149.415 E0.17857
G1 X102.138 Y149.477 E0.00516
G1 X94.252 Y151.538 E0.28344
G1 X83.55 Y151.169 E0.37236
G1 X79.75 Y150.024 E0.13798
G1 X76.226 Y148.14 E0.13895
G1 X70.831 Y143.248 E0.25325
G1 X67.841 Y139.037 E0.17958
G1 X66.014 Y134.193 E0.18003
G1 X65.547 Y124.544 E0.33591
G1 X65.445 Y123.147 E0.04872
G1 X65.445 Y118.376 E0.16591
G1 X65.471 Y118.025 E0.01222
G1 X65.445 Y117.675 E0.01222
G1 X65.445 Y110.977 E0.23289
G1 X65.471 Y110.626 E0.01225
G1 X65.445 Y110.275 E0.01225
G1 X65.445 Y103.572 E0.23307
G1 X65.479 Y103.138 E0.01516
G1 X65.433 Y102.424 E0.02488
G1 X65.714 Y95.186 E0.25185
G1 X67.176 Y90.247 E0.17911
G1 X69.806 Y85.833 E0.17868
G1 X73.453 Y82.203 E0.17892
M107
G1 X73.698 Y82.45 F3600000
M107
G1 F2400
G1 X73.727 Y82.422 E0.00138
G1 X77.518 Y80.095 E0.15469
G1 X81.245 Y78.743 E0.13787
G1 X85.004 Y78.141 E0.13237
G1 X95.631 Y78.135 E0.36955
G1 X98.913 Y78.625 E0.11536
G1 X102.057 Y79.624 E0.11474
G1 X105.017 Y81.116 E0.11526
G1 X107.685 Y83.043 E0.11444
G1 X110.277 Y85.696 E0.12897
G1 X112.361 Y88.787 E0.12965
G1 X114.084 Y93.022 E0.15897
G1 X114.811 Y97.301 E0.15092
G1 X114.844 Y102.837 E0.19251
G1 X114.817 Y103.216 E0.01321
G1 X114.845 Y103.584 E0.01284
G1 X114.845 Y110.267 E0.23237
G1 X114.818 Y110.625 E0.01251
G1 X114.845 Y110.984 E0.0125
G1 X114.845 Y117.667 E0.23238
G1 X114.818 Y118.025 E0.01251
G1 X114.845 Y118.384 E0.0125
G1 X114.845 Y123.143 E0.16548
G1 X114.744 Y124.506 E0.04752
G1 X114.494 Y132.995 E0.29534
G1 X113.027 Y137.782 E0.17409
G1 X110.393 Y142.003 E0.173
G1 X106.277 Y146.267 E0.20609
G1 X102.089 Y149.119 E0.17619
G1 X102.035 Y149.143 E0.00206
G1 X94.238 Y151.189 E0.28029
G1 X83.628 Y150.828 E0.36914
G1 X79.867 Y149.695 E0.13659
G1 X76.41 Y147.843 E0.1364
G1 X71.079 Y143.003 E0.25037
G1 X68.138 Y138.854 E0.17683
G1 X66.35 Y134.096 E0.17676
G1 X65.895 Y124.523 E0.33325
G1 X65.793 Y123.14 E0.04821
G1 X65.793 Y118.382 E0.16546
G1 X65.821 Y118.025 E0.01246
G1 X65.793 Y117.668 E0.01246
G1 X65.793 Y110.984 E0.23243
G1 X65.821 Y110.626 E0.01249
G1 X65.793 Y110.268 E0.01248
G1 X65.793 Y103.579 E0.23259
G1 X65.828 Y103.14 E0.01531
G1 X65.782 Y102.428 E0.02482
G1 X66.062 Y95.222 E0.25078
G1 X67.504 Y90.367 E0.17609
G1 X70.094 Y86.03 E0.17566
G1 X73.656 Y82.492 E0.17457
M107
G1 X73.901 Y82.74 F3600000
M107
G1 F2400
G1 X73.958 Y82.684 E0.00277
G1 X77.685 Y80.401 E0.15198
G1 X81.348 Y79.076 E0.13547
G1 X85.045 Y78.487 E0.13017
G1 X95.593 Y78.482 E0.36677
G1 X98.821 Y78.961 E0.11346
G1 X101.913 Y79.942 E0.11281
G1 X104.825 Y81.406 E0.11333
G1 X107.469 Y83.316 E0.11343
G1 X110.017 Y85.928 E0.12686
G1 X112.062 Y88.967 E0.12739
G1 X113.754 Y93.136 E0.15644
G1 X114.462 Y97.317 E0.14748
G1 X114.496 Y102.832 E0.19178
G1 X114.467 Y103.217 E0.01341
G1 X114.497 Y103.591 E0.01306
G1 X114.497 Y110.26 E0.2319
G1 X114.468 Y110.625 E0.01275
G1 X114.497 Y110.991 E0.01274
G1 X114.497 Y117.66 E0.23191
G1 X114.468 Y118.025 E0.01275
G1 X114.497 Y118.391 E0.01274
G1 X114.497 Y123.136 E0.16502
G1 X114.396 Y124.487 E0.04711
G1 X114.147 Y132.961 E0.2948
G1 X112.7 Y137.657 E0.17087
G1 X110.107 Y141.802 E0.17001
G1 X106.039 Y146.012 E0.20357
G1 X101.917 Y148.814 E0.1733
G1 X94.224 Y150.84 E0.27663
G1 X83.663 Y150.481 E0.36747
G1 X79.985 Y149.367 E0.13364
G1 X76.593 Y147.546 E0.13386
G1 X71.327 Y142.758 E0.24749
G1 X68.456 Y138.71 E0.17255
G1 X66.685 Y133.999 E0.17503
G1 X66.243 Y124.502 E0.33058
G1 X66.142 Y123.134 E0.04771
G1 X66.142 Y118.389 E0.165
G1 X66.17 Y118.025 E0.0127
G1 X66.142 Y117.661 E0.01269
G1 X66.142 Y110.991 E0.23196
G1 X66.17 Y110.626 E0.01272
G1 X66.142 Y110.261 E0.01272
G1 X66.142 Y103.586 E0.23211
G1 X66.178 Y103.143 E0.01547
G1 X66.13 Y102.432 E0.02476
G1 X66.409 Y95.257 E0.2497
G1 X67.832 Y90.488 E0.17306
G1 X70.382 Y86.228 E0.17264
G1 X73.858 Y82.782 E0.17021
M107
G1 X74.103 Y83.03 F3600000
M107
G1 F2400
G1 X74.188 Y82.946 E0.00415
G1 X77.852 Y80.708 E0.14927
G1 X81.451 Y79.41 E0.13306
G1 X85.086 Y78.833 E0.12799
G1 X95.555 Y78.829 E0.36401
G1 X98.729 Y79.298 E0.11157
G1 X101.769 Y80.26 E0.11088
G1 X104.656 Y81.711 E0.11236
G1 X107.253 Y83.59 E0.11146
G1 X109.756 Y86.16 E0.12475
G1 X111.763 Y89.146 E0.12512
G1 X113.424 Y93.249 E0.1539
G1 X114.114 Y97.333 E0.14405
G1 X114.147 Y102.827 E0.19104
G1 X114.118 Y103.217 E0.01361
G1 X114.148 Y103.598 E0.01328
G1 X114.148 Y110.253 E0.23142
G1 X114.118 Y110.625 E0.01299
G1 X114.148 Y110.998 E0.01299
G1 X114.148 Y117.653 E0.23143
G1 X114.118 Y118.025 E0.01299
G1 X114.148 Y118.398 E0.01299
G1 X114.148 Y123.13 E0.16455
G1 X114.048 Y124.469 E0.04672
G1 X113.807 Y132.881 E0.29263
G1 X112.374 Y137.533 E0.16925
G1 X109.822 Y141.602 E0.16701
G1 X105.801 Y145.756 E0.20105
G1 X101.746 Y148.509 E0.17041
G1 X94.211 Y150.49 E0.27094
G1 X83.742 Y150.141 E0.36422
G1 X80.103 Y149.038 E0.13224
G1 X76.777 Y147.249 E0.1313
G1 X71.576 Y142.513 E0.24462
G1 X68.754 Y138.527 E0.16981
G1 X67.021 Y133.902 E0.17174
G1 X66.591 Y124.481 E0.32793
G1 X66.49 Y123.128 E0.04721
G1 X66.49 Y118.396 E0.16453
G1 X66.52 Y118.025 E0.01294
G1 X66.49 Y117.654 E0.01294
G1 X66.49 Y110.997 E0.23147
G1 X66.52 Y110.626 E0.01297
G1 X66.49 Y110.254 E0.01296
G1 X66.49 Y103.593 E0.23161
G1 X66.527 Y103.145 E0.01564
G1 X66.479 Y102.437 E0.02471
G1 X66.756 Y95.292 E0.24861
G1 X68.159 Y90.609 E0.17002
G1 X70.669 Y86.426 E0.16962
G1 X74.061 Y83.072 E0.16586
M107
G1 X74.305 Y83.32 F3600000
M107
G1 F2400
G1 X74.419 Y83.208 E0.00554
G1 X78.018 Y81.015 E0.14656
G1 X81.554 Y79.743 E0.13066
G1 X85.127 Y79.18 E0.1258
G1 X95.517 Y79.175 E0.36127
G1 X98.637 Y79.634 E0.10967
G1 X101.65 Y80.588 E0.10991
G1 X104.486 Y82.016 E0.11042
G1 X107.036 Y83.863 E0.10948
G1 X109.495 Y86.391 E0.12264
G1 X111.463 Y89.325 E0.12285
G1 X113.094 Y93.362 E0.15137
G1 X113.766 Y97.349 E0.14062
G1 X113.799 Y102.822 E0.1903
G1 X113.768 Y103.218 E0.01381
G1 X113.8 Y103.605 E0.0135
G1 X113.8 Y110.246 E0.23092
G1 X113.769 Y110.625 E0.01324
G1 X113.8 Y111.005 E0.01324
G1 X113.8 Y117.646 E0.23093
G1 X113.769 Y118.025 E0.01324
G1 X113.8 Y118.405 E0.01324
G1 X113.8 Y123.123 E0.16408
G1 X113.7 Y124.451 E0.04632
G1 X113.459 Y132.848 E0.29209
G1 X112.048 Y137.408 E0.166
G1 X109.537 Y141.401 E0.16401
G1 X105.563 Y145.501 E0.19854
G1 X101.575 Y148.204 E0.16752
G1 X94.197 Y150.141 E0.26526
G1 X83.777 Y149.793 E0.36255
G1 X80.221 Y148.71 E0.12926
M73 P2 R36
G1 X76.962 Y146.952 E0.12876
G1 X71.825 Y142.268 E0.24175
G1 X69.051 Y138.345 E0.16707
G1 X67.357 Y133.806 E0.16846
G1 X66.938 Y124.461 E0.32529
G1 X66.839 Y123.121 E0.04671
G1 X66.839 Y118.403 E0.16406
G1 X66.869 Y118.025 E0.01319
G1 X66.839 Y117.647 E0.01319
G1 X66.839 Y111.005 E0.23098
G1 X66.869 Y110.626 E0.01322
G1 X66.839 Y110.247 E0.01321
G1 X66.839 Y103.601 E0.23111
G1 X66.877 Y103.148 E0.0158
G1 X66.827 Y102.441 E0.02466
G1 X67.104 Y95.328 E0.24751
G1 X68.487 Y90.73 E0.16697
G1 X70.957 Y86.624 E0.16661
G1 X74.263 Y83.362 E0.1615
M107
G1 X74.507 Y83.61 F3600000
M107
G1 F2400
G1 X74.649 Y83.47 E0.00692
G1 X78.184 Y81.322 E0.14385
G1 X81.656 Y80.077 E0.12825
G1 X85.168 Y79.526 E0.12362
G1 X95.479 Y79.522 E0.35854
G1 X98.545 Y79.971 E0.10777
G1 X101.506 Y80.905 E0.10797
G1 X104.293 Y82.307 E0.10848
G1 X106.819 Y84.137 E0.10847
G1 X109.234 Y86.623 E0.12052
G1 X111.164 Y89.504 E0.12059
G1 X112.763 Y93.474 E0.14883
G1 X113.417 Y97.365 E0.1372
G1 X113.45 Y102.817 E0.18955
G1 X113.419 Y103.219 E0.01402
G1 X113.451 Y103.612 E0.01373
G1 X113.451 Y110.239 E0.23042
G1 X113.419 Y110.625 E0.01349
G1 X113.451 Y111.012 E0.01349
G1 X113.451 Y117.639 E0.23043
G1 X113.419 Y118.025 E0.01349
G1 X113.451 Y118.412 E0.01349
G1 X113.451 Y123.117 E0.1636
G1 X113.352 Y124.433 E0.04591
G1 X113.111 Y132.814 E0.29154
G1 X111.722 Y137.283 E0.16274
G1 X109.252 Y141.2 E0.16102
G1 X105.325 Y145.245 E0.19603
G1 X101.404 Y147.899 E0.16463
G1 X94.183 Y149.792 E0.25959
G1 X83.856 Y149.453 E0.35929
G1 X80.339 Y148.382 E0.12786
G1 X77.146 Y146.656 E0.12621
G1 X72.074 Y142.023 E0.23888
G1 X69.349 Y138.162 E0.16432
G1 X67.693 Y133.71 E0.16517
G1 X67.286 Y124.44 E0.32266
G1 X67.187 Y123.115 E0.04622
G1 X67.187 Y118.41 E0.16358
G1 X67.219 Y118.025 E0.01344
G1 X67.187 Y117.64 E0.01344
G1 X67.187 Y111.012 E0.23048
G1 X67.219 Y110.626 E0.01347
G1 X67.187 Y110.24 E0.01346
G1 X67.187 Y103.608 E0.2306
G1 X67.227 Y103.15 E0.01598
G1 X67.176 Y102.444 E0.02462
G1 X67.444 Y95.407 E0.24489
G1 X68.797 Y90.891 E0.16394
G1 X71.244 Y86.823 E0.16508
G1 X74.464 Y83.652 E0.15714
M107
G1 X74.708 Y83.901 F3600000
M107
G1 F2400
G1 X74.879 Y83.733 E0.00831
G1 X78.35 Y81.629 E0.14114
G1 X81.758 Y80.41 E0.12585
G1 X85.208 Y79.872 E0.12144
G1 X95.441 Y79.869 E0.35582
G1 X98.481 Y80.313 E0.10684
G1 X101.388 Y81.233 E0.10602
G1 X104.124 Y82.612 E0.10653
G1 X106.603 Y84.41 E0.10649
G1 X108.953 Y86.83 E0.11732
G1 X110.864 Y89.683 E0.11941
G1 X112.433 Y93.587 E0.14629
G1 X113.069 Y97.382 E0.13379
G1 X113.102 Y102.811 E0.18881
G1 X113.069 Y103.219 E0.01424
G1 X113.103 Y103.619 E0.01396
G1 X113.103 Y110.231 E0.22991
G1 X113.069 Y110.625 E0.01375
G1 X113.103 Y111.019 E0.01375
G1 X113.103 Y117.631 E0.22992
G1 X113.069 Y118.025 E0.01375
G1 X113.103 Y118.419 E0.01375
G1 X113.103 Y123.11 E0.16311
G1 X113.004 Y124.415 E0.04551
G1 X112.764 Y132.78 E0.291
G1 X111.396 Y137.157 E0.15947
G1 X108.967 Y140.998 E0.15803
G1 X105.088 Y144.99 E0.19353
G1 X101.234 Y147.593 E0.16174
G1 X94.17 Y149.443 E0.25392
G1 X83.891 Y149.106 E0.35761
G1 X80.458 Y148.053 E0.12486
G1 X77.331 Y146.36 E0.12366
G1 X72.323 Y141.779 E0.23601
G1 X69.647 Y137.98 E0.16158
G1 X68.03 Y133.614 E0.16188
G1 X67.634 Y124.419 E0.32003
G1 X67.536 Y123.108 E0.04573
G1 X67.536 Y118.418 E0.1631
G1 X67.569 Y118.025 E0.0137
G1 X67.536 Y117.633 E0.0137
G1 X67.536 Y111.019 E0.22997
G1 X67.569 Y110.626 E0.01373
G1 X67.536 Y110.233 E0.01372
G1 X67.536 Y103.616 E0.23008
G1 X67.576 Y103.153 E0.01616
G1 X67.525 Y102.448 E0.02458
G1 X67.791 Y95.442 E0.24378
G1 X69.124 Y91.012 E0.16088
G1 X71.531 Y87.021 E0.16205
G1 X74.665 Y83.943 E0.15278
M107
G1 X74.909 Y84.191 F3600000
M107
G1 F2400
G1 X75.108 Y83.996 E0.00969
G1 X78.515 Y81.936 E0.13843
G1 X81.859 Y80.744 E0.12345
G1 X85.248 Y80.219 E0.11926
G1 X95.403 Y80.215 E0.35311
G1 X98.389 Y80.65 E0.10493
G1 X101.269 Y81.561 E0.10504
G1 X103.954 Y82.917 E0.10459
G1 X106.386 Y84.683 E0.1045
G1 X108.692 Y87.061 E0.1152
G1 X110.564 Y89.862 E0.11713
G1 X112.102 Y93.699 E0.14375
G1 X112.72 Y97.398 E0.13039
G1 X112.753 Y102.806 E0.18806
G1 X112.719 Y103.22 E0.01446
G1 X112.754 Y103.627 E0.0142
G1 X112.754 Y110.224 E0.22939
G1 X112.72 Y110.625 E0.01401
G1 X112.754 Y111.027 E0.01401
G1 X112.754 Y117.624 E0.2294
G1 X112.72 Y118.025 E0.01401
G1 X112.754 Y118.427 E0.01401
G1 X112.754 Y123.103 E0.16262
G1 X112.656 Y124.397 E0.04511
G1 X112.424 Y132.699 E0.28881
G1 X111.089 Y136.99 E0.15627
G1 X108.682 Y140.797 E0.1566
G1 X104.851 Y144.734 E0.19103
G1 X101.063 Y147.288 E0.15885
G1 X94.156 Y149.094 E0.24827
G1 X83.971 Y148.766 E0.35434
G1 X80.577 Y147.725 E0.12345
G1 X77.516 Y146.064 E0.12111
G1 X72.572 Y141.535 E0.23314
G1 X69.945 Y137.798 E0.15883
G1 X68.366 Y133.519 E0.15859
G1 X67.982 Y124.399 E0.31742
G1 X67.884 Y123.101 E0.04525
G1 X67.884 Y118.425 E0.16261
G1 X67.919 Y118.025 E0.01396
G1 X67.884 Y117.625 E0.01396
G1 X67.884 Y111.027 E0.22945
G1 X67.919 Y110.626 E0.01399
G1 X67.884 Y110.225 E0.01398
G1 X67.884 Y103.624 E0.22955
G1 X67.926 Y103.156 E0.01634
G1 X67.873 Y102.451 E0.02456
G1 X68.132 Y95.521 E0.24113
G1 X69.452 Y91.133 E0.15934
G1 X71.818 Y87.22 E0.15901
G1 X74.866 Y84.233 E0.14841
M107
G1 X75.11 Y84.482 F3600000
M107
G1 F2400
G1 X75.337 Y84.259 E0.01108
G1 X78.68 Y82.244 E0.13573
G1 X81.96 Y81.078 E0.12106
G1 X85.288 Y80.565 E0.11709
G1 X95.366 Y80.562 E0.35042
G1 X98.298 Y80.987 E0.10303
G1 X101.125 Y81.879 E0.10309
G1 X103.761 Y83.207 E0.10263
G1 X106.169 Y84.956 E0.10349
G1 X108.431 Y87.292 E0.11309
G1 X110.264 Y90.04 E0.11486
G1 X111.772 Y93.811 E0.14122
G1 X112.372 Y97.414 E0.127
G1 X112.405 Y102.8 E0.1873
G1 X112.369 Y103.221 E0.01468
G1 X112.406 Y103.635 E0.01445
G1 X112.406 Y110.216 E0.22886
G1 X112.37 Y110.625 E0.01428
G1 X112.406 Y111.034 E0.01428
G1 X112.406 Y117.616 E0.22887
G1 X112.37 Y118.025 E0.01428
G1 X112.406 Y118.434 E0.01428
G1 X112.406 Y123.097 E0.16213
G1 X112.307 Y124.379 E0.04471
G1 X112.076 Y132.666 E0.28827
G1 X110.763 Y136.865 E0.15298
G1 X108.397 Y140.595 E0.1536
G1 X104.614 Y144.478 E0.18852
G1 X100.893 Y146.982 E0.15596
G1 X94.142 Y148.745 E0.24263
G1 X84.005 Y148.418 E0.35265
G1 X80.696 Y147.397 E0.12043
G1 X77.701 Y145.768 E0.11856
G1 X72.821 Y141.291 E0.23028
G1 X70.264 Y137.656 E0.15453
G1 X68.702 Y133.424 E0.15686
G1 X68.33 Y124.379 E0.31481
G1 X68.233 Y123.095 E0.04477
G1 X68.233 Y118.433 E0.16211
G1 X68.268 Y118.025 E0.01423
G1 X68.233 Y117.617 E0.01423
G1 X68.233 Y111.034 E0.22892
G1 X68.268 Y110.626 E0.01426
G1 X68.233 Y110.217 E0.01425
