; generated by SuperSlicer 2.5.59.8 on 2024-04-12 at 23:41:17 UTC


;
;

;
;

;
;

;
;

;
;
; 

; external perimeters extrusion width = 0.40mm
; perimeters extrusion width = 0.40mm
; infill extrusion width = 0.40mm
; solid infill extrusion width = 0.40mm
; top infill extrusion width = 0.40mm

; object:{"name":"cable_guide","id":"cable_guide.stl id:0 copy 0","object_center":[90.319161,114.625053,0.000000],"boundingbox_center":[90.319161,114.625053,10.991306],"boundingbox_size":[17.630512,34.199999,21.982613]}
EXCLUDE_OBJECT_DEFINE NAME=cable_guide_stl_id_0_copy_0 CENTER=90.319161,114.625053 POLYGON=[[81.50,97.53],[98.14,97.53],[98.22,97.53],[98.31,97.54],[98.39,97.56],[98.48,97.59],[98.56,97.62],[98.63,97.66],[98.71,97.71],[98.78,97.76],[98.84,97.82],[98.90,97.88],[98.95,97.95],[99.00,98.03],[99.04,98.10],[99.07,98.18],[99.10,98.27],[99.12,98.35],[99.13,98.44],[99.13,98.53],[99.13,122.73],[99.13,122.81],[99.12,122.90],[99.10,122.98],[99.07,123.07],[99.04,123.15],[99.00,123.23],[98.95,123.30],[98.90,123.37],[98.84,123.43],[98.78,123.49],[98.71,123.54],[86.50,131.73],[81.50,131.73],[81.50,97.53]]
; plater:{"center":[90.319161,114.625053,0.000000],"boundingbox_center":[90.319161,114.625053,10.991306],"boundingbox_size":[17.630512,34.199999,21.982613]}

M73 P0 R32
M107
;TYPE:Custom
CALCULATE_PA MATERIAL=ABS BOWDEN_LENGTH=6 LAYER_HEIGHT=0.24 NOZZLE_SIZE=0.4 PRINT_SPEED=95


START_PRINT EXTRUDER=270 BED=100

M107
G21 ; set units to millimeters
G90 ; use absolute coordinates
M83 ; use relative distances for extrusion
ACTIVATE_EXTRUDER EXTRUDER=extruder
; Filament gcode
M104 S270 T0 ; set temperature
M109 S270 T0 ; set temperature and wait for it to be reached
M190 S100 ; set bed temperature and wait for it to be reached
;LAYER_CHANGE
;Z:0.24
;HEIGHT:0.24
;BEFORE_LAYER_CHANGE
G92 E0.0

G1 E-1.5 F3000
M73 P1 R32
G1 Z0.2 F3600000
G1 Z0.24
;AFTER_LAYER_CHANGE
;0.24




CALCULATE_PA MATERIAL=ABS BOWDEN_LENGTH=6.0 LAYER_HEIGHT=0.2 NOZZLE_SIZE=0.4 PRINT_SPEED=95


G92 E0
G1 Z0.44
G1 X77.38 Y84.99
G1 Z0.24
G1 E1.5 F3000
;TYPE:Skirt
;WIDTH:0.4
M107
G1 F2400
G1 X80.9 Y81.934 E0.1621
G1 X85.247 Y79.692 E0.17007
G1 X89.84 Y78.506 E0.16496
G1 X96.197 Y78.374 E0.22108
G1 X97.928 Y78.654 E0.061
G1 X99.646 Y79.016 E0.06104
G1 X103.308 Y80.33 E0.13527
G1 X108.662 Y83.971 E0.22519
G1 X110.806 Y86.386 E0.11227
G1 X112.675 Y89.288 E0.12005
G1 X114.54 Y94.683 E0.19848
G1 X114.917 Y101.072 E0.22256
G1 X114.661 Y103.175 E0.07366
G1 X114.879 Y104.477 E0.04592
G1 X114.918 Y108.834 E0.15151
G1 X114.66 Y110.553 E0.06042
G1 X114.873 Y111.808 E0.04428
G1 X114.928 Y116.1 E0.14924
G1 X114.656 Y117.939 E0.06468
G1 X114.874 Y119.225 E0.04536
G1 X114.926 Y123.458 E0.1472
G1 X114.206 Y128.014 E0.16039
G1 X112.47 Y132.35 E0.16242
G1 X107.695 Y138.141 E0.26098
G1 X104.239 Y140.444 E0.14442
G1 X100.389 Y142.02 E0.14465
G1 X96.122 Y142.869 E0.15129
G1 X91.758 Y142.948 E0.15179
G1 X88.821 Y142.547 E0.10306
G1 X85.965 Y141.829 E0.10241
G1 X81.389 Y139.638 E0.17643
G1 X78.251 Y137.159 E0.13904
G1 X75.651 Y134.12 E0.13908
G1 X73.331 Y129.657 E0.17489
G1 X72.185 Y124.723 E0.17613
G1 X72.104 Y119.766 E0.17242
G1 X72.331 Y118.162 E0.05632
G1 X72.182 Y117.283 E0.03101
G1 X72.081 Y112.558 E0.16432
G1 X72.342 Y110.79 E0.06214
G1 X72.172 Y109.809 E0.03463
G1 X72.077 Y105.209 E0.16001
G1 X72.335 Y103.434 E0.06235
G1 X72.217 Y102.746 E0.02429
G1 X72.1 Y97.663 E0.1768
G1 X72.843 Y93.095 E0.16091
G1 X74.623 Y88.777 E0.16243
G1 X77.345 Y85.039 E0.16078
M107
G1 X77.623 Y85.241 F3600000
M107
G1 F2400
G1 X81.113 Y82.211 E0.16071
G1 X85.389 Y80.011 E0.16722
G1 X89.908 Y78.849 E0.16224
G1 X96.157 Y78.721 E0.21734
G1 X97.869 Y78.998 E0.06031
G1 X99.562 Y79.355 E0.0602
G1 X103.13 Y80.63 E0.13175
G1 X108.416 Y84.219 E0.22218
G1 X110.521 Y86.586 E0.11013
G1 X112.353 Y89.422 E0.11741
G1 X114.193 Y94.727 E0.19527
G1 X114.568 Y101.077 E0.22118
G1 X114.309 Y103.183 E0.07379
G1 X114.531 Y104.494 E0.04625
G1 X114.569 Y108.823 E0.15054
G1 X114.307 Y110.556 E0.06094
G1 X114.524 Y111.826 E0.04482
G1 X114.58 Y116.09 E0.14827
G1 X114.303 Y117.943 E0.06515
G1 X114.525 Y119.243 E0.04587
G1 X114.577 Y123.448 E0.14621
G1 X113.865 Y127.94 E0.15817
G1 X112.156 Y132.196 E0.15945
G1 X107.48 Y137.866 E0.25556
G1 X104.091 Y140.129 E0.14173
G1 X100.304 Y141.682 E0.1423
G1 X96.1 Y142.521 E0.14908
G1 X91.791 Y142.601 E0.14985
G1 X88.878 Y142.203 E0.10225
G1 X86.067 Y141.495 E0.1008
G1 X81.589 Y139.352 E0.17261
G1 X78.505 Y136.919 E0.1366
G1 X75.929 Y133.908 E0.13779
G1 X73.65 Y129.516 E0.17206
G1 X72.533 Y124.699 E0.17194
G1 X72.453 Y119.774 E0.1713
G1 X72.684 Y118.157 E0.05679
G1 X72.53 Y117.262 E0.03156
G1 X72.43 Y112.566 E0.16336
G1 X72.695 Y110.786 E0.06257
G1 X72.52 Y109.789 E0.03521
G1 X72.425 Y105.216 E0.15904
G1 X72.688 Y103.429 E0.06278
G1 X72.565 Y102.725 E0.02488
G1 X72.447 Y97.702 E0.17468
G1 X73.173 Y93.209 E0.15827
G1 X74.917 Y88.965 E0.15958
G1 X77.588 Y85.29 E0.15797
M107
G1 X77.87 Y85.495 F3600000
M107
G1 F2400
G1 X77.894 Y85.462 E0.00143
G1 X81.325 Y82.488 E0.1579
G1 X85.531 Y80.33 E0.16437
G1 X89.975 Y79.191 E0.15951
G1 X96.116 Y79.067 E0.21361
G1 X97.809 Y79.341 E0.05962
G1 X99.479 Y79.694 E0.05936
G1 X102.953 Y80.931 E0.12823
G1 X108.17 Y84.467 E0.21917
G1 X110.236 Y86.787 E0.10799
G1 X112.031 Y89.556 E0.11478
G1 X113.847 Y94.772 E0.19204
G1 X114.219 Y101.081 E0.21978
G1 X113.957 Y103.191 E0.07392
G1 X114.183 Y104.511 E0.04658
G1 X114.221 Y108.813 E0.14957
G1 X113.954 Y110.56 E0.06145
G1 X114.176 Y111.845 E0.04535
G1 X114.231 Y116.08 E0.1473
G1 X113.95 Y117.947 E0.06564
G1 X114.177 Y119.262 E0.04639
G1 X114.228 Y123.437 E0.14521
G1 X113.524 Y127.866 E0.15594
G1 X111.843 Y132.04 E0.15648
G1 X107.265 Y137.59 E0.25015
G1 X103.942 Y139.813 E0.13903
G1 X100.219 Y141.343 E0.13995
G1 X96.078 Y142.173 E0.14688
G1 X91.825 Y142.253 E0.14791
G1 X88.935 Y141.859 E0.10145
G1 X86.169 Y141.162 E0.09918
G1 X81.79 Y139.066 E0.1688
G1 X78.734 Y136.656 E0.13534
G1 X76.207 Y133.697 E0.13532
G1 X73.97 Y129.375 E0.16922
G1 X72.881 Y124.675 E0.16777
G1 X72.801 Y119.782 E0.17017
G1 X73.037 Y118.152 E0.05728
G1 X72.878 Y117.242 E0.03212
G1 X72.778 Y112.573 E0.16238
G1 X73.048 Y110.781 E0.06301
G1 X72.868 Y109.768 E0.03579
G1 X72.774 Y105.223 E0.15806
G1 X73.041 Y103.425 E0.06323
G1 X72.913 Y102.703 E0.02548
G1 X72.793 Y97.742 E0.17255
G1 X73.514 Y93.285 E0.15701
G1 X75.232 Y89.117 E0.15676
G1 X77.834 Y85.543 E0.15372
M107
G1 X78.116 Y85.749 F3600000
M107
G1 F2400
G1 X78.164 Y85.683 E0.00282
G1 X81.537 Y82.765 E0.15512
G1 X85.672 Y80.649 E0.16152
G1 X90.041 Y79.534 E0.15679
G1 X96.076 Y79.414 E0.20989
G1 X97.749 Y79.684 E0.05892
G1 X99.396 Y80.032 E0.05852
G1 X102.776 Y81.232 E0.12473
G1 X107.925 Y84.715 E0.21615
G1 X109.951 Y86.988 E0.10587
G1 X111.709 Y89.691 E0.11214
G1 X113.501 Y94.817 E0.1888
G1 X113.871 Y101.086 E0.21838
G1 X113.605 Y103.199 E0.07406
G1 X113.834 Y104.529 E0.04692
G1 X113.872 Y108.802 E0.14859
G1 X113.601 Y110.563 E0.06198
G1 X113.828 Y111.863 E0.04589
G1 X113.882 Y116.071 E0.14632
G1 X113.596 Y117.951 E0.06613
G1 X113.829 Y119.28 E0.04691
G1 X113.88 Y123.427 E0.14421
G1 X113.183 Y127.792 E0.15371
G1 X111.53 Y131.885 E0.15351
G1 X107.051 Y137.314 E0.24475
G1 X103.763 Y139.513 E0.13754
G1 X100.103 Y141.014 E0.13755
G1 X96.025 Y141.828 E0.14459
G1 X91.859 Y141.906 E0.14489
G1 X88.991 Y141.515 E0.10064
G1 X86.271 Y140.828 E0.09756
G1 X81.99 Y138.781 E0.165
G1 X78.988 Y136.417 E0.13288
G1 X76.485 Y133.486 E0.13402
G1 X74.289 Y129.235 E0.16638
G1 X73.229 Y124.651 E0.1636
G1 X73.15 Y119.79 E0.16905
G1 X73.39 Y118.146 E0.05777
G1 X73.226 Y117.221 E0.03268
G1 X73.127 Y112.581 E0.16139
G1 X73.401 Y110.776 E0.06346
G1 X73.216 Y109.747 E0.03637
G1 X73.123 Y105.231 E0.15707
G1 X73.394 Y103.419 E0.06369
G1 X73.261 Y102.681 E0.02608
G1 X73.142 Y97.75 E0.17153
G1 X73.844 Y93.399 E0.15325
G1 X75.546 Y89.269 E0.15534
G1 X78.08 Y85.797 E0.14946
M107
G1 X78.362 Y86.003 F3600000
M107
G1 F2400
G1 X78.433 Y85.905 E0.00422
G1 X81.749 Y83.043 E0.15232
G1 X85.813 Y80.968 E0.15867
G1 X90.108 Y79.877 E0.15408
G1 X96.036 Y79.76 E0.20618
G1 X97.689 Y80.028 E0.05823
G1 X99.312 Y80.371 E0.05769
G1 X102.599 Y81.533 E0.12124
G1 X107.679 Y84.963 E0.21313
M73 P2 R32
G1 X109.666 Y87.189 E0.10375
G1 X111.387 Y89.826 E0.10951
G1 X113.154 Y94.861 E0.18555
G1 X113.522 Y101.09 E0.21697
G1 X113.252 Y103.207 E0.0742
G1 X113.486 Y104.546 E0.04726
G1 X113.524 Y108.79 E0.1476
G1 X113.247 Y110.567 E0.06251
G1 X113.48 Y111.882 E0.04644
G1 X113.534 Y116.061 E0.14533
G1 X113.243 Y117.955 E0.06663
G1 X113.48 Y119.298 E0.04744
G1 X113.531 Y123.416 E0.1432
G1 X112.852 Y127.679 E0.15012
G1 X111.217 Y131.73 E0.1519
G1 X106.835 Y137.039 E0.23936
G1 X103.614 Y139.198 E0.13484
G1 X100.018 Y140.676 E0.1352
G1 X96.003 Y141.48 E0.14239
G1 X91.893 Y141.559 E0.14294
G1 X89.048 Y141.171 E0.09983
G1 X86.373 Y140.494 E0.09595
G1 X82.191 Y138.495 E0.1612
G1 X79.217 Y136.153 E0.13161
G1 X76.763 Y133.275 E0.13153
G1 X74.609 Y129.095 E0.16354
G1 X73.578 Y124.627 E0.15943
G1 X73.499 Y119.799 E0.16791
G1 X73.743 Y118.141 E0.05827
G1 X73.574 Y117.2 E0.03325
G1 X73.476 Y112.588 E0.16039
G1 X73.754 Y110.772 E0.06391
G1 X73.564 Y109.726 E0.03696
G1 X73.472 Y105.239 E0.15607
G1 X73.747 Y103.414 E0.06416
G1 X73.609 Y102.659 E0.02669
G1 X73.489 Y97.789 E0.16939
G1 X74.174 Y93.513 E0.1506
G1 X75.84 Y89.457 E0.15245
G1 X78.326 Y86.051 E0.14665
M107
G1 X78.608 Y86.257 F3600000
M107
G1 F2400
G1 X78.703 Y86.127 E0.00561
G1 X81.961 Y83.32 E0.14952
G1 X85.954 Y81.287 E0.15582
G1 X90.174 Y80.22 E0.15136
G1 X95.996 Y80.107 E0.20248
G1 X97.621 Y80.37 E0.05725
G1 X99.229 Y80.709 E0.05715
G1 X102.423 Y81.835 E0.11775
G1 X107.434 Y85.212 E0.21011
G1 X109.381 Y87.391 E0.10163
G1 X111.065 Y89.962 E0.10687
G1 X112.808 Y94.906 E0.18229
G1 X113.173 Y101.095 E0.21556
G1 X112.9 Y103.215 E0.07435
G1 X113.138 Y104.564 E0.04761
G1 X113.175 Y108.779 E0.14659
G1 X112.894 Y110.57 E0.06305
G1 X113.131 Y111.901 E0.04698
G1 X113.185 Y116.051 E0.14433
G1 X112.89 Y117.959 E0.06714
G1 X113.132 Y119.317 E0.04797
G1 X113.182 Y123.406 E0.14219
G1 X112.511 Y127.605 E0.14788
G1 X110.904 Y131.574 E0.14892
G1 X106.62 Y136.764 E0.23398
G1 X103.465 Y138.882 E0.13215
G1 X99.933 Y140.338 E0.13285
G1 X95.98 Y141.132 E0.14019
G1 X91.926 Y141.212 E0.14099
G1 X89.105 Y140.827 E0.09902
G1 X86.476 Y140.161 E0.09432
G1 X82.391 Y138.209 E0.15741
G1 X79.471 Y135.914 E0.12914
G1 X77.041 Y133.065 E0.13023
G1 X74.929 Y128.955 E0.16069
G1 X73.926 Y124.603 E0.15528
G1 X73.848 Y119.807 E0.16678
G1 X74.096 Y118.135 E0.05879
G1 X73.923 Y117.179 E0.03381
G1 X73.824 Y112.596 E0.15938
G1 X74.108 Y110.767 E0.06438
G1 X73.912 Y109.705 E0.03755
G1 X73.82 Y105.246 E0.15506
G1 X74.101 Y103.408 E0.06465
G1 X73.957 Y102.636 E0.0273
G1 X73.835 Y97.828 E0.16725
G1 X74.504 Y93.626 E0.14795
G1 X76.134 Y89.646 E0.14956
G1 X78.572 Y86.305 E0.14382
M107
G1 X78.854 Y86.511 F3600000
M107
G1 F2400
G1 X78.972 Y86.348 E0.007
G1 X82.172 Y83.598 E0.14671
G1 X86.095 Y81.607 E0.15297
G1 X90.24 Y80.562 E0.14865
G1 X95.956 Y80.453 E0.19879
G1 X97.561 Y80.713 E0.05656
G1 X99.146 Y81.048 E0.05632
G1 X102.247 Y82.136 E0.11427
G1 X107.188 Y85.46 E0.20709
G1 X109.097 Y87.593 E0.09953
G1 X110.744 Y90.098 E0.10424
G1 X112.461 Y94.951 E0.17902
G1 X112.824 Y101.099 E0.21413
G1 X112.547 Y103.224 E0.07451
G1 X112.789 Y104.581 E0.04796
G1 X112.826 Y108.768 E0.14558
G1 X112.54 Y110.574 E0.0636
G1 X112.783 Y111.919 E0.04753
G1 X112.836 Y116.041 E0.14332
G1 X112.537 Y117.963 E0.06766
G1 X112.784 Y119.336 E0.0485
G1 X112.834 Y123.395 E0.14116
G1 X112.17 Y127.53 E0.14564
G1 X110.591 Y131.419 E0.14594
G1 X106.405 Y136.489 E0.22862
G1 X103.285 Y138.583 E0.13066
G1 X99.816 Y140.009 E0.13044
M73 P2 R31
G1 X95.927 Y140.787 E0.13791
G1 X91.96 Y140.865 E0.13797
G1 X89.162 Y140.483 E0.09821
G1 X86.578 Y139.827 E0.0927
G1 X82.591 Y137.923 E0.15362
G1 X79.7 Y135.651 E0.12787
G1 X77.32 Y132.854 E0.12772
G1 X75.249 Y128.815 E0.15784
G1 X74.274 Y124.579 E0.15114
G1 X74.196 Y119.816 E0.16564
G1 X74.45 Y118.129 E0.05931
G1 X74.271 Y117.157 E0.03438
G1 X74.173 Y112.604 E0.15836
G1 X74.461 Y110.761 E0.06485
G1 X74.261 Y109.683 E0.03814
G1 X74.169 Y105.254 E0.15404
G1 X74.454 Y103.402 E0.06515
G1 X74.305 Y102.613 E0.02791
G1 X74.184 Y97.835 E0.1662
G1 X74.845 Y93.701 E0.14559
G1 X76.448 Y89.798 E0.14673
G1 X78.818 Y86.559 E0.13955
M107
G1 X79.099 Y86.765 F3600000
M107
G1 F2400
G1 X79.242 Y86.571 E0.00839
G1 X82.383 Y83.876 E0.14391
G1 X86.235 Y81.927 E0.15011
G1 X90.305 Y80.905 E0.14594
G1 X95.915 Y80.8 E0.19511
G1 X97.493 Y81.055 E0.05558
G1 X99.063 Y81.387 E0.05578
G1 X102.071 Y82.438 E0.1108
G1 X106.943 Y85.709 E0.20406
G1 X108.814 Y87.796 E0.09744
G1 X110.422 Y90.235 E0.1016
G1 X112.115 Y94.997 E0.17573
G1 X112.475 Y101.103 E0.2127
G1 X112.195 Y103.232 E0.07468
G1 X112.441 Y104.599 E0.04831
G1 X112.478 Y108.756 E0.14456
G1 X112.187 Y110.578 E0.06415
G1 X112.435 Y111.939 E0.04809
G1 X112.488 Y116.03 E0.1423
G1 X112.183 Y117.967 E0.06818
G1 X112.436 Y119.355 E0.04903
G1 X112.485 Y123.384 E0.14013
G1 X111.829 Y127.455 E0.14339
G1 X110.278 Y131.263 E0.14296
G1 X106.19 Y136.213 E0.22327
G1 X103.136 Y138.268 E0.12796
G1 X99.731 Y139.671 E0.12808
G1 X95.905 Y140.439 E0.13571
G1 X91.994 Y140.518 E0.13601
G1 X89.219 Y140.139 E0.09739
G1 X86.68 Y139.494 E0.09108
G1 X82.791 Y137.637 E0.14985
G1 X79.954 Y135.412 E0.12539
G1 X77.598 Y132.644 E0.12641
G1 X75.569 Y128.675 E0.15499
G1 X74.622 Y124.555 E0.147
G1 X74.545 Y119.825 E0.1645
G1 X74.803 Y118.124 E0.05984
G1 X74.619 Y117.136 E0.03495
G1 X74.522 Y112.612 E0.15733
G1 X74.815 Y110.756 E0.06533
G1 X74.609 Y109.662 E0.03873
G1 X74.518 Y105.262 E0.15301
G1 X74.808 Y103.396 E0.06567
G1 X74.653 Y102.59 E0.02853
G1 X74.531 Y97.874 E0.16405
G1 X75.175 Y93.815 E0.14293
G1 X76.762 Y89.95 E0.14529
G1 X79.063 Y86.814 E0.13525
M107
G1 X79.344 Y87.02 F3600000
M107
G1 F2400
G1 X79.511 Y86.793 E0.00978
G1 X82.594 Y84.155 E0.1411
G1 X86.374 Y82.247 E0.14726
G1 X90.371 Y81.248 E0.14324
G1 X95.875 Y81.146 E0.19144
G1 X97.434 Y81.398 E0.0549
G1 X98.98 Y81.725 E0.05496
G1 X101.896 Y82.74 E0.10735
G1 X106.699 Y85.958 E0.20103
G1 X108.53 Y87.999 E0.09535
G1 X110.101 Y90.372 E0.09896
G1 X111.768 Y95.042 E0.17243
G1 X112.126 Y101.107 E0.21126
G1 X111.842 Y103.24 E0.07485
G1 X112.092 Y104.617 E0.04866
G1 X112.129 Y108.745 E0.14354
G1 X111.833 Y110.582 E0.06471
G1 X112.087 Y111.958 E0.04864
G1 X112.139 Y116.02 E0.14127
G1 X111.83 Y117.972 E0.06871
G1 X112.087 Y119.374 E0.04957
G1 X112.136 Y123.373 E0.1391
G1 X111.499 Y127.342 E0.13977
G1 X109.965 Y131.107 E0.14135
G1 X105.974 Y135.939 E0.21793
G1 X102.987 Y137.952 E0.12526
G1 X99.645 Y139.332 E0.12572
G1 X95.882 Y140.091 E0.1335
G1 X92.028 Y140.171 E0.13405
G1 X89.276 Y139.795 E0.09657
G1 X86.783 Y139.16 E0.08945
G1 X82.991 Y137.351 E0.14609
G1 X80.208 Y135.172 E0.12289
G1 X77.877 Y132.433 E0.12509
G1 X75.889 Y128.536 E0.15212
G1 X74.97 Y124.531 E0.14288
G1 X74.894 Y119.834 E0.16336
G1 X75.156 Y118.117 E0.06039
G1 X74.967 Y117.114 E0.03552
G1 X74.871 Y112.62 E0.15628
G1 X75.169 Y110.751 E0.06583
G1 X74.957 Y109.64 E0.03933
G1 X74.867 Y105.27 E0.15197
G1 X75.162 Y103.39 E0.0662
M73 P3 R31
G1 X75.001 Y102.567 E0.02916
G1 X74.878 Y97.913 E0.16189
G1 X75.505 Y93.928 E0.14027
G1 X77.056 Y90.139 E0.14237
G1 X79.309 Y87.068 E0.13243
M107
G1 X79.589 Y87.275 F3600000
M107
G1 F2400
G1 X79.78 Y87.016 E0.01117
G1 X82.804 Y84.434 E0.13829
G1 X86.514 Y82.567 E0.14441
G1 X90.436 Y81.591 E0.14054
G1 X95.835 Y81.493 E0.18778
G1 X97.374 Y81.741 E0.05421
G1 X98.897 Y82.064 E0.05414
G1 X101.72 Y83.042 E0.1039
G1 X106.454 Y86.207 E0.198
G1 X108.247 Y88.202 E0.09327
G1 X109.78 Y90.509 E0.09633
G1 X111.422 Y95.087 E0.16911
G1 X111.777 Y101.11 E0.20981
G1 X111.489 Y103.249 E0.07503
G1 X111.744 Y104.635 E0.04903
G1 X111.78 Y108.733 E0.1425
G1 X111.48 Y110.586 E0.06528
G1 X111.738 Y111.977 E0.0492
G1 X111.79 Y116.01 E0.14023
G1 X111.476 Y117.976 E0.06924
G1 X111.739 Y119.393 E0.05011
G1 X111.788 Y123.363 E0.13806
G1 X111.158 Y127.267 E0.13752
G1 X109.653 Y130.95 E0.13837
G1 X105.758 Y135.664 E0.2126
G1 X102.807 Y137.653 E0.12377
G1 X99.528 Y139.004 E0.1233
G1 X95.828 Y139.746 E0.13122
G1 X92.061 Y139.824 E0.13102
