; generated by SuperSlicer 2.5.59.10 on 2024-05-31 at 21:24:38 UTC


;
;

;
;
; 

; external perimeters extrusion width = 0.60mm
; perimeters extrusion width = 0.60mm
; infill extrusion width = 0.60mm
; solid infill extrusion width = 0.60mm
; top infill extrusion width = 0.60mm
; first layer extrusion width = 0.60mm

; object:{"name":"Ender3 linear rail bed bracket_Part 1__Main_2024-05-31 17-24-00","id":"Ender3 linear rail bed bracket_Part 1__Main_2024-05-31 17-24-00.stl id:0 copy 0","object_center":[90.000000,92.500000,0.000000],"boundingbox_center":[90.000000,92.500000,20.000000],"boundingbox_size":[39.999998,35.000000,40.000000]}
EXCLUDE_OBJECT_DEFINE NAME=Ender3_linear_rail_bed_bracket_Part_1__Main_2024_05_31_17_24_00_stl_id_0_copy_0 CENTER=90.000000,92.500000 POLYGON=[[70.00,75.00],[75.00,75.00],[110.00,105.00],[110.00,110.00],[70.00,110.00],[70.00,75.00]]
; plater:{"center":[90.000000,92.500000,0.000000],"boundingbox_center":[90.000000,92.500000,20.000000],"boundingbox_size":[39.999998,35.000000,40.000000]}

M107
;TYPE:Custom
START_PRINT EXTRUDER=250 BED=100
M107
G21 ; set units to millimeters
G90 ; use absolute coordinates
M83 ; use relative distances for extrusion
; Filament gcode
FILAMENT_START MATERIAL=ASA COLOR=#368900 VENDOR=123-3D
;SET_PRESSURE_ADVANCE ADVANCE=0.062
SET_PRESSURE_ADVANCE ADVANCE=0.055
M104 S250 ; set temperature
M109 S250 ; set temperature and wait for it to be reached
M190 S100 ; set bed temperature and wait for it to be reached
;LAYER_CHANGE
;Z:0.24
;HEIGHT:0.24
G1 E-1 F3600
G1 Z0.24 F360000
G92 E0
M204 S750
G1 X66.73 Y71.505
G1 E1 F3600
;TYPE:Skirt
;WIDTH:0.45
M107
G1 F2400
G1 X65.608 Y73.098 E0.07126
G1 F2399.313
G1 X65.212 Y75.005 E.07126
G1 X65.212 Y109.995 E1.27997
G1 X65.491 Y111.607 E.05986
G1 X66.505 Y113.27 E.07126
G1 X68.098 Y114.392 E0.07126
G1 X70.005 Y114.788 E.07126
G1 X109.995 Y114.788 E1.46288
G1 X111.607 Y114.509 E.05986
G1 X113.27 Y113.495 E.07126
G1 X114.392 Y111.902 E0.07126
G1 X114.788 Y109.995 E.07126
G1 X114.788 Y105.005 E0.18254
G1 X114.305 Y102.908 E.07874
G1 X113.114 Y101.366 E0.07126
G1 X109.614 Y98.366 Z.24 E.16863
G1 X106.114 Y95.366 Z.24 E.16863
G1 X102.614 Y92.366 Z.24 E.16863
G1 X99.114 Y89.366 Z.24 E.16863
G1 X95.614 Y86.366 Z.24 E.16863
G1 X92.114 Y83.366 Z.24 E.16863
G1 X88.614 Y80.366 Z.24 E.16863
G1 X85.114 Y77.366 Z.24 E.16863
G1 X81.614 Y74.366 Z.24 E.16863
G1 F2400
G1 X78.114 Y71.366 Z.24 E.16863
G1 F2399.837
G1 X76.902 Y70.608 E.0523
G1 X74.995 Y70.212 E.07126
G1 X70.005 Y70.212 E0.18254
G1 X68.393 Y70.491 E.05986
G1 X66.781 Y71.474 E0.06906
M107
G1 X67.102 Y71.714 F360000
M107
G1 F2399.246
G1 X66.006 Y73.183 E.06706
G1 X65.61 Y75.005 E0.0682
G1 X65.61 Y80.004 Z.24 E.18285
G1 X65.61 Y85.002 Z.24 E.18285
G1 X65.61 Y90.001 Z.24 E.18285
G1 X65.61 Y94.999 Z.24 E.18285
G1 X65.61 Y99.998 Z.24 E.18285
G1 X65.61 Y104.996 Z.24 E.18285
G1 X65.61 Y109.995 Z.24 E.18285
G1 X65.792 Y111.245 E0.0462
G1 X66.689 Y112.879 E.0682
G1 X68.183 Y113.994 E.0682
G1 X70.005 Y114.39 E0.0682
G1 X75.004 Y114.39 Z.24 E.18286
G1 X80.003 Y114.39 Z.24 E.18286
G1 X85.001 Y114.39 Z.24 E.18286
G1 X90 Y114.39 Z.24 E.18286
G1 X94.999 Y114.39 Z.24 E.18286
G1 X99.997 Y114.39 Z.24 E.18286
G1 X104.996 Y114.39 Z.24 E.18286
G1 X109.995 Y114.39 Z.24 E.18286
G1 X111.245 Y114.208 E0.0462
G1 X112.879 Y113.311 E.0682
G1 X113.994 Y111.817 E.0682
G1 X114.39 Y109.995 E0.0682
G1 X114.39 Y105.005 E.18254
G1 X113.981 Y103.154 E0.06934
G1 X112.855 Y101.668 E.0682
G1 X109.355 Y98.668 Z.24 E.16863
G1 X105.855 Y95.668 Z.24 E.16863
G1 X102.355 Y92.668 Z.24 E.16863
G1 X98.855 Y89.668 Z.24 E.16863
G1 X95.355 Y86.668 Z.24 E.16863
G1 X91.855 Y83.668 Z.24 E.16863
G1 X88.355 Y80.668 Z.24 E.16863
G1 X84.855 Y77.668 Z.24 E.16863
G1 X81.355 Y74.668 Z.24 E.16863
G1 F2400
G1 X77.855 Y71.668 Z.24 E.16863
G1 F2399.168
G1 X76.817 Y71.006 E.04505
G1 X74.995 Y70.61 E0.0682
G1 X70.005 Y70.61 E.18254
G1 X68.755 Y70.792 E0.0462
G1 X67.146 Y71.675 E.06714
M107
G1 X67.47 Y71.933 F360000
M107
G1 F2400
G1 X66.404 Y73.273 E0.06263
G1 F2399.305
G1 X66.009 Y75.005 E.065
G1 X66.009 Y109.995 E1.27997
G1 F2398.562
G1 X66.11 Y110.889 E.03293
G1 F2399.995
G1 X66.883 Y112.489 E.065
G1 X68.273 Y113.596 E0.065
G1 X70.005 Y113.991 E.065
G1 X109.995 Y113.991 E1.46288
G1 F2398.566
G1 X110.889 Y113.89 E.03293
G1 F2399.995
G1 X112.489 Y113.117 E.065
G1 X113.596 Y111.727 E0.065
G1 X113.991 Y109.995 E.065
G1 X113.991 Y105.005 E.18254
G1 X113.654 Y103.398 E0.06006
G1 X112.596 Y101.971 E.065
G1 X109.096 Y98.971 Z.24 E.16863
G1 X105.596 Y95.971 Z.24 E.16863
G1 X102.096 Y92.971 Z.24 E.16863
G1 X98.596 Y89.971 Z.24 E.16863
G1 X95.096 Y86.971 Z.24 E.16863
G1 X91.596 Y83.971 Z.24 E.16863
G1 X88.096 Y80.971 Z.24 E.16863
G1 X84.596 Y77.971 Z.24 E.16863
G1 X81.096 Y74.971 Z.24 E.16863
G1 F2398.854
G1 X77.596 Y71.971 Z.24 E.16863
G1 X76.727 Y71.404 E0.03794
G1 X74.995 Y71.009 E.065
G1 X70.005 Y71.009 E0.18254
G1 X69.111 Y71.11 E.03293
G1 X67.508 Y71.886 E0.06515
M107
G1 X67.833 Y72.165 F360000
M107
G1 F2399.839
G1 X66.802 Y73.367 E.05793
G1 X66.407 Y75.005 E0.06163
G1 X66.407 Y80.004 Z.24 E.18285
G1 X66.407 Y85.002 Z.24 E.18285
G1 X66.407 Y90.001 Z.24 E.18285
G1 X66.407 Y94.999 Z.24 E.18285
G1 X66.407 Y99.998 Z.24 E.18285
G1 X66.407 Y104.996 Z.24 E.18285
G1 F2400
G1 X66.407 Y109.995 Z.24 E.18285
G1 F2399.15
G1 X67.088 Y112.101 E.08099
G1 X68.367 Y113.198 E0.06163
G1 X70.005 Y113.593 E.06163
G1 X75.004 Y113.593 Z.24 E.18286
G1 X80.003 Y113.593 Z.24 E.18286
G1 X85.001 Y113.593 Z.24 E.18286
G1 X90 Y113.593 Z.24 E.18286
G1 X94.999 Y113.593 Z.24 E.18286
G1 X99.997 Y113.593 Z.24 E.18286
G1 X104.996 Y113.593 Z.24 E.18286
G1 F2400
G1 X109.995 Y113.593 Z.24 E.18286
G1 F2399.153
G1 X112.101 Y112.912 E.08099
G1 X113.198 Y111.633 E0.06163
G1 X113.593 Y109.995 E.06163
G1 X113.593 Y105.005 E.18254
G1 X113.323 Y103.639 E.05094
G1 X112.336 Y102.273 E0.06163
G1 X108.836 Y99.273 Z.24 E.16863
G1 X105.336 Y96.273 Z.24 E.16863
G1 X101.836 Y93.273 Z.24 E.16863
G1 X98.336 Y90.273 Z.24 E.16863
G1 X94.836 Y87.273 Z.24 E.16863
G1 X91.336 Y84.273 Z.24 E.16863
G1 X87.836 Y81.273 Z.24 E.16863
G1 X84.336 Y78.273 Z.24 E.16863
G1 X80.836 Y75.273 Z.24 E.16863
G1 F2400
G1 X77.336 Y72.273 Z.24 E.16863
G1 F2399.686
G1 X74.995 Y71.407 E.09132
G1 X70.005 Y71.407 E0.18254
G1 F2373.813
G1 X67.899 Y72.088 E.08099
G1 X67.872 Y72.12 E0.0015
M107
G1 X68.186 Y72.413 F360000
M107
G1 F2366.542
G1 X67.2 Y73.467 E.05281
G1 F2393.047
G1 X66.806 Y75.005 E.05806
G1 F2399.291
G1 X66.806 Y80.004 Z.24 E.18285
G1 X66.806 Y85.002 Z.24 E.18285
G1 X66.806 Y90.001 Z.24 E.18285
G1 X66.806 Y94.999 Z.24 E.18285
G1 X66.806 Y99.998 Z.24 E.18285
G1 X66.806 Y104.996 Z.24 E.18285
G1 F2400
G1 X66.806 Y109.995 Z.24 E.18285
G1 F2399.79
G1 X67.308 Y111.716 E.06559
G1 X68.467 Y112.8 E.05806
G1 X70.005 Y113.194 E0.05806
G1 X75.004 Y113.194 Z.24 E.18286
G1 X80.003 Y113.194 Z.24 E.18286
G1 X85.001 Y113.194 Z.24 E.18286
G1 X90 Y113.194 Z.24 E.18286
G1 X94.999 Y113.194 Z.24 E.18286
G1 X99.997 Y113.194 Z.24 E.18286
G1 X104.996 Y113.194 Z.24 E.18286
G1 F2400
G1 X109.995 Y113.194 Z.24 E.18286
G1 F2399.793
G1 X111.716 Y112.692 E.06559
G1 X112.8 Y111.533 E.05806
G1 X113.194 Y109.995 E0.05806
G1 X113.194 Y105.005 E.18254
G1 F2398.772
G1 X112.988 Y103.876 E.042
G1 X112.077 Y102.576 E0.05806
G1 F2399.611
G1 X108.577 Y99.576 Z.24 E.16863
G1 X105.077 Y96.576 Z.24 E.16863
G1 X101.577 Y93.576 Z.24 E.16863
G1 X98.077 Y90.576 Z.24 E.16863
G1 X94.577 Y87.576 Z.24 E.16863
G1 X91.077 Y84.576 Z.24 E.16863
G1 X87.577 Y81.576 Z.24 E.16863
G1 X84.077 Y78.576 Z.24 E.16863
G1 X80.577 Y75.576 Z.24 E.16863
G1 F2400
G1 X77.077 Y72.576 Z.24 E.16863
G1 F2399.839
G1 X74.995 Y71.806 E.08121
G1 X70.005 Y71.806 E0.18254
G1 X68.284 Y72.308 E.06559
G1 F2397.316
G1 X68.227 Y72.369 E.00306
M107
;WIPE_START
G1 F288000
G1 X68.284 Y72.308 E-0.00099
G1 X70.005 Y71.806 E-0.02129
G1 X74.995 Y71.806 E-0.05926
G1 X77.077 Y72.576 E-0.02636
G1 X112.077 Y102.576 E-0.54741
G1 X112.988 Y103.876 E-0.01885
G1 X113.194 Y105.005 E-0.01363
G1 X113.194 Y109.995 E-0.05926
G1 X112.8 Y111.533 E-0.01885
G1 X111.716 Y112.692 E-0.01885
G1 X109.995 Y113.194 E-0.02129
G1 X97.872 Y113.194 E-0.14396
;WIPE_END
G1 E-0.05 F3600
; printing object Ender3 linear rail bed bracket_Part 1__Main_2024-05-31 17-24-00.stl id:0 copy 0
EXCLUDE_OBJECT_START NAME=Ender3_linear_rail_bed_bracket_Part_1__Main_2024_05_31_17_24_00_stl_id_0_copy_0
G1 X74.695 Y75.305 F360000
G1 E1 F3600
;TYPE:External perimeter
;WIDTH:0.599999
M107
G1 F2400
G1 X70.305 Y75.305 E0.22104
G1 X70.305 Y109.695 E1.73156
G1 X109.695 Y109.695 E1.98332
G1 X109.695 Y105.305 E0.22104
G1 X74.95 Y105.304 E1.74941
G1 X74.775 Y105.225 E0.00969
G1 X74.699 Y105.078 E0.00832
G1 X74.695 Y105.031 E0.00239
G1 X74.695 Y75.365 E1.49369
M107
;WIPE_START
M204 S1500
G1 X74.349 Y75.505 F360000
;WIPE_END
M204 S750
G1 X74.147 Y75.853
;TYPE:Internal perimeter
M107
G1 F2400
G1 X70.853 Y75.853 E0.16581
G1 F2399.444
G1 X70.853 Y80.609 Z.24 E.23948
G1 X70.853 Y85.366 Z.24 E.23948
G1 X70.853 Y90.122 Z.24 E.23948
G1 X70.853 Y94.878 Z.24 E.23948
G1 X70.853 Y99.634 Z.24 E.23948
G1 X70.853 Y104.391 Z.24 E.23948
G1 F2400
G1 X70.853 Y109.147 Z.24 E.23948
G1 F2399.958
G1 X75.64 Y109.147 Z.24 E.24101
G1 X80.426 Y109.147 Z.24 E.24101
G1 X85.213 Y109.147 Z.24 E.24101
G1 X90 Y109.147 Z.24 E.24101
G1 X94.787 Y109.147 Z.24 E.24101
G1 X99.574 Y109.147 Z.24 E.24101
G1 X104.36 Y109.147 Z.24 E.24101
G1 X109.147 Y109.147 Z.24 E.24101
G1 X109.147 Y105.853 E0.16581
G1 X104.256 Y105.853 Z.24 E.24624
G1 X99.366 Y105.853 Z.24 E.24624
G1 F2398.784
G1 X94.475 Y105.853 Z.24 E.24624
G1 X89.585 Y105.852 Z.24 E.24624
G1 X84.694 Y105.852 Z.24 E.24624
G1 X79.804 Y105.852 Z.24 E.24624
G1 F2397.75
G1 X74.913 Y105.852 Z.24 E.24624
G1 X74.547 Y105.737 E0.0193
G1 F2398.908
G1 X74.263 Y105.453 E.02022
G1 F2399.82
G1 X74.159 Y105.173 E.01504
G1 F2398.743
G1 X74.147 Y105.031 E.00718
G1 X74.147 Y75.913 E1.46608
M107
G1 E-1 F3600
G1 X74.875 Y106.399 F360000
G1 E1 F3600
M107
G1 F2396.556
G1 X74.598 Y106.351 E.01418
G1 F2397.732
G1 X74.266 Y106.208 E.01821
G1 X74 Y106 E0.01698
G1 X73.792 Y105.734 E0.01698
G1 F2393.459
G1 X73.619 Y105.268 E.02507
G1 X73.598 Y105.031 E0.01197
G1 F2398.302
G1 X73.598 Y100.259 Z.24 E.24025
G1 X73.598 Y95.488 Z.24 E.24025
G1 X73.598 Y90.716 Z.24 E.24025
G1 F2399.226
G1 X73.598 Y85.945 Z.24 E.24025
G1 X73.598 Y81.174 Z.24 E.24025
G1 X73.598 Y76.402 Z.24 E.24025
G1 X71.402 Y76.402 E0.11057
G1 X71.402 Y81.001 Z.24 E.23158
G1 X71.402 Y85.601 Z.24 E.23159
G1 X71.402 Y90.2 Z.24 E.23158
G1 X71.402 Y94.8 Z.24 E.23159
G1 X71.402 Y99.399 Z.24 E.23158
G1 X71.402 Y103.999 Z.24 E.23159
G1 F2400
G1 X71.402 Y108.598 Z.24 E.23158
G1 F2399.992
G1 X76.051 Y108.598 Z.24 E.23411
G1 X80.701 Y108.598 Z.24 E.2341
G1 X85.351 Y108.598 Z.24 E.2341
G1 X90 Y108.598 Z.24 E.23411
G1 X94.649 Y108.598 Z.24 E.23411
G1 X99.299 Y108.598 Z.24 E.2341
G1 X103.949 Y108.598 Z.24 E.2341
G1 X108.598 Y108.598 Z.24 E.23411
G1 X108.598 Y106.402 E0.11057
G1 X103.789 Y106.402 Z.24 E.24213
G1 X98.98 Y106.401 Z.24 E.24214
G1 F2398.995
G1 X94.171 Y106.401 Z.24 E.24213
G1 X89.362 Y106.4 Z.24 E.24214
G1 X84.553 Y106.4 Z.24 E.24213
G1 F2397.807
G1 X79.744 Y106.399 Z.24 E.24214
G1 X74.935 Y106.399 Z.24 E.24213
M107
G1 X74.838 Y106.946 F360000
M107
G1 F2400
G1 X74.449 Y106.879 E0.01985
G1 F2399.39
G1 X73.984 Y106.678 E.02549
G1 F2398.215
G1 X73.612 Y106.388 E.02377
G1 X73.322 Y106.016 E.02377
G1 X73.121 Y105.551 E0.02549
G1 F2397.895
G1 X73.05 Y105.031 E.02644
G1 F2399.838
G1 X73.05 Y100.351 Z.24 E.23565
G1 X73.05 Y95.671 Z.24 E.23564
G1 X73.05 Y90.99 Z.24 E.23564
G1 F2398.868
G1 X73.05 Y86.31 Z.24 E.23565
G1 X73.05 Y81.63 Z.24 E.23564
G1 X73.05 Y76.95 Z.24 E.23565
G1 X71.95 Y76.95 E0.05534
G1 X71.95 Y81.393 Z.24 E.22369
G1 X71.95 Y85.836 Z.24 E.22369
G1 X71.95 Y90.279 Z.24 E.22369
G1 X71.95 Y94.721 Z.24 E.2237
G1 F2399.229
G1 X71.95 Y99.164 Z.24 E.22369
G1 X71.95 Y103.607 Z.24 E.22369
G1 X71.95 Y108.05 Z.24 E.22369
G1 F2394.176
G1 X74.8 Y108.036 E.14349
G1 F2385.822
G1 X74.969 Y108.05 E.00854
G1 F2346.397
G1 X79.695 Y108.05 Z.24 E.23795
G1 F2269.047
G1 X84.421 Y108.05 Z.24 E.23795
G1 F2191.696
G1 X89.147 Y108.05 Z.24 E.23795
G1 F2114.345
G1 X93.872 Y108.05 Z.24 E.23795
G1 F2036.994
G1 X98.598 Y108.05 Z.24 E.23795
G1 F1959.643
G1 X103.324 Y108.05 Z.24 E.23795
G1 F1843.617
G1 X108.05 Y108.05 Z.24 E.23795
G1 F1837.293
G1 X108.05 Y106.95 E.05534
G1 F1798.234
G1 X103.314 Y106.949 Z.24 E.23846
G1 F1738.84
G1 X98.578 Y106.949 Z.24 E.23846
G1 F1679.447
G1 X93.842 Y106.948 Z.24 E.23846
G1 F1620.053
G1 X89.106 Y106.948 Z.24 E.23846
G1 F1560.659
G1 X84.37 Y106.947 Z.24 E.23846
G1 F1501.266
G1 X79.634 Y106.947 Z.24 E.23846
G1 F1412.175
G1 X74.898 Y106.946 Z.24 E.23846
M107
G1 X74.695 Y107.446 F360000
;WIDTH:0.536196
M107
G1 F1585.782
G1 X74.613 Y107.412 E.00398
M107
;WIDTH:0.482079
M107
G1 F1799.344
G1 X74.519 Y107.374 E.004
M107
;WIDTH:0.427962
M107
G1 F2053.765
G1 X74.425 Y107.336 E.0035
M107
;WIDTH:0.373845
M107
G1 F2400
G1 X74.179 Y107.252 E0.00768
M107
;WIDTH:0.420918
M107
G1 F2086.412
G1 X74.028 Y107.205 E.00538
M107
;WIDTH:0.467991
M107
G1 F1862.351
G1 X73.876 Y107.159 E.00606
M107
;WIDTH:0.515063
M107
G1 F1672.564
G1 X73.614 Y107.056 E.01199
M107
;WIDTH:0.573904
M107
G1 F1491.518
G1 X73.503 Y106.999 E.00597
M107
;WIDTH:0.632744
M107
G1 F1337.152
G1 X73.392 Y106.943 E.00664
M107
;WIDTH:0.691585
M107
G1 F1211.817
G1 X73.282 Y106.886 E.00731
M107
;WIDTH:0.750425
M107
G1 F1118.707
G1 X73.171 Y106.829 E.00798
G1 F1117.765
G1 X72.786 Y106.336 E.04013
G1 F1121.083
G1 X72.574 Y105.844 E.03439
G1 F1122.086
G1 X72.574 Y107.426 E.10152
G1 F1121.813
G1 X72.924 Y107.426 E.02242
G1 F1114.332
G1 X73.06 Y107.449 E.00888
M107
;WIDTH:0.691585
M107
G1 F1217.86
G1 X73.196 Y107.473 E.00813
M107
;WIDTH:0.632744
M107
G1 F1347.835
G1 X73.333 Y107.496 E.00738
M107
;WIDTH:0.573904
M107
G1 F1487.626
G1 X73.469 Y107.52 E.00664
M107
;WIDTH:0.515063
M107
G1 F1679.341
G1 X73.776 Y107.561 E.01317
M107
;WIDTH:0.467991
M107
G1 F1859.239
G1 X73.946 Y107.579 E.00655
M107
;WIDTH:0.420918
M107
G1 F2103.084
G1 X74.117 Y107.596 E.00581
M107
;WIDTH:0.373845
M107
G1 F2398.065
G1 X74.401 Y107.612 E.00842
G1 X74.481 Y107.588 E0.00247
M107
;WIDTH:0.412382
M107
G1 F2147.154
G1 X74.561 Y107.563 E.00277
M107
;WIDTH:0.471692
M107
G1 F1848.869
G1 X74.641 Y107.538 E.00322
M107
;WIDTH:0.531002
M107
G1 F1599.91
G1 X74.72 Y107.513 E.00368
M107
;WIDTH:0.590312
M107
G1 F1442.994
G1 X74.8 Y107.488 E.00413
M107
M107
G1 F1433.002
G1 X74.751 Y107.468 E.00263
M107
G1 E-1 F3600
G1 X72.5 Y77.5 F360000
G1 E1 F3600
;WIDTH:0.602036
M107
G1 F1436.55
G1 X72.502 Y82.124 Z.24 E.2337
G1 F1492.8
G1 X72.503 Y86.749 Z.24 E.2337
G1 F1549.051
G1 X72.505 Y91.373 Z.24 E.2337
G1 F1605.301
G1 X72.506 Y95.997 Z.24 E.2337
G1 F1661.552
G1 X72.507 Y100.622 Z.24 E.2337
G1 F1745.927
G1 X72.509 Y105.246 Z.24 E.2337
M107
;WIDTH:0.639454
M107
G1 F1637.234
G1 X72.519 Y105.461 E.01161
M107
G1 E-1 F3600
G1 X107.5 Y107.5 F360000
G1 E1 F3600
;WIDTH:0.60204
M107
G1 F1784.667
G1 X102.829 Y107.498 Z.24 E.23608
G1 F1856.757
G1 X98.157 Y107.497 Z.24 E.23608
G1 F1928.846
G1 X93.486 Y107.495 Z.24 E.23608
G1 F2000.936
G1 X88.814 Y107.493 Z.24 E.23608
G1 F2073.026
G1 X84.143 Y107.491 Z.24 E.23608
G1 F2145.116
G1 X79.471 Y107.49 Z.24 E.23608
G1 F2253.25
G1 X74.8 Y107.488 Z.24 E.23608
M107
;LAYER_CHANGE
;Z:0.44
;HEIGHT:0.2
;WIPE_START
G1 F288000
M204 S1500
G1 X107.5 Y107.5 E-0.38831
;WIPE_END
G1 E-0.61169 F3600
; stop printing object Ender3 linear rail bed bracket_Part 1__Main_2024-05-31 17-24-00.stl id:0 copy 0
EXCLUDE_OBJECT_END NAME=Ender3_linear_rail_bed_bracket_Part_1__Main_2024_05_31_17_24_00_stl_id_0_copy_0
G1 Z0.44 F360000
G92 E0
M104 S245 ; set temperature
M140 S95 ; set bed temperature
; printing object Ender3 linear rail bed bracket_Part 1__Main_2024-05-31 17-24-00.stl id:0 copy 0
EXCLUDE_OBJECT_START NAME=Ender3_linear_rail_bed_bracket_Part_1__Main_2024_05_31_17_24_00_stl_id_0_copy_0
M204 S1200
G1 X109.787 Y105.213
G1 E1 F3600
;TYPE:External perimeter
;WIDTH:0.419999
M107
G1 F10439.673
G1 X74.975 Y105.213 E1.00417
G1 X74.842 Y105.158 E0.00416
G1 X74.787 Y105.025 E0.00416
G1 X74.787 Y75.213 E0.85994
