; generated by SuperSlicer 2.5.59.9 on 2024-05-16 at 06:06:04 UTC


;
;

;
;

;
;

;
;

;
;
; 

; external perimeters extrusion width = 0.42mm
; perimeters extrusion width = 0.45mm
; infill extrusion width = 0.45mm
; solid infill extrusion width = 0.45mm
; top infill extrusion width = 0.42mm

; object:{"name":"Voron_Design_Cube_v7","id":"Voron_Design_Cube_v7 id:0 copy 0","object_center":[62.500000,107.500000,0.000000],"boundingbox_center":[62.500000,107.500000,10.000000],"boundingbox_size":[20.000000,20.000000,20.000000]}
EXCLUDE_OBJECT_DEFINE NAME=Voron_Design_Cube_v7_id_0_copy_0 CENTER=62.500000,107.500000 POLYGON=[[52.50,97.50],[72.50,97.50],[72.50,117.50],[52.50,117.50],[52.50,97.50]]
; plater:{"center":[62.500000,107.500000,0.000000],"boundingbox_center":[62.500000,107.500000,10.000000],"boundingbox_size":[20.000000,20.000000,20.000000]}

M73 P0 R29
M107
;TYPE:Custom
CALCULATE_PA MATERIAL=PLA BOWDEN_LENGTH=6 LAYER_HEIGHT=0.24 NOZZLE_SIZE=0.4 PRINT_SPEED=0
START_PRINT EXTRUDER=210 BED=60
SET_VELOCITY_LIMIT ACCEL=3000



M107
G21 ; set units to millimeters
G90 ; use absolute coordinates
M83 ; use relative distances for extrusion
ACTIVATE_EXTRUDER EXTRUDER=extruder
; Filament gcode
M104 S210 T0 ; set temperature
M109 S210 T0 ; set temperature and wait for it to be reached
M190 S60 ; set bed temperature and wait for it to be reached
;LAYER_CHANGE
;Z:0.24
;HEIGHT:0.24
;BEFORE_LAYER_CHANGE
G92 E0.0

G1 E-0.4 F3600
M73 P1 R28
G1 Z0.4 F360000
;AFTER_LAYER_CHANGE
;0.24
SET_VELOCITY_LIMIT ACCEL=5000


CALCULATE_PA MATERIAL=PLA BOWDEN_LENGTH=6.0 LAYER_HEIGHT=0.2 NOZZLE_SIZE=0.4 PRINT_SPEED=120


G92 E0
G1 X53.08061 Y91.81175
G1 Z0.24
G1 E0.4 F3600
;TYPE:Skirt
;WIDTH:0.45
M107
G1 F2400
G1 X54.36938 Y91.24142 E0.05043
G1 F2399.94458
G1 X56.0366 Y90.93809 E.06064
G1 X60.3604 Y90.93941 Z.24 E.15473
G1 X64.68421 Y90.94074 Z.24 E.15473
G1 X69.00802 Y90.94207 Z.24 E.15473
G1 X70.18185 Y91.11706 E.04247
G1 X71.32441 Y91.50244 E.04315
G1 X73.01228 Y92.59357 E0.07192
G1 X75.19361 Y94.7749 Z.24 E.1104
G1 X77.37494 Y96.95623 Z.24 E.11039
G1 X78.16002 Y98.03169 E0.04765
G1 X78.72288 Y99.25775 E.04828
G1 X79.06185 Y101.02159 E.06428
G1 X79.06185 Y105.33813 Z.24 E.15447
G1 X79.06185 Y109.65468 Z.24 E.15447
G1 X79.06185 Y113.97122 Z.24 E.15447
G1 X78.8565 Y115.28684 E0.04765
G1 X78.38757 Y116.55178 E.04828
G1 X77.38003 Y118.03868 E.06428
G1 X73.0286 Y122.39011 E0.22022
G1 X71.77542 Y123.26898 E.05478
G1 X70.34925 Y123.83991 E0.05497
G1 X68.93952 Y124.06185 E.05107
G1 X64.63594 Y124.06185 Z.24 E.15401
G1 X60.33236 Y124.06185 Z.24 E.15401
G1 X56.02878 Y124.06185 Z.24 E.15401
G1 X54.71316 Y123.8565 E0.04765
G1 X53.44822 Y123.38757 E.04828
G1 X51.96132 Y122.38003 E.06428
G1 X47.60988 Y118.02859 E0.22022
G1 X46.731 Y116.77537 E.05478
G1 X46.16008 Y115.34921 E0.05497
G1 X45.93816 Y113.93951 E.05107
G1 X45.93816 Y101.02879 E0.46202
G1 X46.14348 Y99.71321 E.04765
G1 X46.61242 Y98.44826 E.04828
G1 X47.61997 Y96.96133 E.06428
G1 X51.96358 Y92.61772 E0.21983
G1 X53.03196 Y91.84686 E.04715
M107
G1 X53.26444 Y92.17037 F360000
M107
G1 F2398.76685
G1 X53.29619 Y92.14755 E.0014
G1 X54.50806 Y91.61574 E0.04736
G1 F2399.91943
G1 X56.05431 Y91.33659 E.05623
G1 X68.99299 Y91.34056 E0.46302
G1 X70.1048 Y91.50844 E.04024
G1 X71.17276 Y91.87177 E0.04037
G1 X72.74535 Y92.8902 E.06705
G1 X77.08212 Y97.22697 E0.21948
G1 X77.82592 Y98.24981 E.04526
G1 X78.35036 Y99.40125 E.04528
G1 X78.66335 Y101.0404 E.05972
G1 X78.66335 Y113.9556 E0.46218
G1 X78.46602 Y115.20484 E.04526
G1 X78.02268 Y116.38984 E.04528
G1 X77.08495 Y117.7702 E.05972
G1 X72.75921 Y122.09594 E0.21892
G1 X71.56626 Y122.92899 E.05207
G1 X70.22311 Y123.46125 E.0517
G1 X68.92413 Y123.66335 E0.04704
G1 X64.63089 Y123.66335 Z.24 E.15364
G1 X60.33764 Y123.66335 Z.24 E.15364
G1 F2400
G1 X56.0444 Y123.66335 Z.24 E.15364
G1 F2399.98071
G1 X54.79516 Y123.46602 E.04526
G1 X53.61016 Y123.02268 E.04528
G1 X52.2298 Y122.08495 E.05972
G1 X50.06693 Y119.92207 Z.24 E.10946
G1 X47.90405 Y117.7592 Z.24 E.10946
G1 X47.07098 Y116.56622 E.05207
G1 X46.53874 Y115.22308 E.0517
G1 X46.33665 Y113.92413 E0.04704
G1 X46.33665 Y109.63089 Z.24 E.15364
G1 X46.33665 Y105.33765 Z.24 E.15364
G1 F2400
G1 X46.33665 Y101.04441 Z.24 E.15364
G1 F2399.93848
G1 X46.53396 Y99.79521 E.04526
G1 X46.97731 Y98.61019 E.04528
G1 X47.91505 Y97.2298 E.05972
G1 X52.23392 Y92.91093 E0.21857
G1 F2398.32349
G1 X53.21572 Y92.20538 E.04327
M107
G1 X53.44748 Y92.5293 F360000
M107
G1 F2400
G1 X53.51097 Y92.48387 E0.00279
G1 F2398.52881
G1 X54.64566 Y91.99045 E.04428
G1 F2399.99854
G1 X56.07188 Y91.73509 E.05185
G1 X68.97805 Y91.73905 E0.46186
G1 X69.99334 Y91.89145 E.03674
G1 X71.02102 Y92.24107 E.03885
G1 X72.47837 Y93.18677 E0.06217
G1 X74.63388 Y95.34229 Z.24 E.10909
G1 F2400
G1 X76.78939 Y97.4978 Z.24 E.10909
G1 F2399.91846
G1 X77.47165 Y98.43338 E.04144
G1 X77.97779 Y99.54464 E.0437
G1 X78.26486 Y101.05907 E0.05516
G1 X78.26486 Y105.35275 Z.24 E.15365
G1 X78.26486 Y109.64643 Z.24 E.15365
G1 F2400
G1 X78.26486 Y113.94012 Z.24 E.15365
G1 F2399.95654
G1 X78.08571 Y115.08413 E.04144
G1 X77.65784 Y116.22778 E.0437
G1 X76.78996 Y117.50163 E0.05516
G1 X74.63983 Y119.65176 Z.24 E.10882
G1 F2400
G1 X72.48971 Y121.80189 Z.24 E.10882
G1 F2399.74146
G1 X71.39776 Y122.56712 E.04772
G1 X70.09717 Y123.08252 E0.05006
G1 X68.90895 Y123.26486 E.04302
G1 X56.05988 Y123.26486 E0.45982
G1 X54.91587 Y123.08571 E.04144
G1 X53.77222 Y122.65784 E.0437
G1 X52.49837 Y121.78996 E0.05516
G1 X50.34824 Y119.63983 Z.24 E.10882
G1 F2400
G1 X48.19811 Y117.4897 Z.24 E.10882
G1 F2399.8186
G1 X47.43285 Y116.39772 E.04772
G1 X46.91747 Y115.09714 E0.05006
G1 X46.73515 Y113.90895 E.04302
G1 X46.73515 Y101.05989 E0.45981
G1 X46.91427 Y99.91591 E.04144
G1 X47.34214 Y98.77225 E.0437
G1 X48.21003 Y97.49838 E0.05516
G1 X50.35707 Y95.35133 Z.24 E.10866
G1 X52.50412 Y93.20429 Z.24 E.10866
G1 X53.39869 Y92.56421 E.03936
M107
G1 X53.62967 Y92.88856 F360000
M107
G1 F2400
G1 X53.72489 Y92.82074 E0.00418
G1 F2398.9751
G1 X54.78209 Y92.36557 E.04119
G1 X56.0893 Y92.13359 E0.04751
G1 F2399.99854
G1 X60.3805 Y92.13491 Z.24 E.15356
G1 X64.67169 Y92.13622 Z.24 E.15356
G1 F2400
G1 X68.96289 Y92.13754 Z.24 E.15356
G1 F2399.79004
G1 X69.91561 Y92.2827 E.03449
G1 X70.86838 Y92.60999 E0.03605
G1 X72.21131 Y93.48328 E.05733
G1 X76.49651 Y97.76848 E0.21687
G1 X77.13722 Y98.65103 E.03903
G1 X77.60481 Y99.68694 E0.04067
G1 X77.86636 Y101.07761 E.05064
G1 X77.86636 Y113.92443 E0.45973
G1 X77.69534 Y115.00156 E.03903
G1 X77.29348 Y116.06467 E0.04067
G1 X76.49508 Y117.23296 E.05064
G1 X74.35773 Y119.37032 Z.24 E.10817
G1 X72.22037 Y121.50767 Z.24 E.10817
G1 X71.1891 Y122.22681 E0.04499
G1 X69.97257 Y122.70335 E.04676
G1 X68.894 Y122.86636 E.03904
G1 X56.07557 Y122.86636 E0.45872
G1 X54.99844 Y122.69534 E.03903
G1 X53.93533 Y122.29348 E0.04067
G1 X52.76704 Y121.49508 E.05064
G1 X50.62968 Y119.35772 Z.24 E.10817
G1 X48.49233 Y117.22036 Z.24 E.10817
G1 X47.77316 Y116.18906 E0.04499
G1 X47.29664 Y114.97253 E.04676
G1 X47.13364 Y113.894 E0.03903
G1 X47.13364 Y109.62119 Z.24 E.15291
G1 X47.13364 Y105.34838 Z.24 E.15291
G1 F2400
G1 X47.13364 Y101.07558 Z.24 E.15291
G1 F2399.81006
G1 X47.30465 Y99.99848 E.03903
G1 X47.7065 Y98.93536 E0.04067
G1 X48.50492 Y97.76705 E.05064
G1 X52.77416 Y93.49781 E0.21606
G1 X53.58079 Y92.92336 E.03544
M107
G1 X53.80998 Y93.24412 F360000
M107
G1 F2400
G1 X53.90207 Y93.17832 E0.00405
G1 F2399.74585
G1 X54.91836 Y92.74076 E.0396
G1 X56.10654 Y92.53209 E0.04317
G1 X60.38686 Y92.5334 Z.24 E.15317
G1 X64.66718 Y92.53472 Z.24 E.15317
G1 F2400
G1 X68.94749 Y92.53603 Z.24 E.15317
G1 F2399.86206
G1 X69.83685 Y92.67374 E.03221
G1 X70.71476 Y92.97848 E.03326
G1 X71.94419 Y93.77971 E0.05251
G1 X74.07383 Y95.90936 Z.24 E.10778
G1 F2400
G1 X76.20347 Y98.039 Z.24 E.10778
G1 F2399.91089
G1 X76.80221 Y98.8678 E.03659
G1 X77.2314 Y99.82806 E0.03764
G1 X77.46787 Y101.09599 E.04616
G1 X77.46787 Y113.9085 E0.45851
G1 X77.30517 Y114.91794 E.03659
G1 X76.92965 Y115.90041 E0.03764
G1 X76.2003 Y116.96418 E.04616
G1 X74.07576 Y119.08873 Z.24 E.10752
G1 X71.95121 Y121.21327 Z.24 E.10752
G1 X70.98144 Y121.88588 E.04223
G1 X69.84942 Y122.32372 E0.04343
G1 X68.8793 Y122.46787 E.0351
G1 X56.0915 Y122.46787 E0.45762
G1 X55.08206 Y122.30517 E.03659
G1 X54.09959 Y121.92965 E0.03764
G1 X53.03582 Y121.2003 E.04616
G1 X48.78672 Y116.9512 E0.21504
G1 X48.1141 Y115.9814 E.04224
G1 X47.67628 Y114.84939 E0.04343
G1 X47.53214 Y113.8793 E.0351
G1 X47.53214 Y101.09151 E0.45762
G1 X47.69481 Y100.0821 E.03659
G1 X48.07033 Y99.09962 E0.03764
G1 X48.79969 Y98.03583 E.04616
G1 X53.0443 Y93.79122 E0.21481
G1 X53.76116 Y93.279 E.03153
M107
G1 X53.99171 Y93.60347 F360000
M107
G1 F2399.39673
G1 X54.11537 Y93.51561 E.00543
G1 X55.05327 Y93.11643 E0.03648
G1 X56.12358 Y92.93059 E.03888
G1 X60.39299 Y92.9319 Z.24 E.15278
G1 X64.6624 Y92.9332 Z.24 E.15278
G1 X68.93181 Y92.93452 Z.24 E.15278
G1 X69.75696 Y93.06457 E0.02989
G1 X70.56008 Y93.34652 E.03046
G1 X71.67699 Y94.07607 E.04774
G1 X75.91025 Y98.30933 E0.21424
G1 X76.46656 Y99.08358 E.03412
M73 P2 R28
G1 X76.85751 Y99.96789 E0.0346
G1 X77.06937 Y101.11421 E.04172
G1 X77.06937 Y113.89232 E0.45728
G1 X76.91525 Y114.83318 E.03412
G1 X76.56641 Y115.73491 E0.0346
G1 X75.90564 Y116.69528 E.04172
G1 X71.68224 Y120.91868 E0.21374
G1 X70.77489 Y121.54426 E.03944
G1 X69.72788 Y121.94358 E0.0401
G1 X68.86488 Y122.06937 E.03121
G1 X56.10768 Y122.06937 E0.45653
G1 X55.16682 Y121.91525 E.03412
G1 X54.26509 Y121.5664 E0.0346
G1 X53.30472 Y120.90564 E.04172
G1 X51.19302 Y118.79395 Z.24 E.10687
G1 X49.08132 Y116.68224 Z.24 E.10687
G1 X48.45573 Y115.77486 E0.03944
G1 X48.05642 Y114.72785 E.0401
G1 X47.93063 Y113.86487 E.03121
G1 X47.93063 Y101.10769 E0.45653
G1 X48.08473 Y100.16686 E.03412
G1 X48.43358 Y99.26512 E0.0346
G1 X49.09436 Y98.30472 E.04172
G1 X51.20432 Y96.19476 Z.24 E.10678
G1 X53.31427 Y94.08481 Z.24 E.10678
G1 X53.9428 Y93.63822 E.02759
M107
G1 X54.17229 Y93.96324 F360000
M107
G1 F2400
G1 X54.32754 Y93.85361 E0.0068
G1 F2399.64697
G1 X55.18668 Y93.49262 E.03335
G1 X56.14042 Y93.32909 E.03463
G1 X60.39889 Y93.33039 Z.24 E.15239
G1 X64.65736 Y93.3317 Z.24 E.15239
G1 X68.91584 Y93.33301 Z.24 E.15239
G1 X69.6758 Y93.45513 E0.02754
G1 X70.40423 Y93.71404 E.02767
G1 X71.40971 Y94.37235 E.04301
G1 X75.61683 Y98.57946 E0.21292
G1 X76.1302 Y99.29827 E.03161
G1 X76.48312 Y100.10629 E.03155
G1 X76.67088 Y101.13225 E0.03732
G1 X76.67088 Y105.38011 Z.24 E.15201
G1 X76.67088 Y109.62798 Z.24 E.15201
G1 X76.67088 Y113.87585 Z.24 E.15201
G1 X76.5256 Y114.74715 E.03161
G1 X76.2038 Y115.56804 E.03155
G1 X75.6111 Y116.42626 E0.03732
G1 X73.5123 Y118.52507 Z.24 E.10622
G1 X71.41349 Y120.62387 Z.24 E.10622
G1 X70.56957 Y121.20188 E0.0366
G1 X69.60811 Y121.56289 E.03675
G1 X68.85076 Y121.67088 E.02738
G1 X56.12415 Y121.67088 E0.45543
G1 X55.25285 Y121.5256 E.03161
G1 X54.43196 Y121.2038 E.03155
G1 X53.57374 Y120.6111 E0.03732
G1 X51.47493 Y118.5123 Z.24 E.10622
G1 F2400
G1 X49.37613 Y116.41349 Z.24 E.10622
G1 F2399.7688
G1 X48.7981 Y115.56954 E.03661
G1 X48.43711 Y114.60809 E0.03675
G1 X48.32913 Y113.85076 E.02738
G1 X48.32913 Y101.12416 E0.45543
G1 X48.47439 Y100.25289 E.03161
G1 X48.79619 Y99.43199 E0.03155
G1 X49.38889 Y98.57374 E.03733
G1 X51.48645 Y96.47618 Z.24 E.10616
G1 X53.58402 Y94.37862 Z.24 E.10616
G1 X54.12328 Y93.99784 E0.02362
M107
G1 X54.35158 Y94.32345 F360000
M107
G1 F2399.21143
G1 X54.53845 Y94.19243 E.00817
G1 X55.31841 Y93.86938 E0.03021
G1 X56.15702 Y93.72759 E.03044
G1 X60.40467 Y93.7289 Z.24 E.15201
G1 X64.65233 Y93.73019 Z.24 E.15201
G1 X68.89998 Y93.7315 Z.24 E.15201
G1 X69.55956 Y93.83673 E0.0239
G1 X70.24827 Y94.08153 E.02616
G1 X71.14235 Y94.66854 E.03828
G1 X73.23277 Y96.75896 Z.24 E.10579
G1 X75.32318 Y98.84937 Z.24 E.10579
G1 X75.79305 Y99.51174 E0.02906
G1 X76.10816 Y100.24311 E.0285
G1 X76.27238 Y101.15011 E.03299
G1 X76.27238 Y105.38643 Z.24 E.1516
G1 X76.27238 Y109.62274 Z.24 E.1516
G1 X76.27238 Y113.85906 Z.24 E.1516
G1 X76.13626 Y114.65969 E0.02906
G1 X75.84192 Y115.39965 E.0285
G1 X75.3167 Y116.15711 E.03299
G1 X73.23065 Y118.24316 Z.24 E.10558
G1 X71.14459 Y120.32922 Z.24 E.10557
G1 X70.40548 Y120.83796 E0.03211
G1 X69.52913 Y121.17169 E.03356
G1 X68.83638 Y121.27238 E0.02505
G1 X64.60457 Y121.27238 Z.24 E.15144
G1 X60.37275 Y121.27238 Z.24 E.15144
G1 X56.14094 Y121.27238 Z.24 E.15144
G1 X55.34031 Y121.13626 E0.02906
G1 X54.60035 Y120.84192 E.0285
G1 X53.84289 Y120.3167 E.03299
G1 X51.75683 Y118.23064 Z.24 E.10557
G1 X49.67077 Y116.14458 Z.24 E.10558
G1 X49.16203 Y115.40545 E0.03211
G1 X48.82831 Y114.52911 E.03356
G1 X48.72762 Y113.83637 E0.02505
G1 X48.72762 Y109.60457 Z.24 E.15144
G1 X48.72762 Y105.37276 Z.24 E.15144
G1 X48.72762 Y101.14095 Z.24 E.15144
G1 X48.86373 Y100.34034 E0.02906
G1 X49.15807 Y99.60037 E.0285
G1 X49.6833 Y98.84289 E.03299
G1 X53.85354 Y94.67265 E0.21105
G1 X54.30245 Y94.35789 E.01962
M107
G1 X54.52938 Y94.68415 F360000
M107
G1 F2399.18872
G1 X54.74792 Y94.53214 E.00953
G1 X55.44828 Y94.24677 E.02706
G1 X56.17337 Y94.12609 E0.0263
G1 X60.41015 Y94.12739 Z.24 E.15162
G1 X64.64693 Y94.12869 Z.24 E.15162
G1 F2400
G1 X68.88372 Y94.12999 Z.24 E.15162
G1 F2399.66772
G1 X69.47713 Y94.22704 E.02152
G1 X70.09092 Y94.4484 E.02335
G1 X70.87489 Y94.96464 E0.03359
G1 X72.95229 Y97.04204 Z.24 E.10513
G1 X75.02968 Y99.11943 Z.24 E.10513
G1 X75.43546 Y99.68886 E0.02502
G1 X75.73311 Y100.37972 E.02692
G1 X75.87389 Y101.16773 E.02865
G1 X75.87389 Y105.39265 Z.24 E.15119
G1 X75.87389 Y109.61757 Z.24 E.15119
G1 X75.87389 Y113.84249 Z.24 E.15119
G1 X75.75816 Y114.53208 E0.02502
G1 X75.48012 Y115.23104 E.02692
G1 X75.02246 Y115.88779 E.02865
G1 X70.87595 Y120.0343 E0.20985
G1 X70.20068 Y120.49527 E.02926
G1 X69.40991 Y120.79083 E.03021
G1 X68.82238 Y120.87389 E0.02123
G1 X64.60075 Y120.87389 Z.24 E.15107
G1 X60.37913 Y120.87389 Z.24 E.15107
G1 X56.15751 Y120.87389 Z.24 E.15107
G1 X55.46792 Y120.75816 E0.02502
G1 X54.76896 Y120.48012 E.02692
G1 X54.11221 Y120.02246 E.02865
G1 X52.03895 Y117.9492 Z.24 E.10493
G1 X49.96569 Y115.87594 Z.24 E.10492
G1 X49.50472 Y115.20066 E.02926
G1 X49.20917 Y114.40989 E.03021
G1 X49.12612 Y113.82238 E0.02123
G1 X49.12612 Y109.60076 Z.24 E.15107
G1 X49.12612 Y105.37914 Z.24 E.15107
G1 X49.12612 Y101.15752 Z.24 E.15107
G1 X49.24183 Y100.46795 E0.02502
G1 X49.51987 Y99.76898 E.02692
G1 X49.97754 Y99.11221 E.02865
G1 X54.1228 Y94.96695 E0.20979
G1 X54.48013 Y94.71841 E.01558
M107
G1 X54.70545 Y95.04537 F360000
M107
G1 F2400
G1 X54.95573 Y94.87288 E0.01088
G1 F2399.56177
G1 X55.57601 Y94.62486 E.02391
G1 X56.18943 Y94.52459 E0.02224
G1 X60.41529 Y94.52589 Z.24 E.15123
G1 X64.64116 Y94.52718 Z.24 E.15123
G1 X68.86702 Y94.52848 Z.24 E.15123
G1 X69.39286 Y94.61696 E0.01908
G1 X69.93202 Y94.81457 E.02055
G1 X70.60733 Y95.26063 E0.02896
G1 X72.67162 Y97.32491 Z.24 E.10447
G1 F2400
G1 X74.73589 Y99.3892 Z.24 E.10447
G1 F2399.77173
G1 X75.09765 Y99.90132 E.02244
G1 X75.35737 Y100.51437 E.02383
G1 X75.47539 Y101.1851 E0.02437
G1 X75.47539 Y105.39857 Z.24 E.15078
G1 X75.47539 Y109.61203 Z.24 E.15078
G1 F2400
G1 X75.47539 Y113.8255 Z.24 E.15078
G1 F2399.83325
G1 X75.36906 Y114.44344 E.02244
G1 X75.11923 Y115.06057 E.02383
G1 X74.7284 Y115.61829 E0.02437
G1 X72.66801 Y117.67868 Z.24 E.10427
G1 X70.60762 Y119.73907 Z.24 E.10427
G1 X69.99716 Y120.15184 E0.02637
G1 X69.33179 Y120.39949 E.02541
G1 X68.80804 Y120.47539 E.01894
G1 X56.1745 Y120.47539 E0.4521
G1 X55.55656 Y120.36906 E.02244
G1 X54.93943 Y120.11923 E.02383
G1 X54.38171 Y119.7284 E0.02437
G1 X52.32132 Y117.66801 Z.24 E.10427
G1 X50.26093 Y115.60762 Z.24 E.10427
G1 X49.84814 Y114.99713 E0.02637
G1 X49.60051 Y114.33178 E.02541
G1 X49.52461 Y113.80803 E.01894
G1 X49.52461 Y101.17451 E0.4521
G1 X49.63094 Y100.55659 E.02244
G1 X49.88077 Y99.93945 E.02383
G1 X50.2716 Y99.38171 E0.02437
G1 X52.33167 Y97.32163 Z.24 E.10426
G1 F2400
G1 X54.39175 Y95.26156 Z.24 E.10426
G1 F2399.27881
G1 X54.65605 Y95.07941 E.01149
M107
G1 X54.87946 Y95.40715 F360000
M107
G1 F2400
G1 X55.16161 Y95.21482 E0.01222
G1 F2399.4126
G1 X55.70128 Y95.00376 E.02074
G1 X56.20517 Y94.92309 E0.01826
