; generated by SuperSlicer 2.5.59.9 on 2024-05-18 at 18:05:36 UTC


;
;

;
;

;
;

;
;

;
;
; 

; external perimeters extrusion width = 0.42mm
; perimeters extrusion width = 0.42mm
; infill extrusion width = 0.42mm
; solid infill extrusion width = 0.42mm
; top infill extrusion width = 0.42mm
; first layer extrusion width = 0.42mm

; external perimeters extrusion width = 0.42mm
; perimeters extrusion width = 0.42mm
; infill extrusion width = 0.42mm
; solid infill extrusion width = 0.42mm
; top infill extrusion width = 0.42mm
; first layer extrusion width = 0.42mm

; object:{"name":"pcb_din_clip_x3","id":"pcb_din_clip_x3.stl id:0 copy 0","object_center":[144.673103,185.063030,0.000000],"boundingbox_center":[144.673103,185.063030,5.000000],"boundingbox_size":[17.599976,62.000000,10.000000]}
EXCLUDE_OBJECT_DEFINE NAME=pcb_din_clip_x3_stl_id_0_copy_0 CENTER=144.673103,185.063030 POLYGON=[[135.87,163.46],[137.07,162.26],[146.47,154.06],[149.32,154.06],[149.92,154.66],[151.07,155.81],[153.47,174.56],[153.47,215.66],[153.07,216.06],[146.47,216.06],[143.47,213.06],[137.87,205.06],[135.87,166.85],[135.87,163.46]]
; object:{"name":"PiZeroDIN2","id":"PiZeroDIN2 id:1 copy 0","object_center":[54.670713,58.151540,0.000000],"boundingbox_center":[54.670713,58.151540,3.500000],"boundingbox_size":[65.000000,30.000000,7.000000]}
EXCLUDE_OBJECT_DEFINE NAME=PiZeroDIN2_id_1_copy_0 CENTER=54.670713,58.151540 POLYGON=[[22.17,46.65],[22.18,46.39],[22.18,46.39],[22.21,46.13],[22.21,46.13],[22.26,45.87],[22.26,45.87],[22.33,45.62],[22.33,45.62],[22.41,45.37],[22.41,45.37],[22.52,45.13],[22.52,45.13],[22.64,44.90],[22.64,44.90],[22.78,44.68],[22.78,44.68],[22.93,44.47],[22.93,44.47],[23.10,44.27],[23.11,44.27],[23.29,44.09],[23.29,44.09],[23.49,43.92],[23.49,43.92],[23.70,43.76],[23.70,43.76],[23.92,43.62],[23.92,43.62],[24.15,43.50],[24.15,43.50],[24.39,43.39],[24.39,43.39],[24.64,43.31],[24.64,43.31],[24.89,43.24],[24.89,43.24],[25.15,43.19],[25.15,43.19],[25.41,43.16],[25.41,43.16],[25.67,43.15],[25.67,43.15],[83.67,43.15],[83.91,43.16],[83.93,43.16],[84.17,43.19],[84.19,43.19],[84.43,43.23],[84.45,43.24],[84.68,43.30],[84.70,43.31],[84.92,43.38],[84.95,43.39],[85.16,43.49],[85.19,43.50],[85.39,43.61],[85.42,43.62],[85.62,43.74],[85.64,43.76],[85.83,43.89],[85.85,43.92],[86.03,44.06],[86.05,44.09],[86.21,44.24],[86.24,44.27],[86.38,44.44],[86.41,44.47],[86.54,44.65],[86.56,44.68],[86.68,44.87],[86.70,44.90],[86.81,45.10],[86.82,45.13],[86.91,45.33],[86.93,45.37],[87.00,45.58],[87.02,45.62],[87.07,45.83],[87.08,45.87],[87.12,46.08],[87.13,46.13],[87.16,46.34],[87.16,46.39],[87.17,46.60],[87.17,46.65],[87.17,69.65],[87.17,69.70],[87.16,69.91],[87.16,69.96],[87.13,70.17],[87.12,70.22],[87.08,70.43],[87.07,70.48],[87.02,70.68],[87.00,70.73],[86.93,70.93],[86.91,70.97],[86.82,71.17],[86.81,71.21],[86.70,71.40],[86.68,71.44],[86.56,71.62],[86.54,71.66],[86.41,71.83],[86.38,71.86],[86.24,72.03],[86.21,72.06],[86.05,72.22],[86.03,72.24],[85.85,72.39],[85.83,72.41],[85.64,72.54],[85.62,72.56],[85.42,72.68],[85.39,72.70],[85.19,72.80],[85.16,72.82],[84.95,72.91],[84.92,72.92],[84.70,73.00],[84.68,73.00],[84.45,73.06],[84.43,73.07],[84.19,73.11],[84.17,73.12],[83.93,73.14],[83.91,73.14],[83.67,73.15],[25.67,73.15],[25.41,73.14],[25.41,73.14],[25.15,73.11],[25.15,73.11],[24.89,73.06],[24.89,73.06],[24.64,73.00],[24.64,73.00],[24.39,72.91],[24.39,72.91],[24.15,72.80],[24.15,72.80],[23.92,72.68],[23.92,72.68],[23.70,72.54],[23.70,72.54],[23.49,72.39],[23.49,72.39],[23.29,72.22],[23.29,72.22],[23.11,72.03],[23.10,72.03],[22.93,71.83],[22.93,71.83],[22.78,71.62],[22.78,71.62],[22.64,71.40],[22.64,71.40],[22.52,71.17],[22.52,71.17],[22.41,70.93],[22.41,70.93],[22.33,70.68],[22.33,70.68],[22.26,70.43],[22.26,70.43],[22.21,70.17],[22.21,70.17],[22.18,69.91],[22.18,69.91],[22.17,69.65],[22.17,46.65]]
; plater:{"center":[87.821902,129.607285,0.000000],"boundingbox_center":[87.821902,129.607285,5.000000],"boundingbox_size":[131.302377,172.911490,10.000000]}

M73 P0 R46
M107
;TYPE:Custom
CALCULATE_PA MATERIAL=PLA BOWDEN_LENGTH=6 LAYER_HEIGHT=0.24 NOZZLE_SIZE=0.4 PRINT_SPEED=0
START_PRINT EXTRUDER=210 BED=60
SET_VELOCITY_LIMIT ACCEL=500


M107
G21 ; set units to millimeters
G90 ; use absolute coordinates
M83 ; use relative distances for extrusion
ACTIVATE_EXTRUDER EXTRUDER=extruder
; Filament gcode
M104 S210 T0 ; set temperature
M109 S210 T0 ; set temperature and wait for it to be reached
M190 S60 ; set bed temperature and wait for it to be reached
;LAYER_CHANGE
;Z:0.24
;HEIGHT:0.24
;BEFORE_LAYER_CHANGE
G92 E0.0

G1 E-0.4 F3600
M73 P0 R45
G1 Z0.16 F300000
G1 Z0.24
;AFTER_LAYER_CHANGE
;0.24
SET_VELOCITY_LIMIT ACCEL=3000


CALCULATE_PA MATERIAL=PLA BOWDEN_LENGTH=6.0 LAYER_HEIGHT=0.2 NOZZLE_SIZE=0.4 PRINT_SPEED=80


G92 E0
G1 Z0.4
; printing object pcb_din_clip_x3.stl id:0 copy 0
EXCLUDE_OBJECT_START NAME=pcb_din_clip_x3_stl_id_0_copy_0
G1 X137.32178 Y162.86341
G1 Z0.24
G1 E0.4 F3600
;TYPE:External perimeter
;WIDTH:0.640742
M107
G1 F1800
G1 X136.7871 Y163.40224 E0.04017
M107
G1 E-0.4 F3600
G1 X139.08309 Y167.64291 F300000
G1 E0.4 F3600
;WIDTH:0.419999
M107
G1 F1800
G1 X139.08309 Y166.95727 E0.02269
G1 X139.12449 Y166.8409 E0.00409
G1 X139.26734 Y166.77302 E0.00523
G1 X148.26521 Y166.77302 E0.29775
G1 X148.39548 Y166.82697 E0.00467
G1 X149.1576 Y167.58891 E0.03566
G1 X149.21158 Y167.71916 E0.00467
G1 X149.21293 Y173.24225 E0.18277
G1 X149.16848 Y173.36231 E0.00424
G1 X148.97546 Y173.46378 E0.00722
G1 X148.01479 Y173.86183 E0.03441
G1 X147.88481 Y173.86601 E0.0043
G1 X147.47415 Y173.48207 E0.0186
G1 X143.81205 Y169.81997 E0.17138
G1 X143.75809 Y169.68969 E0.00467
G1 X143.75809 Y168.766 E0.03057
G1 X143.04513 Y168.05304 E0.03337
G1 X141.67607 Y168.05304 E0.0453
G1 X140.96311 Y168.766 E0.03337
G1 X140.96311 Y171.86007 E0.10239
G1 X143.90915 Y174.8061 E0.13787
G1 X143.96311 Y174.93639 E0.00467
G1 X143.96311 Y194.18969 E0.63712
G1 X143.90915 Y194.31997 E0.00467
G1 X140.96311 Y197.266 E0.13787
G1 X140.96311 Y202.3688 E0.16886
G1 X140.91791 Y202.48969 E0.00427
G1 X140.77887 Y202.55304 E0.00506
G1 X139.06734 Y202.55304 E0.05664
G1 X138.95712 Y202.48025 E0.00437
M107
;WIDTH:0.499107
M107
G1 X138.8469 Y202.40747 E0.00531
G1 X138.84522 Y201.80918 E0.02405
G1 X138.40098 Y201.43642 E0.02331
G1 X138.40098 Y202.3688 E0.03748
G1 X138.38205 Y202.81303 E0.01787
M107
;WIDTH:0.419999
M107
G1 X138.36311 Y203.25727 E0.01471
G1 X138.36312 Y204.86007 E0.05304
G1 X139.07608 Y205.57303 E0.03337
G1 X143.09976 Y205.57303 E0.13315
G1 X143.23004 Y205.62699 E0.00467
G1 X143.90915 Y206.3061 E0.03178
G1 X143.96311 Y206.43639 E0.00467
G1 X143.96311 Y212.86007 E0.21257
G1 X145.07608 Y213.97303 E0.05209
G1 X152.6442 Y213.97303 E0.25044
G1 X152.9831 Y213.49377 E0.01942
G1 X152.98309 Y174.766 E1.28157
G1 X150.63706 Y172.41996 E0.10979
G1 X150.58309 Y172.28968 E0.00467
G1 X150.58309 Y156.01747 E0.53848
G1 X149.71867 Y155.15304 E0.04045
G1 X146.07608 Y155.15304 E0.12054
G1 X143.96311 Y157.266 E0.09888
G1 X143.96311 Y163.43969 E0.2043
G1 X143.90915 Y163.56997 E0.00467
G1 X143.23004 Y164.24908 E0.03178
G1 X143.09976 Y164.30304 E0.00467
G1 X137.57634 Y164.30304 E0.18278
G1 X137.44606 Y164.24908 E0.00467
G1 X136.9004 Y163.7034 E0.02554
G1 X136.86803 Y163.61736 E0.00304
M107
;WIDTH:0.514416
M107
G1 X136.83566 Y163.53131 E0.00382
M107
;WIDTH:0.589949
M107
G1 X136.80328 Y163.44527 E0.00445
M107
;WIDTH:0.646598
M107
G1 X136.7871 Y163.40224 E0.00246
G1 X136.72653 Y163.43992 E0.00381
M107
;WIDTH:0.608832
M107
G1 X136.66596 Y163.4776 E0.00357
M107
;WIDTH:0.571065
M107
G1 X136.60539 Y163.51528 E0.00333
M107
;WIDTH:0.533299
M107
G1 X136.54482 Y163.55296 E0.00309
M107
;WIDTH:0.495532
M107
G1 X136.48425 Y163.59064 E0.00284
M107
;WIDTH:0.457766
M107
G1 X136.42369 Y163.62832 E0.0026
M107
;WIDTH:0.419999
M107
G1 X136.36312 Y163.666 E0.00236
M107
M107
G1 X136.36312 Y166.64291 E0.09851
G1 X137.54323 Y167.82303 E0.05523
G1 X138.90297 Y167.82303 E0.045
G1 X139.04067 Y167.68533 E0.00644
M107
;WIPE_START
G1 X138.80025 Y167.36006 F300000
;WIPE_END
G1 X138.7146 Y167.45453
;TYPE:Internal perimeter
M107
G1 F1799.14929
G1 X138.72418 Y166.85483 E.01985
G1 X138.8388 Y166.60816 E0.009
G1 X139.01872 Y166.46359 E.00764
G1 X139.26733 Y166.40453 E.00846
G1 X148.26521 Y166.40453 E0.29775
M73 P1 R45
G1 X148.537 Y166.47597 E.0093
G1 F1798.38477
G1 X148.65601 Y166.56638 E.00495
G1 X149.41813 Y167.32831 E0.03566
G1 X149.46382 Y167.40646 E.003
M107
;WIDTH:0.453253
M107
G1 F1651.94971
G1 X149.50951 Y167.4846 E.00327
M107
;WIDTH:0.486506
M107
G1 F1528.22876
G1 X149.55521 Y167.56276 E.00354
M107
;WIDTH:0.519759
M107
G1 F1421.4624
G1 X149.60089 Y167.64091 E.00381
M107
;WIDTH:0.553012
M107
G1 F1328.6394
G1 X149.64658 Y167.71906 E.00408
G1 F1331.47949
G1 X149.64742 Y172.28973 E.20585
G1 F1332.58179
G1 X149.63422 Y172.43379 E.00651
M107
;WIDTH:0.519342
M107
G1 F1424.19678
G1 X149.621 Y172.57784 E.00608
M107
;WIDTH:0.486228
M107
G1 F1529.99451
G1 X149.60779 Y172.72189 E.00565
M107
;WIDTH:0.453114
M107
G1 F1652.64587
G1 X149.59457 Y172.86594 E.00522
M107
;WIDTH:0.419999
M107
G1 F1799.85645
G1 X149.58142 Y173.24216 E.01246
G1 X149.44808 Y173.60233 E0.01271
G1 X149.11652 Y173.80421 E.01285
G1 X148.15585 Y174.20226 E0.03441
G1 X147.87405 Y174.23988 E.00941
G1 X147.65895 Y174.16502 E.00754
G1 X147.21358 Y173.74263 E0.02031
G1 X145.38254 Y171.91159 Z.24 E.08569
G1 F1800
G1 X143.55148 Y170.08054 Z.24 E.08569
G1 F1799.40479
G1 X143.3979 Y169.78519 E.01102
G1 X143.3896 Y168.91864 E.02868
G1 X142.89249 Y168.42154 E0.02326
G1 X141.8287 Y168.42154 E.0352
G1 X141.33161 Y168.91864 E0.02326
G1 X141.3316 Y171.70743 E.09229
G1 X144.16971 Y174.54554 E0.13282
G1 X144.2928 Y174.73293 E.00742
G1 X144.33161 Y174.93639 E0.00685
G1 F1798.99084
G1 X144.3316 Y179.74971 Z.24 E.15928
G1 F1799.27917
G1 X144.3316 Y184.56305 Z.24 E.15928
G1 X144.3316 Y189.37637 Z.24 E.15928
G1 F1800
G1 X144.3316 Y194.1897 Z.24 E.15928
G1 F1799.48779
G1 X144.28954 Y194.40121 E.00714
G1 X144.16971 Y194.58054 E.00714
G1 X141.3316 Y197.41864 E.13282
G1 X141.33161 Y202.3688 E0.16381
G1 F1798.47449
G1 X141.29346 Y202.5706 E.0068
G1 X141.196 Y202.73146 E0.00622
G1 X141.01831 Y202.86697 E.0074
G1 F1799.65491
G1 X140.77887 Y202.92154 E.00813
G1 X139.06734 Y202.92154 E0.05664
G1 X138.73161 Y202.63959 E.01451
G1 X138.73161 Y204.70743 E.06843
G1 X139.22871 Y205.20453 E0.02326
G1 X143.09976 Y205.20453 E.1281
G1 X143.3633 Y205.27139 E.009
G1 X144.19437 Y206.07184 E.03818
G1 X144.31116 Y206.28745 E0.00811
G1 F1798.8374
G1 X144.3316 Y206.54582 E.00858
G1 F1799.95776
G1 X144.3316 Y209.62662 Z.24 E.10195
G1 X144.3316 Y212.70743 Z.24 E.10195
G1 X145.22871 Y213.60453 E0.04198
G1 X148.84109 Y213.60452 Z.24 E.11954
G1 F1800
G1 X152.45346 Y213.60454 Z.24 E.11954
G1 F1799.18445
G1 X152.61459 Y213.37665 E.00924
G1 X152.61459 Y174.91864 E1.27264
G1 X150.33209 Y172.62389 E.10711
M107
;WIDTH:0.454761
M107
G1 F1643.21948
G1 X150.28767 Y172.56726 E.00261
M107
;WIDTH:0.489523
M107
G1 F1517.36279
G1 X150.24327 Y172.51062 E.00283
M107
;WIDTH:0.524285
M107
G1 F1404.19055
G1 X150.19887 Y172.45398 E.00306
M107
;WIDTH:0.559046
M107
G1 F1311.14905
G1 X150.15446 Y172.39735 E.00328
G1 X150.14838 Y172.28967 E.00492
G1 F1314.90173
G1 X150.14809 Y167.71899 E.20832
G1 X150.16139 Y167.57487 E.0066
M107
;WIDTH:0.519759
M107
G1 F1422.61133
G1 X150.17468 Y167.43074 E.00609
M107
;WIDTH:0.486506
M107
G1 F1530.80444
G1 X150.188 Y167.28661 E.00565
M107
;WIDTH:0.453253
M107
G1 F1653.19507
G1 X150.20129 Y167.14249 E.00522
M107
;WIDTH:0.419999
M107
G1 F1799.94226
G1 X150.2146 Y166.99835 E.00479
G1 X150.2146 Y163.38893 Z.24 E.11944
G1 X150.2146 Y159.77953 Z.24 E.11944
G1 X150.2146 Y156.1701 Z.24 E.11944
G1 X149.56604 Y155.52153 E0.03035
G1 X146.22871 Y155.52153 E.11044
G1 X144.3316 Y157.41864 E.08878
G1 X144.34275 Y157.63605 E0.0072
M107
;WIDTH:0.449708
M107
G1 F1668.43774
G1 X144.3539 Y157.85345 E.00778
M107
;WIDTH:0.479417
M107
G1 F1555.5116
G1 X144.36504 Y158.07088 E.00837
M107
;WIDTH:0.509125
M107
G1 F1457.50439
G1 X144.37061 Y160.75528 Z.24 E.11032
G1 X144.37617 Y163.4397 Z.24 E.11031
G1 F1456.81238
G1 X144.37027 Y163.54343 E.00427
G1 F1454.25879
G1 X144.32013 Y163.6152 E.0036
M107
;WIDTH:0.483589
M107
G1 F1538.20886
G1 X144.26999 Y163.68698 E.0034
M107
;WIDTH:0.451794
M107
G1 F1658.24597
G1 X144.21985 Y163.75876 E.00315
M107
;WIDTH:0.419999
M107
G1 F1799.11523
G1 X144.16971 Y163.83054 E.0029
G1 X143.4906 Y164.50964 E0.03178
G1 F1798.62012
G1 X143.19527 Y164.66322 E.01102
G1 X143.09976 Y164.67154 E0.00317
G1 X140.33804 Y164.67154 Z.24 E.09139
G1 F1800
G1 X137.57634 Y164.67154 Z.24 E.09139
G1 F1799.93579
G1 X137.18549 Y164.50964 E.014
G1 X136.73161 Y164.05575 E0.02124
M107
M107
G1 X136.73161 Y166.49026 E.08056
G1 X137.69588 Y167.45453 E.04513
G1 X138.6546 Y167.45453 E.03173
M107
;WIPE_START
G1 F240000
G1 X137.69587 Y167.45453 E-0.01366
G1 X136.73161 Y166.49027 E-0.01943
G1 X136.73161 Y164.05575 E-0.03469
G1 X137.18549 Y164.50964 E-0.00915
G1 X137.57634 Y164.67154 E-0.00603
G1 X143.09976 Y164.67154 E-0.07871
G1 X143.19526 Y164.66323 E-0.00137
G1 X143.4906 Y164.50964 E-0.00474
G1 X144.16971 Y163.83053 E-0.01369
G1 X144.21985 Y163.75876 E-0.00125
G1 X144.26999 Y163.68698 E-0.00125
G1 X144.32013 Y163.61521 E-0.00125
G1 X144.37027 Y163.54343 E-0.00125
G1 X144.37617 Y163.43969 E-0.00148
G1 X144.36503 Y158.07087 E-0.07651
G1 X144.35389 Y157.85346 E-0.0031
G1 X144.34275 Y157.63605 E-0.0031
G1 X144.33161 Y157.41864 E-0.0031
G1 X146.22871 Y155.52153 E-0.03823
G1 X149.56604 Y155.52153 E-0.04756
G1 X150.2146 Y156.17011 E-0.01307
G1 X150.2146 Y156.68883 E-0.00739
;WIPE_END
G1 E-0.02 F3600
G1 X145.4311 Y164.78927 F300000
G1 E0.4 F3600
;TYPE:External perimeter
M107
G1 F1800
G1 X145.33172 Y164.76017 E0.00343
G1 X145.2596 Y164.67236 E0.00376
G1 X145.24685 Y164.60502 E0.00227
G1 X145.24685 Y158.28828 E0.20903
G1 X145.30885 Y158.14996 E0.00502
G1 X146.56805 Y156.89076 E0.05893
G1 X146.69833 Y156.83679 E0.00467
G1 X148.51508 Y156.83679 E0.06012
G1 X148.67624 Y156.93174 E0.00619
G1 X148.69933 Y157.02104 E0.00305
G1 X148.69933 Y164.60502 E0.25097
G1 X148.67216 Y164.70132 E0.00331
G1 X148.56995 Y164.78091 E0.00429
G1 X148.26521 Y164.78927 E0.01009
G1 X145.4911 Y164.78927 E0.0918
M107
;WIPE_START
G1 X145.16931 Y165.0917 F300000
;WIPE_END
G1 X145.33172 Y165.12867
;TYPE:Internal perimeter
M107
G1 F1800
G1 X145.13296 Y165.07047 E0.00685
G1 F1799.03394
G1 X144.9166 Y164.80705 E.01128
G1 X144.87836 Y164.60502 E0.0068
M107
M107
G1 X144.86642 Y164.34964 E.00846
M107
;WIDTH:0.451794
M107
G1 F1660.09363
G1 X144.85451 Y164.09425 E.00919
M107
;WIDTH:0.483589
M107
G1 F1543.11523
G1 X144.84259 Y163.83888 E.00992
M107
;WIDTH:0.515384
M107
G1 F1439.24731
G1 X144.8382 Y161.06358 Z.24 E.11561
G1 F1437.49133
G1 X144.83379 Y158.28828 Z.24 E.11561
G1 F1435.71741
G1 X144.88742 Y158.18855 E.00472
M107
;WIDTH:0.479417
M107
G1 F1555.32861
G1 X144.94104 Y158.08884 E.00435
M107
;WIDTH:0.449708
M107
G1 F1667.92688
G1 X144.99466 Y157.98911 E.00405
M107
;WIDTH:0.419999
M107
G1 F1799.29492
G1 X145.04829 Y157.88939 E.00375
G1 X146.30749 Y156.63019 E0.05893
G1 X146.60283 Y156.47661 E.01102
G1 X148.51508 Y156.4683 E0.06328
G1 X148.90593 Y156.63019 E.014
G1 X148.99857 Y156.75315 E0.00509
G1 F1798.5426
G1 X149.06783 Y157.02104 E.00916
G1 F1799.8092
G1 X149.06783 Y160.81303 Z.24 E.12549
G1 X149.06783 Y164.60503 Z.24 E.12548
G1 X148.98631 Y164.89393 E0.00993
G1 X148.80083 Y165.07817 E.00865
G1 X148.51508 Y165.15776 E.00982
G1 X145.43111 Y165.15776 E.10205
G1 X145.3893 Y165.14553 E0.00144
M107
G1 E-0.4 F3600
G1 X144.75143 Y157.59253 F300000
G1 E0.4 F3600
;WIDTH:0.52265
M107
G1 F1421.60474
G1 X146.01064 Y156.33334 E.07534
G1 F1438.46753
G1 X146.09489 Y156.2691 E.00448
M107
;WIDTH:0.558073
M107
G1 F1338.66943
G1 X146.17915 Y156.20488 E.00482
M107
;WIDTH:0.593497
M107
G1 F1251.06738
G1 X146.26341 Y156.14066 E.00516
M107
;WIDTH:0.628922
M107
G1 F1175.38184
G1 X146.34769 Y156.07643 E.00549
M107
;WIDTH:0.664346
M107
G1 F1105.68909
G1 X146.43195 Y156.01221 E.00583
G1 F1103.67358
G1 X146.56514 Y156.00356 E.00735
M107
;WIDTH:0.629772
M107
G1 F1158.56897
G1 X148.51508 Y155.9949 E.10126
M107
