; generated by SuperSlicer 2.5.59.10 on 2024-06-05 at 20:38:38 UTC


;
;

;
;
; 

; external perimeters extrusion width = 0.48mm
; perimeters extrusion width = 0.48mm
; infill extrusion width = 0.48mm
; solid infill extrusion width = 0.48mm
; top infill extrusion width = 0.48mm
; support material extrusion width = 0.42mm
; first layer extrusion width = 0.48mm

; object:{"name":"Califlower v29","id":"Califlower v29.stl id:0 copy 0","object_center":[90.000000,92.500000,0.000000],"boundingbox_center":[90.000000,92.500000,2.500000],"boundingbox_size":[112.000000,112.000000,5.000000]}
EXCLUDE_OBJECT_DEFINE NAME=Califlower_v29_stl_id_0_copy_0 CENTER=90.000000,92.500000 POLYGON=[[34.00,84.50],[34.03,84.15],[34.12,83.82],[40.27,68.75],[40.48,68.38],[52.81,50.54],[53.09,50.22],[55.14,48.17],[55.43,47.91],[55.76,47.69],[56.11,47.52],[66.25,42.77],[81.32,36.62],[81.65,36.53],[82.00,36.50],[92.00,36.50],[112.50,37.50],[112.93,37.53],[113.35,37.62],[113.75,37.77],[114.12,37.98],[114.46,38.23],[132.28,55.59],[134.33,57.64],[134.59,57.93],[134.81,58.26],[134.98,58.61],[139.73,68.75],[145.88,83.82],[145.97,84.15],[146.00,84.50],[146.00,94.50],[145.00,115.00],[144.97,115.43],[144.88,115.85],[144.73,116.25],[144.52,116.62],[144.27,116.96],[134.33,127.36],[132.28,129.41],[114.46,146.77],[114.12,147.02],[113.75,147.23],[113.35,147.38],[112.93,147.47],[112.50,147.50],[92.00,148.50],[82.00,148.50],[81.65,148.47],[81.32,148.38],[66.25,142.23],[56.11,137.48],[55.76,137.31],[55.43,137.09],[55.14,136.83],[53.09,134.78],[35.73,116.96],[35.48,116.62],[35.27,116.25],[35.12,115.85],[35.03,115.43],[35.00,115.00],[34.00,94.50],[34.00,84.50]]
; plater:{"center":[90.000000,92.500000,0.000000],"boundingbox_center":[90.000000,92.500000,2.500000],"boundingbox_size":[112.000000,112.000000,5.000000]}

M107
;TYPE:Custom
START_PRINT EXTRUDER=250 BED=100
M107
G21 ; set units to millimeters
G90 ; use absolute coordinates
M83 ; use relative distances for extrusion
ACTIVATE_EXTRUDER EXTRUDER=extruder
; Filament gcode
FILAMENT_START MATERIAL=ASA COLOR=#368900 VENDOR=123-3D
SET_PRESSURE_ADVANCE ADVANCE=0.062
M104 S250 T0 ; set temperature
M109 S250 T0 ; set temperature and wait for it to be reached
M190 S100 ; set bed temperature and wait for it to be reached
;LAYER_CHANGE
;Z:0.24
;HEIGHT:0.24
G1 E-1 F3600
G1 Z0.24 F60000
G92 E0
; printing object Califlower v29.stl id:0 copy 0
EXCLUDE_OBJECT_START NAME=Califlower_v29_stl_id_0_copy_0
M204 S750
G1 X54.503 Y130.238
G1 E1 F3600
;TYPE:External perimeter
;WIDTH:0.479999
M107
G1 F2400
G1 X53.651 Y131.091 E0.04742
G1 X53.3 Y131.556 E0.0229
G1 X53.108 Y131.968 E0.01791
G1 X53.007 Y132.551 E0.02327
G1 X53.026 Y133.025 E0.01866
G1 X53.19 Y133.554 E0.02176
G1 X53.421 Y133.968 E0.01868
G1 X53.698 Y134.284 E0.01651
G1 X55.684 Y136.27 E0.1105
G1 X56.117 Y136.601 E0.02143
G1 X56.588 Y136.821 E0.02043
G1 X57.199 Y136.92 E0.02438
G1 X65.071 Y136.926 E0.30961
G1 X65.216 Y136.983 E0.00616
G1 X65.285 Y137.14 E0.00673
G1 X65.288 Y139.533 E0.09414
G1 X65.356 Y140.025 E0.01956
G1 X65.522 Y140.495 E0.01958
G1 X65.815 Y140.925 E0.02049
G1 X66.212 Y141.301 E0.02149
G1 X66.785 Y141.594 E0.02531
G1 X67.325 Y141.701 E0.02167
G1 X68.257 Y141.715 E0.03666
G1 X88.071 Y141.715 E0.77936
G1 X88.232 Y141.788 E0.00698
G1 X88.285 Y141.929 E0.00592
G1 X88.285 Y144.071 E0.08424
G1 X88.221 Y144.223 E0.00651
G1 X88.071 Y144.285 E0.00639
G1 X80.785 Y144.285 E0.28658
G1 X80.785 Y146.489 E0.08671
G1 X80.862 Y146.862 E0.01497
G1 X80.951 Y147.106 E0.0102
G1 X81.221 Y147.428 E0.01655
G1 X81.586 Y147.638 E0.01655
G1 X82.138 Y147.715 E0.02195
G1 X91.675 Y147.715 E0.37512
G1 X92.612 Y146.778 E0.05214
G1 X92.764 Y146.715 E0.00645
G1 X112.49 Y146.715 E0.77596
G1 X112.993 Y146.652 E0.01993
G1 X113.495 Y146.478 E0.02088
G1 X113.925 Y146.185 E0.02049
G1 X114.301 Y145.788 E0.02149
G1 X114.55 Y145.318 E0.02092
G1 X114.679 Y144.882 E0.01787
G1 X114.715 Y143.735 E0.04514
G1 X114.715 Y137.474 E0.24628
G1 X114.778 Y137.323 E0.00645
G1 X130.624 Y121.477 E0.88148
G1 X130.761 Y121.415 E0.00592
G1 X130.92 Y121.471 E0.00666
G1 X130.989 Y121.628 E0.00674
G1 X130.996 Y124.651 E0.1189
G1 X130.933 Y124.802 E0.00645
G1 X127.738 Y127.997 E0.17771
G1 X128.591 Y128.849 E0.04742
G1 X129.056 Y129.2 E0.0229
G1 X129.468 Y129.392 E0.01791
G1 X130.051 Y129.493 E0.02327
G1 X130.525 Y129.474 E0.01866
G1 X131.023 Y129.324 E0.02046
G1 X131.469 Y129.078 E0.02004
G1 X131.784 Y128.802 E0.01645
G1 X133.77 Y126.816 E0.1105
G1 X134.101 Y126.383 E0.02143
G1 X134.321 Y125.912 E0.02043
G1 X134.42 Y125.301 E0.02438
G1 X134.426 Y117.429 E0.30962
G1 X134.481 Y117.285 E0.00608
G1 X134.64 Y117.215 E0.00681
G1 X141.99 Y117.215 E0.28913
G1 X142.503 Y117.147 E0.02033
G1 X142.994 Y116.978 E0.02044
G1 X143.413 Y116.693 E0.01992
G1 X143.8 Y116.289 E0.02203
G1 X144.05 Y115.818 E0.02096
G1 X144.179 Y115.382 E0.01787
G1 X144.215 Y114.235 E0.04514
G1 X144.215 Y95.264 E0.74625
G1 X144.278 Y95.112 E0.00645
G1 X145.215 Y94.175 E0.05214
G1 X145.215 Y84.511 E0.38014
G1 X145.138 Y84.138 E0.01497
G1 X145.049 Y83.894 E0.0102
G1 X144.779 Y83.572 E0.01655
G1 X144.414 Y83.362 E0.01655
G1 X143.862 Y83.285 E0.02195
G1 X141.785 Y83.285 E0.08169
G1 X141.785 Y90.571 E0.28658
G1 X141.723 Y90.721 E0.00639
G1 X141.571 Y90.785 E0.00651
G1 X139.429 Y90.785 E0.08424
G1 X139.258 Y90.699 E0.00754
G1 X139.215 Y90.571 E0.00533
G1 X139.215 Y70.01 E0.80878
G1 X139.147 Y69.497 E0.02033
G1 X138.978 Y69.006 E0.02044
G1 X138.693 Y68.587 E0.01992
G1 X138.289 Y68.2 E0.02203
G1 X137.821 Y67.951 E0.02085
G1 X137.342 Y67.812 E0.01959
G1 X136.265 Y67.787 E0.04239
G1 X134.64 Y67.785 E0.06393
G1 X134.483 Y67.716 E0.00673
G1 X134.426 Y67.571 E0.00616
G1 X134.426 Y59.768 E0.30691
G1 X134.361 Y59.255 E0.02036
G1 X134.193 Y58.772 E0.0201
G1 X133.903 Y58.34 E0.02048
G1 X131.737 Y56.151 E0.12114
G1 X131.289 Y55.811 E0.02213
G1 X130.859 Y55.608 E0.01868
G1 X130.275 Y55.507 E0.0233
G1 X129.802 Y55.526 E0.01863
G1 X129.256 Y55.697 E0.02253
G1 X128.859 Y55.921 E0.01791
G1 X128.559 Y56.183 E0.01566
G1 X127.738 Y57.003 E0.04564
G1 X130.933 Y60.198 E0.17771
G1 X130.996 Y60.35 E0.00647
G1 X130.989 Y63.372 E0.11888
G1 X130.92 Y63.529 E0.00674
G1 X130.761 Y63.585 E0.00666
G1 X130.624 Y63.523 E0.00592
G1 X114.778 Y47.677 E0.88148
G1 X114.715 Y47.526 E0.00645
G1 X114.715 Y40.51 E0.27598
G1 X114.652 Y40.007 E0.01993
G1 X114.478 Y39.505 E0.02088
G1 X114.193 Y39.087 E0.0199
G1 X113.789 Y38.7 E0.02203
G1 X113.215 Y38.406 E0.02535
G1 X112.675 Y38.299 E0.02167
G1 X111.743 Y38.285 E0.03666
G1 X92.764 Y38.285 E0.74654
G1 X92.612 Y38.222 E0.00645
G1 X91.675 Y37.285 E0.05214
G1 X82.011 Y37.285 E0.38014
G1 X81.638 Y37.362 E0.01497
G1 X81.394 Y37.451 E0.0102
G1 X81.072 Y37.721 E0.01655
G1 X80.862 Y38.086 E0.01655
G1 X80.785 Y38.638 E0.02195
G1 X80.785 Y40.715 E0.08169
G1 X88.071 Y40.715 E0.28658
G1 X88.221 Y40.777 E0.00639
G1 X88.285 Y40.929 E0.00651
G1 X88.285 Y43.071 E0.08424
G1 X88.26 Y43.172 E0.00409
G1 X88.146 Y43.271 E0.00595
G1 X88.071 Y43.285 E0.00301
G1 X67.511 Y43.285 E0.80871
G1 X66.978 Y43.355 E0.02117
G1 X66.505 Y43.522 E0.01971
G1 X66.087 Y43.807 E0.0199
G1 X65.7 Y44.211 E0.02203
G1 X65.451 Y44.679 E0.02085
G1 X65.312 Y45.158 E0.01959
G1 X65.287 Y46.235 E0.04239
G1 X65.285 Y47.86 E0.06393
G1 X65.216 Y48.017 E0.00673
G1 X65.071 Y48.074 E0.00616
G1 X57.267 Y48.074 E0.30697
G1 X56.727 Y48.146 E0.02143
G1 X56.239 Y48.324 E0.02042
G1 X55.736 Y48.686 E0.02438
G1 X53.651 Y50.763 E0.11577
G1 X53.348 Y51.154 E0.01943
G1 X53.108 Y51.641 E0.02134
G1 X53.007 Y52.225 E0.02332
G1 X53.026 Y52.698 E0.01863
G1 X53.197 Y53.244 E0.02253
G1 X53.421 Y53.641 E0.01791
G1 X53.683 Y53.941 E0.01566
G1 X54.503 Y54.762 E0.04564
G1 X57.698 Y51.567 E0.17771
G1 X57.85 Y51.504 E0.00647
G1 X60.872 Y51.511 E0.11888
G1 X61.029 Y51.58 E0.00674
G1 X61.085 Y51.739 E0.00666
G1 X61.023 Y51.876 E0.00592
G1 X45.177 Y67.722 E0.88148
G1 X45.026 Y67.785 E0.00645
G1 X43.01 Y67.785 E0.07931
G1 X42.507 Y67.848 E0.01993
G1 X41.97 Y68.042 E0.02246
G1 X41.449 Y68.42 E0.02532
G1 X41.114 Y68.853 E0.02154
G1 X40.892 Y69.323 E0.02045
G1 X40.793 Y69.923 E0.02388
G1 X40.785 Y70.765 E0.03312
G1 X40.785 Y90.571 E0.77907
G1 X40.712 Y90.732 E0.00698
G1 X40.571 Y90.785 E0.00592
G1 X38.429 Y90.785 E0.08424
G1 X38.277 Y90.721 E0.00651
G1 X38.215 Y90.571 E0.00639
G1 X38.215 Y83.285 E0.28658
G1 X36.011 Y83.285 E0.08671
G1 X35.638 Y83.362 E0.01497
G1 X35.394 Y83.451 E0.0102
G1 X35.072 Y83.721 E0.01655
G1 X34.862 Y84.086 E0.01655
G1 X34.785 Y84.52 E0.01735
G1 X34.785 Y94.175 E0.37977
G1 X35.722 Y95.112 E0.05214
G1 X35.785 Y95.264 E0.00645
G1 X35.785 Y114.99 E0.77596
G1 X35.848 Y115.493 E0.01993
G1 X36.022 Y115.995 E0.02088
G1 X36.315 Y116.425 E0.02049
G1 X36.712 Y116.801 E0.02149
G1 X37.182 Y117.05 E0.02092
G1 X37.618 Y117.179 E0.01787
G1 X38.765 Y117.215 E0.04514
G1 X45.026 Y117.215 E0.24628
G1 X45.177 Y117.278 E0.00645
G1 X61.023 Y133.124 E0.88148
G1 X61.085 Y133.261 E0.00592
G1 X61.029 Y133.42 E0.00666
G1 X60.872 Y133.489 E0.00674
G1 X57.849 Y133.496 E0.1189
G1 X57.698 Y133.433 E0.00645
G1 X54.546 Y130.281 E0.17535
M107
;WIPE_START
M204 S1500
G1 X54.4 Y130.625 F60000
;WIPE_END
M204 S750
G1 X54.503 Y130.844
;TYPE:Internal perimeter
M107
G1 F2398.271
G1 X53.966 Y131.382 E.02991
G1 X53.623 Y131.848 E0.02274
G1 X53.451 Y132.369 E.02159
G1 F2399.643
G1 X53.45 Y132.955 E.02306
G1 F2398.472
G1 X53.623 Y133.479 E.02171
G1 X54.001 Y133.981 E0.02469
G1 X55.976 Y135.956 E.10985
G1 F2399.897
G1 X56.435 Y136.294 E.02242
G1 F2397.771
G1 X56.984 Y136.474 E.02275
G1 F2399.416
G1 X57.849 Y136.497 E.03405
G1 X65.071 Y136.497 E0.28405
G1 F2393.039
G1 X65.328 Y136.551 E.01035
G1 X65.508 Y136.669 E0.00845
G1 F2397.519
G1 X65.655 Y136.872 E.00986
G1 X65.713 Y137.139 E.01076
G1 X65.717 Y139.516 E0.09349
G1 X65.801 Y140.045 E.02109
G1 F2400
G1 X66.049 Y140.538 E.02171
G1 F2398.635
G1 X66.464 Y140.952 E.02306
G1 X66.92 Y141.186 E0.02014
G1 F2397.085
G1 X67.467 Y141.282 E.02186
G1 F2399.97
G1 X71.588 Y141.283 Z.24 E.16209
G1 X75.709 Y141.284 Z.24 E.16209
G1 X79.829 Y141.285 Z.24 E.16209
G1 X83.95 Y141.286 Z.24 E.16209
G1 X88.071 Y141.287 Z.24 E.16209
G1 X88.312 Y141.333 E0.00965
G1 F2398.111
G1 X88.555 Y141.507 E.01176
G1 X88.633 Y141.617 E0.0053
G1 F2395.088
G1 X88.713 Y141.929 E.01269
G1 X88.713 Y144.071 E0.08424
G1 F2393.776
G1 X88.644 Y144.361 E.01175
G1 F2397.909
G1 X88.522 Y144.529 E.00816
G1 X88.323 Y144.662 E0.00939
G1 F2390.447
G1 X88.071 Y144.713 E.01014
G1 F2399.761
G1 X84.642 Y144.713 Z.24 E.13486
G1 X81.213 Y144.713 Z.24 E.13486
G1 X81.213 Y146.471 E0.06912
G1 F2397.206
G1 X81.328 Y146.888 E.01703
G1 X81.501 Y147.095 E0.01061
G1 F2398.456
G1 X81.734 Y147.23 E.0106
G1 F2399.89
G1 X82.138 Y147.287 E.01605
G1 X86.818 Y147.287 Z.24 E.18407
G1 X91.497 Y147.287 Z.24 E.18407
G1 X92.309 Y146.475 E.04516
G1 X92.498 Y146.344 E.00904
G1 X92.764 Y146.287 E0.01069
G1 F2398.053
G1 X97.691 Y146.287 Z.24 E.19382
G1 X102.619 Y146.287 Z.24 E.19382
G1 F2399.166
G1 X107.547 Y146.287 Z.24 E.19382
G1 F2400
G1 X112.474 Y146.287 Z.24 E.19382
G1 F2398.628
G1 X113.045 Y146.199 E.02274
G1 F2399.992
G1 X113.538 Y145.951 E.02171
G1 X113.952 Y145.536 E0.02306
G1 F2397.458
G1 X114.199 Y145.045 E.02163
G1 X114.28 Y144.538 E0.02017
G1 X114.284 Y141.006 Z.24 E.13893
G1 F2400
G1 X114.287 Y137.474 Z.24 E.13893
G1 F2395.566
G1 X114.339 Y137.219 E.01025
G1 X114.475 Y137.02 E0.00947
G1 F2397.557
G1 X117.644 Y133.851 Z.24 E.1763
G1 F2398.1
G1 X120.813 Y130.682 Z.24 E.1763
G1 X123.983 Y127.512 Z.24 E.17629
G1 F2399.186
G1 X127.152 Y124.343 Z.24 E.1763
G1 F2400
G1 X130.321 Y121.174 Z.24 E.1763
G1 F2394.378
G1 X130.516 Y121.04 E.00932
G1 X130.732 Y120.987 E0.00873
G1 F2397.343
G1 X131.031 Y121.039 E.01194
G1 F2395.765
G1 X131.211 Y121.156 E.00846
G1 F2399.736
G1 X131.359 Y121.359 E.00988
G1 X131.418 Y121.627 E0.01079
G1 X131.424 Y124.651 E.11893
G1 F2398.063
G1 X131.361 Y124.928 E.01119
G1 F2397.219
G1 X131.236 Y125.105 E.00854
G1 X128.344 Y127.997 E0.16086
G1 F2398.063
G1 X128.882 Y128.534 E.02991
G1 X129.348 Y128.877 E0.02274
G1 X129.869 Y129.049 E.02159
G1 F2397.178
G1 X130.455 Y129.05 E.02306
G1 X130.946 Y128.892 E0.02025
G1 F2396.907
G1 X131.481 Y128.499 E.02612
G1 X133.456 Y126.524 E0.10985
G1 F2399.9
G1 X133.794 Y126.065 E.02242
G1 F2395.742
G1 X133.974 Y125.516 E.02275
G1 X133.997 Y124.986 E0.02084
G1 F2397.6
G1 X133.997 Y121.208 Z.24 E.14863
G1 F2400
G1 X133.997 Y117.429 Z.24 E.14863
G1 F2394.683
G1 X134.051 Y117.172 E.01035
G1 X134.165 Y116.997 E0.00821
G1 F2396.164
G1 X134.359 Y116.851 E.00956
G1 X134.64 Y116.787 E0.01133
G1 F2398.867
G1 X138.307 Y116.787 Z.24 E.14424
G1 F2399.688
G1 X141.974 Y116.787 Z.24 E.14424
G1 X142.468 Y116.714 E0.01964
G1 F2396.608
G1 X142.8 Y116.595 E.01389
G1 F2399.622
G1 X143.274 Y116.248 E.0231
G1 X143.594 Y115.801 E0.02161
G1 X143.755 Y115.312 E.02025
G1 X143.787 Y114.235 E.04239
G1 X143.787 Y109.492 Z.24 E.18656
G1 X143.787 Y104.749 Z.24 E.18656
G1 F2398.569
G1 X143.787 Y100.007 Z.24 E.18656
G1 F2397.711
G1 X143.787 Y95.264 Z.24 E.18656
G1 X143.844 Y94.998 E0.01069
G1 F2399.566
G1 X143.975 Y94.809 E.00904
G1 X144.787 Y93.997 E.04516
G1 X144.787 Y89.263 Z.24 E.18621
G1 F2400
G1 X144.787 Y84.529 Z.24 E.18621
G1 F2397.655
G1 X144.672 Y84.112 E.01703
G1 X144.499 Y83.905 E0.01061
G1 F2398.332
G1 X144.266 Y83.77 E.0106
G1 F2399.294
G1 X143.862 Y83.713 E.01605
G1 X142.213 Y83.713 E0.06483
G1 X142.213 Y87.142 Z.24 E.13486
G1 X142.213 Y90.571 Z.24 E.13486
G1 F2390.447
G1 X142.162 Y90.823 E.01014
G1 X142.029 Y91.022 E0.00939
G1 F2395.382
G1 X141.739 Y91.191 E.01321
G1 X139.429 Y91.213 E0.09086
G1 F2393.575
G1 X139.127 Y91.138 E.01226
G1 X138.915 Y90.956 E0.01097
G1 F2394.5
G1 X138.789 Y90.627 E.01388
G1 F2393.595
G1 X138.787 Y90.571 E.00221
G1 F2399.973
G1 X138.787 Y86.462 Z.24 E.16162
G1 X138.787 Y82.353 Z.24 E.16162
G1 X138.787 Y78.244 Z.24 E.16162
G1 X138.787 Y74.135 Z.24 E.16162
G1 X138.787 Y70.026 Z.24 E.16162
G1 X138.714 Y69.532 E0.01964
G1 F2396.629
G1 X138.595 Y69.2 E.01389
G1 F2399.599
G1 X138.248 Y68.726 E.0231
G1 X137.801 Y68.406 E0.02161
G1 F2396.165
G1 X137.276 Y68.237 E.02172
G1 X134.639 Y68.213 E0.10372
G1 F2397.423
G1 X134.372 Y68.155 E.01076
G1 F2398.806
G1 X134.169 Y68.008 E.00986
G1 X134.009 Y67.692 E0.01392
G1 X134.003 Y63.74 Z.24 E.15547
G1 F2400
G1 X133.997 Y59.787 Z.24 E.15548
G1 F2396.853
G1 X133.912 Y59.219 E.02261
G1 X133.649 Y58.701 E0.02283
G1 F2398.023
G1 X133.293 Y58.313 E.02072
G1 X131.445 Y56.466 E.10277
G1 X130.979 Y56.123 E0.02274
G1 X130.458 Y55.951 E.02159
G1 F2399.643
G1 X129.872 Y55.95 E.02306
G1 X129.348 Y56.123 E0.02171
G1 F2398.384
G1 X128.904 Y56.447 E.02163
G1 X128.344 Y57.003 E0.03102
G1 F2399.279
G1 X131.236 Y59.895 E.16086
G1 F2395.619
G1 X131.385 Y60.128 E.01089
G1 X131.424 Y60.351 E0.00889
G1 F2397.347
G1 X131.418 Y63.373 E.11888
G1 X131.359 Y63.641 E0.01079
G1 F2399.736
G1 X131.211 Y63.844 E.00988
G1 F2397.43
G1 X130.928 Y63.996 E.01265
G1 F2399.121
G1 X130.732 Y64.013 E.00774
G1 X130.406 Y63.898 E0.01359
G1 F2398.845
G1 X127.22 Y60.714 Z.24 E.17717
G1 F2399.101
G1 X124.034 Y57.531 Z.24 E.17717
G1 X120.847 Y54.347 Z.24 E.17717
G1 X117.661 Y51.164 Z.24 E.17717
G1 F2400
G1 X114.475 Y47.98 Z.24 E.17717
G1 F2397.217
G1 X114.29 Y47.593 E.01689
G1 X114.287 Y40.526 E0.27796
G1 F2396.875
G1 X114.199 Y39.955 E.02274
G1 X113.952 Y39.464 E0.02159
G1 F2398.221
G1 X113.538 Y39.049 E.02306
G1 X113.08 Y38.814 E0.02025
G1 X112.533 Y38.718 E.02186
G1 F2399.885
G1 X111.743 Y38.713 E.03108
G1 X106.998 Y38.713 Z.24 E.18663
G1 X102.253 Y38.713 Z.24 E.18663
G1 F2398.338
G1 X97.509 Y38.713 Z.24 E.18664
G1 F2397.342
G1 X92.764 Y38.713 Z.24 E.18663
G1 X92.498 Y38.656 E0.01069
G1 F2399.296
G1 X92.309 Y38.525 E.00904
G1 X91.497 Y37.713 E.04516
G1 X86.763 Y37.713 Z.24 E.18621
G1 F2400
G1 X82.029 Y37.713 Z.24 E.18621
G1 F2397.714
G1 X81.612 Y37.828 E.01703
G1 X81.405 Y38.001 E0.01061
G1 X81.27 Y38.234 E.0106
G1 F2399.417
G1 X81.213 Y38.638 E.01605
G1 X81.213 Y40.287 E0.06483
G1 X84.642 Y40.287 Z.24 E.13486
G1 F2400
G1 X88.071 Y40.287 Z.24 E.13486
G1 F2390.722
G1 X88.323 Y40.338 E.01014
G1 X88.522 Y40.471 E0.00939
G1 F2395.542
G1 X88.691 Y40.761 E.01321
G1 X88.713 Y43.071 E0.09086
G1 F2393.782
