; generated by SuperSlicer 2.5.59.9 on 2024-05-11 at 21:23:56 UTC


;
;

;
;

;
;

;
;

;
;
; 

; external perimeters extrusion width = 0.42mm
; perimeters extrusion width = 0.45mm
; infill extrusion width = 0.45mm
; solid infill extrusion width = 0.45mm
; top infill extrusion width = 0.42mm

; external perimeters extrusion width = 0.42mm
; perimeters extrusion width = 0.45mm
; infill extrusion width = 0.45mm
; solid infill extrusion width = 0.45mm
; top infill extrusion width = 0.42mm

; object:{"name":"Voron_Design_Cube_v7","id":"Voron_Design_Cube_v7 id:0 copy 0","object_center":[27.033716,24.230488,0.000000],"boundingbox_center":[27.033716,24.230488,10.000000],"boundingbox_size":[20.000000,20.000000,20.000000]}
EXCLUDE_OBJECT_DEFINE NAME=Voron_Design_Cube_v7_id_0_copy_0 CENTER=27.033716,24.230488 POLYGON=[[17.03,14.23],[37.03,14.23],[37.03,34.23],[17.03,34.23],[17.03,14.23]]
; object:{"name":"Voron_Design_Cube_v7","id":"Voron_Design_Cube_v7 id:1 copy 0","object_center":[27.150226,58.323825,0.000000],"boundingbox_center":[27.150226,58.323825,10.000000],"boundingbox_size":[20.000000,20.000000,20.000000]}
EXCLUDE_OBJECT_DEFINE NAME=Voron_Design_Cube_v7_id_1_copy_0 CENTER=27.150226,58.323825 POLYGON=[[17.15,48.32],[37.15,48.32],[37.15,68.32],[17.15,68.32],[17.15,48.32]]
; plater:{"center":[27.091971,41.277157,0.000000],"boundingbox_center":[27.091971,41.277157,10.000000],"boundingbox_size":[20.116510,54.093337,20.000000]}

M73 P0 R41
M107
;TYPE:Custom
CALCULATE_PA MATERIAL=ASA BOWDEN_LENGTH=6 LAYER_HEIGHT=0.25 NOZZLE_SIZE=0.4 PRINT_SPEED=95


START_PRINT EXTRUDER=275 BED=105

G21 ; set units to millimeters
G90 ; use absolute coordinates
M83 ; use relative distances for extrusion
ACTIVATE_EXTRUDER EXTRUDER=extruder
; Filament gcode
M104 S275 T0 ; set temperature
M109 S275 T0 ; set temperature and wait for it to be reached
M190 S105 ; set bed temperature and wait for it to be reached
;LAYER_CHANGE
;Z:0.24
;HEIGHT:0.24
;BEFORE_LAYER_CHANGE
G92 E0.0

G1 E-0.4 F4800
G1 Z0.16 F3600000
G1 Z0.24
;AFTER_LAYER_CHANGE
;0.24




CALCULATE_PA MATERIAL=ASA BOWDEN_LENGTH=6.0 LAYER_HEIGHT=0.2 NOZZLE_SIZE=0.4 PRINT_SPEED=95


G92 E0
G1 Z0.4
; printing object Voron_Design_Cube_v7 id:0 copy 0
EXCLUDE_OBJECT_START NAME=Voron_Design_Cube_v7_id_0_copy_0
G1 X36.42689 Y18.34299
G1 Z0.24
G1 E0.4 F4800
;TYPE:Internal perimeter
;WIDTH:0.449999
M106 S2.55
G1 F3000
G1 X32.92122 Y14.83732 E0.19713
G1 X21.14622 Y14.83732 E0.4682
G1 X17.64054 Y18.34299 E0.19713
G1 X17.64054 Y30.11799 E0.4682
G1 X21.14622 Y33.62366 E0.19713
G1 X32.92122 Y33.62366 E0.4682
G1 X36.42689 Y30.11799 E0.19713
G1 X36.42689 Y18.40299 E0.46581
M107
G1 X36.7386 Y18.11236 F3600000
;TYPE:External perimeter
;WIDTH:0.419999
M107
G1 F3000
G1 X33.08007 Y14.45382 E0.19024
G1 X20.98737 Y14.45382 E0.44463
G1 X17.25705 Y18.18414 E0.19397
G1 X17.25705 Y30.27684 E0.44463
G1 X20.98737 Y34.00716 E0.19397
G1 X33.08007 Y34.00716 E0.44463
G1 X36.81038 Y30.27684 E0.19397
G1 X36.81038 Y18.18414 E0.44463
G1 X36.78102 Y18.15478 E0.00153
M107
;WIPE_START
G1 X36.35223 Y18.21588 F3600000
;WIPE_END
G1 E-0.4 F4800
G1 X36.32293 Y18.24518 F3600000
G1 X28.74465 Y18.52077
G1 X28.73928 Y18.54222
G1 E0.4 F4800
;TYPE:Internal perimeter
;WIDTH:0.449999
M106 S2.55
G1 F3000
G1 X29.05922 Y18.63048 E0.0132
G1 X29.6137 Y18.86175 E0.02389
G1 X30.15463 Y19.15713 E0.02451
G1 X30.66336 Y19.50768 E0.02457
G1 X31.13304 Y19.90909 E0.02457
G1 X31.55857 Y20.35694 E0.02456
G1 X31.93542 Y20.84642 E0.02456
G1 X32.40759 Y21.66434 E0.03755
G1 X32.64011 Y22.21863 E0.0239
G1 X32.81788 Y22.80854 E0.0245
G1 X32.93403 Y23.4154 E0.02457
G1 X32.98754 Y24.35854 E0.03756
G1 X32.94179 Y24.98725 E0.02506
G1 X32.83166 Y25.59516 E0.02457
G1 X32.65913 Y26.1884 E0.02457
G1 X32.42602 Y26.76058 E0.02457
G1 X32.135 Y27.30547 E0.02456
G1 X31.7891 Y27.8173 E0.02456
G1 X31.39191 Y28.29065 E0.02457
G1 X30.94798 Y28.72022 E0.02456
G1 X30.46181 Y29.10155 E0.02457
G1 X29.93915 Y29.43025 E0.02455
G1 X29.10792 Y29.81304 E0.03639
G1 X28.50779 Y30.00168 E0.02501
G1 X27.90202 Y30.1233 E0.02457
G1 X27.28708 Y30.18156 E0.02456
G1 X26.66925 Y30.17581 E0.02457
G1 X26.05535 Y30.10605 E0.02457
G1 X25.45232 Y29.97321 E0.02455
G1 X24.59176 Y29.66229 E0.03638
G1 X24.03186 Y29.37523 E0.02502
G1 X23.55101 Y29.06044 E0.02285
G1 X23.03621 Y28.64636 E0.02627
G1 X22.60045 Y28.20866 E0.02456
G1 X22.11933 Y27.58127 E0.03144
G1 X21.72822 Y26.93822 E0.02993
G1 X21.47628 Y26.37408 E0.02457
G1 X21.28415 Y25.78692 E0.02456
G1 X21.15385 Y25.18293 E0.02457
G1 X21.08682 Y24.56882 E0.02456
G1 X21.08377 Y23.95097 E0.02457
G1 X21.14473 Y23.33619 E0.02456
G1 X21.26904 Y22.73098 E0.02457
G1 X21.45536 Y22.14194 E0.02456
G1 X21.70171 Y21.57535 E0.02457
G1 X22.00541 Y21.03736 E0.02456
G1 X22.57474 Y20.28358 E0.03756
G1 X22.99359 Y19.85355 E0.02387
G1 X23.46778 Y19.45934 E0.02452
G1 X23.98113 Y19.11565 E0.02456
G1 X24.52741 Y18.82697 E0.02457
G1 X25.10054 Y18.59644 E0.02456
G1 X25.69454 Y18.42651 E0.02457
G1 X26.3029 Y18.31901 E0.02456
G1 X26.91919 Y18.27512 E0.02457
G1 X27.53665 Y18.29529 E0.02456
G1 X28.14874 Y18.37932 E0.02457
G1 X28.68144 Y18.52627 E0.02197
M107
G1 X28.64026 Y18.91154 F3600000
;TYPE:External perimeter
;WIDTH:0.419999
M107
G1 F3000
G1 X28.95527 Y18.99962 E0.01203
G1 X29.46333 Y19.21453 E0.02028
G1 X29.96924 Y19.49283 E0.02123
G1 X30.4442 Y19.82238 E0.02126
G1 X30.88244 Y20.19938 E0.02126
G1 X31.27926 Y20.61972 E0.02125
G1 X31.6304 Y21.07887 E0.02125
G1 X32.07445 Y21.85431 E0.03286
G1 X32.28532 Y22.3642 E0.02029
G1 X32.45018 Y22.91745 E0.02123
G1 X32.55702 Y23.48562 E0.02126
G1 X32.60455 Y24.37824 E0.03287
G1 X32.55954 Y24.95643 E0.02132
G1 X32.45465 Y25.52494 E0.02126
G1 X32.29143 Y26.07948 E0.02125
G1 X32.07159 Y26.61413 E0.02126
G1 X31.79763 Y27.12313 E0.02125
G1 X31.47243 Y27.601 E0.02125
G1 X31.09936 Y28.04269 E0.02126
G1 X30.68266 Y28.44332 E0.02125
G1 X30.22663 Y28.79864 E0.02126
G1 X29.73659 Y29.10461 E0.02124
G1 X28.94934 Y29.46387 E0.03182
G1 X28.39555 Y29.63497 E0.02131
G1 X27.8284 Y29.74694 E0.02126
G1 X27.25279 Y29.7996 E0.02125
G1 X26.67472 Y29.79235 E0.02126
G1 X26.10053 Y29.72523 E0.02126
G1 X25.53667 Y29.59911 E0.02124
G1 X24.72397 Y29.3023 E0.03181
G1 X24.20938 Y29.0353 E0.02132
G1 X23.76276 Y28.7407 E0.01967
G1 X23.27995 Y28.35029 E0.02283
G1 X22.87356 Y27.93944 E0.02125
G1 X22.42506 Y27.34975 E0.02724
G1 X22.06124 Y26.74805 E0.02585
G1 X21.82721 Y26.21943 E0.02126
G1 X21.64921 Y25.66946 E0.02125
G1 X21.52912 Y25.10392 E0.02126
G1 X21.46825 Y24.52909 E0.02125
G1 X21.46726 Y23.95097 E0.02126
G1 X21.52616 Y23.37592 E0.02125
G1 X21.64431 Y22.80999 E0.02126
M73 P1 R41
G1 X21.82043 Y22.25941 E0.02125
G1 X22.05264 Y21.73 E0.02126
G1 X22.33843 Y21.22753 E0.02125
G1 X22.87952 Y20.51634 E0.03286
G1 X23.26624 Y20.12323 E0.02028
G1 X23.71152 Y19.75542 E0.02124
G1 X24.1929 Y19.43538 E0.02125
G1 X24.70491 Y19.16691 E0.02126
G1 X25.24189 Y18.95294 E0.02125
G1 X25.7982 Y18.79573 E0.02126
G1 X26.36776 Y18.69698 E0.02125
G1 X26.94454 Y18.65777 E0.02126
G1 X27.52223 Y18.67852 E0.02125
G1 X28.0947 Y18.75899 E0.02126
G1 X28.58248 Y18.89538 E0.01862
M107
;WIPE_START
G1 X28.92616 Y18.63178 F3600000
;WIPE_END
G1 E-0.4 F4800
G1 X28.94187 Y18.58535 F3600000
G1 X32.61493 Y14.96434
G1 E0.4 F4800
;TYPE:Solid infill
;WIDTH:0.430883
M106 S2.55
G1 F2400
G1 X36.12851 Y18.47792 E0.18918
G1 X36.12851 Y19.04148 E0.02146
G1 X32.22272 Y15.1357 E0.2103
G1 X31.65917 Y15.1357 E0.02146
G1 X36.12851 Y19.60504 E0.24064
G1 X36.12851 Y20.1686 E0.02146
G1 X31.09561 Y15.1357 E0.27099
G1 X30.53205 Y15.1357 E0.02146
G1 X36.12851 Y20.73215 E0.30133
G1 X36.12851 Y21.29571 E0.02146
G1 X29.9685 Y15.1357 E0.33167
G1 X29.40494 Y15.1357 E0.02146
G1 X36.12851 Y21.85927 E0.36202
G1 X36.12851 Y22.42282 E0.02146
G1 X28.84138 Y15.1357 E0.39236
G1 X28.27783 Y15.1357 E0.02146
G1 X36.12851 Y22.98638 E0.42271
G1 X36.12851 Y23.54994 E0.02146
G1 X27.71427 Y15.1357 E0.45305
G1 X27.15071 Y15.1357 E0.02146
G1 X36.12851 Y24.1135 E0.48339
G1 X36.12851 Y24.67705 E0.02146
G1 X26.58715 Y15.1357 E0.51374
G1 X26.0236 Y15.1357 E0.02146
G1 X29.28572 Y18.39782 E0.17564
G1 X28.4908 Y18.16645 E0.03152
G1 X25.46004 Y15.1357 E0.16319
G1 X24.89648 Y15.1357 E0.02146
G1 X27.79 Y18.02921 E0.1558
G1 X27.55648 Y17.99736 E0.00897
G1 X27.18259 Y17.98536 E0.01424
G1 X24.33293 Y15.1357 E0.15343
G1 X23.76937 Y15.1357 E0.02146
G1 X26.63043 Y17.99676 E0.15405
G1 X26.1181 Y18.04798 E0.0196
G1 X23.20581 Y15.1357 E0.15681
G1 X22.64225 Y15.1357 E0.02146
G1 X25.64134 Y18.13478 E0.16148
G1 X25.19931 Y18.25631 E0.01745
G1 X22.0787 Y15.1357 E0.16802
G1 X21.51514 Y15.1357 E0.02146
G1 X24.7829 Y18.40346 E0.17595
G1 X24.38446 Y18.56857 E0.01642
G1 X21.1107 Y15.29481 E0.17627
G1 X20.82892 Y15.57659 E0.01517
G1 X24.01243 Y18.7601 E0.17141
G1 X23.66107 Y18.9723 E0.01563
G1 X20.54714 Y15.85837 E0.16766
G1 X20.26536 Y16.14015 E0.01517
G1 X23.32236 Y19.19714 E0.1646
G1 X23.01161 Y19.44995 E0.01525
G1 X19.98358 Y16.42192 E0.16304
G1 X19.7018 Y16.7037 E0.01517
G1 X22.71378 Y19.71568 E0.16217
G1 X22.43188 Y19.99733 E0.01517
G1 X19.42003 Y16.98548 E0.16217
G1 X19.13825 Y17.26726 E0.01517
G1 X22.18392 Y20.31293 E0.16399
G1 X21.94003 Y20.63259 E0.01531
G1 X18.85647 Y17.54904 E0.16603
G1 X18.57469 Y17.83082 E0.01517
G1 X21.70554 Y20.96166 E0.16857
G1 X21.50246 Y21.32214 E0.01575
G1 X18.29291 Y18.11259 E0.17281
G1 X18.01113 Y18.39437 E0.01517
G1 X21.32067 Y21.70391 E0.1782
G1 X21.1551 Y22.10189 E0.01641
G1 X17.93892 Y18.88572 E0.17317
G1 X17.93892 Y19.44928 E0.02146
G1 X21.01998 Y22.53033 E0.16589
G1 X20.91226 Y22.98618 E0.01783
G1 X17.93892 Y20.01284 E0.16009
G1 X17.93892 Y20.57639 E0.02146
G1 X20.83096 Y23.46843 E0.15572
G1 X20.78838 Y23.9894 E0.0199
G1 X17.93892 Y21.13995 E0.15342
G1 X17.93892 Y21.70351 E0.02146
G1 X20.78877 Y24.55335 E0.15344
G1 X20.85214 Y25.18028 E0.02399
G1 X17.93892 Y22.26706 E0.15686
G1 X17.93892 Y22.83062 E0.02146
G1 X21.01124 Y25.90294 E0.16542
G1 X21.17388 Y26.41866 E0.02059
G1 X21.33512 Y26.79037 E0.01543
G1 X17.76757 Y23.22283 E0.19209
M107
G1 E-0.4 F4800
G1 X17.64489 Y23.22283 F3600000
G1 X24.00351 Y19.09562
G1 X24.55172 Y18.80937
G1 X25.12656 Y18.58144
G1 X25.72196 Y18.41429
G1 X26.33145 Y18.3097
G1 X26.94855 Y18.26882
G1 X27.56651 Y18.29207
G1 X28.17876 Y18.3792
G1 X28.76945 Y18.52698
G1 X29.10953 Y18.64211
G1 X29.64217 Y18.86916
G1 X30.18273 Y19.16768
G1 X30.69024 Y19.5211
G1 X31.15836 Y19.92521
G1 X31.58209 Y20.37559
G1 X31.95688 Y20.86741
G1 X32.2737 Y21.38716
G1 X32.43472 Y21.70685
G1 X32.54114 Y21.65324
G1 E0.4 F4800
M106 S2.55
G1 F2400
G1 X36.12851 Y25.24061 E0.19316
G1 X36.12851 Y25.80417 E0.02146
G1 X33.12206 Y22.79772 E0.16188
G1 X33.24115 Y23.48036 E0.02638
G1 X36.12851 Y26.36772 E0.15546
G1 X36.12851 Y26.93128 E0.02146
G1 X33.27171 Y24.07448 E0.15382
G1 X33.28638 Y24.35986 E0.01088
G1 X33.26532 Y24.63165 E0.01038
G1 X36.12851 Y27.49484 E0.15416
G1 X36.12851 Y28.05839 E0.02146
G1 X33.21818 Y25.14806 E0.1567
G1 X33.12731 Y25.62075 E0.01833
G1 X36.12851 Y28.62195 E0.16159
G1 X36.12851 Y29.18551 E0.02146
G1 X33.00557 Y26.06257 E0.16815
G1 X32.86266 Y26.48322 E0.01691
G1 X36.12851 Y29.74907 E0.17584
G1 X36.12851 Y29.9944 E0.00934
G1 X35.9694 Y30.15351 E0.00857
G1 X32.69598 Y26.88009 E0.17625
G1 X32.5021 Y27.24977 E0.01589
G1 X35.68762 Y30.43529 E0.17152
G1 X35.40584 Y30.71707 E0.01517
G1 X32.29438 Y27.60561 E0.16753
G1 X32.06397 Y27.93876 E0.01542
G1 X35.12406 Y30.99884 E0.16476
G1 X34.84228 Y31.28062 E0.01517
G1 X31.81417 Y28.25251 E0.16304
G1 X31.55228 Y28.55418 E0.01521
G1 X34.5605 Y31.5624 E0.16197
G1 X34.27872 Y31.84418 E0.01517
G1 X31.26292 Y28.82838 E0.16238
G1 X30.96138 Y29.09039 E0.01521
G1 X33.99695 Y32.12596 E0.16344
G1 X33.71517 Y32.40774 E0.01517
G1 X30.64256 Y29.33512 E0.16544
G1 X30.29863 Y29.55475 E0.01554
G1 X33.43339 Y32.68952 E0.16879
G1 X33.15161 Y32.97129 E0.01517
G1 X29.94218 Y29.76186 E0.17281
G1 X29.55463 Y29.93787 E0.01621
G1 X32.86983 Y33.25307 E0.1785
G1 X32.79762 Y33.32528 E0.00389
G1 X32.37848 Y33.32528 E0.01596
G1 X29.16123 Y30.10802 E0.17323
G1 X28.73075 Y30.24111 E0.01715
G1 X31.81493 Y33.32528 E0.16606
G1 X31.25137 Y33.32528 E0.02146
G1 X28.27954 Y30.35345 E0.16001
G1 X27.79563 Y30.4331 E0.01867
G1 X30.68781 Y33.32528 E0.15572
G1 X30.12426 Y33.32528 E0.02146
G1 X27.27827 Y30.47929 E0.15324
G1 X26.70719 Y30.47177 E0.02174
G1 X29.5607 Y33.32528 E0.15364
G1 X28.99714 Y33.32528 E0.02146
G1 X26.07821 Y30.40635 E0.15716
G1 X25.36165 Y30.25335 E0.0279
G1 X28.43358 Y33.32528 E0.1654
G1 X27.87003 Y33.32528 E0.02146
G1 X24.08789 Y29.54315 E0.20364
M107
G1 E-0.4 F4800
G1 X27.47782 Y33.49663 F3600000
G1 E0.4 F4800
M106 S2.55
G1 F2400
G1 X17.93892 Y23.95773 E0.5136
G1 X17.93892 Y24.52129 E0.02146
G1 X26.74291 Y33.32528 E0.47403
G1 X26.17936 Y33.32528 E0.02146
G1 X17.93892 Y25.08485 E0.44369
G1 X17.93892 Y25.64841 E0.02146
G1 X25.6158 Y33.32528 E0.41335
G1 X25.05224 Y33.32528 E0.02146
G1 X17.93892 Y26.21196 E0.383
G1 X17.93892 Y26.77552 E0.02146
G1 X24.48868 Y33.32528 E0.35266
G1 X23.92513 Y33.32528 E0.02146
G1 X17.93892 Y27.33908 E0.32232
G1 X17.93892 Y27.90263 E0.02146
G1 X23.36157 Y33.32528 E0.29197
G1 X22.79801 Y33.32528 E0.02146
G1 X17.93892 Y28.46619 E0.26163
G1 X17.93892 Y29.02975 E0.02146
G1 X22.23446 Y33.32528 E0.23129
G1 X21.6709 Y33.32528 E0.02146
G1 X17.76757 Y29.42195 E0.21017
M107
;WIPE_START
G1 F2880000
G1 X21.6709 Y33.32528 E-0.00874
G1 X22.23446 Y33.32528 E-0.00089
G1 X17.93892 Y29.02975 E-0.00962
G1 X17.93892 Y28.46619 E-0.00089
G1 X22.79801 Y33.32528 E-0.01088
G1 X23.36157 Y33.32528 E-0.00089
G1 X17.93892 Y27.90263 E-0.01214
G1 X17.93892 Y27.33908 E-0.00089
G1 X23.92513 Y33.32528 E-0.0134
G1 X24.48869 Y33.32528 E-0.00089
G1 X17.93892 Y26.77552 E-0.01467
G1 X17.93892 Y26.21196 E-0.00089
G1 X25.05224 Y33.32528 E-0.01593
G1 X25.6158 Y33.32528 E-0.00089
G1 X17.93892 Y25.64841 E-0.01719
G1 X17.93892 Y25.08485 E-0.00089
G1 X26.17936 Y33.32528 E-0.01845
G1 X26.74291 Y33.32528 E-0.00089
G1 X17.93892 Y24.52129 E-0.01971
G1 X17.93892 Y23.95773 E-0.00089
G1 X27.47782 Y33.49663 E-0.02136
;WIPE_END
G1 E-0.22898 F4800
G1 Z0.4 F3600000
; stop printing object Voron_Design_Cube_v7 id:0 copy 0
EXCLUDE_OBJECT_END NAME=Voron_Design_Cube_v7_id_0_copy_0
; printing object Voron_Design_Cube_v7 id:1 copy 0
EXCLUDE_OBJECT_START NAME=Voron_Design_Cube_v7_id_1_copy_0
G1 X36.85511 Y52.20569
G1 Z0.24
G1 E0.4 F4800
;TYPE:External perimeter
;WIDTH:0.419999
M107
G1 F3000
G1 X33.19658 Y48.54716 E0.19024
G1 X21.10388 Y48.54716 E0.44463
G1 X17.37356 Y52.27748 E0.19397
G1 X17.37356 Y64.37018 E0.44463
G1 X21.10388 Y68.10049 E0.19397
G1 X33.19658 Y68.10049 E0.44463
G1 X36.9269 Y64.37018 E0.19397
G1 X36.9269 Y52.27748 E0.44463
G1 X36.89753 Y52.24812 E0.00153
M107
;WIPE_START
G1 X36.46874 Y52.30922 F3600000
;WIPE_END
G1 X36.5434 Y52.43633
;TYPE:Internal perimeter
;WIDTH:0.449999
M106 S2.55
G1 F3000
G1 X33.03773 Y48.93065 E0.19713
G1 X21.26273 Y48.93065 E0.4682
G1 X17.75705 Y52.43633 E0.19713
G1 X17.75705 Y64.21133 E0.4682
G1 X21.26273 Y67.717 E0.19713
G1 X33.03773 Y67.717 E0.4682
G1 X36.5434 Y64.21133 E0.19713
G1 X36.5434 Y52.49633 E0.46581
M107
G1 E-0.4 F4800
G1 X28.85492 Y52.61255 F3600000
G1 X28.75677 Y53.00487
G1 E0.4 F4800
;TYPE:External perimeter
;WIDTH:0.419999
M107
G1 F3000
G1 X29.07178 Y53.09296 E0.01203
G1 X29.57984 Y53.30787 E0.02028
G1 X30.08575 Y53.58617 E0.02123
G1 X30.56071 Y53.91572 E0.02126
G1 X30.99895 Y54.29272 E0.02126
G1 X31.39577 Y54.71305 E0.02125
G1 X31.74691 Y55.17221 E0.02125
G1 X32.19096 Y55.94764 E0.03286
G1 X32.40183 Y56.45754 E0.02029
G1 X32.56669 Y57.01079 E0.02123
G1 X32.67353 Y57.57896 E0.02126
G1 X32.72106 Y58.47157 E0.03287
G1 X32.67605 Y59.04976 E0.02132
G1 X32.57116 Y59.61827 E0.02126
G1 X32.40794 Y60.17282 E0.02125
G1 X32.1881 Y60.70747 E0.02126
G1 X31.91414 Y61.21647 E0.02125
G1 X31.58894 Y61.69434 E0.02125
G1 X31.21587 Y62.13603 E0.02126
G1 X30.79917 Y62.53666 E0.02125
G1 X30.34314 Y62.89197 E0.02126
G1 X29.8531 Y63.19795 E0.02124
G1 X29.06585 Y63.55721 E0.03182
G1 X28.51206 Y63.72831 E0.02131
G1 X27.94491 Y63.84027 E0.02126
G1 X27.36931 Y63.89294 E0.02125
G1 X26.79123 Y63.88569 E0.02126
G1 X26.21704 Y63.81857 E0.02126
G1 X25.65318 Y63.69244 E0.02124
