; generated by SuperSlicer 2.5.59.9 on 2024-05-18 at 17:50:53 UTC


;
;

;
;

;
;

;
;

;
;
; 

; external perimeters extrusion width = 0.42mm
; perimeters extrusion width = 0.42mm
; infill extrusion width = 0.42mm
; solid infill extrusion width = 0.42mm
; top infill extrusion width = 0.42mm
; first layer extrusion width = 0.42mm

; external perimeters extrusion width = 0.42mm
; perimeters extrusion width = 0.42mm
; infill extrusion width = 0.42mm
; solid infill extrusion width = 0.42mm
; top infill extrusion width = 0.42mm
; first layer extrusion width = 0.42mm

; object:{"name":"Voron_Design_Cube_v7","id":"Voron_Design_Cube_v7 id:0 copy 0","object_center":[6.533897,5.103177,0.000000],"boundingbox_center":[6.533897,5.103177,5.000000],"boundingbox_size":[10.000000,10.000000,10.000000]}
EXCLUDE_OBJECT_DEFINE NAME=Voron_Design_Cube_v7_id_0_copy_0 CENTER=6.533897,5.103177 POLYGON=[[1.53,0.10],[11.53,0.10],[11.53,10.10],[1.53,10.10],[1.53,0.10]]
; object:{"name":"Voron_Design_Cube_v7","id":"Voron_Design_Cube_v7 id:1 copy 0","object_center":[173.756049,223.749703,0.000000],"boundingbox_center":[173.756049,223.749703,5.000000],"boundingbox_size":[10.000000,10.000000,10.000000]}
EXCLUDE_OBJECT_DEFINE NAME=Voron_Design_Cube_v7_id_1_copy_0 CENTER=173.756049,223.749703 POLYGON=[[168.76,218.75],[178.76,218.75],[178.76,228.75],[168.76,228.75],[168.76,218.75]]
; plater:{"center":[90.144973,114.426440,0.000000],"boundingbox_center":[90.144973,114.426440,5.000000],"boundingbox_size":[177.222152,228.646526,10.000000]}

M73 P0 R53
M107
;TYPE:Custom
CALCULATE_PA MATERIAL=PLA BOWDEN_LENGTH=6 LAYER_HEIGHT=0.24 NOZZLE_SIZE=0.4 PRINT_SPEED=0
START_PRINT EXTRUDER=210 BED=60
SET_VELOCITY_LIMIT ACCEL=500


M107
G21 ; set units to millimeters
G90 ; use absolute coordinates
M83 ; use relative distances for extrusion
ACTIVATE_EXTRUDER EXTRUDER=extruder
; Filament gcode
M104 S210 T0 ; set temperature
M109 S210 T0 ; set temperature and wait for it to be reached
M190 S60 ; set bed temperature and wait for it to be reached
;LAYER_CHANGE
;Z:0.24
;HEIGHT:0.24
;BEFORE_LAYER_CHANGE
G92 E0.0

G1 E-0.4 F3600
G1 Z0.16 F300000
G1 Z0.24
;AFTER_LAYER_CHANGE
;0.24
SET_VELOCITY_LIMIT ACCEL=3000


CALCULATE_PA MATERIAL=PLA BOWDEN_LENGTH=6.0 LAYER_HEIGHT=0.2 NOZZLE_SIZE=0.4 PRINT_SPEED=80


G92 E0
G1 Z0.4
; printing object Voron_Design_Cube_v7 id:0 copy 0
EXCLUDE_OBJECT_START NAME=Voron_Design_Cube_v7_id_0_copy_0
G1 X1.7439 Y2.07016
G1 Z0.24
G1 E0.4 F3600
;TYPE:External perimeter
;WIDTH:0.419999
M107
G1 F600
G1 X1.7439 Y8.13619 E0.20074
M73 P0 R52
G1 X3.50088 Y9.89318 E0.08222
G1 X9.56691 Y9.89318 E0.20074
G1 X11.3239 Y8.13619 E0.08222
G1 X11.3239 Y2.07016 E0.20074
G1 X9.56691 Y0.31318 E0.08222
G1 X3.50088 Y0.31318 E0.20074
G1 X1.78632 Y2.02773 E0.08024
M107
;WIPE_START
G1 X2.02674 Y2.353 F300000
;WIPE_END
G1 X2.11239 Y2.28602
;TYPE:Internal perimeter
M107
G1 F599.9953
G1 X2.11239 Y5.13479 Z.24 E.09427
G1 X2.11239 Y7.98356 Z.24 E.09427
G1 X3.65352 Y9.52468 E0.07212
G1 X6.5339 Y9.52468 Z.24 E.09531
G1 X9.41428 Y9.52468 Z.24 E.09531
G1 X10.9554 Y7.98356 E0.07212
G1 X10.9554 Y5.10318 Z.24 E.09531
G1 X10.9554 Y2.2228 Z.24 E.09531
G1 X9.41428 Y0.68167 E0.07212
G1 X6.5339 Y.68167 Z.24 E.09531
G1 F600
G1 X3.65352 Y.68167 Z.24 E.09531
G1 F583.59113
G1 X2.11239 Y2.22602 E.0722
M107
G1 E-0.4 F3600
G1 X2.47444 Y4.50251 F300000
G1 E0.4 F3600
M107
G1 F560.74036
G1 X2.47393 Y4.66748 E.00546
M107
;WIDTH:0.391964
M107
G1 F600
G1 X2.47956 Y5.58248 E0.02798
M107
;WIDTH:0.44274
M107
G1 F543.61292
G1 X2.48657 Y6.41713 E.02933
M107
;WIDTH:0.419999
M107
G1 F599.96619
G1 X2.48089 Y7.83092 E.04679
G1 X3.80615 Y9.15619 E.06202
G1 F576.2384
G1 X6.16663 Y9.16118 E.07811
M107
;WIDTH:0.390781
M107
G1 F600
G1 X6.97891 Y9.15923 E0.02475
M107
;WIDTH:0.43705
M107
G1 F564.02917
G1 X9.26164 Y9.15619 E.07903
G1 F599.97736
G1 X10.58691 Y7.83092 E.06489
G1 F566.19489
G1 X10.59146 Y5.72645 E.07286
M107
;WIDTH:0.393594
M107
G1 F600
G1 X10.58853 Y4.09886 E0.05
M107
;WIDTH:0.419999
M107
G1 F578.50684
G1 X10.58691 Y2.37543 E.05703
G1 F599.99658
G1 X9.26164 Y1.05017 E.06202
G1 F576.7074
G1 X6.68274 Y1.03912 E.08534
M107
;WIDTH:0.391389
M107
G1 F600
G1 X5.97547 Y1.05021 E0.02159
M107
;WIDTH:0.448786
M107
G1 F534.98993
G1 X5.17035 Y1.05736 E.02872
M107
;WIDTH:0.419999
M107
G1 F600
G1 X3.80615 Y1.05017 E0.04514
G1 F599.95972
G1 X2.48089 Y2.37543 E.06202
M107
M107
G1 F600
G1 X2.47462 Y4.44251 E0.0684
M107
G1 X3.58484 Y4.50587 F300000
;TYPE:External perimeter
M107
G1 F600
G1 X3.77277 Y3.90616 E0.0208
G1 X4.07895 Y3.36248 E0.02065
G1 X4.60181 Y2.79627 E0.0255
G1 X5.12637 Y2.44319 E0.02092
G1 X5.70522 Y2.21008 E0.02065
G1 X6.32326 Y2.10095 E0.02077
G1 X6.82239 Y2.10742 E0.01652
G1 X7.40084 Y2.22132 E0.01951
G1 X7.97656 Y2.46206 E0.02065
G1 X8.4902 Y2.81634 E0.02065
G1 X8.9221 Y3.27171 E0.02077
G1 X9.30843 Y3.93886 E0.02551
G1 X9.49026 Y4.54045 E0.0208
G1 X9.54275 Y5.16222 E0.02065
G1 X9.46592 Y5.78141 E0.02065
G1 X9.26301 Y6.37148 E0.02065
G1 X8.82378 Y7.05615 E0.02692
G1 X8.39903 Y7.46496 E0.01951
G1 X7.87186 Y7.79883 E0.02065
G1 X7.28719 Y8.01682 E0.02065
G1 X6.67019 Y8.10953 E0.02065
G1 X6.04726 Y8.073 E0.02065
G1 X5.44528 Y7.90884 E0.02065
G1 X4.88696 Y7.62219 E0.02077
G1 X4.30149 Y7.1206 E0.02551
G1 X3.86001 Y6.48344 E0.02565
G1 X3.63031 Y5.8943 E0.02093
G1 X3.52918 Y5.27484 E0.02077
G1 X3.58051 Y4.56572 E0.02353
M107
;WIPE_START
G1 X3.2922 Y4.23318 F300000
;WIPE_END
G1 X3.2397 Y4.40262
;TYPE:Internal perimeter
M107
G1 F600
G1 X3.42201 Y3.7932 E0.02105
M73 P1 R52
G1 F599.86774
G1 X3.75902 Y3.17963 E.02317
G1 X4.3327 Y2.54454 E0.02832
G1 X4.92305 Y2.13587 E.02376
G1 X5.56974 Y1.86739 E0.02317
G1 X6.26149 Y1.73767 E.02329
G1 X6.79397 Y1.73551 E.01762
G1 X7.47203 Y1.85976 E0.02281
G1 X8.12088 Y2.123 E.02317
G1 X8.70135 Y2.51434 E.02317
G1 X9.19107 Y3.01982 E0.02329
G1 X9.62852 Y3.75629 E.02835
G1 X9.84382 Y4.43663 E0.02361
G1 X9.91013 Y5.13355 E.02317
G1 X9.83132 Y5.8291 E0.02316
G1 X9.61071 Y6.49352 E.02317
G1 X9.24202 Y7.09594 E0.02337
G1 X9.07932 Y7.32165 E.00921
G1 X8.65457 Y7.73046 E.01951
G1 X8.06703 Y8.11139 E0.02317
G1 X7.41374 Y8.3629 E.02317
G1 X6.72263 Y8.47427 E.02317
G1 X6.02335 Y8.44072 E.02317
G1 X5.34608 Y8.26373 E0.02316
G1 X4.71659 Y7.94894 E.02329
G1 X4.05992 Y7.39887 E.02835
G1 X3.55548 Y6.69093 E.02877
G1 X3.28593 Y6.02542 E0.02376
G1 X3.16513 Y5.3319 E.0233
G1 X3.21749 Y4.47687 E0.02835
G1 X3.2225 Y4.4601 E.00058
M107
G1 X2.89083 Y4.30565 F300000
;WIDTH:0.420662
M107
G1 F599.75958
G1 X3.07126 Y3.68023 E.02158
G1 X3.4391 Y2.99677 E0.02573
G1 X4.0636 Y2.2928 E.0312
G1 X4.71972 Y1.82854 E.02665
G1 F597.08362
G1 X5.52407 Y1.48906 E.02894
M107
;WIDTH:0.448786
M107
G1 F549.25165
G1 X5.6161 Y1.45903 E.00345
G1 F534.92285
G1 X5.90879 Y1.42188 E.01053
M107
;WIDTH:0.399017
M107
G1 F599.82294
G1 X6.20147 Y1.38473 E.00921
G1 X6.79858 Y1.37994 E0.01863
G1 X7.54322 Y1.49821 E.02353
G1 X8.26521 Y1.78395 E0.02423
G1 X8.70849 Y2.0697 E.01646
G1 X9.05703 Y2.33762 E0.01372
G1 X9.46003 Y2.76793 E.0184
G1 X9.9486 Y3.57371 E.02941
G1 X10.19608 Y4.3332 E0.02493
G1 X10.2629 Y5.10602 E.02421
G1 X10.2327 Y5.49179 E.01208
M107
;WIDTH:0.431674
M107
G1 F563.29199
G1 X10.2025 Y5.87756 E.01321
G1 F588.85529
G1 X9.95841 Y6.61556 E.02654
G1 F599.9223
G1 X9.55219 Y7.29489 E.02702
G1 X9.33485 Y7.58716 E0.01243
G1 X8.9101 Y7.99596 E.02013
G1 X8.2622 Y8.42395 E.02651
G1 F585.73706
G1 X7.54196 Y8.71357 E.0265
G1 F557.03589
G1 X7.15763 Y8.77014 E.01326
M107
;WIDTH:0.395148
M107
G1 F599.93317
G1 X6.7733 Y8.82672 E.01199
G1 X5.99978 Y8.80336 E.02388
G1 X5.62333 Y8.71099 E0.01196
M107
;WIDTH:0.419999
M107
G1 F574.7149
G1 X5.24688 Y8.61862 E.01283
G1 F595.17438
G1 X4.54621 Y8.27568 E.02581
G1 F599.98334
G1 X3.81835 Y7.67714 E.03118
G1 X3.51082 Y7.27983 E.01663
G1 X3.15133 Y6.70751 E.02237
G1 F595.9306
G1 X2.90876 Y6.06582 E.0227
M107
;WIDTH:0.44274
M107
G1 F553.59937
G1 X2.88114 Y5.97314 E.0034
G1 F540.31586
G1 X2.84683 Y5.68015 E.01036
M107
;WIDTH:0.396821
M107
G1 F596.56287
G1 X2.81253 Y5.38716 E.00915
M107
M107
G1 F573.2467
G1 X2.83117 Y4.9175 E.01458
M107
;WIDTH:0.420662
M107
G1 F501.57703
G1 X2.8498 Y4.44785 E.01558
G1 F481.87589
G1 X2.8742 Y4.3633 E.00292
M107
G1 X2.88554 Y3.92215 F300000
;TYPE:Solid infill
;WIDTH:0.336
M107
G1 F599.78217
G1 X2.75046 Y3.78707 E.00506
G1 X2.75024 Y3.26571 E0.0138
G1 X2.89755 Y3.41303 E.00552
G1 X3.08469 Y3.07904 E.01014
G1 X2.75001 Y2.74436 E0.01253
G1 X2.74991 Y2.4868 E.00682
G1 X2.88174 Y2.35496 E.00494
G1 X3.27874 Y2.75195 E.01486
G1 X3.52797 Y2.48005 E0.00976
G1 X3.14231 Y2.09439 E.01444
G1 X3.40287 Y1.83383 E.00976
G1 X3.77719 Y2.20815 E0.01401
G1 X3.90122 Y2.07284 E.00486
G1 X4.05522 Y1.96505 E.00498
G1 X3.66344 Y1.57326 E.01467
G1 X3.91668 Y1.32002 E.00948
G1 X4.36177 Y1.75047 E0.01639
G1 X4.58109 Y1.59695 E.00709
G1 X4.68556 Y1.55313 E0.003
G1 X4.45671 Y1.32428 E.00857
G1 X4.98199 Y1.32842 E.01391
G1 X5.17373 Y1.52017 E.00718
M107
G1 E-0.4 F3600
G1 X7.93902 Y1.16068 F300000
G1 E0.4 F3600
M107
G1 F599.92041
G1 X8.30016 Y1.52182 E.01352
G1 X8.57693 Y1.64892 E0.00806
G1 X9.22103 Y2.11938 E.02112
G1 X9.76259 Y2.71257 E0.02126
G1 X10.1326 Y3.35427 E.01961
G1 X10.32263 Y3.54429 E0.00711
G1 X10.32053 Y3.02106 E.01385
G1 X8.61861 Y1.31914 E.06372
G1 X9.13974 Y1.31914 E.0138
G1 X10.47752 Y2.65692 E0.05009
M107
G1 E-0.4 F3600
G1 X10.46459 Y6.71518 F300000
G1 E0.4 F3600
M107
G1 F599.82404
G1 X10.25981 Y6.51039 E.00767
G1 X10.1185 Y6.89022 E.01073
G1 X10.31 Y7.08172 E.00717
G1 X10.31557 Y7.60842 E0.01394
G1 X9.91726 Y7.21011 E.01491
G1 X9.70678 Y7.52076 E0.00993
G1 X10.11173 Y7.92571 E.01516
G1 X9.85117 Y8.18628 E.00976
G1 X9.48215 Y7.81726 E.01382
G1 X9.21247 Y8.06871 E0.00976
G1 X9.5906 Y8.44684 E.01416
G1 X9.33004 Y8.70741 E.00976
G1 X8.93936 Y8.31673 E.01463
G1 X8.61911 Y8.51761 E.01001
G1 X8.98487 Y8.88337 E0.01369
G1 X8.45644 Y8.87608 E.01399
G1 X8.28265 Y8.70228 E.00651
G1 X7.90615 Y8.84691 E.01068
G1 X8.0887 Y9.02947 E0.00683
M107
G1 E-0.4 F3600
G1 X5.14405 Y9.03823 F300000
G1 E0.4 F3600
M107
G1 F599.86316
G1 X4.80824 Y8.70242 E.01257
G1 X4.40816 Y8.50794 E.01178
G1 X3.5762 Y7.82125 E0.02856
G1 X3.02162 Y7.04039 E.02536
G1 X2.92523 Y6.81941 E0.00638
G1 X2.77009 Y6.66428 E.00581
G1 X2.76123 Y7.17654 E0.01356
G1 X4.46821 Y8.88353 E.06391
G1 X3.94996 Y8.88641 E0.01372
G1 X2.59658 Y7.53303 E.05067
M107
;WIPE_START
G1 F240000
G1 X3.94996 Y8.88641 E-0.02727
G1 X4.46821 Y8.88353 E-0.00739
G1 X2.76123 Y7.17654 E-0.0344
G1 X2.77009 Y6.66428 E-0.0073
G1 X2.92523 Y6.81941 E-0.00313
G1 X3.02162 Y7.04039 E-0.00344
G1 X3.5762 Y7.82125 E-0.01365
G1 X4.40816 Y8.50794 E-0.01537
G1 X4.80824 Y8.70243 E-0.00634
G1 X5.14405 Y9.03823 E-0.00677
;WIPE_END
G1 E-0.27495 F3600
G1 Z0.4 F300000
; stop printing object Voron_Design_Cube_v7 id:0 copy 0
EXCLUDE_OBJECT_END NAME=Voron_Design_Cube_v7_id_0_copy_0
; printing object Voron_Design_Cube_v7 id:1 copy 0
EXCLUDE_OBJECT_START NAME=Voron_Design_Cube_v7_id_1_copy_0
G1 X176.78906 Y228.5397
G1 Z0.24
G1 E0.4 F3600
;TYPE:External perimeter
;WIDTH:0.419999
M107
G1 F600
G1 X178.54605 Y226.78272 E0.08222
G1 X178.54605 Y220.71669 E0.20074
G1 X176.78906 Y218.9597 E0.08222
G1 X170.72303 Y218.9597 E0.20074
G1 X168.96605 Y220.71669 E0.08222
G1 X168.96605 Y226.78272 E0.20074
G1 X170.72303 Y228.5397 E0.08222
G1 X176.72906 Y228.5397 E0.19875
M107
;WIPE_START
G1 X176.78906 Y228.1397 F300000
;WIPE_END
G1 X176.63643 Y228.17121
;TYPE:Internal perimeter
M107
G1 F600
G1 X178.17755 Y226.63008 E0.07212
G1 F599.99048
G1 X178.17755 Y223.74969 Z.24 E.09531
G1 X178.17755 Y220.86932 Z.24 E.09531
G1 X176.63643 Y219.3282 E0.07212
G1 X173.75604 Y219.3282 Z.24 E.09532
G1 X170.87567 Y219.3282 Z.24 E.09531
G1 X169.33454 Y220.86932 E0.07212
G1 X169.33453 Y223.74969 Z.24 E.09531
G1 X169.33453 Y226.63008 Z.24 E.09531
G1 X170.87567 Y228.17121 E0.07212
G1 X173.72604 Y228.1712 Z.24 E.09433
G1 F600
G1 X176.57643 Y228.1712 Z.24 E.09433
M107
G1 E-0.4 F3600
G1 X177.81073 Y225.70649 F300000
G1 E0.4 F3600
;WIDTH:0.43705
M107
G1 F552.91681
G1 X177.81361 Y224.37299 E.04617
M107
;WIDTH:0.393594
M107
G1 F600
G1 X177.81068 Y222.74538 E0.05
M107
;WIDTH:0.419999
M107
G1 F578.50433
G1 X177.80907 Y221.02196 E.05703
G1 F599.99548
G1 X176.4838 Y219.69669 E.06202
G1 F576.71033
G1 X173.90489 Y219.68564 E.08534
M107
;WIDTH:0.391389
M107
G1 F600
G1 X173.19762 Y219.69673 E0.02159
M107
;WIDTH:0.448786
M107
G1 F534.97632
G1 X172.39252 Y219.70389 E.02872
M107
;WIDTH:0.419999
M107
G1 F600
G1 X171.0283 Y219.69669 E0.04514
G1 F599.97394
G1 X169.70303 Y221.02196 E.06202
M107
M107
G1 F577.20502
G1 X169.69609 Y223.31401 E.07585
M107
;WIDTH:0.391964
M107
G1 F600
G1 X169.70171 Y224.229 E0.02798
M107
;WIDTH:0.44274
M107
G1 F543.60083
G1 X169.70872 Y225.06364 E.02933
M107
;WIDTH:0.419999
M107
G1 F599.96869
G1 X169.70303 Y226.47745 E.04679
G1 X171.02831 Y227.8027 E.06202
G1 F576.24072
G1 X173.38879 Y227.80771 E.07811
M107
;WIDTH:0.390781
M107
G1 F600
G1 X174.20106 Y227.80575 E0.02475
M107
;WIDTH:0.43705
M107
G1 F564.02966
G1 X176.4838 Y227.8027 E.07903
G1 F599.9845
G1 X177.80907 Y226.47745 E.06489
G1 F586.63959
G1 X177.81059 Y225.76649 E.02462
M107
G1 X176.48516 Y225.01801 F300000
;TYPE:External perimeter
;WIDTH:0.419999
M107
G1 F600
G1 X176.04594 Y225.70268 E0.02692
G1 X175.62119 Y226.11148 E0.01951
G1 X175.09401 Y226.44535 E0.02065
G1 X174.50935 Y226.66334 E0.02065
G1 X173.89234 Y226.75605 E0.02065
G1 X173.26941 Y226.71953 E0.02065
G1 X172.66744 Y226.55537 E0.02065
G1 X172.10912 Y226.26872 E0.02077
G1 X171.52364 Y225.76713 E0.02551
G1 X171.08216 Y225.12997 E0.02565
G1 X170.85246 Y224.54082 E0.02093
G1 X170.75134 Y223.92136 E0.02077
G1 X170.80699 Y223.1524 E0.02551
G1 X170.99492 Y222.55269 E0.0208
G1 X171.3011 Y222.00901 E0.02065
G1 X171.82396 Y221.4428 E0.0255
G1 X172.34852 Y221.08971 E0.02092
G1 X172.92737 Y220.8566 E0.02065
G1 X173.54542 Y220.74747 E0.02077
G1 X174.04454 Y220.75395 E0.01652
G1 X174.623 Y220.86784 E0.01951
G1 X175.19871 Y221.10859 E0.02065
G1 X175.71235 Y221.46287 E0.02065
G1 X176.14425 Y221.91823 E0.02077
G1 X176.53058 Y222.58538 E0.02551
G1 X176.71241 Y223.18698 E0.0208
G1 X176.7649 Y223.80875 E0.02065
G1 X176.68807 Y224.42793 E0.02065
G1 X176.50467 Y224.96127 E0.01866
M107
;WIPE_START
G1 X176.69646 Y225.35764 F300000
;WIPE_END
G1 X176.79245 Y225.20607
;TYPE:Internal perimeter
M107
G1 F599.95026
G1 X176.46417 Y225.74248 E.02081
G1 X176.30147 Y225.96819 E.00921
G1 X175.87672 Y226.37698 E.01951
G1 X175.28918 Y226.75792 E0.02317
G1 X174.63589 Y227.00943 E.02317
G1 X173.94478 Y227.1208 E.02317
G1 X173.2455 Y227.08725 E.02317
G1 X172.56823 Y226.91026 E0.02316
G1 X171.93874 Y226.59546 E.02329
G1 X171.28207 Y226.04539 E.02835
G1 X170.77763 Y225.33745 E.02877
G1 X170.50808 Y224.67194 E0.02376
G1 X170.38728 Y223.97842 E.0233
G1 X170.43964 Y223.1234 E.02835
G1 X170.64416 Y222.43972 E0.02361
G1 X170.98117 Y221.82616 E.02317
G1 X171.55486 Y221.19106 E0.02832
G1 X172.1452 Y220.78239 E.02376
G1 X172.79189 Y220.51392 E.02317
G1 X173.48364 Y220.38419 E0.02329
G1 X174.01611 Y220.38203 E.01762
G1 X174.69418 Y220.50629 E0.02281
G1 X175.34303 Y220.76953 E.02317
G1 X175.92349 Y221.16086 E.02317
G1 X176.41322 Y221.66635 E0.02329
G1 X176.85068 Y222.40282 E.02835
G1 X177.06597 Y223.08316 E0.02361
G1 X177.13228 Y223.78008 E.02317
G1 X177.05347 Y224.47563 E0.02316
G1 X176.83286 Y225.14005 E.02317
G1 F597.16705
G1 X176.82378 Y225.15491 E.00058
M107
G1 X177.10491 Y225.3886 F300000
;WIDTH:0.431674
M107
G1 F591.4375
G1 X176.77435 Y225.94142 E.02199
G1 X176.557 Y226.23368 E0.01243
G1 F599.80322
G1 X176.13225 Y226.64249 E.02013
G1 X175.48434 Y227.07048 E.02651
G1 F585.73541
G1 X174.76411 Y227.36011 E.0265
G1 F557.03815
G1 X174.37978 Y227.41667 E.01326
M107
;WIDTH:0.395148
M107
G1 F599.93469
G1 X173.99545 Y227.47324 E.01199
G1 X173.22192 Y227.44987 E.02388
G1 X172.84548 Y227.35751 E0.01196
M107
;WIDTH:0.419999
M107
G1 F574.71484
G1 X172.46902 Y227.26515 E.01283
G1 F595.17273
G1 X171.76836 Y226.9222 E.02581
G1 F599.97943
G1 X171.0405 Y226.32367 E.03118
G1 X170.73297 Y225.92636 E.01663
G1 X170.37347 Y225.35403 E.02237
G1 F595.90869
G1 X170.13092 Y224.71236 E.0227
M107
;WIDTH:0.44274
M107
G1 F553.61334
