; generated by PrusaSlicer 2.7.2+MacOS-arm64 on 2024-03-03 at 12:36:17 UTC


;
;

;
;

;
;

;
;

;
;
; 

; external perimeters extrusion width = 0.45mm
; perimeters extrusion width = 0.45mm
; infill extrusion width = 0.45mm
; solid infill extrusion width = 0.45mm
; top infill extrusion width = 0.40mm
; support material extrusion width = 0.36mm

; external perimeters extrusion width = 0.45mm
; perimeters extrusion width = 0.45mm
; infill extrusion width = 0.45mm
; solid infill extrusion width = 0.45mm
; top infill extrusion width = 0.40mm
; support material extrusion width = 0.36mm

; external perimeters extrusion width = 0.45mm
; perimeters extrusion width = 0.45mm
; infill extrusion width = 0.45mm
; solid infill extrusion width = 0.45mm
; top infill extrusion width = 0.40mm
; support material extrusion width = 0.36mm

M73 P0 R20

EXCLUDE_OBJECT_DEFINE NAME='camerahinge_stl' CENTER=44.619,178.539 POLYGON=[[60.812,170.543],[61.283,170.666],[61.787,171.033],[62.047,171.435],[62.173,172.036],[62.173,192.036],[61.975,192.781],[61.551,193.252],[61.125,193.467],[60.653,193.536],[60.183,193.454],[59.669,193.151],[59.351,192.746],[59.195,192.295],[59.173,190.409],[58.036,190.402],[57.740,190.231],[57.630,189.997],[57.653,186.992],[57.801,186.780],[58.036,186.671],[59.173,186.664],[59.165,174.888],[59.003,174.348],[58.676,173.922],[58.215,173.640],[57.673,173.536],[31.573,173.536],[30.826,173.736],[30.326,174.206],[30.080,174.888],[30.073,186.664],[31.209,186.671],[31.444,186.780],[31.593,186.992],[31.615,189.997],[31.506,190.231],[31.209,190.402],[30.073,190.409],[30.040,192.348],[29.789,192.915],[29.451,193.252],[28.885,193.504],[28.275,193.507],[27.823,193.336],[27.357,192.915],[27.146,192.500],[27.073,192.036],[27.073,172.036],[27.270,171.292],[27.694,170.821],[28.109,170.610],[28.573,170.536]]
EXCLUDE_OBJECT_DEFINE NAME='camerabody_stl' CENTER=44.214,111.148 POLYGON=[[57.233,97.524],[57.788,97.638],[58.274,97.963],[58.599,98.449],[58.713,99.004],[58.713,123.293],[58.599,123.847],[58.274,124.334],[57.788,124.659],[57.214,124.773],[31.194,124.773],[30.640,124.659],[30.153,124.334],[29.828,123.847],[29.714,123.273],[29.714,99.004],[29.828,98.449],[30.153,97.963],[30.640,97.638],[31.194,97.524]]
EXCLUDE_OBJECT_DEFINE NAME='camerafront_stl' CENTER=48.192,36.230 POLYGON=[[61.339,22.611],[61.766,22.718],[62.253,23.043],[62.578,23.530],[62.692,24.104],[62.692,48.354],[62.578,48.928],[62.253,49.414],[61.766,49.739],[61.192,49.854],[35.192,49.854],[34.618,49.739],[34.132,49.414],[33.806,48.928],[33.692,48.354],[33.692,24.104],[33.806,23.530],[34.132,23.043],[34.618,22.718],[35.192,22.604]]

;TYPE:Custom
CALCULATE_PA MATERIAL=PLA BOWDEN_LENGTH=6 LAYER_HEIGHT=0.2 NOZZLE_SIZE=0.4 PRINT_SPEED=0


START_PRINT EXTRUDER=210 BED=65
G21 ; set units to millimeters
G90 ; use absolute coordinates
M83 ; use relative distances for extrusion
; Filament gcode
M107
;LAYER_CHANGE
;Z:0.2
;HEIGHT:0.2
G1 E-2 F3000
EXCLUDE_OBJECT_START NAME='camerabody_stl'
G1 Z.2 F60000
G1 X30.793 Y98.849
G1 Z.2
G1 E2 F3000
;TYPE:Perimeter
;WIDTH:0.45
G1 F2400
G1 X30.835 Y98.77 E.00303
G1 X30.893 Y98.7 E.00308
G1 X30.959 Y98.645 E.00291
G1 X31.039 Y98.603 E.00306
G1 X31.124 Y98.576 E.00302
G1 X31.264 Y98.563 E.00476
G1 X57.162 Y98.563 E.87662
G1 X57.303 Y98.577 E.0048
G1 X57.388 Y98.603 E.00301
G1 X57.468 Y98.645 E.00306
G1 X57.535 Y98.7 E.00293
G1 X57.592 Y98.77 E.00306
G1 X57.634 Y98.849 E.00303
G1 X57.661 Y98.934 E.00302
G1 X57.674 Y99.074 E.00476
G1 X57.674 Y123.223 E.81741
G1 X57.661 Y123.363 E.00476
G1 X57.635 Y123.448 E.00301
G1 X57.592 Y123.527 E.00304
G1 X57.535 Y123.597 E.00306
G1 X57.468 Y123.652 E.00293
G1 X57.388 Y123.694 E.00306
G1 X57.303 Y123.72 E.00301
G1 X57.163 Y123.734 E.00476
G1 X31.265 Y123.734 E.87662
G1 X31.124 Y123.72 E.0048
G1 X31.039 Y123.694 E.00301
G1 X30.96 Y123.652 E.00303
G1 X30.89 Y123.594 E.00308
G1 X30.835 Y123.528 E.00291
G1 X30.793 Y123.448 E.00306
G1 X30.767 Y123.363 E.00301
G1 X30.753 Y123.223 E.00476
G1 X30.753 Y99.075 E.81738
G1 X30.767 Y98.934 E.0048
G1 X30.775 Y98.906 E.00099
G1 X30.775 Y98.906 F60000
G1 X30.415 Y98.691
G1 F2400
G1 X30.495 Y98.542 E.00572
G1 X30.604 Y98.41 E.00579
G1 X30.731 Y98.305 E.00558
G1 X30.882 Y98.225 E.00578
G1 X31.044 Y98.175 E.00574
G1 X31.244 Y98.156 E.0068
G1 X57.182 Y98.156 E.87797
G1 X57.383 Y98.175 E.00683
G1 X57.546 Y98.225 E.00577
G1 X57.696 Y98.305 E.00575
G1 X57.823 Y98.41 E.00558
G1 X57.932 Y98.542 E.00579
G1 X58.012 Y98.691 E.00572
G1 X58.062 Y98.854 E.00577
G1 X58.082 Y99.054 E.0068
G1 X58.082 Y123.243 E.81877
G1 X58.062 Y123.443 E.0068
G1 X58.012 Y123.605 E.00574
G1 X57.932 Y123.755 E.00575
G1 X57.824 Y123.886 E.00575
G1 X57.696 Y123.992 E.00563
G1 X57.545 Y124.072 E.00578
G1 X57.383 Y124.122 E.00574
G1 X57.183 Y124.141 E.0068
G1 X31.245 Y124.141 E.87797
G1 X31.044 Y124.121 E.00684
G1 X30.882 Y124.072 E.00573
G1 X30.732 Y123.992 E.00575
G1 X30.601 Y123.883 E.00577
G1 X30.496 Y123.755 E.0056
G1 X30.415 Y123.605 E.00577
G1 X30.366 Y123.443 E.00573
G1 X30.346 Y123.243 E.0068
G1 X30.346 Y99.055 E.81874
G1 X30.366 Y98.854 E.00684
G1 X30.398 Y98.749 E.00372
G1 X30.398 Y98.749 F60000
G1 X30.037 Y98.534
;TYPE:External perimeter
G1 F2400
G1 X30.156 Y98.314 E.00847
G1 X30.315 Y98.121 E.00846
G1 X30.504 Y97.966 E.00827
G1 X30.725 Y97.847 E.0085
G1 X30.964 Y97.774 E.00846
G1 X31.224 Y97.748 E.00884
G1 X57.203 Y97.748 E.87936
G1 X57.463 Y97.774 E.00884
G1 X57.703 Y97.847 E.00849
G1 X57.923 Y97.966 E.00847
G1 X58.112 Y98.121 E.00827
G1 X58.272 Y98.314 E.00849
G1 X58.39 Y98.534 E.00845
G1 X58.463 Y98.774 E.00849
G1 X58.489 Y99.034 E.00884
G1 X58.489 Y123.263 E.82012
G1 X58.463 Y123.523 E.00884
G1 X58.39 Y123.762 E.00846
G1 X58.272 Y123.983 E.00848
G1 X58.113 Y124.176 E.00846
G1 X57.923 Y124.331 E.0083
G1 X57.702 Y124.45 E.0085
G1 X57.463 Y124.523 E.00846
G1 X57.203 Y124.548 E.00884
G1 X31.225 Y124.548 E.87932
G1 X30.964 Y124.523 E.00887
G1 X30.725 Y124.45 E.00846
G1 X30.504 Y124.332 E.00848
G1 X30.311 Y124.172 E.00849
G1 X30.156 Y123.983 E.00827
G1 X30.037 Y123.762 E.0085
G1 X29.964 Y123.523 E.00846
G1 X29.939 Y123.263 E.00884
G1 X29.939 Y99.034 E.82012
G1 X29.964 Y98.774 E.00884
G1 X30.02 Y98.592 E.00645
G1 X30.222 Y98.247 F60000
G1 E-2 F3000
G1 X57.552 Y99.726 F60000
G1 E2 F3000
;TYPE:Solid infill
;WIDTH:0.450102
G1 F2400
G1 X56.694 Y98.868 E.04108
G1 X56.118 Y98.868 E.0195
G1 X57.369 Y100.119 E.0599
G1 X57.369 Y100.694 E.01947
G1 X55.543 Y98.868 E.08743
G1 X54.967 Y98.868 E.0195
G1 X57.369 Y101.27 E.11501
G1 X57.369 Y101.846 E.0195
G1 X54.391 Y98.868 E.14259
G1 X53.815 Y98.868 E.0195
G1 X57.369 Y102.422 E.17017
G1 X57.369 Y102.998 E.0195
G1 X53.239 Y98.868 E.19775
G1 X52.663 Y98.868 E.0195
G1 X57.369 Y103.574 E.22533
G1 X57.369 Y104.149 E.01947
G1 X52.088 Y98.868 E.25286
G1 X51.512 Y98.868 E.0195
G1 X57.369 Y104.725 E.28044
G1 X57.369 Y105.301 E.0195
G1 X50.936 Y98.868 E.30802
G1 X50.36 Y98.868 E.0195
G1 X57.369 Y105.877 E.3356
G1 X57.369 Y106.453 E.0195
G1 X49.784 Y98.868 E.36318
G1 X49.208 Y98.868 E.0195
G1 X57.369 Y107.029 E.39076
G1 X57.369 Y107.605 E.0195
G1 X48.632 Y98.868 E.41834
G1 X48.057 Y98.868 E.01947
G1 X57.369 Y108.18 E.44587
G1 X57.369 Y108.756 E.0195
M73 P1 R20
G1 X47.481 Y98.868 E.47345
G1 X46.905 Y98.868 E.0195
G1 X57.369 Y109.332 E.50103
G1 X57.369 Y109.908 E.0195
G1 X46.329 Y98.868 E.52861
G1 X45.753 Y98.868 E.0195
G1 X57.369 Y110.484 E.55619
G1 X57.369 Y111.06 E.0195
G1 X45.177 Y98.868 E.58377
G1 X44.602 Y98.868 E.01947
G1 X57.369 Y111.635 E.6113
G1 X57.369 Y112.211 E.0195
G1 X44.026 Y98.868 E.63888
G1 X43.45 Y98.868 E.0195
G1 X57.369 Y112.787 E.66646
G1 X57.369 Y113.363 E.0195
G1 X42.874 Y98.868 E.69404
G1 X42.298 Y98.868 E.0195
G1 X57.369 Y113.939 E.72162
G1 X57.369 Y114.515 E.0195
G1 X41.722 Y98.868 E.7492
G1 X41.147 Y98.868 E.01947
G1 X57.369 Y115.09 E.77673
G1 X57.369 Y115.666 E.0195
G1 X40.571 Y98.868 E.80431
G1 X39.995 Y98.868 E.0195
G1 X57.369 Y116.242 E.83189
G1 X57.369 Y116.818 E.0195
G1 X39.419 Y98.868 E.85947
G1 X38.843 Y98.868 E.0195
G1 X57.369 Y117.394 E.88705
G1 X57.369 Y117.97 E.0195
G1 X38.267 Y98.868 E.91463
G1 X37.691 Y98.868 E.0195
G1 X57.369 Y118.546 E.94221
G1 X57.369 Y119.121 E.01947
G1 X37.116 Y98.868 E.96974
G1 X36.54 Y98.868 E.0195
G1 X57.369 Y119.697 E.99732
G1 X57.369 Y120.273 E.0195
G1 X35.964 Y98.868 E1.0249
G1 X35.388 Y98.868 E.0195
M73 P2 R20
G1 X57.369 Y120.849 E1.05248
G1 X57.369 Y121.425 E.0195
G1 X34.812 Y98.868 E1.08006
G1 X34.236 Y98.868 E.0195
G1 X57.369 Y122.001 E1.10764
G1 X57.369 Y122.576 E.01947
G1 X33.661 Y98.868 E1.13517
G1 X33.085 Y98.868 E.0195
G1 X57.369 Y123.152 E1.16275
G1 X57.36 Y123.303 E.00512
G1 X57.318 Y123.38 E.00297
G1 X57.243 Y123.42 E.00288
G1 X57.07 Y123.429 E.00587
G1 X32.509 Y98.868 E1.17602
G1 X31.933 Y98.868 E.0195
G1 X56.494 Y123.429 E1.17602
G1 X55.918 Y123.429 E.0195
G1 X31.357 Y98.868 E1.17602
G1 X31.184 Y98.877 E.00587
G1 X31.109 Y98.917 E.00288
G1 X31.068 Y98.994 E.00295
G1 X31.058 Y99.145 E.00512
G1 X55.342 Y123.429 E1.16275
G1 X54.767 Y123.429 E.01947
G1 X31.058 Y99.72 E1.13522
G1 X31.058 Y100.296 E.0195
M73 P2 R19
G1 X54.191 Y123.429 E1.10764
G1 X53.615 Y123.429 E.0195
G1 X31.058 Y100.872 E1.08006
G1 X31.058 Y101.448 E.0195
G1 X53.039 Y123.429 E1.05248
G1 X52.463 Y123.429 E.0195
G1 X31.058 Y102.024 E1.0249
G1 X31.058 Y102.6 E.0195
M73 P3 R19
G1 X51.887 Y123.429 E.99732
G1 X51.312 Y123.429 E.01947
G1 X31.058 Y103.175 E.96979
G1 X31.058 Y103.751 E.0195
G1 X50.736 Y123.429 E.94221
G1 X50.16 Y123.429 E.0195
G1 X31.058 Y104.327 E.91463
G1 X31.058 Y104.903 E.0195
G1 X49.584 Y123.429 E.88705
G1 X49.008 Y123.429 E.0195
G1 X31.058 Y105.479 E.85947
G1 X31.058 Y106.055 E.0195
G1 X48.432 Y123.429 E.83189
G1 X47.856 Y123.429 E.0195
G1 X31.058 Y106.631 E.80431
G1 X31.058 Y107.206 E.01947
G1 X47.281 Y123.429 E.77678
G1 X46.705 Y123.429 E.0195
G1 X31.058 Y107.782 E.7492
G1 X31.058 Y108.358 E.0195
G1 X46.129 Y123.429 E.72162
G1 X45.553 Y123.429 E.0195
G1 X31.058 Y108.934 E.69404
G1 X31.058 Y109.51 E.0195
G1 X44.977 Y123.429 E.66646
G1 X44.401 Y123.429 E.0195
G1 X31.058 Y110.086 E.63888
G1 X31.058 Y110.661 E.01947
G1 X43.826 Y123.429 E.61135
G1 X43.25 Y123.429 E.0195
G1 X31.058 Y111.237 E.58377
G1 X31.058 Y111.813 E.0195
G1 X42.674 Y123.429 E.55619
G1 X42.098 Y123.429 E.0195
G1 X31.058 Y112.389 E.52861
G1 X31.058 Y112.965 E.0195
G1 X41.522 Y123.429 E.50103
G1 X40.946 Y123.429 E.0195
G1 X31.058 Y113.541 E.47345
G1 X31.058 Y114.116 E.01947
G1 X40.371 Y123.429 E.44592
G1 X39.795 Y123.429 E.0195
G1 X31.058 Y114.692 E.41834
G1 X31.058 Y115.268 E.0195
M73 P4 R19
G1 X39.219 Y123.429 E.39076
G1 X38.643 Y123.429 E.0195
G1 X31.058 Y115.844 E.36318
G1 X31.058 Y116.42 E.0195
G1 X38.067 Y123.429 E.3356
G1 X37.491 Y123.429 E.0195
G1 X31.058 Y116.996 E.30802
G1 X31.058 Y117.572 E.0195
G1 X36.915 Y123.429 E.28044
G1 X36.34 Y123.429 E.01947
G1 X31.058 Y118.147 E.25291
G1 X31.058 Y118.723 E.0195
G1 X35.764 Y123.429 E.22533
G1 X35.188 Y123.429 E.0195
G1 X31.058 Y119.299 E.19775
G1 X31.058 Y119.875 E.0195
G1 X34.612 Y123.429 E.17017
G1 X34.036 Y123.429 E.0195
G1 X31.058 Y120.451 E.14259
G1 X31.058 Y121.027 E.0195
G1 X33.46 Y123.429 E.11501
G1 X32.885 Y123.429 E.01947
G1 X31.058 Y121.602 E.08748
G1 X31.058 Y122.178 E.0195
G1 X32.309 Y123.429 E.0599
G1 X31.733 Y123.429 E.0195
G1 X30.875 Y122.571 E.04108
EXCLUDE_OBJECT_END NAME='camerabody_stl'
;LAYER_CHANGE
;Z:0.44
;HEIGHT:0.24
;BEFORE_LAYER_CHANGE
G92 E0.0
;0.44
;M201 X4000 Y4000
;M74 W0

G1 E-2 F3000
G1 Z.44 F60000
;AFTER_LAYER_CHANGE
;0.44




CALCULATE_PA MATERIAL=PLA BOWDEN_LENGTH=6.0 LAYER_HEIGHT=0.24 NOZZLE_SIZE=0.4 PRINT_SPEED=130


M104 S200 ; set temperature
M140 S60 ; set bed temperature
EXCLUDE_OBJECT_START NAME='camerabody_stl'
G1 X30.777 Y98.841
G1 Z.44
G1 E2 F3000
;TYPE:Perimeter
;WIDTH:0.45
G1 F4249.612
G1 X30.822 Y98.759 E.00372
G1 X30.884 Y98.684 E.00387
G1 X30.946 Y98.633 E.00319
G1 X31.031 Y98.587 E.00384
G1 X31.12 Y98.56 E.0037
G1 X31.263 Y98.545 E.00572
G1 X57.163 Y98.545 E1.02984
G1 X57.307 Y98.56 E.00576
G1 X57.396 Y98.587 E.0037
G1 X57.481 Y98.633 E.00384
G1 X57.544 Y98.684 E.00322
G1 X57.605 Y98.759 E.00384
G1 X57.65 Y98.841 E.00372
G1 X57.677 Y98.93 E.0037
G1 X57.692 Y99.072 E.00568
G1 X57.692 Y123.224 E.96033
G1 X57.677 Y123.367 E.00572
G1 X57.65 Y123.456 E.0037
G1 X57.606 Y123.538 E.0037
G1 X57.544 Y123.612 E.00384
G1 X57.481 Y123.664 E.00325
G1 X57.396 Y123.71 E.00384
G1 X57.307 Y123.737 E.0037
G1 X57.165 Y123.751 E.00567
G1 X31.265 Y123.751 E1.02984
G1 X31.12 Y123.737 E.00579
G1 X31.031 Y123.71 E.0037
G1 X30.949 Y123.665 E.00372
G1 X30.875 Y123.604 E.00381
G1 X30.823 Y123.54 E.00328
G1 X30.777 Y123.456 E.00381
G1 X30.75 Y123.367 E.0037
G1 X30.736 Y123.224 E.00571
G1 X30.736 Y99.074 E.96025
G1 X30.75 Y98.93 E.00575
G1 X30.76 Y98.898 E.00133
G1 X30.76 Y98.898 F60000
G1 X30.408 Y98.686
G1 F4249.612
G1 X30.49 Y98.534 E.00687
G1 X30.602 Y98.4 E.00694
G1 X30.723 Y98.301 E.00622
G1 X30.876 Y98.218 E.00692
G1 X31.041 Y98.167 E.00687
G1 X31.243 Y98.147 E.00807
G1 X57.182 Y98.147 E1.03139
G1 X57.387 Y98.167 E.00819
G1 X57.551 Y98.218 E.00683
G1 X57.704 Y98.301 E.00692
G1 X57.826 Y98.4 E.00625
G1 X57.937 Y98.534 E.00692
G1 X58.019 Y98.686 E.00687
G1 X58.07 Y98.851 E.00687
G1 X58.09 Y99.052 E.00803
G1 X58.09 Y123.244 E.96192
G1 X58.07 Y123.446 E.00807
G1 X58.019 Y123.61 E.00683
G1 X57.938 Y123.762 E.00685
G1 X57.826 Y123.896 E.00694
G1 X57.704 Y123.996 E.00627
G1 X57.551 Y124.079 E.00692
G1 X57.386 Y124.13 E.00687
G1 X57.185 Y124.15 E.00803
G1 X31.245 Y124.15 E1.03143
G1 X31.041 Y124.13 E.00815
G1 X30.877 Y124.079 E.00683
G1 X30.725 Y123.997 E.00687
G1 X30.591 Y123.886 E.00692
G1 X30.491 Y123.764 E.00627
G1 X30.408 Y123.61 E.00696
G1 X30.357 Y123.446 E.00683
G1 X30.337 Y123.244 E.00807
G1 X30.337 Y99.055 E.9618
G1 X30.358 Y98.85 E.00819
G1 X30.39 Y98.743 E.00444
G1 X30.39 Y98.743 F60000
G1 X30.039 Y98.531
;TYPE:External perimeter
G1 F4249.612
G1 X30.158 Y98.31 E.00998
G1 X30.319 Y98.116 E.01002
G1 X30.5 Y97.968 E.0093
G1 X30.721 Y97.849 E.00998
G1 X30.962 Y97.775 E.01002
G1 X31.222 Y97.748 E.01039
G1 X57.202 Y97.748 E1.03302
G1 X57.466 Y97.775 E.01055
G1 X57.706 Y97.849 E.00999
G1 X57.928 Y97.968 E.01002
G1 X58.108 Y98.116 E.00927
G1 X58.269 Y98.31 E.01002
G1 X58.388 Y98.531 E.00998
G1 X58.462 Y98.771 E.00999
G1 X58.489 Y99.032 E.01043
G1 X58.489 Y123.264 E.96351
G1 X58.462 Y123.525 E.01043
G1 X58.389 Y123.765 E.00997
G1 X58.269 Y123.986 E.01
G1 X58.109 Y124.18 E.01
G1 X57.927 Y124.329 E.00935
G1 X57.705 Y124.449 E.01003
G1 X57.465 Y124.522 E.00997
G1 X57.205 Y124.548 E.01039
G1 X31.225 Y124.548 E1.03302
G1 X30.962 Y124.522 E.01051
G1 X30.722 Y124.449 E.00997
G1 X30.501 Y124.329 E.01
G1 X30.307 Y124.168 E.01002
G1 X30.158 Y123.987 E.00932
G1 X30.039 Y123.765 E.01002
G1 X29.965 Y123.525 E.00999
G1 X29.939 Y123.264 E.01043
G1 X29.939 Y99.035 E.96339
G1 X29.965 Y98.771 E.01055
G1 X30.021 Y98.589 E.00757
G1 X30.225 Y98.244 F60000
G1 X30.953 Y98.915
;TYPE:Solid infill
;WIDTH:0.391504
G1 F4980.739
G1 X31.056 Y98.8 E.00524
;WIDTH:0.420752
G1 F4586.223
G1 X31.243 Y98.822 E.00694
;WIDTH:0.449999
G1 F4249.618
G1 X31.429 Y98.844 E.00745
G1 X31.034 Y99.239 E.02221
G1 X31.034 Y99.802 E.02239
G1 X31.992 Y98.844 E.05387
G1 X32.556 Y98.844 E.02243
G1 X31.034 Y100.366 E.08559
G1 X31.034 Y100.929 E.02239
G1 X33.119 Y98.844 E.11724
G1 X33.683 Y98.844 E.02243
G1 X31.034 Y101.493 E.14896
G1 X31.034 Y102.056 E.02239
G1 X34.247 Y98.844 E.18065
G1 X34.81 Y98.844 E.02239
G1 X31.034 Y102.62 E.21233
G1 X31.034 Y103.183 E.02239
G1 X35.374 Y98.844 E.24402
G1 X35.937 Y98.844 E.02239
G1 X31.034 Y103.747 E.27571
G1 X31.034 Y104.311 E.02243
G1 X36.501 Y98.844 E.30742
G1 X37.064 Y98.844 E.02239
G1 X31.034 Y104.874 E.33908
G1 X31.034 Y105.438 E.02243
G1 X37.628 Y98.844 E.37079
G1 X38.191 Y98.844 E.02239
G1 X31.034 Y106.001 E.40245
G1 X31.034 Y106.565 E.02243
G1 X38.755 Y98.844 E.43417
G1 X39.319 Y98.844 E.02243
G1 X31.034 Y107.128 E.46585
G1 X31.034 Y107.692 E.02243
G1 X39.882 Y98.844 E.49754
G1 X40.446 Y98.844 E.02243
G1 X31.034 Y108.255 E.52923
G1 X31.034 Y108.819 E.02243
G1 X41.009 Y98.844 E.56091
G1 X41.573 Y98.844 E.02243
G1 X31.034 Y109.383 E.59263
G1 X31.034 Y109.946 E.02239
