; generated by SuperSlicer 2.5.59.9 on 2024-05-10 at 16:07:50 UTC


;
;

;
;

;
;

;
;

;
;
; 

; external perimeters extrusion width = 0.40mm
; perimeters extrusion width = 0.40mm
; infill extrusion width = 0.40mm
; solid infill extrusion width = 0.40mm
; top infill extrusion width = 0.40mm

; external perimeters extrusion width = 0.40mm
; perimeters extrusion width = 0.40mm
; infill extrusion width = 0.40mm
; solid infill extrusion width = 0.40mm
; top infill extrusion width = 0.40mm

; external perimeters extrusion width = 0.40mm
; perimeters extrusion width = 0.40mm
; infill extrusion width = 0.40mm
; solid infill extrusion width = 0.40mm
; top infill extrusion width = 0.40mm

; external perimeters extrusion width = 0.40mm
; perimeters extrusion width = 0.40mm
; infill extrusion width = 0.40mm
; solid infill extrusion width = 0.40mm
; top infill extrusion width = 0.40mm

; external perimeters extrusion width = 0.40mm
; perimeters extrusion width = 0.40mm
; infill extrusion width = 0.40mm
; solid infill extrusion width = 0.40mm
; top infill extrusion width = 0.40mm

; object:{"name":"din-rail-bracket_raspberry-pi","id":"din-rail-bracket_raspberry-pi id:0 copy 0","object_center":[71.280724,162.412008,0.000000],"boundingbox_center":[71.280724,162.412008,3.750000],"boundingbox_size":[55.997391,64.997391,7.500000]}
EXCLUDE_OBJECT_DEFINE NAME=din_rail_bracket_raspberry_pi_id_0_copy_0 CENTER=71.280724,162.412008 POLYGON=[[43.28,133.51],[43.28,133.25],[43.31,132.99],[43.35,132.73],[43.41,132.47],[43.49,132.22],[43.59,131.98],[43.70,131.75],[43.84,131.52],[43.99,131.31],[44.15,131.10],[44.33,130.91],[44.52,130.74],[44.73,130.58],[44.95,130.43],[45.18,130.30],[45.41,130.19],[45.66,130.10],[45.91,130.02],[46.16,129.97],[46.42,129.93],[46.69,129.91],[95.88,129.91],[96.14,129.93],[96.40,129.97],[96.65,130.02],[96.90,130.10],[97.15,130.19],[97.38,130.30],[97.61,130.43],[97.83,130.58],[98.04,130.74],[98.23,130.91],[98.41,131.10],[98.58,131.31],[98.73,131.52],[98.86,131.75],[98.97,131.98],[99.07,132.22],[99.15,132.47],[99.21,132.73],[99.25,132.99],[99.28,133.25],[99.28,133.51],[99.28,191.32],[99.28,191.58],[99.25,191.84],[99.21,192.10],[99.15,192.35],[99.07,192.60],[98.97,192.84],[98.86,193.08],[98.73,193.30],[98.58,193.52],[98.41,193.72],[98.23,193.91],[98.04,194.09],[97.83,194.25],[97.61,194.39],[97.38,194.52],[97.15,194.63],[96.90,194.73],[96.65,194.80],[96.40,194.86],[96.14,194.89],[95.88,194.91],[46.69,194.91],[46.42,194.89],[46.16,194.86],[45.91,194.80],[45.66,194.73],[45.41,194.63],[45.18,194.52],[44.95,194.39],[44.73,194.25],[44.52,194.09],[44.33,193.91],[44.15,193.72],[43.99,193.52],[43.84,193.30],[43.70,193.08],[43.59,192.84],[43.49,192.60],[43.41,192.35],[43.35,192.10],[43.31,191.84],[43.28,191.58],[43.28,191.32],[43.28,133.51]]
; object:{"name":"spacer_2mm","id":"spacer_2mm id:1 copy 0","object_center":[12.147608,92.825101,0.000000],"boundingbox_center":[12.147608,92.825101,1.000000],"boundingbox_size":[7.000000,7.000000,2.000000]}
EXCLUDE_OBJECT_DEFINE NAME=spacer_2mm_id_1_copy_0 CENTER=12.147608,92.825101 POLYGON=[[8.65,92.83],[8.66,92.56],[8.69,92.30],[8.74,92.05],[8.80,91.79],[8.89,91.55],[8.99,91.31],[9.12,91.08],[9.26,90.85],[9.41,90.64],[9.58,90.44],[9.77,90.26],[9.97,90.09],[10.18,89.93],[10.40,89.79],[10.63,89.67],[10.87,89.57],[11.12,89.48],[11.37,89.41],[11.63,89.36],[11.89,89.33],[12.15,89.33],[12.41,89.33],[12.67,89.36],[12.93,89.41],[13.18,89.48],[13.43,89.57],[13.67,89.67],[13.90,89.79],[14.12,89.93],[14.33,90.09],[14.53,90.26],[14.71,90.44],[14.88,90.64],[15.04,90.85],[15.18,91.08],[15.30,91.31],[15.41,91.55],[15.49,91.79],[15.56,92.05],[15.61,92.30],[15.64,92.56],[15.65,92.83],[15.64,93.09],[15.61,93.35],[15.56,93.60],[15.49,93.86],[15.41,94.10],[15.30,94.34],[15.18,94.58],[15.04,94.80],[14.88,95.01],[14.71,95.21],[14.53,95.39],[14.33,95.56],[14.12,95.72],[13.90,95.86],[13.67,95.98],[13.43,96.08],[13.18,96.17],[12.93,96.24],[12.67,96.29],[12.41,96.32],[12.15,96.33],[11.89,96.32],[11.63,96.29],[11.37,96.24],[11.12,96.17],[10.87,96.08],[10.63,95.98],[10.40,95.86],[10.18,95.72],[9.97,95.56],[9.77,95.39],[9.58,95.21],[9.41,95.01],[9.26,94.80],[9.12,94.58],[8.99,94.34],[8.89,94.10],[8.80,93.86],[8.74,93.60],[8.69,93.35],[8.66,93.09],[8.65,92.83]]
; object:{"name":"spacer_2mm","id":"spacer_2mm id:2 copy 0","object_center":[62.757346,72.184818,0.000000],"boundingbox_center":[62.757346,72.184818,1.000000],"boundingbox_size":[7.000000,7.000000,2.000000]}
EXCLUDE_OBJECT_DEFINE NAME=spacer_2mm_id_2_copy_0 CENTER=62.757346,72.184818 POLYGON=[[59.26,72.18],[59.27,71.92],[59.30,71.66],[59.35,71.41],[59.41,71.15],[59.50,70.91],[59.60,70.67],[59.73,70.43],[59.87,70.21],[60.02,70.00],[60.19,69.80],[60.38,69.62],[60.58,69.45],[60.79,69.29],[61.01,69.15],[61.24,69.03],[61.48,68.93],[61.73,68.84],[61.98,68.77],[62.24,68.72],[62.50,68.69],[62.76,68.68],[63.02,68.69],[63.28,68.72],[63.54,68.77],[63.79,68.84],[64.04,68.93],[64.28,69.03],[64.51,69.15],[64.73,69.29],[64.94,69.45],[65.14,69.62],[65.32,69.80],[65.49,70.00],[65.65,70.21],[65.79,70.43],[65.91,70.67],[66.02,70.91],[66.10,71.15],[66.17,71.41],[66.22,71.66],[66.25,71.92],[66.26,72.18],[66.25,72.45],[66.22,72.71],[66.17,72.96],[66.10,73.22],[66.02,73.46],[65.91,73.70],[65.79,73.93],[65.65,74.16],[65.49,74.37],[65.32,74.57],[65.14,74.75],[64.94,74.92],[64.73,75.08],[64.51,75.22],[64.28,75.34],[64.04,75.44],[63.79,75.53],[63.54,75.60],[63.28,75.65],[63.02,75.68],[62.76,75.68],[62.50,75.68],[62.24,75.65],[61.98,75.60],[61.73,75.53],[61.48,75.44],[61.24,75.34],[61.01,75.22],[60.79,75.08],[60.58,74.92],[60.38,74.75],[60.19,74.57],[60.02,74.37],[59.87,74.16],[59.73,73.93],[59.60,73.70],[59.50,73.46],[59.41,73.22],[59.35,72.96],[59.30,72.71],[59.27,72.45],[59.26,72.18]]
; object:{"name":"spacer_2mm","id":"spacer_2mm id:3 copy 0","object_center":[20.386954,39.261796,0.000000],"boundingbox_center":[20.386954,39.261796,1.000000],"boundingbox_size":[7.000000,7.000000,2.000000]}
EXCLUDE_OBJECT_DEFINE NAME=spacer_2mm_id_3_copy_0 CENTER=20.386954,39.261796 POLYGON=[[16.89,39.26],[16.90,39.00],[16.93,38.74],[16.97,38.48],[17.04,38.23],[17.13,37.98],[17.23,37.74],[17.36,37.51],[17.50,37.29],[17.65,37.08],[17.82,36.88],[18.01,36.70],[18.20,36.53],[18.42,36.37],[18.64,36.23],[18.87,36.11],[19.11,36.00],[19.36,35.92],[19.61,35.85],[19.87,35.80],[20.13,35.77],[20.39,35.76],[20.65,35.77],[20.91,35.80],[21.17,35.85],[21.42,35.92],[21.67,36.00],[21.91,36.11],[22.14,36.23],[22.36,36.37],[22.57,36.53],[22.77,36.70],[22.95,36.88],[23.12,37.08],[23.28,37.29],[23.42,37.51],[23.54,37.74],[23.65,37.98],[23.73,38.23],[23.80,38.48],[23.85,38.74],[23.88,39.00],[23.89,39.26],[23.88,39.52],[23.85,39.78],[23.80,40.04],[23.73,40.29],[23.65,40.54],[23.54,40.78],[23.42,41.01],[23.28,41.23],[23.12,41.44],[22.95,41.64],[22.77,41.83],[22.57,42.00],[22.36,42.15],[22.14,42.29],[21.91,42.42],[21.67,42.52],[21.42,42.61],[21.17,42.67],[20.91,42.72],[20.65,42.75],[20.39,42.76],[20.13,42.75],[19.87,42.72],[19.61,42.67],[19.36,42.61],[19.11,42.52],[18.87,42.42],[18.64,42.29],[18.42,42.15],[18.20,42.00],[18.01,41.83],[17.82,41.64],[17.65,41.44],[17.50,41.23],[17.36,41.01],[17.23,40.78],[17.13,40.54],[17.04,40.29],[16.97,40.04],[16.93,39.78],[16.90,39.52],[16.89,39.26]]
; object:{"name":"spacer_2mm","id":"spacer_2mm id:4 copy 0","object_center":[71.273282,19.506794,0.000000],"boundingbox_center":[71.273282,19.506794,1.000000],"boundingbox_size":[7.000000,7.000000,2.000000]}
EXCLUDE_OBJECT_DEFINE NAME=spacer_2mm_id_4_copy_0 CENTER=71.273282,19.506794 POLYGON=[[67.77,19.51],[67.78,19.25],[67.81,18.99],[67.86,18.73],[67.93,18.48],[68.02,18.23],[68.12,17.99],[68.24,17.76],[68.38,17.54],[68.54,17.32],[68.71,17.13],[68.89,16.94],[69.09,16.77],[69.30,16.61],[69.52,16.48],[69.75,16.35],[69.99,16.25],[70.24,16.16],[70.49,16.09],[70.75,16.05],[71.01,16.02],[71.27,16.01],[71.53,16.02],[71.79,16.05],[72.05,16.09],[72.30,16.16],[72.55,16.25],[72.79,16.35],[73.02,16.48],[73.24,16.61],[73.46,16.77],[73.65,16.94],[73.84,17.13],[74.01,17.32],[74.17,17.54],[74.30,17.76],[74.43,17.99],[74.53,18.23],[74.62,18.48],[74.69,18.73],[74.73,18.99],[74.76,19.25],[74.77,19.51],[74.76,19.77],[74.73,20.03],[74.69,20.29],[74.62,20.54],[74.53,20.79],[74.43,21.03],[74.30,21.26],[74.17,21.48],[74.01,21.69],[73.84,21.89],[73.65,22.07],[73.46,22.24],[73.24,22.40],[73.02,22.54],[72.79,22.66],[72.55,22.76],[72.30,22.85],[72.05,22.92],[71.79,22.97],[71.53,23.00],[71.27,23.01],[71.01,23.00],[70.75,22.97],[70.49,22.92],[70.24,22.85],[69.99,22.76],[69.75,22.66],[69.52,22.54],[69.30,22.40],[69.09,22.24],[68.89,22.07],[68.71,21.89],[68.54,21.69],[68.38,21.48],[68.24,21.26],[68.12,21.03],[68.02,20.79],[67.93,20.54],[67.86,20.29],[67.81,20.03],[67.78,19.77],[67.77,19.51]]
; plater:{"center":[53.963514,105.458749,0.000000],"boundingbox_center":[53.963514,105.458749,3.750000],"boundingbox_size":[90.631811,178.903909,7.500000]}

M73 P0 R29
M107
;TYPE:Custom
CALCULATE_PA MATERIAL=ASA BOWDEN_LENGTH=6 LAYER_HEIGHT=0.25 NOZZLE_SIZE=0.4 PRINT_SPEED=95


START_PRINT EXTRUDER=260 BED=105

G21 ; set units to millimeters
G90 ; use absolute coordinates
M83 ; use relative distances for extrusion
ACTIVATE_EXTRUDER EXTRUDER=extruder
; Filament gcode
M104 S260 T0 ; set temperature
M109 S260 T0 ; set temperature and wait for it to be reached
M190 S105 ; set bed temperature and wait for it to be reached
;LAYER_CHANGE
;Z:0.24
;HEIGHT:0.24
;BEFORE_LAYER_CHANGE
G92 E0.0

G1 E-0.4 F3000
M73 P1 R29
G1 Z0.4 F3600000
;AFTER_LAYER_CHANGE
;0.24




CALCULATE_PA MATERIAL=ASA BOWDEN_LENGTH=6.0 LAYER_HEIGHT=0.2 NOZZLE_SIZE=0.4 PRINT_SPEED=95


G92 E0
G1 X44.73972 Y127.96523
G1 Z0.24
G1 E0.4 F3000
;TYPE:Skirt
;WIDTH:0.4
;HEIGHT:0.25
M107
G1 X45.50671 Y127.73831 E0.02879
G1 X46.16544 Y127.62732 E0.02405
G1 X46.82556 Y127.596 E0.02379
G1 X47.42671 Y127.6305 E0.02168
G1 X51.28374 Y128.0663 E0.13973
G1 X55.08008 Y128.42018 E0.13726
G1 X58.894 Y128.70054 E0.13767
G1 X60.78538 Y128.81169 E0.06821
G1 X64.60407 Y128.97993 E0.1376
G1 X68.41896 Y129.07325 E0.13737
G1 X72.23436 Y129.09192 E0.13735
G1 X76.05686 Y129.03581 E0.13762
G1 X77.95105 Y128.98021 E0.06822
G1 X81.77606 Y128.81169 E0.13783
G1 X83.66751 Y128.70054 E0.06821
G1 X87.47987 Y128.42029 E0.13761
G1 X91.27927 Y128.06613 E0.13737
G1 X95.12583 Y127.63154 E0.13935
G1 X95.60208 Y127.59721 E0.01719
G1 X96.08834 Y127.60288 E0.01751
G1 X96.79827 Y127.68448 E0.02572
G1 X97.36904 Y127.8152 E0.02108
G1 X97.96008 Y128.01863 E0.0225
G1 X98.54958 Y128.29583 E0.02345
G1 X99.05656 Y128.60418 E0.02136
G1 X99.52385 Y128.95873 E0.02112
G1 X100.00974 Y129.41768 E0.02406
G1 X100.3773 Y129.84577 E0.02031
G1 X100.73873 Y130.36881 E0.02289
G1 X101.04942 Y130.94624 E0.0236
G1 X101.28552 Y131.52964 E0.02266
G1 X101.45307 Y132.12065 E0.02211
G1 X101.56153 Y132.76403 E0.02349
G1 X101.5985 Y133.4077 E0.02321
G1 X101.5671 Y134.01037 E0.02172
G1 X101.46094 Y134.66524 E0.02388
G1 X101.3162 Y135.20105 E0.01998
G1 X101.12691 Y135.70654 E0.01943
G1 X100.90955 Y136.15731 E0.01801
G1 X100.58426 Y136.69232 E0.02254
G1 X100.2071 Y137.1866 E0.02238
G1 X99.77876 Y137.63829 E0.02241
G1 X99.3304 Y138.0204 E0.02121
G1 X98.7789 Y138.39748 E0.02405
G1 X98.27141 Y138.66964 E0.02073
G1 X97.71953 Y138.89665 E0.02148
G1 X97.02158 Y139.09556 E0.02613
G1 X96.51871 Y139.18267 E0.01837
G1 X94.45373 Y139.42623 E0.07485
G1 X90.40778 Y139.84256 E0.14642
G1 X86.36825 Y140.17814 E0.14592
G1 X82.59835 Y140.42622 E0.13601
G1 X82.59835 Y184.39792 E1.58293
G1 X86.34672 Y184.64433 E0.13523
G1 X88.40302 Y184.80496 E0.07425
G1 X92.45236 Y185.18176 E0.1464
G1 X96.51835 Y185.64121 E0.1473
G1 X97.05863 Y185.73655 E0.01975
G1 X97.59014 Y185.88423 E0.01986
G1 X98.19896 Y186.12113 E0.02352
G1 X98.76069 Y186.41583 E0.02284
G1 X99.29308 Y186.77533 E0.02313
G1 X99.79453 Y187.20088 E0.02368
G1 X100.26579 Y187.71016 E0.02498
G1 X100.66443 Y188.25278 E0.02424
G1 X101.01338 Y188.87496 E0.02568
G1 X101.28569 Y189.53181 E0.0256
G1 X101.47419 Y190.22096 E0.02572
G1 X101.57803 Y190.9275 E0.02571
G1 X101.59623 Y191.55992 E0.02278
G1 X101.53348 Y192.27672 E0.0259
G1 X101.44112 Y192.75552 E0.01755
G1 X101.30783 Y193.22753 E0.01766
G1 X101.11099 Y193.74287 E0.01986
G1 X100.78849 Y194.37194 E0.02545
G1 X100.42069 Y194.9216 E0.02381
G1 X100.00514 Y195.41114 E0.02312
G1 X99.47265 Y195.9082 E0.02622
G1 X99.0097 Y196.25103 E0.02074
G1 X98.5226 Y196.54108 E0.02041
G1 X97.82217 Y196.85864 E0.02769
G1 X97.05771 Y197.08506 E0.0287
G1 X96.44534 Y197.19112 E0.02237
G1 X95.82828 Y197.22828 E0.02225
G1 X95.12579 Y197.19268 E0.02532
G1 X93.18269 Y196.96349 E0.07043
G1 X89.37375 Y196.57082 E0.13784
G1 X87.48643 Y196.40421 E0.06821
G1 X83.66749 Y196.12348 E0.13785
G1 X81.77607 Y196.01232 E0.06821
G1 X77.95737 Y195.84408 E0.1376
G1 X74.13594 Y195.7506 E0.13761
G1 X72.24156 Y195.73206 E0.0682
G1 X68.41869 Y195.75077 E0.13762
G1 X64.60407 Y195.84408 E0.13736
G1 X60.78538 Y196.01232 E0.1376
G1 X58.89395 Y196.12348 E0.06821
G1 X55.08157 Y196.40373 E0.13761
G1 X51.27715 Y196.75835 E0.13755
G1 X46.89388 Y197.22938 E0.1587
G1 X46.32757 Y197.21095 E0.0204
G1 X45.73933 Y197.13268 E0.02136
G1 X45.01611 Y196.95321 E0.02682
G1 X44.345 Y196.69496 E0.02589
G1 X43.93027 Y196.4835 E0.01676
G1 X43.52583 Y196.23396 E0.01711
G1 X43.08678 Y195.90658 E0.01972
G1 X42.55778 Y195.41252 E0.02606
G1 X42.17354 Y194.96571 E0.02121
G1 X41.65235 Y194.15622 E0.03466
G1 X41.33879 Y193.46404 E0.02735
G1 X41.11574 Y192.7355 E0.02743
G1 X40.99952 Y192.05669 E0.02479
G1 X40.96314 Y191.41602 E0.0231
G1 X41.01859 Y190.62366 E0.02859
G1 X41.16284 Y189.90461 E0.0264
G1 X41.40328 Y189.19213 E0.02707
G1 X41.6612 Y188.64928 E0.02164
G1 X42.09522 Y187.96465 E0.02918
G1 X42.56847 Y187.40344 E0.02643
G1 X43.09929 Y186.90788 E0.02614
G1 X43.77618 Y186.43036 E0.02982
G1 X44.31206 Y186.1439 E0.02187
G1 X45.01353 Y185.87028 E0.02711
G1 X45.51077 Y185.7348 E0.01855
G1 X46.00157 Y185.64718 E0.01795
G1 X50.11061 Y185.1816 E0.14887
G1 X54.16483 Y184.80442 E0.14658
G1 X56.21247 Y184.64449 E0.07394
G1 X59.9631 Y184.39878 E0.13531
G1 X59.9631 Y140.41686 E1.5833
G1 X56.21664 Y140.17982 E0.13514
G1 X54.15845 Y140.01905 E0.07432
G1 X50.11251 Y139.6426 E0.14628
G1 X46.01876 Y139.17918 E0.14831
G1 X45.52052 Y139.09121 E0.01821
G1 X45.04236 Y138.96331 E0.01782
G1 X44.37012 Y138.70635 E0.02591
G1 X43.76691 Y138.3877 E0.02456
G1 X43.23196 Y138.02107 E0.02335
G1 X42.74694 Y137.60375 E0.02303
G1 X42.32571 Y137.14965 E0.0223
G1 X41.95172 Y136.65583 E0.0223
G1 X41.53648 Y135.92451 E0.03027
G1 X41.23085 Y135.15673 E0.02975
G1 X41.07913 Y134.56284 E0.02207
G1 X40.9889 Y133.95834 E0.022
G1 X40.96339 Y133.34763 E0.022
G1 X40.99756 Y132.78724 E0.02021
G1 X41.11643 Y132.08649 E0.02559
G1 X41.27595 Y131.52958 E0.02085
G1 X41.4823 Y131.01099 E0.02009
G1 X41.78909 Y130.42461 E0.02382
G1 X42.16223 Y129.87405 E0.02394
G1 X42.52633 Y129.44493 E0.02026
G1 X42.98461 Y129.00454 E0.02288
G1 X43.47607 Y128.62386 E0.02238
G1 X44.08754 Y128.25742 E0.02566
G1 X44.68496 Y127.98976 E0.02357
M107
G1 X44.82667 Y128.30423 F3600000
M107
G1 F3000
G1 X44.84964 Y128.29388 E0.00091
G1 X45.57518 Y128.07799 E0.02725
G1 X46.19273 Y127.97275 E0.02255
G1 X46.81501 Y127.94231 E0.02243
G1 X47.39261 Y127.9752 E0.02083
G1 X51.24822 Y128.41084 E0.13968
G1 X55.05131 Y128.76535 E0.1375
G1 X58.87111 Y129.04614 E0.13788
G1 X60.7676 Y129.1576 E0.06839
G1 X64.59221 Y129.32609 E0.13782
G1 X68.4139 Y129.41958 E0.13762
G1 X72.23606 Y129.43828 E0.1376
G1 X76.06448 Y129.38209 E0.13783
G1 X77.96372 Y129.32633 E0.0684
G1 X81.79384 Y129.1576 E0.13801
G1 X83.6904 Y129.04614 E0.06839
G1 X87.50864 Y128.76546 E0.13782
G1 X91.31477 Y128.41067 E0.13761
G1 X95.1612 Y127.9761 E0.13935
G1 X95.61957 Y127.94319 E0.01654
G1 X96.07496 Y127.94908 E0.01639
G1 X96.74871 Y128.0274 E0.02442
G1 X97.28216 Y128.1506 E0.01971
G1 X97.83801 Y128.34289 E0.02117
G1 X98.39333 Y128.60507 E0.02211
G1 X98.86852 Y128.89517 E0.02004
G1 X99.30665 Y129.22867 E0.01982
G1 X99.76495 Y129.66287 E0.02273
G1 X100.10825 Y130.06407 E0.01901
G1 X100.44804 Y130.55735 E0.02156
G1 X100.73969 Y131.10152 E0.02223
G1 X100.96075 Y131.65034 E0.0213
G1 X101.11713 Y132.20546 E0.02076
