; generated by SuperSlicer 2.5.59.8 on 2024-04-04 at 18:56:30 UTC


;
;

;
;

;
;

;
;

;
;
; 

; external perimeters extrusion width = 0.40mm
; perimeters extrusion width = 0.40mm
; infill extrusion width = 0.40mm
; solid infill extrusion width = 0.40mm
; top infill extrusion width = 0.40mm
; support material extrusion width = 0.36mm

; object:{"name":"DIN-PSU-LRS200_LRS350-M4_1","id":"DIN-PSU-LRS200_LRS350-M4_1.stl id:0 copy 0","object_center":[36.191993,127.460496,0.000000],"boundingbox_center":[36.191993,127.460496,7.000000],"boundingbox_size":[17.000000,66.303093,14.000000]}
EXCLUDE_OBJECT_DEFINE NAME=DIN_PSU_LRS200_LRS350_M4_1_stl_id_0_copy_0 CENTER=36.191993,127.460496 POLYGON=[[27.69,94.56],[27.94,94.31],[33.44,94.31],[33.69,94.56],[44.46,107.00],[44.49,107.04],[44.51,107.07],[44.54,107.11],[44.56,107.14],[44.58,107.18],[44.60,107.22],[44.62,107.26],[44.63,107.30],[44.65,107.34],[44.66,107.39],[44.67,107.43],[44.68,107.47],[44.68,107.51],[44.69,107.56],[44.69,107.60],[44.69,107.64],[44.69,158.86],[44.69,158.94],[44.69,159.01],[44.68,159.09],[44.67,159.17],[44.65,159.24],[44.63,159.31],[44.61,159.39],[44.59,159.46],[44.56,159.53],[44.53,159.60],[44.49,159.67],[44.46,159.74],[44.42,159.80],[44.38,159.87],[44.33,159.93],[44.28,159.99],[44.23,160.04],[44.18,160.10],[44.12,160.15],[44.07,160.20],[44.01,160.25],[43.95,160.30],[43.88,160.34],[43.82,160.38],[43.75,160.41],[43.68,160.45],[43.61,160.48],[43.54,160.51],[43.47,160.53],[43.39,160.55],[43.32,160.57],[43.25,160.59],[43.17,160.60],[43.09,160.61],[43.02,160.61],[42.94,160.61],[42.87,160.61],[42.79,160.61],[42.71,160.60],[42.64,160.59],[27.94,158.31],[27.69,158.06],[27.69,94.56]]
; plater:{"center":[36.191993,127.460496,0.000000],"boundingbox_center":[36.191993,127.460496,7.000000],"boundingbox_size":[17.000000,66.303093,14.000000]}

M73 P0 R63
M107
;TYPE:Custom
CALCULATE_PA MATERIAL=ABS BOWDEN_LENGTH=6 LAYER_HEIGHT=0.24 NOZZLE_SIZE=0.4 PRINT_SPEED=40


START_PRINT EXTRUDER=270 BED=100

M107
G21 ; set units to millimeters
G90 ; use absolute coordinates
M83 ; use relative distances for extrusion
ACTIVATE_EXTRUDER EXTRUDER=extruder
; Filament gcode
M104 S270 T0 ; set temperature
M109 S270 T0 ; set temperature and wait for it to be reached
M190 S100 ; set bed temperature and wait for it to be reached
;LAYER_CHANGE
;Z:0.24
;HEIGHT:0.24
;BEFORE_LAYER_CHANGE
G92 E0.0

G1 E-1.5 F3000
G1 Z0.2 F3600000
G1 Z0.24
;AFTER_LAYER_CHANGE
;0.24




CALCULATE_PA MATERIAL=ABS BOWDEN_LENGTH=6.0 LAYER_HEIGHT=0.2 NOZZLE_SIZE=0.4 PRINT_SPEED=40


G92 E0
G1 Z0.44
G1 X23.562 Y83.812
G1 Z0.24
G1 E1.5 F3000
;TYPE:Skirt
;WIDTH:0.4
M107
G1 F1200
G1 X25.336 Y83.577 E0.06223
G1 X36.107 Y83.58 E0.37453
G1 X38.27 Y83.952 E0.07631
G1 X40.351 Y84.819 E0.07839
G1 X43.795 Y87.259 E0.14678
G1 X45.224 Y88.85 E0.07438
G1 X46.111 Y90.329 E0.05993
G1 X46.604 Y91.739 E0.05194
G1 X47.641 Y92.199 E0.03947
G1 X51.956 Y94.697 E0.17337
G1 X52.878 Y95.337 E0.03903
G1 X53.753 Y96.038 E0.03898
G1 X54.611 Y96.833 E0.04068
G1 X55.775 Y98.161 E0.06141
G1 X56.562 Y99.251 E0.04675
G1 X57.566 Y101.044 E0.07146
G1 X58.186 Y102.547 E0.05655
G1 X58.648 Y104.104 E0.05646
G1 X58.963 Y105.852 E0.06175
G1 X59.067 Y112.769 E0.24057
G1 X58.713 Y115.03 E0.07956
G1 X57.946 Y116.971 E0.07259
G1 X56.759 Y118.736 E0.07397
G1 X54.04 Y121.502 E0.13485
G1 X54.031 Y132.982 E0.39921
G1 X56.175 Y135.479 E0.11444
G1 X57.396 Y137.486 E0.08171
G1 X58.207 Y139.404 E0.07241
G1 X58.709 Y141.159 E0.06348
G1 X59.034 Y143.778 E0.09176
G1 X59.039 Y159.466 E0.5455
G1 X58.93 Y160.841 E0.04799
G1 X58.699 Y162.206 E0.04812
G1 X58.4 Y163.405 E0.04297
G1 X57.884 Y164.874 E0.05415
G1 X57.467 Y165.831 E0.0363
G1 X56.777 Y167.112 E0.05061
G1 X56.225 Y167.976 E0.03563
G1 X55.278 Y169.222 E0.05445
G1 X54.45 Y170.137 E0.04291
G1 X53.414 Y171.101 E0.04918
G1 X52.441 Y171.875 E0.04325
G1 X51.169 Y172.708 E0.05286
G1 X50.212 Y173.238 E0.03804
G1 X49.008 Y173.784 E0.04597
G1 X47.799 Y174.221 E0.04473
G1 X46.528 Y174.567 E0.04579
G1 X44.971 Y174.843 E0.05499
G1 X43.695 Y174.955 E0.04455
G1 X42.486 Y174.971 E0.04204
G1 X40.261 Y174.75 E0.07775
G1 X38.709 Y174.409 E0.05525
G1 X36.89 Y173.793 E0.06679
G1 X35.651 Y173.23 E0.04732
G1 X34.347 Y172.486 E0.05219
G1 X33.285 Y171.757 E0.04483
G1 X31.838 Y170.538 E0.0658
G1 X30.933 Y169.6 E0.04531
G1 X30.48 Y169.034 E0.0252
G1 X24.895 Y169.009 E0.19422
G1 X22.768 Y168.605 E0.07528
G1 X20.783 Y167.753 E0.07512
G1 X19.807 Y167.109 E0.04067
G1 X17.425 Y165.218 E0.10573
G1 X16.44 Y164.214 E0.04893
G1 X15.608 Y163.092 E0.04859
G1 X14.491 Y160.616 E0.09444
G1 X13.67 Y157.222 E0.12142
G1 X13.441 Y155.769 E0.05113
G1 X13.338 Y154.208 E0.05441
G1 X13.346 Y98.113 E1.95059
G1 X13.464 Y96.652 E0.05098
G1 X13.718 Y95.179 E0.05196
G1 X14.618 Y91.755 E0.12312
G1 X15.602 Y89.606 E0.08219
G1 X16.652 Y88.187 E0.06139
G1 X17.631 Y87.229 E0.04761
G1 X20.21 Y85.255 E0.11295
M73 P0 R62
G1 X21.914 Y84.337 E0.06732
G1 X23.505 Y83.83 E0.05805
M107
G1 X23.611 Y84.159 F3600000
M107
G1 F1200
G1 X25.348 Y83.926 E0.06095
G1 X36.092 Y83.928 E0.37361
G1 X38.191 Y84.292 E0.07407
G1 X40.198 Y85.133 E0.07568
G1 X43.577 Y87.532 E0.14411
G1 X44.934 Y89.044 E0.07063
G1 X45.803 Y90.492 E0.05873
G1 X46.324 Y91.996 E0.05534
G1 X47.475 Y92.505 E0.04376
G1 X51.763 Y94.987 E0.1723
G1 X52.664 Y95.613 E0.03816
G1 X53.53 Y96.306 E0.03855
G1 X54.367 Y97.082 E0.0397
G1 X55.508 Y98.384 E0.06018
G1 X56.273 Y99.447 E0.04554
G1 X57.248 Y101.187 E0.06935
G1 X57.855 Y102.655 E0.05525
G1 X58.311 Y104.194 E0.05582
G1 X58.615 Y105.871 E0.05927
G1 X58.718 Y112.76 E0.23956
G1 X58.381 Y114.92 E0.07603
G1 X57.646 Y116.793 E0.06995
G1 X56.479 Y118.528 E0.07274
G1 X53.692 Y121.359 E0.13812
G1 X53.682 Y133.111 E0.40866
G1 X55.901 Y135.695 E0.11844
G1 X57.08 Y137.634 E0.0789
G1 X57.882 Y139.53 E0.0716
G1 X58.37 Y141.242 E0.0619
G1 X58.686 Y143.81 E0.08998
G1 X58.691 Y159.459 E0.54415
G1 X58.583 Y160.806 E0.04699
G1 X58.357 Y162.141 E0.04708
M73 P1 R62
G1 X58.068 Y163.297 E0.04144
G1 X57.557 Y164.753 E0.05365
G1 X57.156 Y165.672 E0.03488
G1 X56.48 Y166.93 E0.04968
G1 X55.943 Y167.77 E0.03466
G1 X55.014 Y168.994 E0.05343
G1 X54.207 Y169.887 E0.04187
G1 X53.182 Y170.841 E0.04868
G1 X52.244 Y171.588 E0.0417
G1 X50.984 Y172.413 E0.05236
G1 X50.062 Y172.924 E0.03664
G1 X48.871 Y173.463 E0.04548
G1 X47.687 Y173.89 E0.04376
G1 X46.444 Y174.229 E0.04479
G1 X44.933 Y174.497 E0.05337
G1 X43.671 Y174.607 E0.04406
G1 X42.492 Y174.622 E0.04102
G1 X40.306 Y174.404 E0.07638
G1 X38.812 Y174.076 E0.05319
G1 X37.026 Y173.472 E0.06555
G1 X35.817 Y172.923 E0.04617
G1 X34.526 Y172.187 E0.05166
G1 X33.489 Y171.475 E0.04377
G1 X32.082 Y170.289 E0.06397
G1 X31.189 Y169.364 E0.04471
G1 X30.649 Y168.686 E0.03015
G1 X24.944 Y168.664 E0.19839
G1 X22.888 Y168.277 E0.07275
G1 X20.962 Y167.454 E0.07283
G1 X20.018 Y166.831 E0.03934
G1 X17.666 Y164.966 E0.10435
G1 X16.713 Y163.997 E0.0473
G1 X15.899 Y162.899 E0.04752
G1 X14.826 Y160.518 E0.0908
G1 X14.011 Y157.147 E0.12061
G1 X13.789 Y155.738 E0.04958
G1 X13.687 Y154.202 E0.05353
G1 X13.694 Y98.12 E1.95015
G1 X13.81 Y96.688 E0.04998
G1 X14.06 Y95.246 E0.05088
G1 X14.951 Y91.858 E0.12181
G1 X15.911 Y89.768 E0.07998
G1 X16.906 Y88.426 E0.05808
G1 X17.851 Y87.5 E0.04603
G1 X20.411 Y85.54 E0.11209
G1 X22.036 Y84.664 E0.0642
G1 X23.553 Y84.178 E0.05541
M107
G1 X23.66 Y84.507 F3600000
M107
G1 F1200
G1 X23.685 Y84.498 E0.00093
G1 X25.359 Y84.274 E0.05874
G1 X36.077 Y84.277 E0.37268
G1 X38.111 Y84.632 E0.07182
G1 X40.045 Y85.447 E0.07297
G1 X43.36 Y87.805 E0.14144
G1 X44.644 Y89.237 E0.0669
G1 X45.494 Y90.656 E0.05752
G1 X46.044 Y92.253 E0.05874
G1 X47.308 Y92.811 E0.04806
G1 X51.582 Y95.285 E0.17172
G1 X52.451 Y95.889 E0.0368
G1 X53.307 Y96.574 E0.03812
G1 X54.123 Y97.332 E0.03872
G1 X55.24 Y98.607 E0.05895
G1 X55.984 Y99.642 E0.04433
G1 X56.93 Y101.329 E0.06724
G1 X57.529 Y102.78 E0.05457
G1 X57.974 Y104.284 E0.05455
G1 X58.267 Y105.891 E0.05679
G1 X58.37 Y112.75 E0.23855
G1 X58.05 Y114.811 E0.07253
G1 X57.346 Y116.614 E0.0673
G1 X56.198 Y118.32 E0.07151
G1 X53.467 Y121.092 E0.1353
G1 X53.343 Y121.188 E0.00546
G1 X53.333 Y133.24 E0.41908
G1 X55.627 Y135.911 E0.12244
G1 X56.764 Y137.781 E0.07609
G1 X57.556 Y139.656 E0.07078
G1 X58.031 Y141.324 E0.06032
G1 X58.339 Y143.842 E0.0882
G1 X58.342 Y159.452 E0.5428
G1 X58.237 Y160.77 E0.04599
G1 X58.014 Y162.076 E0.04605
G1 X57.737 Y163.189 E0.0399
G1 X57.23 Y164.631 E0.05314
G1 X56.846 Y165.513 E0.03347
G1 X56.182 Y166.748 E0.04875
G1 X55.661 Y167.565 E0.03369
G1 X54.75 Y168.766 E0.05241
G1 X53.964 Y169.637 E0.04082
G1 X52.949 Y170.581 E0.04818
G1 X52.046 Y171.301 E0.04016
G1 X50.798 Y172.118 E0.05186
G1 X49.912 Y172.609 E0.03524
G1 X48.733 Y173.143 E0.045
G1 X47.589 Y173.556 E0.04231
G1 X46.36 Y173.89 E0.04427
G1 X44.895 Y174.15 E0.05174
G1 X43.647 Y174.26 E0.04356
G1 X42.497 Y174.273 E0.04
G1 X40.351 Y174.059 E0.07501
G1 X38.914 Y173.743 E0.05114
G1 X37.162 Y173.151 E0.06432
G1 X35.982 Y172.617 E0.04503
G1 X34.705 Y171.888 E0.05112
G1 X33.693 Y171.192 E0.04271
G1 X32.327 Y170.041 E0.06215
G1 X31.446 Y169.128 E0.0441
G1 X30.817 Y168.338 E0.0351
G1 X24.992 Y168.318 E0.20257
G1 X23.007 Y167.949 E0.07022
G1 X21.14 Y167.154 E0.07053
G1 X20.228 Y166.553 E0.038
G1 X17.907 Y164.714 E0.10297
G1 X16.985 Y163.779 E0.04565
G1 X16.19 Y162.707 E0.04644
G1 X15.161 Y160.421 E0.08717
G1 X14.351 Y157.072 E0.11981
G1 X14.136 Y155.707 E0.04803
G1 X14.035 Y154.197 E0.05265
G1 X14.043 Y98.127 E1.9497
G1 X14.155 Y96.739 E0.04842
G1 X14.402 Y95.313 E0.05035
G1 X15.284 Y91.961 E0.1205
G1 X16.22 Y89.93 E0.07777
G1 X17.16 Y88.665 E0.05479
G1 X18.072 Y87.77 E0.04444
G1 X20.611 Y85.825 E0.11124
G1 X22.158 Y84.991 E0.0611
G1 X23.602 Y84.525 E0.05277
M107
G1 X23.709 Y84.854 F3600000
M107
G1 F1200
G1 X23.747 Y84.842 E0.00139
G1 X25.371 Y84.623 E0.05698
G1 X36.062 Y84.625 E0.37175
G1 X38.032 Y84.972 E0.06955
G1 X39.892 Y85.76 E0.07025
G1 X43.142 Y88.077 E0.13879
G1 X44.353 Y89.431 E0.06317
G1 X45.186 Y90.819 E0.0563
G1 X45.763 Y92.51 E0.06214
G1 X47.142 Y93.118 E0.05238
G1 X51.401 Y95.583 E0.17114
G1 X52.238 Y96.165 E0.03543
G1 X53.084 Y96.842 E0.03769
G1 X53.88 Y97.581 E0.03774
G1 X54.972 Y98.83 E0.05772
G1 X55.696 Y99.838 E0.04312
G1 X56.612 Y101.472 E0.06515
G1 X57.197 Y102.887 E0.05326
G1 X57.638 Y104.374 E0.05391
G1 X57.918 Y105.91 E0.05432
G1 X58.021 Y112.741 E0.23753
G1 X57.718 Y114.703 E0.06904
G1 X57.046 Y116.436 E0.06462
G1 X55.918 Y118.112 E0.07027
G1 X53.228 Y120.838 E0.13317
G1 X52.995 Y121.015 E0.01017
G1 X52.985 Y133.399 E0.43065
G1 X53.127 Y133.522 E0.00655
G1 X55.353 Y136.127 E0.11914
G1 X56.448 Y137.928 E0.0733
G1 X57.231 Y139.782 E0.06997
G1 X57.692 Y141.406 E0.05872
G1 X57.992 Y143.874 E0.08642
G1 X57.994 Y159.445 E0.54146
G1 X57.892 Y160.719 E0.04446
G1 X57.672 Y162.011 E0.04555
G1 X57.405 Y163.081 E0.03837
G1 X56.904 Y164.51 E0.05263
G1 X56.536 Y165.355 E0.03206
G1 X55.885 Y166.567 E0.04783
G1 X55.379 Y167.361 E0.03273
G1 X54.487 Y168.538 E0.05139
G1 X53.721 Y169.387 E0.03977
G1 X52.717 Y170.322 E0.04769
G1 X51.849 Y171.014 E0.03861
G1 X50.613 Y171.822 E0.05135
G1 X49.762 Y172.295 E0.03385
G1 X48.596 Y172.823 E0.04451
G1 X47.49 Y173.222 E0.04086
G1 X46.276 Y173.552 E0.04375
G1 X44.857 Y173.804 E0.05012
G1 X43.623 Y173.912 E0.04307
G1 X42.503 Y173.925 E0.03897
G1 X40.396 Y173.713 E0.07364
G1 X39.017 Y173.41 E0.04909
G1 X37.298 Y172.83 E0.06309
G1 X36.148 Y172.31 E0.04388
G1 X34.884 Y171.589 E0.05058
G1 X33.898 Y170.91 E0.04164
G1 X32.571 Y169.792 E0.06033
G1 X31.702 Y168.892 E0.0435
G1 X30.986 Y167.99 E0.04005
G1 X25.04 Y167.973 E0.20676
G1 X23.089 Y167.61 E0.06901
G1 X21.319 Y166.855 E0.06692
G1 X20.438 Y166.275 E0.03666
G1 X18.148 Y164.462 E0.10159
G1 X17.242 Y163.543 E0.04485
G1 X16.481 Y162.514 E0.04451
G1 X15.495 Y160.323 E0.08354
G1 X14.692 Y156.997 E0.119
G1 X14.483 Y155.676 E0.04648
G1 X14.384 Y154.191 E0.05177
G1 X14.391 Y98.134 E1.94925
G1 X14.5 Y96.791 E0.04687
G1 X14.744 Y95.379 E0.04981
G1 X15.617 Y92.065 E0.11918
G1 X16.529 Y90.093 E0.07556
G1 X17.414 Y88.904 E0.05152
G1 X18.292 Y88.04 E0.04285
G1 X20.812 Y86.11 E0.11038
G1 X22.281 Y85.318 E0.05802
G1 X23.652 Y84.873 E0.05013
M107
G1 X23.759 Y85.201 F3600000
M107
G1 F1200
G1 X23.81 Y85.185 E0.00183
G1 X25.383 Y84.971 E0.0552
G1 X36.046 Y84.974 E0.37081
G1 X37.951 Y85.312 E0.06727
G1 X39.738 Y86.073 E0.06753
G1 X42.923 Y88.35 E0.13615
G1 X44.082 Y89.65 E0.06058
G1 X44.877 Y90.982 E0.05394
G1 X45.483 Y92.768 E0.06556
G1 X46.976 Y93.424 E0.05671
G1 X51.22 Y95.881 E0.17055
G1 X52.025 Y96.44 E0.03407
G1 X52.862 Y97.11 E0.03726
G1 X53.636 Y97.83 E0.03675
G1 X54.704 Y99.053 E0.05649
G1 X55.407 Y100.033 E0.04191
G1 X56.302 Y101.633 E0.06378
G1 X56.872 Y103.012 E0.05187
G1 X57.301 Y104.464 E0.05263
G1 X57.573 Y105.959 E0.05284
G1 X57.672 Y112.731 E0.23553
G1 X57.386 Y114.595 E0.06557
G1 X56.746 Y116.257 E0.06193
G1 X55.638 Y117.904 E0.06902
G1 X52.99 Y120.584 E0.13102
G1 X52.647 Y120.84 E0.01487
G1 X52.636 Y133.561 E0.44236
G1 X52.872 Y133.76 E0.01071
G1 X55.079 Y136.343 E0.11816
G1 X56.132 Y138.076 E0.07051
G1 X56.906 Y139.907 E0.06915
G1 X57.353 Y141.488 E0.05712
G1 X57.645 Y143.905 E0.08465
G1 X57.645 Y159.438 E0.54013
G1 X57.547 Y160.668 E0.04292
G1 X57.329 Y161.946 E0.04505
G1 X57.074 Y162.974 E0.03683
G1 X56.577 Y164.388 E0.05213
G1 X56.225 Y165.196 E0.03066
G1 X55.587 Y166.385 E0.04691
G1 X55.097 Y167.156 E0.03176
G1 X54.223 Y168.31 E0.05037
G1 X53.478 Y169.138 E0.03871
G1 X52.484 Y170.062 E0.04719
G1 X51.651 Y170.727 E0.03707
G1 X50.427 Y171.527 E0.05085
G1 X49.611 Y171.98 E0.03245
G1 X48.458 Y172.503 E0.04402
G1 X47.392 Y172.887 E0.03941
G1 X46.192 Y173.214 E0.04324
G1 X44.819 Y173.457 E0.0485
G1 X43.6 Y173.564 E0.04257
G1 X42.509 Y173.576 E0.03794
G1 X40.441 Y173.367 E0.07227
G1 X39.119 Y173.076 E0.04706
G1 X37.433 Y172.508 E0.06186
G1 X36.314 Y172.003 E0.04272
G1 X35.063 Y171.29 E0.05004
G1 X34.116 Y170.638 E0.04
G1 X32.816 Y169.544 E0.0591
G1 X31.959 Y168.656 E0.04289
G1 X31.155 Y167.642 E0.045
G1 X25.088 Y167.627 E0.21097
G1 X23.208 Y167.282 E0.06647
G1 X21.497 Y166.555 E0.06462
G1 X20.649 Y165.997 E0.03532
G1 X18.388 Y164.209 E0.10021
M73 P2 R62
G1 X17.515 Y163.326 E0.04319
G1 X16.772 Y162.322 E0.04342
G1 X15.83 Y160.226 E0.07992
G1 X15.032 Y156.922 E0.1182
G1 X14.83 Y155.645 E0.04493
G1 X14.732 Y154.185 E0.05089
G1 X14.74 Y98.141 E1.9488
G1 X14.845 Y96.843 E0.04532
G1 X15.086 Y95.446 E0.04928
G1 X15.95 Y92.169 E0.11786
G1 X16.837 Y90.256 E0.07333
G1 X17.668 Y89.143 E0.04827
G1 X18.512 Y88.31 E0.04126
G1 X21.013 Y86.395 E0.10953
G1 X22.404 Y85.644 E0.05496
G1 X23.702 Y85.22 E0.0475
M107
G1 X23.81 Y85.548 F3600000
M107
G1 F1200
G1 X23.872 Y85.528 E0.00227
G1 X25.394 Y85.32 E0.05342
G1 X36.031 Y85.322 E0.36986
G1 X37.87 Y85.651 E0.06497
G1 X39.583 Y86.386 E0.06481
G1 X42.705 Y88.622 E0.13351
G1 X43.811 Y89.869 E0.05797
G1 X44.568 Y91.144 E0.05158
G1 X45.202 Y93.025 E0.069
G1 X46.809 Y93.731 E0.06106
G1 X51.04 Y96.179 E0.16997
G1 X51.812 Y96.716 E0.0327
G1 X52.639 Y97.378 E0.03683
G1 X53.392 Y98.079 E0.03576
G1 X54.436 Y99.276 E0.05526
G1 X55.118 Y100.228 E0.0407
G1 X55.993 Y101.794 E0.0624
G1 X56.54 Y103.119 E0.04985
G1 X56.964 Y104.553 E0.05199
G1 X57.227 Y106.007 E0.05136
G1 X57.324 Y112.722 E0.23352
G1 X57.054 Y114.488 E0.06214
G1 X56.446 Y116.079 E0.05923
G1 X55.358 Y117.696 E0.06776
G1 X52.751 Y120.329 E0.12885
G1 X52.298 Y120.664 E0.01958
G1 X52.288 Y133.725 E0.45417
G1 X52.616 Y133.997 E0.01486
G1 X54.805 Y136.559 E0.11715
G1 X55.816 Y138.223 E0.06772
G1 X56.581 Y140.033 E0.06833
G1 X57.014 Y141.57 E0.05552
G1 X57.297 Y143.936 E0.08288
G1 X57.297 Y159.431 E0.5388
G1 X57.202 Y160.618 E0.04139
G1 X56.987 Y161.881 E0.04456
G1 X56.742 Y162.866 E0.0353
G1 X56.255 Y164.255 E0.05118
G1 X55.915 Y165.038 E0.02969
G1 X55.29 Y166.204 E0.04599
G1 X54.815 Y166.951 E0.03079
G1 X53.959 Y168.083 E0.04935
G1 X53.235 Y168.888 E0.03765
G1 X52.252 Y169.803 E0.04669
G1 X51.453 Y170.44 E0.03552
G1 X50.242 Y171.232 E0.05034
G1 X49.461 Y171.666 E0.03105
G1 X48.321 Y172.182 E0.04354
G1 X47.294 Y172.553 E0.03796
G1 X46.108 Y172.876 E0.04272
G1 X44.781 Y173.111 E0.04688
G1 X43.576 Y173.216 E0.04207
G1 X42.515 Y173.228 E0.03691
G1 X40.486 Y173.021 E0.07091
