; generated by PrusaSlicer 2.7.2+MacOS-arm64 on 2024-03-09 at 22:58:34 UTC


;
;

;
;

;
;

;
;

;
;
; 

; external perimeters extrusion width = 0.45mm
; perimeters extrusion width = 0.45mm
; infill extrusion width = 0.45mm
; solid infill extrusion width = 0.45mm
; top infill extrusion width = 0.40mm

; external perimeters extrusion width = 0.45mm
; perimeters extrusion width = 0.45mm
; infill extrusion width = 0.45mm
; solid infill extrusion width = 0.45mm
; top infill extrusion width = 0.40mm

M73 P0 R110

EXCLUDE_OBJECT_DEFINE NAME='DIN_MOUNT_M_R_stl' CENTER=44.562,25.891 POLYGON=[[69.362,20.491],[69.362,31.291],[68.862,31.791],[20.262,31.791],[19.762,31.291],[19.762,20.491],[20.262,19.991],[68.862,19.991]]
EXCLUDE_OBJECT_DEFINE NAME='DIN_MOUNT_M_L_stl' CENTER=64.229,193.217 POLYGON=[[89.029,187.817],[89.029,198.617],[88.529,199.117],[39.929,199.117],[39.429,198.617],[39.429,187.817],[39.929,187.317],[88.529,187.317]]

;TYPE:Custom
CALCULATE_PA MATERIAL=PLA BOWDEN_LENGTH=6 LAYER_HEIGHT=0.2 NOZZLE_SIZE=0.4 PRINT_SPEED=70


START_PRINT EXTRUDER=230 BED=65
G21 ; set units to millimeters
G90 ; use absolute coordinates
M83 ; use relative distances for extrusion
; Filament gcode
M107
;LAYER_CHANGE
;Z:0.2
;HEIGHT:0.2
G1 E-1 F3000
EXCLUDE_OBJECT_START NAME='DIN_MOUNT_M_R_stl'
G1 Z.2 F60000
G1 X20.801 Y21.03
G1 Z.2
G1 E1 F3000
;TYPE:Perimeter
;WIDTH:0.45
G1 F1800
G1 X68.322 Y21.032 E1.76938
G1 X68.322 Y30.752 E.36191
G1 X20.801 Y30.752 E1.76938
G1 X20.801 Y21.09 E.35975
G1 X20.801 Y21.09 F60000
G1 X20.523 Y20.623
G1 F1800
G1 X68.601 Y20.624 E1.79012
G1 X68.729 Y20.753 E.00677
G1 X68.729 Y31.029 E.38261
G1 X68.6 Y31.159 E.00682
G1 X20.523 Y31.159 E1.79008
G1 X20.394 Y31.029 E.00682
G1 X20.394 Y20.753 E.38261
G1 X20.481 Y20.665 E.00461
G1 X20.481 Y20.665 F60000
G1 X20.355 Y20.216
;TYPE:External perimeter
G1 F1800
G1 X68.77 Y20.217 E1.80267
G1 X69.137 Y20.584 E.01932
G1 X69.137 Y31.198 E.3952
G1 X68.768 Y31.566 E.0194
G1 X20.355 Y31.566 E1.80259
G1 X19.987 Y31.198 E.01938
G1 X19.987 Y20.584 E.3952
G1 X20.312 Y20.258 E.01714
G1 E-1 F3000
G1 X20.312 Y20.258 F60000
G1 X67.371 Y21.154
G1 E1 F3000
;TYPE:Solid infill
;WIDTH:0.453003
G1 F1800
G1 X68.017 Y21.8 E.03427
G1 X68.017 Y22.38 E.02175
G1 X66.974 Y21.337 E.05533
G1 X66.394 Y21.337 E.02175
G1 X68.017 Y22.96 E.08609
G1 X68.017 Y23.54 E.02175
G1 X65.814 Y21.337 E.11686
G1 X65.234 Y21.337 E.02175
G1 X68.017 Y24.12 E.14762
G1 X68.017 Y24.699 E.02172
G1 X64.654 Y21.337 E.17836
G1 X64.074 Y21.337 E.02175
G1 X68.017 Y25.279 E.20913
G1 X68.017 Y25.859 E.02175
G1 X63.494 Y21.337 E.2399
G1 X62.914 Y21.337 E.02175
G1 X68.017 Y26.439 E.27066
G1 X68.017 Y27.019 E.02175
G1 X62.334 Y21.337 E.30143
G1 X61.755 Y21.337 E.02172
G1 X68.017 Y27.599 E.33217
G1 X68.017 Y28.179 E.02175
G1 X61.175 Y21.337 E.36293
G1 X60.595 Y21.337 E.02175
G1 X68.017 Y28.759 E.3937
G1 X68.017 Y29.339 E.02175
G1 X60.015 Y21.337 E.42447
G1 X59.435 Y21.337 E.02175
G1 X68.017 Y29.919 E.45523
G1 X68.017 Y30.446 E.01977
G1 X67.964 Y30.446 E.00199
G1 X58.855 Y21.337 E.48319
G1 X58.275 Y21.336 E.02175
G1 X67.385 Y30.446 E.48324
G1 X66.805 Y30.446 E.02175
G1 X57.695 Y21.336 E.48324
G1 X57.115 Y21.336 E.02175
G1 X66.225 Y30.446 E.48324
G1 X65.645 Y30.446 E.02175
G1 X56.535 Y21.336 E.48324
G1 X55.955 Y21.336 E.02175
G1 X65.065 Y30.446 E.48324
G1 X64.485 Y30.446 E.02175
G1 X55.375 Y21.336 E.48324
G1 X54.795 Y21.336 E.02175
G1 X63.905 Y30.446 E.48324
G1 X63.325 Y30.446 E.02175
G1 X54.215 Y21.336 E.48324
G1 X53.635 Y21.336 E.02175
G1 X62.745 Y30.446 E.48324
G1 X62.165 Y30.446 E.02175
G1 X53.055 Y21.336 E.48324
G1 X52.475 Y21.336 E.02175
G1 X61.585 Y30.446 E.48324
G1 X61.005 Y30.446 E.02175
G1 X51.895 Y21.336 E.48324
G1 X51.315 Y21.336 E.02175
G1 X60.425 Y30.446 E.48324
G1 X59.845 Y30.446 E.02175
G1 X50.735 Y21.336 E.48324
G1 X50.155 Y21.336 E.02175
G1 X59.265 Y30.446 E.48324
G1 X58.685 Y30.446 E.02175
G1 X49.575 Y21.336 E.48324
G1 X48.995 Y21.336 E.02175
G1 X58.105 Y30.446 E.48324
G1 X57.525 Y30.446 E.02175
G1 X48.415 Y21.336 E.48324
G1 X47.835 Y21.336 E.02175
M73 P0 R109
G1 X56.945 Y30.446 E.48324
G1 X56.366 Y30.446 E.02172
G1 X47.255 Y21.336 E.48327
G1 X46.675 Y21.336 E.02175
G1 X55.786 Y30.446 E.48327
G1 X55.206 Y30.446 E.02175
G1 X46.095 Y21.336 E.48327
G1 X45.516 Y21.336 E.02172
G1 X54.626 Y30.446 E.48324
G1 X54.046 Y30.446 E.02175
G1 X44.936 Y21.336 E.48324
G1 X44.356 Y21.336 E.02175
G1 X53.466 Y30.446 E.48324
G1 X52.886 Y30.446 E.02175
G1 X43.776 Y21.336 E.48324
G1 X43.196 Y21.336 E.02175
G1 X52.306 Y30.446 E.48324
G1 X51.726 Y30.446 E.02175
G1 X42.616 Y21.336 E.48324
G1 X42.036 Y21.336 E.02175
G1 X51.146 Y30.446 E.48324
G1 X50.566 Y30.446 E.02175
G1 X41.456 Y21.336 E.48324
G1 X40.876 Y21.336 E.02175
G1 X49.986 Y30.446 E.48324
G1 X49.406 Y30.446 E.02175
G1 X40.296 Y21.336 E.48324
G1 X39.716 Y21.336 E.02175
G1 X48.826 Y30.446 E.48324
G1 X48.246 Y30.446 E.02175
G1 X39.136 Y21.336 E.48324
G1 X38.556 Y21.336 E.02175
G1 X47.666 Y30.446 E.48324
G1 X47.086 Y30.446 E.02175
G1 X37.976 Y21.336 E.48324
G1 X37.396 Y21.336 E.02175
G1 X46.506 Y30.446 E.48324
G1 X45.927 Y30.446 E.02172
G1 X36.816 Y21.336 E.48327
G1 X36.236 Y21.336 E.02175
G1 X45.347 Y30.446 E.48327
G1 X44.767 Y30.446 E.02175
G1 X35.656 Y21.336 E.48327
G1 X35.076 Y21.336 E.02175
G1 X44.187 Y30.446 E.48327
G1 X43.607 Y30.446 E.02175
G1 X34.496 Y21.336 E.48327
G1 X33.916 Y21.336 E.02175
G1 X43.027 Y30.446 E.48327
G1 X42.447 Y30.446 E.02175
G1 X33.336 Y21.336 E.48327
G1 X32.756 Y21.336 E.02175
G1 X41.867 Y30.446 E.48327
G1 X41.287 Y30.446 E.02175
G1 X32.176 Y21.336 E.48327
G1 X31.596 Y21.336 E.02175
G1 X40.707 Y30.446 E.48327
G1 X40.127 Y30.446 E.02175
G1 X31.016 Y21.336 E.48327
G1 X30.436 Y21.336 E.02175
G1 X39.547 Y30.446 E.48327
G1 X38.967 Y30.446 E.02175
G1 X29.856 Y21.336 E.48327
G1 X29.276 Y21.335 E.02175
G1 X38.387 Y30.446 E.48329
G1 X37.807 Y30.446 E.02175
G1 X28.697 Y21.335 E.48327
G1 X28.117 Y21.335 E.02175
G1 X37.227 Y30.446 E.48327
G1 X36.647 Y30.446 E.02175
G1 X27.537 Y21.335 E.48327
G1 X26.957 Y21.335 E.02175
G1 X36.067 Y30.446 E.48327
G1 X35.488 Y30.446 E.02172
G1 X26.377 Y21.335 E.48329
G1 X25.797 Y21.335 E.02175
G1 X34.908 Y30.446 E.48329
G1 X34.328 Y30.446 E.02175
G1 X25.217 Y21.335 E.48329
G1 X24.637 Y21.335 E.02175
G1 X33.748 Y30.446 E.48329
G1 X33.168 Y30.446 E.02175
G1 X24.057 Y21.335 E.48329
G1 X23.477 Y21.335 E.02175
G1 X32.588 Y30.446 E.48329
G1 X32.008 Y30.446 E.02175
G1 X22.897 Y21.335 E.48329
G1 X22.317 Y21.335 E.02175
G1 X31.428 Y30.446 E.48329
G1 X30.848 Y30.446 E.02175
G1 X21.737 Y21.335 E.48329
G1 X21.157 Y21.335 E.02175
G1 X30.268 Y30.446 E.48329
G1 X29.688 Y30.446 E.02175
G1 X21.106 Y21.864 E.45523
G1 X21.106 Y22.444 E.02175
G1 X29.108 Y30.446 E.42447
G1 X28.528 Y30.446 E.02175
G1 X21.106 Y23.024 E.3937
G1 X21.106 Y23.604 E.02175
G1 X27.948 Y30.446 E.36293
G1 X27.368 Y30.446 E.02175
G1 X21.106 Y24.184 E.33217
G1 X21.106 Y24.764 E.02175
G1 X26.788 Y30.446 E.3014
G1 X26.208 Y30.446 E.02175
G1 X21.106 Y25.344 E.27063
G1 X21.106 Y25.924 E.02175
G1 X25.628 Y30.446 E.23987
G1 X25.049 Y30.446 E.02172
G1 X21.106 Y26.504 E.20913
G1 X21.106 Y27.084 E.02175
G1 X24.469 Y30.446 E.17836
G1 X23.889 Y30.446 E.02175
G1 X21.106 Y27.664 E.1476
G1 X21.106 Y28.244 E.02175
G1 X23.309 Y30.446 E.11683
G1 X22.729 Y30.446 E.02175
G1 X21.106 Y28.824 E.08607
G1 X21.106 Y29.403 E.02172
G1 X22.149 Y30.446 E.05533
G1 X21.569 Y30.446 E.02175
G1 X20.923 Y29.8 E.03427
EXCLUDE_OBJECT_END NAME='DIN_MOUNT_M_R_stl'
EXCLUDE_OBJECT_START NAME='DIN_MOUNT_M_L_stl'
;WIPE_START
G1 F48000
G1 X21.569 Y30.446 E-.05424
G1 X22.149 Y30.446 E-.03444
G1 X21.106 Y29.403 E-.08758
G1 X21.106 Y28.824 E-.03438
G1 X22.729 Y30.446 E-.13624
G1 X23.309 Y30.446 E-.03444
G1 X21.106 Y28.244 E-.18494
G1 X21.106 Y27.664 E-.03444
G1 X23.889 Y30.446 E-.23364
G1 X24.469 Y30.446 E-.03444
G1 X22.906 Y28.883 E-.13122
;WIPE_END
G1 X84.085 Y187.927 F60000
G1 X88.418 Y188.07
G1 X88.418 Y198.077
G1 X87.99 Y198.077
G1 E1 F3000
;TYPE:Perimeter
;WIDTH:0.45
G1 F1800
G1 X40.468 Y198.077 E1.76942
G1 X40.468 Y188.356 E.36195
G1 X87.99 Y188.356 E1.76942
G1 X87.99 Y198.017 E.35971
G1 X87.99 Y198.017 F60000
G1 X88.397 Y198.355
G1 F1800
G1 X88.267 Y198.485 E.00685
G1 X40.191 Y198.485 E1.79005
G1 X40.061 Y198.355 E.00685
G1 X40.061 Y188.078 E.38265
G1 X40.191 Y187.949 E.00682
G1 X88.267 Y187.949 E1.79005
G1 X88.397 Y188.078 E.00682
G1 X88.397 Y198.295 E.38042
G1 X88.397 Y198.295 F60000
G1 X88.804 Y198.523
;TYPE:External perimeter
G1 F1800
G1 X88.436 Y198.892 E.0194
G1 X40.022 Y198.892 E1.80263
G1 X39.654 Y198.523 E.0194
G1 X39.654 Y187.91 E.39516
G1 X40.022 Y187.542 E.01938
G1 X88.436 Y187.542 E1.80263
G1 X88.804 Y187.91 E.01938
G1 X88.804 Y198.463 E.39293
;WIPE_START
G1 F48000
G1 X88.804 Y198.523 E-.00356
G1 X88.436 Y198.892 E-.03094
G1 X72.175 Y198.892 E-.9655
;WIPE_END
G1 X72.726 Y198.506 F60000
G1 X87.089 Y187.927
G1 X87.038 Y187.927
G1 X87.038 Y188.478
G1 E1 F3000
;TYPE:Solid infill
;WIDTH:0.453015
G1 F1800
G1 X87.684 Y189.124 E.03427
G1 X87.684 Y189.704 E.02176
G1 X86.641 Y188.661 E.05533
G1 X86.062 Y188.661 E.02172
G1 X87.684 Y190.284 E.08607
G1 X87.684 Y190.864 E.02176
G1 X85.482 Y188.661 E.11683
G1 X84.902 Y188.661 E.02176
G1 X87.684 Y191.444 E.1476
G1 X87.684 Y192.024 E.02176
G1 X84.322 Y188.661 E.17837
G1 X83.742 Y188.661 E.02176
G1 X87.684 Y192.604 E.20914
G1 X87.684 Y193.184 E.02176
G1 X83.162 Y188.661 E.2399
G1 X82.582 Y188.661 E.02176
G1 X87.684 Y193.764 E.27067
G1 X87.684 Y194.344 E.02176
M73 P1 R109
G1 X82.002 Y188.661 E.30144
G1 X81.422 Y188.661 E.02176
G1 X87.684 Y194.924 E.3322
G1 X87.684 Y195.504 E.02176
G1 X80.842 Y188.661 E.36297
G1 X80.262 Y188.661 E.02176
G1 X87.684 Y196.084 E.39374
G1 X87.684 Y196.664 E.02176
G1 X79.682 Y188.661 E.4245
G1 X79.102 Y188.661 E.02176
G1 X87.684 Y197.243 E.45524
G1 X87.684 Y197.772 E.01984
G1 X87.633 Y197.772 E.00191
G1 X78.522 Y188.661 E.48331
G1 X77.942 Y188.661 E.02176
G1 X87.053 Y197.772 E.48331
G1 X86.473 Y197.772 E.02176
G1 X77.362 Y188.661 E.48331
G1 X76.782 Y188.661 E.02176
G1 X85.893 Y197.772 E.48331
G1 X85.313 Y197.772 E.02176
G1 X76.202 Y188.661 E.48331
G1 X75.622 Y188.661 E.02176
G1 X84.733 Y197.772 E.48331
G1 X84.153 Y197.772 E.02176
G1 X75.042 Y188.661 E.48331
G1 X74.462 Y188.661 E.02176
G1 X83.573 Y197.772 E.48331
G1 X82.993 Y197.772 E.02176
G1 X73.882 Y188.661 E.48331
G1 X73.302 Y188.661 E.02176
G1 X82.413 Y197.772 E.48331
G1 X81.833 Y197.772 E.02176
G1 X72.722 Y188.661 E.48331
G1 X72.142 Y188.661 E.02176
G1 X81.253 Y197.772 E.48331
G1 X80.674 Y197.772 E.02172
G1 X71.562 Y188.661 E.48333
G1 X70.982 Y188.661 E.02176
G1 X80.094 Y197.772 E.48333
G1 X79.514 Y197.772 E.02176
G1 X70.403 Y188.661 E.48331
G1 X69.823 Y188.661 E.02176
G1 X78.934 Y197.772 E.48331
G1 X78.354 Y197.772 E.02176
G1 X69.243 Y188.661 E.48331
G1 X68.663 Y188.661 E.02176
G1 X77.774 Y197.772 E.48331
G1 X77.194 Y197.772 E.02176
G1 X68.083 Y188.661 E.48331
G1 X67.503 Y188.661 E.02176
G1 X76.614 Y197.772 E.48331
G1 X76.034 Y197.772 E.02176
G1 X66.923 Y188.661 E.48331
G1 X66.343 Y188.661 E.02176
G1 X75.454 Y197.772 E.48331
G1 X74.874 Y197.772 E.02176
G1 X65.763 Y188.661 E.48331
G1 X65.183 Y188.661 E.02176
G1 X74.294 Y197.772 E.48331
G1 X73.714 Y197.772 E.02176
G1 X64.603 Y188.661 E.48331
G1 X64.023 Y188.661 E.02176
G1 X73.134 Y197.772 E.48331
G1 X72.554 Y197.772 E.02176
G1 X63.443 Y188.661 E.48331
G1 X62.863 Y188.661 E.02176
G1 X71.974 Y197.772 E.48331
G1 X71.394 Y197.772 E.02176
G1 X62.283 Y188.661 E.48331
G1 X61.703 Y188.661 E.02176
G1 X70.814 Y197.772 E.48331
G1 X70.234 Y197.772 E.02176
G1 X61.123 Y188.661 E.48331
G1 X60.543 Y188.661 E.02176
G1 X69.654 Y197.772 E.48331
G1 X69.074 Y197.772 E.02176
G1 X59.963 Y188.661 E.48331
G1 X59.383 Y188.661 E.02176
G1 X68.494 Y197.772 E.48331
G1 X67.914 Y197.772 E.02176
G1 X58.803 Y188.661 E.48331
G1 X58.223 Y188.661 E.02176
G1 X67.334 Y197.772 E.48331
G1 X66.754 Y197.772 E.02176
M73 P1 R108
G1 X57.643 Y188.661 E.48331
G1 X57.063 Y188.661 E.02176
G1 X66.174 Y197.772 E.48331
G1 X65.595 Y197.772 E.02172
G1 X56.483 Y188.661 E.48333
G1 X55.903 Y188.661 E.02176
G1 X65.015 Y197.772 E.48333
G1 X64.435 Y197.772 E.02176
G1 X55.324 Y188.661 E.48331
G1 X54.744 Y188.661 E.02176
G1 X63.855 Y197.772 E.48331
G1 X63.275 Y197.772 E.02176
G1 X54.164 Y188.661 E.48331
G1 X53.584 Y188.661 E.02176
G1 X62.695 Y197.772 E.48331
G1 X62.115 Y197.772 E.02176
G1 X53.004 Y188.661 E.48331
G1 X52.424 Y188.661 E.02176
G1 X61.535 Y197.772 E.48331
G1 X60.955 Y197.772 E.02176
G1 X51.844 Y188.661 E.48331
G1 X51.264 Y188.661 E.02176
G1 X60.375 Y197.772 E.48331
G1 X59.795 Y197.772 E.02176
G1 X50.684 Y188.661 E.48331
G1 X50.104 Y188.661 E.02176
G1 X59.215 Y197.772 E.48331
G1 X58.635 Y197.772 E.02176
G1 X49.524 Y188.661 E.48331
G1 X48.944 Y188.661 E.02176
G1 X58.055 Y197.772 E.48331
G1 X57.475 Y197.772 E.02176
G1 X48.364 Y188.661 E.48331
G1 X47.784 Y188.661 E.02176
G1 X56.895 Y197.772 E.48331
G1 X56.315 Y197.772 E.02176
G1 X47.204 Y188.661 E.48331
G1 X46.624 Y188.661 E.02176
G1 X55.735 Y197.772 E.48331
G1 X55.155 Y197.772 E.02176
G1 X46.044 Y188.661 E.48331
G1 X45.464 Y188.661 E.02176
G1 X54.575 Y197.772 E.48331
G1 X53.995 Y197.772 E.02176
G1 X44.884 Y188.661 E.48331
G1 X44.304 Y188.661 E.02176
G1 X53.415 Y197.772 E.48331
G1 X52.835 Y197.772 E.02176
G1 X43.724 Y188.661 E.48331
G1 X43.144 Y188.661 E.02176
G1 X52.255 Y197.772 E.48331
G1 X51.675 Y197.772 E.02176
G1 X42.564 Y188.661 E.48331
G1 X41.984 Y188.661 E.02176
G1 X51.095 Y197.772 E.48331
G1 X50.516 Y197.772 E.02172
G1 X41.404 Y188.661 E.48333
G1 X40.824 Y188.661 E.02176
G1 X49.936 Y197.772 E.48333
G1 X49.356 Y197.772 E.02176
G1 X40.773 Y189.19 E.45527
G1 X40.773 Y189.77 E.02176
G1 X48.776 Y197.772 E.4245
G1 X48.196 Y197.772 E.02176
G1 X40.773 Y190.35 E.39374
G1 X40.773 Y190.93 E.02176
G1 X47.616 Y197.772 E.36297
G1 X47.036 Y197.772 E.02176
G1 X40.773 Y191.51 E.3322
G1 X40.773 Y192.09 E.02176
G1 X46.456 Y197.772 E.30144
G1 X45.876 Y197.772 E.02176
G1 X40.773 Y192.67 E.27067
G1 X40.773 Y193.25 E.02176
G1 X45.296 Y197.772 E.2399
G1 X44.716 Y197.772 E.02176
G1 X40.773 Y193.83 E.20914
G1 X40.773 Y194.41 E.02176
G1 X44.136 Y197.772 E.17837
G1 X43.556 Y197.772 E.02176
G1 X40.773 Y194.989 E.14763
G1 X40.773 Y195.569 E.02176
G1 X42.976 Y197.772 E.11686
G1 X42.396 Y197.772 E.02176
G1 X40.773 Y196.149 E.08609
G1 X40.773 Y196.729 E.02176
G1 X41.816 Y197.772 E.05533
G1 X41.236 Y197.772 E.02176
G1 X40.59 Y197.126 E.03427
EXCLUDE_OBJECT_END NAME='DIN_MOUNT_M_L_stl'
;LAYER_CHANGE
;Z:0.38
;HEIGHT:0.18
;BEFORE_LAYER_CHANGE
G92 E0.0
;0.38
;M201 X4000 Y4000
;M74 W0

;WIPE_START
G1 F48000
G1 X41.236 Y197.772 E-.05424
G1 X41.816 Y197.772 E-.03444
G1 X40.773 Y196.729 E-.08758
G1 X40.773 Y196.149 E-.03444
G1 X42.396 Y197.772 E-.13628
G1 X42.976 Y197.772 E-.03444
G1 X40.773 Y195.569 E-.18498
G1 X40.773 Y194.989 E-.03444
G1 X43.556 Y197.772 E-.23369
G1 X44.136 Y197.772 E-.03444
G1 X42.575 Y196.212 E-.13103
;WIPE_END
G1 Z.38 F60000
;AFTER_LAYER_CHANGE
;0.38




CALCULATE_PA MATERIAL=PLA BOWDEN_LENGTH=6.0 LAYER_HEIGHT=0.18 NOZZLE_SIZE=0.4 PRINT_SPEED=70


M140 S60 ; set bed temperature
EXCLUDE_OBJECT_START NAME='DIN_MOUNT_M_R_stl'
G1 X20.809 Y21.038
G1 Z.38
G1 E1 F3000
;TYPE:Perimeter
;WIDTH:0.45
G1 F4800
G1 X68.314 Y21.038 E1.60869
G1 X68.314 Y30.743 E.32865
G1 X20.809 Y30.743 E1.60869
G1 X20.809 Y21.098 E.32661
G1 X20.809 Y21.098 F60000
G1 X20.525 Y20.627
G1 F4800
G1 X68.598 Y20.627 E1.62793
G1 X68.725 Y20.754 E.00608
G1 X68.725 Y31.027 E.34788
G1 X68.598 Y31.154 E.00608
G1 X20.525 Y31.154 E1.62793
G1 X20.398 Y31.027 E.00608
G1 X20.398 Y20.754 E.34788
G1 X20.483 Y20.67 E.00405
G1 X20.483 Y20.67 F60000
G1 X20.355 Y20.216
;TYPE:External perimeter
G1 F4200
G1 X68.768 Y20.216 E1.63944
G1 X69.137 Y20.584 E.01765
G1 X69.137 Y31.198 E.35943
G1 X68.768 Y31.566 E.01765
G1 X20.355 Y31.566 E1.63944
G1 X19.987 Y31.198 E.01762
G1 X19.987 Y20.584 E.35943
G1 X20.312 Y20.258 E.01559
G1 X20.312 Y20.258 F60000
G1 X21.229 Y21.38
;TYPE:Solid infill
;WIDTH:0.549808
G1 F4800
G1 X21.184 Y21.335 E.00268
G1 X21.123 Y21.352 E.00266
G1 X21.106 Y21.413 E.00266
G1 X21.151 Y21.459 E.00271
G1 X21.213 Y21.442 E.00271
;WIDTH:0.449999
G1 X21.118 Y22.099 E.02248
