; generated by PrusaSlicer 2.7.2+MacOS-arm64 on 2024-03-10 at 02:25:39 UTC


;
;

;
;

;
;

;
;

;
;
; 

; external perimeters extrusion width = 0.45mm
; perimeters extrusion width = 0.45mm
; infill extrusion width = 0.45mm
; solid infill extrusion width = 0.45mm
; top infill extrusion width = 0.40mm

; external perimeters extrusion width = 0.45mm
; perimeters extrusion width = 0.45mm
; infill extrusion width = 0.45mm
; solid infill extrusion width = 0.45mm
; top infill extrusion width = 0.40mm

M73 P0 R88

EXCLUDE_OBJECT_DEFINE NAME='DIN_MOUNT_M_R_stl' CENTER=44.562,25.891 POLYGON=[[69.362,20.491],[69.362,31.291],[68.862,31.791],[20.262,31.791],[19.762,31.291],[19.762,20.491],[20.262,19.991],[68.862,19.991]]
EXCLUDE_OBJECT_DEFINE NAME='DIN_MOUNT_M_L_stl' CENTER=45.056,53.007 POLYGON=[[69.856,47.607],[69.856,58.407],[69.356,58.907],[20.756,58.907],[20.256,58.407],[20.256,47.607],[20.756,47.107],[69.356,47.107]]

;TYPE:Custom
CALCULATE_PA MATERIAL=PLA BOWDEN_LENGTH=6 LAYER_HEIGHT=0.2 NOZZLE_SIZE=0.4 PRINT_SPEED=70


START_PRINT EXTRUDER=230 BED=65
G21 ; set units to millimeters
G90 ; use absolute coordinates
M83 ; use relative distances for extrusion
; Filament gcode
M107
;LAYER_CHANGE
;Z:0.2
;HEIGHT:0.2
G1 E-2 F3000
G1 Z.2 F60000
G1 X18.652 Y42.81
G1 Z.2
G1 E2 F3000
;TYPE:Skirt/Brim
;WIDTH:0.45
G1 F1800
G1 X19.397 Y42.518 E.02709
G1 X20.529 Y42.326 E.03886
G1 X69.661 Y42.33 E1.66306
G1 X70.735 Y42.527 E.03696
G1 X71.718 Y42.946 E.03617
G1 X72.374 Y43.396 E.02693
G1 X73.395 Y44.382 E.04804
G1 X74.24 Y45.683 E.05251
G1 X74.521 Y46.542 E.03059
G1 X74.637 Y47.393 E.02907
G1 X74.609 Y58.955 E.39136
G1 X74.463 Y59.699 E.02566
G1 X74.147 Y60.523 E.02987
G1 X73.389 Y61.639 E.04566
G1 X72.154 Y62.79 E.05714
G1 X71.459 Y63.205 E.0274
G1 X70.714 Y63.496 E.02707
G1 X69.583 Y63.689 E.03884
G1 X20.488 Y63.689 E1.66181
G1 X19.037 Y63.377 E.05024
G1 X18.354 Y63.046 E.02569
G1 X17.745 Y62.628 E.025
G1 X16.375 Y61.21 E.06674
G1 X15.958 Y60.511 E.02755
G1 X15.666 Y59.766 E.02709
G1 X15.474 Y58.629 E.03903
G1 X15.534 Y46.82 E.39973
G1 X15.81 Y45.835 E.03463
G1 X16.19 Y45.084 E.02849
G1 X16.712 Y44.391 E.02937
G1 X17.957 Y43.224 E.05776
G1 X18.601 Y42.84 E.02538
G1 X18.601 Y42.84 F60000
G1 X18.809 Y43.187
G1 F1800
G1 X18.817 Y43.182 E.00032
G1 X19.525 Y42.905 E.02573
G1 X20.546 Y42.733 E.03505
G1 X69.642 Y42.737 E1.66184
G1 X70.598 Y42.911 E.03289
G1 X71.506 Y43.294 E.03336
G1 X72.104 Y43.701 E.02448
G1 X73.096 Y44.659 E.04668
G1 X73.862 Y45.836 E.04753
G1 X74.12 Y46.617 E.02784
G1 X74.23 Y47.407 E.027
G1 X74.202 Y58.933 E.39014
G1 X74.067 Y59.602 E.0231
G1 X73.796 Y60.316 E.02585
G1 X73.094 Y61.358 E.04253
G1 X71.925 Y62.453 E.05422
G1 X71.294 Y62.832 E.02492
G1 X70.586 Y63.11 E.02575
G1 X69.566 Y63.282 E.03501
G1 X20.509 Y63.282 E1.66052
G1 X19.191 Y62.999 E.04563
G1 X18.571 Y62.702 E.02327
G1 X17.993 Y62.304 E.02375
G1 X16.712 Y60.98 E.06236
G1 X16.331 Y60.346 E.02504
G1 X16.053 Y59.638 E.02575
G1 X15.881 Y58.613 E.03518
G1 X15.934 Y46.902 E.39641
G1 X16.183 Y46 E.03167
G1 X16.544 Y45.284 E.02714
G1 X17.026 Y44.651 E.02693
G1 X18.186 Y43.562 E.05386
G1 X18.758 Y43.218 E.02259
G1 X18.758 Y43.218 F60000
G1 X18.968 Y43.567
G1 F1800
G1 X19.011 Y43.54 E.00172
G1 X19.652 Y43.292 E.02326
G1 X20.562 Y43.14 E.03123
G1 X69.623 Y43.144 E1.66066
G1 X70.501 Y43.307 E.03023
G1 X71.295 Y43.643 E.02918
G1 X71.834 Y44.006 E.022
G1 X72.797 Y44.936 E.04532
G1 X73.484 Y45.99 E.04259
G1 X73.72 Y46.693 E.0251
G1 X73.823 Y47.421 E.02489
G1 X73.795 Y58.911 E.38892
G1 X73.672 Y59.503 E.02047
G1 X73.444 Y60.11 E.02195
G1 X72.797 Y61.078 E.03941
G1 X71.696 Y62.115 E.0512
G1 X71.1 Y62.474 E.02355
G1 X70.459 Y62.722 E.02326
G1 X69.549 Y62.875 E.03123
G1 X20.531 Y62.875 E1.6592
G1 X19.345 Y62.621 E.04106
G1 X18.762 Y62.342 E.02188
G1 X18.241 Y61.981 E.02145
G1 X17.049 Y60.75 E.058
G1 X16.689 Y60.152 E.02363
G1 X16.441 Y59.51 E.0233
G1 X16.288 Y58.597 E.03133
G1 X16.334 Y46.982 E.39316
G1 X16.556 Y46.165 E.02866
G1 X16.899 Y45.485 E.02578
G1 X17.339 Y44.912 E.02445
G1 X18.415 Y43.899 E.05002
G1 X18.916 Y43.598 E.01978
G1 X18.916 Y43.598 F60000
G1 X19.126 Y43.943
G1 F1800
G1 X19.175 Y43.913 E.00194
G1 X19.78 Y43.68 E.02194
G1 X20.579 Y43.547 E.02742
G1 X69.604 Y43.551 E1.65944
G1 X70.404 Y43.703 E.02756
G1 X71.085 Y43.992 E.02504
G1 X71.565 Y44.312 E.01953
G1 X72.498 Y45.213 E.0439
G1 X73.107 Y46.146 E.03771
G1 X73.32 Y46.771 E.02235
G1 X73.416 Y47.435 E.02271
G1 X73.388 Y58.888 E.38767
G1 X73.277 Y59.404 E.01787
G1 X73.091 Y59.906 E.01812
G1 X72.5 Y60.799 E.03625
G1 X71.466 Y61.779 E.04822
G1 X70.936 Y62.101 E.02099
G1 X70.331 Y62.335 E.02196
G1 X69.532 Y62.468 E.02742
G1 X20.552 Y62.468 E1.65791
G1 X19.498 Y62.243 E.03648
G1 X18.98 Y61.998 E.0194
G1 X18.489 Y61.657 E.02023
G1 X17.384 Y60.519 E.05369
G1 X17.062 Y59.988 E.02102
G1 X16.828 Y59.383 E.02196
G1 X16.695 Y58.582 E.02748
G1 X16.734 Y47.061 E.38997
G1 X16.93 Y46.327 E.02572
G1 X17.235 Y45.716 E.02312
G1 X17.631 Y45.196 E.02212
G1 X18.645 Y44.236 E.04726
G1 X19.075 Y43.975 E.01703
G1 X19.075 Y43.975 F60000
G1 X19.286 Y44.322
G1 F1800
G1 X19.371 Y44.271 E.00336
G1 X19.905 Y44.067 E.01935
G1 X20.595 Y43.954 E.02367
G1 X69.584 Y43.958 E1.65822
G1 X70.304 Y44.098 E.02483
G1 X70.877 Y44.342 E.02108
G1 X71.296 Y44.618 E.01698
G1 X72.199 Y45.49 E.04249
G1 X72.73 Y46.301 E.03281
G1 X72.928 Y46.884 E.02084
G1 X73.009 Y47.448 E.01929
G1 X72.985 Y58.824 E.38506
G1 X72.882 Y59.303 E.01658
G1 X72.718 Y59.741 E.01583
G1 X72.202 Y60.521 E.03166
G1 X71.236 Y61.443 E.0452
G1 X70.741 Y61.744 E.01961
G1 X70.206 Y61.947 E.01937
G1 X69.516 Y62.06 E.02367
G1 X20.573 Y62.06 E1.65666
G1 X19.65 Y61.865 E.03193
G1 X19.171 Y61.638 E.01794
G1 X18.739 Y61.335 E.01786
G1 X17.72 Y60.288 E.04945
G1 X17.419 Y59.792 E.01964
G1 X17.216 Y59.258 E.01934
G1 X17.102 Y58.566 E.02374
G1 X17.134 Y47.138 E.38683
G1 X17.304 Y46.488 E.02274
G1 X17.572 Y45.945 E.0205
G1 X17.924 Y45.479 E.01977
G1 X18.876 Y44.572 E.04451
G1 X19.235 Y44.354 E.01422
G1 X19.235 Y44.354 F60000
G1 X19.447 Y44.698
G1 F1800
G1 X19.534 Y44.645 E.00345
G1 X20.03 Y44.455 E.01798
G1 X20.611 Y44.361 E.01992
G1 X69.563 Y44.365 E1.65697
G1 X70.203 Y44.493 E.02209
G1 X70.67 Y44.693 E.0172
G1 X71.028 Y44.925 E.01444
G1 X71.9 Y45.767 E.04103
G1 X72.354 Y46.459 E.02801
G1 X72.528 Y46.962 E.01802
G1 X72.602 Y47.463 E.01714
G1 X72.582 Y58.761 E.38242
G1 X72.496 Y59.175 E.01431
G1 X72.345 Y59.576 E.0145
G1 X71.904 Y60.243 E.02707
G1 X71.003 Y61.108 E.04228
G1 X70.577 Y61.37 E.01693
G1 X70.081 Y61.559 E.01797
G1 X69.5 Y61.653 E.01992
G1 X20.594 Y61.653 E1.65541
G1 X19.801 Y61.487 E.02742
G1 X19.389 Y61.294 E.0154
G1 X18.988 Y61.013 E.01657
G1 X18.055 Y60.055 E.04526
G1 X17.793 Y59.629 E.01693
G1 X17.603 Y59.133 E.01798
G1 X17.51 Y58.551 E.01995
G1 X17.535 Y47.214 E.38374
G1 X17.68 Y46.646 E.01984
G1 X17.91 Y46.173 E.0178
G1 X18.219 Y45.76 E.01746
G1 X19.108 Y44.907 E.0417
G1 X19.396 Y44.73 E.01144
G1 X19.396 Y44.73 F60000
G1 X19.609 Y45.076
G1 F1800
G1 X19.73 Y45.002 E.0048
G1 X20.153 Y44.844 E.01528
G1 X20.627 Y44.768 E.01625
G1 X69.542 Y44.772 E1.65571
G1 X70.1 Y44.887 E.01928
G1 X70.466 Y45.045 E.01349
G1 X70.761 Y45.233 E.01184
G1 X71.601 Y46.044 E.03952
G1 X71.979 Y46.619 E.02329
G1 X72.129 Y47.043 E.01522
G1 X72.195 Y47.478 E.01489
G1 X72.18 Y58.698 E.37978
G1 X71.973 Y59.41 E.0251
G1 X71.605 Y59.966 E.02257
G1 X70.771 Y60.773 E.03928
G1 X70.381 Y61.013 E.0155
G1 X69.958 Y61.171 E.01528
G1 X69.484 Y61.246 E.01624
G1 X20.615 Y61.246 E1.65416
G1 X19.952 Y61.108 E.02292
G1 X19.579 Y60.933 E.01395
G1 X19.239 Y60.692 E.01411
G1 X18.39 Y59.822 E.04115
G1 X18.15 Y59.433 E.01547
G1 X17.992 Y59.01 E.01528
G1 X17.917 Y58.535 E.01628
G1 X17.936 Y47.287 E.38073
G1 X18.056 Y46.802 E.01691
G1 X18.249 Y46.399 E.01512
G1 X18.514 Y46.041 E.01508
G1 X19.341 Y45.242 E.03892
G1 X19.558 Y45.108 E.00863
G1 X19.558 Y45.108 F60000
G1 X19.773 Y45.451
G1 F1800
G1 X19.892 Y45.376 E.00476
G1 X20.276 Y45.233 E.01387
G1 X20.642 Y45.176 E.01254
G1 X69.52 Y45.179 E1.65446
G1 X69.994 Y45.281 E.01641
G1 X70.495 Y45.542 E.01912
G1 X71.302 Y46.322 E.03799
G1 X71.605 Y46.781 E.01862
G1 X71.73 Y47.126 E.01242
G1 X71.787 Y47.494 E.0126
G1 X71.777 Y58.638 E.37721
G1 X71.714 Y58.947 E.01067
G1 X71.601 Y59.243 E.01072
G1 X71.305 Y59.69 E.01815
G1 X70.535 Y60.441 E.03641
G1 X70.219 Y60.639 E.01262
G1 X69.835 Y60.782 E.01387
G1 X69.469 Y60.839 E.01254
G1 X20.636 Y60.839 E1.65294
G1 X20.103 Y60.729 E.01842
G1 X19.77 Y60.573 E.01245
G1 X19.492 Y60.372 E.01161
G1 X18.722 Y59.587 E.03722
G1 X18.524 Y59.271 E.01262
G1 X18.381 Y58.887 E.01387
G1 X18.324 Y58.52 E.01257
G1 X18.337 Y47.358 E.37782
G1 X18.434 Y46.954 E.01406
G1 X18.59 Y46.622 E.01242
G1 X18.811 Y46.32 E.01267
G1 X19.576 Y45.574 E.03617
G1 X19.722 Y45.483 E.00582
G1 X19.722 Y45.483 F60000
G1 X19.938 Y45.828
G1 F1800
G1 X20.089 Y45.733 E.00604
G1 X20.394 Y45.623 E.01097
G1 X20.657 Y45.583 E.009
G1 X69.498 Y45.587 E1.65321
G1 X69.852 Y45.663 E.01226
G1 X70.261 Y45.876 E.01561
G1 X71.002 Y46.598 E.03502
G1 X71.231 Y46.942 E.01399
G1 X71.38 Y47.509 E.01984
G1 X71.374 Y58.577 E.37464
G1 X71.23 Y59.074 E.01751
G1 X71.004 Y59.415 E.01385
G1 X70.3 Y60.108 E.03344
G1 X70.022 Y60.282 E.0111
G1 X69.717 Y60.392 E.01097
G1 X69.454 Y60.432 E.009
G1 X20.656 Y60.432 E1.65175
G1 X20.254 Y60.35 E.01389
G1 X19.747 Y60.055 E.01985
G1 X19.055 Y59.352 E.03339
G1 X18.881 Y59.074 E.0111
G1 X18.771 Y58.769 E.01097
G1 X18.731 Y58.506 E.009
G1 X18.739 Y47.426 E.37504
G1 X18.813 Y47.106 E.01112
G1 X19.108 Y46.599 E.01985
G1 X19.811 Y45.907 E.03339
G1 X19.888 Y45.859 E.00307
G1 X19.888 Y45.859 F60000
G1 X20.107 Y46.2
G1 F1800
G1 X20.255 Y46.105 E.00595
G1 X20.674 Y45.99 E.01471
G1 X69.476 Y45.994 E1.65189
G1 X69.709 Y46.044 E.00807
G1 X70.024 Y46.207 E.01201
G1 X70.702 Y46.873 E.03217
G1 X70.858 Y47.108 E.00955
G1 X70.973 Y47.526 E.01467
G1 X70.97 Y58.52 E.37213
G1 X70.933 Y58.718 E.00682
G1 X70.702 Y59.141 E.01631
G1 X70.06 Y59.778 E.03061
G1 X69.856 Y59.909 E.00821
G1 X69.437 Y60.025 E.01472
G1 X20.676 Y60.025 E1.6505
G1 X20.4 Y59.969 E.00953
G1 X20.023 Y59.755 E.01467
G1 X19.385 Y59.112 E.03066
G1 X19.253 Y58.908 E.00822
G1 X19.138 Y58.489 E.01471
G1 X19.142 Y47.489 E.37234
G1 X19.193 Y47.253 E.00817
G1 X19.408 Y46.875 E.01472
G1 X20.051 Y46.237 E.03066
G1 X20.057 Y46.233 E.00024
G1 X20.057 Y46.233 F60000
G1 X20.295 Y46.563
G1 F1800
G1 X20.573 Y46.418 E.01061
G1 X69.453 Y46.401 E1.65453
G1 X69.787 Y46.539 E.01223
M73 P0 R87
G1 X70.401 Y47.148 E.02927
G1 X70.566 Y47.545 E.01455
G1 X70.566 Y58.47 E.3698
G1 X70.4 Y58.867 E.01457
G1 X69.816 Y59.452 E.02798
G1 X69.538 Y59.597 E.01061
G1 X20.696 Y59.618 E1.65324
G1 X20.297 Y59.454 E.0146
G1 X19.711 Y58.868 E.02805
G1 X19.566 Y58.59 E.01061
G1 X19.545 Y47.547 E.37379
G1 X19.709 Y47.149 E.01457
G1 X20.253 Y46.605 E.02604
G1 X20.541 Y46.893 F60000
G1 F1800
G1 X20.569 Y46.865 E.00134
G1 X20.676 Y46.812 E.00404
G1 X69.396 Y46.804 E1.64911
G1 X69.542 Y46.865 E.00536
M73 P1 R87
G1 X70.098 Y47.421 E.02662
G1 X70.159 Y47.567 E.00536
G1 X70.159 Y58.447 E.36828
G1 X70.098 Y58.594 E.00539
G1 X69.542 Y59.15 E.02662
G1 X69.435 Y59.203 E.00404
G1 X20.716 Y59.211 E1.64908
G1 X20.569 Y59.15 E.00539
G1 X20.013 Y58.594 E.02662
G1 X19.96 Y58.487 E.00404
G1 X19.952 Y47.567 E.36963
G1 X20.013 Y47.421 E.00536
G1 X20.498 Y46.935 E.02324
;WIPE_START
G1 F48000
G1 X20.541 Y46.893 E-.00357
G1 X20.569 Y46.865 E-.00235
G1 X20.676 Y46.812 E-.00709
G1 X54.141 Y46.806 E-1.98699
;WIPE_END
G1 X20.499 Y36.57 F60000
G1 E2 F3000
G1 F1800
G1 X20.016 Y36.57 E.01635
G1 X19.161 Y36.448 E.02923
G1 X18.338 Y36.175 E.02935
G1 X17.174 Y35.444 E.04653
G1 X15.855 Y34.049 E.06498
G1 X15.43 Y33.321 E.02853
G1 X15.147 Y32.558 E.02755
G1 X14.987 Y31.606 E.03268
G1 X15.018 Y19.838 E.39833
G1 X15.16 Y19.178 E.02285
G1 X15.406 Y18.504 E.02429
G1 X16.253 Y17.234 E.05167
G1 X17.463 Y16.108 E.05595
G1 X18.158 Y15.693 E.0274
G1 X18.903 Y15.402 E.02707
G1 X20.035 Y15.209 E.03887
G1 X69.167 Y15.213 E1.66306
G1 X70.241 Y15.41 E.03696
G1 X71.224 Y15.829 E.03617
G1 X71.88 Y16.279 E.02693
G1 X72.901 Y17.265 E.04804
G1 X73.746 Y18.566 E.05251
G1 X74.027 Y19.426 E.03062
G1 X74.143 Y20.278 E.02911
G1 X74.083 Y32.079 E.39945
G1 X73.807 Y33.063 E.03459
G1 X73.428 Y33.814 E.02847
G1 X72.905 Y34.507 E.02939
G1 X71.66 Y35.674 E.05776
G1 X70.965 Y36.088 E.02738
G1 X70.22 Y36.38 E.02709
G1 X69.089 Y36.572 E.03883
G1 X20.559 Y36.57 E1.64268
G1 X20.559 Y36.57 F60000
G1 X20.559 Y36.165
G1 F1800
G1 X20.058 Y36.165 E.01696
G1 X19.271 Y36.055 E.0269
G1 X18.49 Y35.797 E.02784
G1 X17.413 Y35.114 E.04317
G1 X16.194 Y33.823 E.0601
G1 X15.805 Y33.162 E.02596
G1 X15.536 Y32.435 E.02624
G1 X15.394 Y31.59 E.029
G1 X15.425 Y19.861 E.39701
G1 X15.555 Y19.279 E.02019
G1 X15.76 Y18.707 E.02057
G1 X16.549 Y17.514 E.04841
G1 X17.692 Y16.445 E.05297
G1 X18.323 Y16.066 E.02492
G1 X19.031 Y15.788 E.02575
G1 X20.052 Y15.616 E.03505
G1 X69.148 Y15.62 E1.66184
G1 X70.104 Y15.794 E.03289
G1 X71.012 Y16.177 E.03336
G1 X71.61 Y16.584 E.02448
G1 X72.602 Y17.542 E.04668
G1 X73.368 Y18.719 E.04753
G1 X73.626 Y19.5 E.02784
G1 X73.736 Y20.291 E.02703
G1 X73.683 Y31.997 E.39624
G1 X73.434 Y32.898 E.03164
G1 X73.073 Y33.614 E.02714
G1 X72.591 Y34.247 E.02693
G1 X71.431 Y35.336 E.05386
G1 X70.8 Y35.716 E.02493
G1 X70.092 Y35.993 E.02573
G1 X69.072 Y36.165 E.03501
G1 X20.619 Y36.165 E1.64008
G1 X20.619 Y36.165 F60000
G1 X20.619 Y35.758
G1 F1800
G1 X20.072 Y35.758 E.01852
G1 X19.347 Y35.655 E.02479
G1 X18.644 Y35.419 E.0251
G1 X17.654 Y34.785 E.03979
G1 X16.533 Y33.597 E.05529
G1 X16.166 Y32.972 E.02453
G1 X15.925 Y32.313 E.02375
G1 X15.802 Y31.574 E.02536
G1 X15.827 Y19.928 E.3942
G1 X15.949 Y19.381 E.01897
G1 X16.134 Y18.869 E.01843
G1 X16.845 Y17.794 E.04363
G1 X17.921 Y16.783 E.04998
G1 X18.517 Y16.424 E.02355
G1 X19.158 Y16.176 E.02326
G1 X20.068 Y16.023 E.03123
G1 X69.129 Y16.027 E1.66066
G1 X70.007 Y16.19 E.03023
G1 X70.801 Y16.526 E.02918
G1 X71.341 Y16.89 E.02204
G1 X72.303 Y17.819 E.04527
G1 X72.99 Y18.873 E.04259
G1 X73.226 Y19.577 E.02513
G1 X73.329 Y20.305 E.02489
G1 X73.283 Y31.916 E.39302
G1 X73.061 Y32.733 E.02866
G1 X72.718 Y33.413 E.02578
G1 X72.279 Y33.986 E.02443
G1 X71.202 Y34.999 E.05005
G1 X70.606 Y35.358 E.02355
G1 X69.965 Y35.606 E.02326
G1 X69.055 Y35.758 E.03123
G1 X20.679 Y35.758 E1.63747
G1 X20.679 Y35.758 F60000
G1 X20.679 Y35.351
G1 F1800
G1 X20.087 Y35.351 E.02004
G1 X19.425 Y35.255 E.02264
G1 X18.799 Y35.042 E.02238
G1 X17.897 Y34.457 E.03639
G1 X16.871 Y33.369 E.05062
G1 X16.541 Y32.814 E.02186
G1 X16.314 Y32.192 E.02241
G1 X16.209 Y31.558 E.02175
G1 X16.23 Y19.994 E.39143
G1 X16.337 Y19.506 E.01691
G1 X16.509 Y19.03 E.01713
G1 X17.142 Y18.074 E.03881
G1 X18.151 Y17.119 E.04703
G1 X18.681 Y16.797 E.02099
G1 X19.286 Y16.563 E.02196
G1 X20.085 Y16.431 E.02741
G1 X69.11 Y16.434 E1.65944
G1 X69.91 Y16.586 E.02756
G1 X70.591 Y16.875 E.02504
G1 X71.071 Y17.195 E.01953
G1 X72.004 Y18.096 E.0439
G1 X72.613 Y19.029 E.03771
G1 X72.826 Y19.654 E.02235
G1 X72.922 Y20.319 E.02274
G1 X72.883 Y31.837 E.38987
G1 X72.688 Y32.571 E.02571
G1 X72.382 Y33.182 E.02313
G1 X71.986 Y33.702 E.02212
G1 X70.972 Y34.663 E.04729
G1 X70.442 Y34.985 E.02099
G1 X69.837 Y35.218 E.02194
G1 X69.038 Y35.351 E.02742
G1 X20.739 Y35.351 E1.63486
G1 X20.739 Y35.351 F60000
G1 X20.739 Y34.944
G1 F1800
G1 X20.101 Y34.944 E.0216
G1 X19.538 Y34.863 E.01925
G1 X18.956 Y34.665 E.02081
G1 X18.14 Y34.13 E.03303
G1 X17.21 Y33.142 E.04593
G1 X16.901 Y32.624 E.02042
G1 X16.703 Y32.072 E.01985
G1 X16.616 Y31.541 E.01821
G1 X16.632 Y20.059 E.38865
G1 X16.883 Y19.193 E.03052
G1 X17.439 Y18.353 E.0341
G1 X18.382 Y17.455 E.04408
G1 X18.877 Y17.155 E.01959
G1 X19.411 Y16.951 E.01935
G1 X20.101 Y16.838 E.02367
G1 X69.09 Y16.842 E1.65822
G1 X69.81 Y16.981 E.02482
G1 X70.383 Y17.225 E.02108
G1 X70.802 Y17.502 E.017
G1 X71.705 Y18.373 E.04247
G1 X72.236 Y19.185 E.03284
G1 X72.434 Y19.767 E.02081
G1 X72.515 Y20.332 E.01932
G1 X72.483 Y31.76 E.38683
G1 X72.313 Y32.41 E.02274
G1 X72.045 Y32.953 E.0205
G1 X71.693 Y33.419 E.01977
G1 X70.742 Y34.326 E.04448
G1 X70.247 Y34.627 E.01961
G1 X69.712 Y34.831 E.01938
G1 X69.022 Y34.944 E.02367
G1 X20.799 Y34.944 E1.63229
