; generated by SuperSlicer 2.5.60.0 on 2024-07-18 at 21:48:26 UTC


;
;

;
;
; 

; external perimeters extrusion width = 0.48mm
; perimeters extrusion width = 0.48mm
; infill extrusion width = 0.48mm
; solid infill extrusion width = 0.48mm
; top infill extrusion width = 0.48mm
; support material extrusion width = 0.42mm
; first layer extrusion width = 0.48mm

; object:{"name":"Din_Rail_6X5mm_Stand_off","id":"Din_Rail_6X5mm_Stand_off.stl id:0 copy 0","object_center":[84.509063,87.008799,0.000000],"boundingbox_center":[84.509063,87.008799,2.500000],"boundingbox_size":[5.991187,5.982402,5.000000]}
EXCLUDE_OBJECT_DEFINE NAME=Din_Rail_6X5mm_Stand_off_stl_id_0_copy_0 CENTER=84.509063,87.008799 POLYGON=[[81.51,87.16],[81.55,86.51],[81.72,85.89],[82.03,85.32],[82.45,84.82],[82.96,84.43],[83.55,84.16],[84.18,84.02],[84.83,84.02],[85.47,84.16],[86.06,84.43],[86.57,84.82],[86.99,85.32],[87.30,85.89],[87.47,86.51],[87.50,87.16],[87.40,87.80],[87.16,88.41],[86.80,88.94],[86.32,89.39],[85.77,89.72],[85.15,89.93],[84.51,90.00],[83.86,89.93],[83.25,89.72],[82.69,89.39],[82.22,88.94],[81.86,88.41],[81.62,87.80],[81.51,87.16]]
; object:{"name":"Din_Rail_6X5mm_Stand_off","id":"Din_Rail_6X5mm_Stand_off.stl id:0 copy 1","object_center":[95.490936,97.991200,0.000000],"boundingbox_center":[95.490936,97.991200,2.500000],"boundingbox_size":[5.991187,5.982402,5.000000]}
EXCLUDE_OBJECT_DEFINE NAME=Din_Rail_6X5mm_Stand_off_stl_id_0_copy_1 CENTER=95.490936,97.991200 POLYGON=[[92.50,98.14],[92.53,97.50],[92.70,96.87],[93.01,96.30],[93.43,95.80],[93.94,95.41],[94.53,95.14],[95.17,95.00],[95.82,95.00],[96.45,95.14],[97.04,95.41],[97.55,95.80],[97.97,96.30],[98.28,96.87],[98.45,97.50],[98.49,98.14],[98.38,98.78],[98.14,99.39],[97.78,99.92],[97.31,100.37],[96.75,100.71],[96.14,100.91],[95.49,100.98],[94.85,100.91],[94.23,100.71],[93.68,100.37],[93.20,99.92],[92.84,99.39],[92.60,98.78],[92.50,98.14]]
; object:{"name":"Din_Rail_6X5mm_Stand_off","id":"Din_Rail_6X5mm_Stand_off.stl id:1 copy 0","object_center":[95.490935,87.008800,0.000000],"boundingbox_center":[95.490935,87.008800,2.500000],"boundingbox_size":[5.991187,5.982402,5.000000]}
EXCLUDE_OBJECT_DEFINE NAME=Din_Rail_6X5mm_Stand_off_stl_id_1_copy_0 CENTER=95.490935,87.008800 POLYGON=[[92.50,86.86],[92.60,86.21],[92.84,85.61],[93.20,85.08],[93.68,84.63],[94.23,84.29],[94.85,84.09],[95.49,84.02],[96.14,84.09],[96.75,84.29],[97.31,84.63],[97.78,85.08],[98.14,85.61],[98.38,86.22],[98.49,86.86],[98.45,87.50],[98.28,88.13],[97.97,88.70],[97.55,89.20],[97.04,89.59],[96.45,89.86],[95.82,90.00],[95.17,90.00],[94.53,89.86],[93.94,89.59],[93.43,89.20],[93.01,88.70],[92.70,88.13],[92.53,87.50],[92.50,86.86]]
; object:{"name":"Din_Rail_6X5mm_Stand_off","id":"Din_Rail_6X5mm_Stand_off.stl id:1 copy 1","object_center":[84.509064,97.991200,0.000000],"boundingbox_center":[84.509064,97.991200,2.500000],"boundingbox_size":[5.991187,5.982402,5.000000]}
EXCLUDE_OBJECT_DEFINE NAME=Din_Rail_6X5mm_Stand_off_stl_id_1_copy_1 CENTER=84.509064,97.991200 POLYGON=[[81.51,97.84],[81.62,97.20],[81.86,96.59],[82.22,96.06],[82.69,95.61],[83.25,95.28],[83.86,95.07],[84.51,95.00],[85.15,95.07],[85.77,95.28],[86.32,95.61],[86.80,96.06],[87.16,96.59],[87.40,97.20],[87.50,97.84],[87.47,98.49],[87.30,99.11],[86.99,99.68],[86.57,100.18],[86.06,100.57],[85.47,100.84],[84.83,100.98],[84.18,100.98],[83.55,100.84],[82.96,100.57],[82.45,100.18],[82.03,99.68],[81.72,99.11],[81.55,98.49],[81.51,97.84]]
; Total objects to print: 4
; plater:{"center":[90.000000,92.500000,0.000000],"boundingbox_center":[90.000000,92.500000,2.500000],"boundingbox_size":[16.973060,16.964803,5.000000]}

M107
;TYPE:Custom
START_PRINT EXTRUDER=250 BED=100
G21 ; set units to millimeters
G90 ; use absolute coordinates
M83 ; use relative distances for extrusion
; Filament gcode
FILAMENT_START MATERIAL=ASA COLOR=#368900 VENDOR=123-3D
SET_PRESSURE_ADVANCE ADVANCE=0.062
M104 S250 ; set temperature
M109 S250 ; set temperature and wait for it to be reached
M190 S100 ; set bed temperature and wait for it to be reached
;LAYER_CHANGE
;Z:0.24
;HEIGHT:0.24
G1 E-1 F3600
G1 Z0.24 F180000
G92 E0
G1 X79.89 Y81.58
G1 E1 F3600
;TYPE:Skirt
;WIDTH:0.48
G1 F2400
M204 S1000
G1 F2399.529
G1 X80.477 Y81.141 E.02885
G1 F2398.375
G1 X81.327 Y80.63 E.03902
G1 X81.887 Y80.386 E0.024
G1 X82.606 Y80.142 E.02987
G1 F2399.868
G1 X83.67 Y79.935 E.04264
G1 X85.104 Y79.901 E0.05642
G1 F2398.169
G1 X85.866 Y80.018 E.03034
G1 X86.501 Y80.162 E0.0256
G1 F2399.39
G1 X87.697 Y80.639 E.05065
G1 X88.374 Y81.024 E.03064
G1 X89.116 Y81.575 E.03636
G1 F2398.871
G1 X89.668 Y82.099 E.02995
G1 X89.994 Y82.512 E0.02069
G1 X90.831 Y81.629 E.04787
G1 F2399.431
G1 X92.03 Y80.798 E.05738
G1 X92.87 Y80.402 E0.03651
G1 X94.306 Y79.994 E.05872
G1 F2398.742
G1 X95.812 Y79.903 E.05937
G1 X97.254 Y80.119 E0.05734
G1 F2399.58
G1 X98.546 Y80.592 E.05412
G1 X99.184 Y80.935 E.02849
G1 X99.927 Y81.457 E0.0357
G1 F2396.583
G1 X100.545 Y82.005 E.03252
G1 X101.134 Y82.687 E0.03543
G1 X101.565 Y83.303 E.0296
G1 X102.139 Y84.481 E0.05153
G1 F2399.733
G1 X102.369 Y85.189 E.02928
G1 X102.545 Y86.069 E.03531
G1 X102.605 Y86.925 E0.03375
G1 X102.491 Y88.336 E.05568
G1 X102.06 Y89.772 E.05898
G1 X101.353 Y91.064 E0.05791
G1 F2398.119
G1 X100.404 Y92.168 E.05728
G1 F2399.936
G1 X100.019 Y92.501 E.02001
G1 X100.141 Y92.594 E0.00603
G1 F2398.722
G1 X100.696 Y93.132 E.03041
G1 F2399.979
G1 X101.549 Y94.238 E.05494
G1 X102.2 Y95.593 E.05913
G1 X102.553 Y97.06 E0.05933
G1 F2398.932
G1 X102.582 Y98.6 E.06061
G1 F2399.403
G1 X102.415 Y99.625 E.04086
G1 X102.119 Y100.575 E0.03913
G1 F2398.301
G1 X101.88 Y101.122 E.02349
G1 X101.196 Y102.247 E0.05177
G1 F2399.451
G1 X100.144 Y103.376 E.0607
G1 X98.87 Y104.252 E0.06081
G1 X97.445 Y104.825 E.06041
G1 F2398.79
G1 X96.501 Y105.026 E.03798
G1 X95.08 Y105.093 E0.05595
G1 F2399.677
G1 X93.653 Y104.862 E.05686
G1 X92.286 Y104.339 E0.05756
G1 F2398.443
G1 X91.765 Y104.043 E.02358
G1 X91.004 Y103.505 E0.03665
G1 F2399.417
G1 X90.195 Y102.733 E.04399
G1 F2398.64
G1 X90.006 Y102.481 E.01239
G1 X89.444 Y103.128 E0.03367
G1 F2393.82
G1 X88.858 Y103.635 E.03053
G1 X87.926 Y104.249 E0.04387
G1 F2399.055
G1 X86.532 Y104.822 E.05929
G1 F2398.917
G1 X85.436 Y105.058 E.04411
G1 X84.17 Y105.113 E0.04982
G1 F2399.088
G1 X82.678 Y104.882 E.05939
G1 X81.374 Y104.386 E0.05487
G1 F2397.264
G1 X80.625 Y103.963 E.03387
G1 F2399.927
G1 X79.414 Y102.975 E.06147
G1 X78.437 Y101.72 E0.06255
G1 F2398.354
G1 X77.807 Y100.408 E.05727
G1 X77.463 Y99.035 E0.05565
G1 F2397.362
G1 X77.408 Y97.551 E.05845
G1 X77.577 Y96.392 E0.04605
G1 X77.858 Y95.472 E.03785
G1 X78.076 Y94.947 E0.02234
G1 X78.83 Y93.702 E.05728
G1 F2399.068
G1 X79.816 Y92.64 E.057
G1 X80.002 Y92.506 E0.00901
G1 X79.162 Y91.692 E.04599
G1 F2398.292
G1 X78.352 Y90.575 E.0543
G1 F2399.663
G1 X77.74 Y89.21 E.05884
G1 X77.433 Y87.81 E0.05636
G1 X77.422 Y86.367 E.05676
G1 X77.546 Y85.516 E0.03382
G1 X77.79 Y84.647 E.0355
G1 X78.132 Y83.843 E.03437
G1 X78.858 Y82.663 E.0545
G1 X79.848 Y81.623 E.05648
M204 S1500
G1 X80.186 Y81.889 F180000
G1 F2400
M204 S1000
G1 X80.707 Y81.502 E0.02552
G1 F2399.096
G1 X81.512 Y81.017 E.03697
G1 X82.034 Y80.789 E0.0224
G1 X82.703 Y80.56 E.02782
G1 X83.699 Y80.363 E.03995
G1 X85.058 Y80.327 E.05346
G1 X85.794 Y80.44 E0.02928
G1 F2396.595
G1 X86.389 Y80.576 E.02403
G1 X87.499 Y81.019 E0.04698
G1 F2398.277
G1 X88.129 Y81.376 E.0285
G1 X88.85 Y81.911 E.03533
G1 X89.362 Y82.399 E0.02779
G1 F2395.03
G1 X90.005 Y83.223 E.04115
G1 X90.193 Y82.926 E0.01381
G1 F2397.748
G1 X91.094 Y81.969 E.05172
G1 F2399.616
G1 X92.26 Y81.161 E.0558
G1 X93.005 Y80.809 E0.0324
G1 X94.355 Y80.42 E.05527
G1 X95.815 Y80.332 E.05755
G1 X97.168 Y80.539 E0.05382
G1 X98.357 Y80.976 E.04982
G1 X98.948 Y81.294 E.0264
G1 X99.671 Y81.8 E.03472
G1 X100.23 Y82.296 E0.02939
G1 X100.802 Y82.959 E.03445
G1 X101.188 Y83.507 E0.02636
G1 F2397.512
G1 X101.736 Y84.628 E.0491
G1 X101.951 Y85.286 E0.0272
G1 F2395.865
G1 X102.122 Y86.14 E.03429
G1 X102.177 Y86.907 E0.03023
G1 F2399.4
G1 X102.066 Y88.279 E.05414
G1 F2398.996
G1 X101.656 Y89.626 E.0554
G1 X100.988 Y90.837 E0.05439
G1 X100.09 Y91.875 E.05401
G1 X99.59 Y92.304 E0.0259
G1 F2396.901
G1 X99.301 Y92.498 E.01371
G1 F2399.422
G1 X99.853 Y92.912 E.02716
G1 X100.366 Y93.406 E.02802
G1 X101.196 Y94.482 E0.05343
G1 X101.803 Y95.757 E.05556
G1 X102.13 Y97.136 E.05576
G1 X102.156 Y98.551 E0.05566
G1 X102.002 Y99.513 E.03832
G1 F2398.183
G1 X101.721 Y100.415 E.03718
G1 X101.506 Y100.912 E0.02129
G1 F2399.455
G1 X100.841 Y102.005 E.05032
G1 X99.847 Y103.066 E0.05718
G1 X98.648 Y103.885 E.05712
G1 X97.303 Y104.42 E0.05692
G1 X96.463 Y104.599 E.03379
G1 X95.082 Y104.664 E.05438
G1 X93.744 Y104.443 E0.05334
G1 F2398.637
G1 X92.456 Y103.945 E.05434
G1 F2399.419
G1 X92.003 Y103.687 E.0205
G1 X91.288 Y103.184 E0.03436
G1 F2396.571
G1 X90.505 Y102.436 E.04263
G1 X90.025 Y101.786 E0.03177
G1 F2371.377
G1 X89.981 Y101.856 E.00329
G1 F2399.936
G1 X89.131 Y102.835 E.05098
G1 X88.588 Y103.302 E0.02816
G1 X87.743 Y103.861 E.03986
G1 X86.422 Y104.407 E.05623
G1 X85.397 Y104.631 E0.04126
G1 F2397.885
G1 X84.214 Y104.687 E.04661
G1 X82.809 Y104.474 E0.05587
G1 F2399.031
G1 X81.542 Y103.992 E.05333
G1 X80.853 Y103.599 E.0312
G1 X79.704 Y102.658 E.05841
G1 X78.812 Y101.513 E0.05708
G1 F2398.837
G1 X78.217 Y100.282 E.0538
G1 X77.884 Y98.953 E0.05389
G1 F2397.933
G1 X77.836 Y97.556 E.05501
G1 X77.998 Y96.471 E0.04312
G1 F2398.25
G1 X78.264 Y95.608 E.03553
G1 X78.465 Y95.127 E0.0205
G1 F2399.846
G1 X79.185 Y93.943 E.0545
G1 X80.114 Y92.95 E.05351
G1 X80.746 Y92.511 E.03028
G1 X80.282 Y92.181 E.0224
G1 X79.498 Y91.425 E0.04283
G1 X78.711 Y90.341 E.05269
G1 X78.154 Y89.096 E0.05364
G1 X77.857 Y87.74 E.05461
G1 X77.85 Y86.381 E0.05346
G1 X77.963 Y85.619 E.03031
G1 X78.199 Y84.776 E.03443
G1 X78.505 Y84.054 E0.03084
G1 X79.211 Y82.907 E.05298
G1 X80.145 Y81.933 E.05309
M204 S1500
G1 X80.482 Y82.2 F180000
G1 F2400
M204 S1000
G1 X80.938 Y81.864 E0.02227
G1 F2399.836
G1 X81.697 Y81.403 E.03492
G1 F2396.66
G1 X82.181 Y81.191 E.02081
G1 F2399.116
G1 X82.801 Y80.977 E.0258
G1 X83.73 Y80.791 E0.03724
G1 F2398.243
G1 X85.012 Y80.754 E.05047
G1 X85.721 Y80.863 E0.02822
G1 X86.246 Y80.98 E.02117
G1 X87.326 Y81.411 E0.04572
G1 F2399.865
G1 X87.906 Y81.741 E.02624
G1 X88.583 Y82.247 E.03325
G1 F2398.366
G1 X89.054 Y82.697 E.02564
G1 X89.836 Y83.703 E0.05011
G1 F2399.972
G1 X90.004 Y84.044 E.01495
G1 X90.521 Y83.203 E.03883
G1 F2398.964
G1 X91.357 Y82.308 E.04819
G1 X92.49 Y81.523 E0.05421
G1 F2399.603
G1 X93.141 Y81.215 E.02833
G1 X94.405 Y80.846 E0.05179
G1 X95.818 Y80.761 E.05569
G1 X97.08 Y80.959 E.05026
G1 X98.168 Y81.361 E.04561
G1 X98.713 Y81.652 E0.02429
G1 F2397.94
G1 X99.415 Y82.144 E.03374
G1 F2399.429
G1 X99.915 Y82.586 E.02625
G1 X100.471 Y83.231 E0.03348
G1 F2397.779
G1 X100.811 Y83.711 E.02315
G1 X101.334 Y84.776 E0.04666
G1 F2398.912
G1 X101.533 Y85.382 E.0251
G1 F2399.037
G1 X101.699 Y86.211 E.03326
G1 X101.748 Y86.89 E0.02676
G1 F2397.685
G1 X101.649 Y88.177 E.0508
G1 X101.27 Y89.439 E0.05182
G1 F2399.621
G1 X100.624 Y90.61 E.05261
G1 F2398.659
G1 X99.799 Y91.56 E.0495
G1 X99.321 Y91.97 E0.02475
G1 X98.511 Y92.507 E.03824
G1 F2396.745
G1 X98.887 Y92.724 E.0171
G1 X99.585 Y93.247 E0.0343
G1 F2399.058
G1 X100.057 Y93.703 E.02582
G1 X100.842 Y94.725 E0.05068
G1 X101.406 Y95.92 E.05198
G1 X101.702 Y97.168 E0.05045
G1 X101.729 Y98.503 E.05254
G1 X101.588 Y99.401 E0.03575
G1 F2397.433
G1 X101.323 Y100.257 E.03526
G1 X101.132 Y100.703 E0.01906
G1 F2398.113
G1 X100.487 Y101.764 E.04885
G1 F2399.671
G1 X99.586 Y102.725 E.05182
G1 X98.426 Y103.518 E0.05526
G1 X97.163 Y104.015 E.05339
G1 F2398.887
G1 X96.426 Y104.172 E.02965
G1 X95.085 Y104.235 E0.05279
G1 F2399.783
G1 X93.837 Y104.024 E.04978
G1 F2397.684
G1 X92.654 Y103.565 E.04993
G1 X92.241 Y103.33 E0.01867
G1 F2398.52
G1 X91.548 Y102.843 E.03332
G1 X90.815 Y102.14 E.03998
G1 F2397.564
G1 X90.075 Y101.127 E.04934
G1 X89.994 Y100.959 E0.00732
G1 X89.642 Y101.593 E.02852
G1 F2399.329
G1 X88.839 Y102.521 E.04827
G1 X88.339 Y102.953 E0.02598
G1 F2398.647
G1 X87.559 Y103.473 E.03689
G1 F2399.97
G1 X86.311 Y103.993 E.05319
G1 X85.358 Y104.204 E.0384
G1 X84.255 Y104.26 E0.04342
G1 F2398.569
G1 X82.94 Y104.065 E.0523
G1 X81.71 Y103.597 E0.05175
G1 F2399.499
G1 X81.081 Y103.236 E.02853
G1 F2398.649
G1 X80.027 Y102.375 E.05356
G1 X79.188 Y101.306 E0.05344
G1 F2397.93
G1 X78.613 Y100.116 E.05201
G1 X78.305 Y98.872 E0.05038
G1 F2398.567
G1 X78.265 Y97.562 E.05157
G1 F2399.82
G1 X78.419 Y96.552 E.04019
G1 X78.67 Y95.745 E.03324
G1 X78.854 Y95.308 E0.01864
G1 X79.539 Y94.185 E.05173
G1 X80.41 Y93.26 E.04999
G1 X81.523 Y92.498 E.05306
G1 X81.259 Y92.348 E0.01194
G1 X80.566 Y91.861 E.03332
G1 X79.833 Y91.157 E.03998
G1 X79.093 Y90.144 E0.04934
G1 X78.567 Y88.983 E.05014
G1 X78.28 Y87.671 E.05282
G1 X78.279 Y86.396 E0.05013
G1 X78.379 Y85.721 E.02685
G1 F2397.918
G1 X78.608 Y84.905 E.03337
G1 F2399.957
G1 X78.878 Y84.265 E.02732
G1 X79.564 Y83.152 E.05142
G1 X80.441 Y82.243 E0.04967
M204 S1500
G1 X80.777 Y82.511 F180000
G1 F2400
M204 S1000
G1 F2399.5
G1 X81.169 Y82.225 E.01909
G1 X81.883 Y81.79 E.0329
G1 F2396.026
G1 X82.329 Y81.593 E.0192
G1 X82.928 Y81.387 E0.02488
G1 X83.761 Y81.218 E.03345
G1 X84.967 Y81.18 E0.04745
G1 F2399.782
G1 X85.65 Y81.285 E.02718
G1 X86.104 Y81.385 E.01829
G1 F2398.963
G1 X87.153 Y81.804 E.04444
G1 X87.66 Y82.093 E0.02294
G1 F2395.902
G1 X88.316 Y82.582 E.03222
G1 X88.746 Y82.995 E0.02344
G1 F2398.717
G1 X89.483 Y83.947 E.04737
G1 X90.01 Y85.053 E0.04819
G1 F2395.125
G1 X90.058 Y84.9 E.00632
G1 F2399.493
G1 X90.224 Y84.507 E.01678
G1 X90.849 Y83.479 E0.0473
G1 F2398.76
G1 X91.654 Y82.617 E.04641
G1 X92.689 Y81.902 E.04949
G1 X93.278 Y81.622 E0.02563
G1 F2397.301
G1 X94.501 Y81.265 E.05015
G1 F2399.05
G1 X95.819 Y81.19 E.05193
G1 X96.952 Y81.368 E0.04508
G1 F2398.829
G1 X98.005 Y81.758 E.04418
G1 F2397.025
G1 X98.498 Y82.023 E.02204
G1 X99.158 Y82.488 E0.03174
G1 F2399.299
G1 X99.62 Y82.897 E.02427
G1 X100.139 Y83.503 E0.03138
G1 F2397.319
G1 X100.434 Y83.916 E.01998
G1 X100.932 Y84.925 E0.04424
G1 F2399.018
G1 X101.116 Y85.479 E.02297
G1 F2398.404
G1 X101.276 Y86.282 E.03222
G1 X101.32 Y86.874 E0.02333
G1 F2399.152
G1 X101.231 Y88.078 E.04748
G1 X100.883 Y89.254 E.04824
G1 F2398.702
G1 X100.285 Y90.347 E.04903
G1 X99.507 Y91.246 E0.04676
G1 F2397.361
G1 X99.073 Y91.621 E.02258
G1 X98.321 Y92.123 E0.03555
G1 F2399.754
G1 X97.416 Y92.499 E.03854
G1 X98.135 Y92.786 E.03045
G1 X98.642 Y93.075 E0.02295
G1 F2398.956
G1 X99.298 Y93.565 E.03221
G1 X99.728 Y93.978 E0.02344
G1 X100.465 Y94.93 E.04737
G1 X100.995 Y96.041 E0.04841
G1 X101.28 Y97.244 E.04865
G1 X101.303 Y98.455 E0.04763
G1 F2399.809
G1 X101.167 Y99.319 E.0344
G1 X100.924 Y100.1 E.03218
G1 F2397.116
G1 X100.758 Y100.493 E.0168
G1 X100.132 Y101.522 E0.04736
G1 F2399.722
G1 X99.325 Y102.385 E.04647
G1 F2398.533
G1 X98.205 Y103.15 E.05337
G1 F2399.954
G1 X97.024 Y103.609 E.04982
G1 X96.387 Y103.745 E0.02561
G1 X95.132 Y103.808 E.04942
G1 X93.971 Y103.616 E.0463
G1 X92.851 Y103.184 E0.04722
G1 X92.479 Y102.974 E.01681
G1 X91.808 Y102.502 E.03227
G1 X91.149 Y101.871 E0.03586
G1 F2397.683
G1 X90.434 Y100.892 E.04771
G1 X89.996 Y99.915 E0.04211
G1 X89.901 Y100.236 E.01318
G1 X89.303 Y101.33 E0.04902
G1 F2399.606
G1 X88.525 Y102.229 E.04676
G1 F2393.589
G1 X88.091 Y102.603 E.02259
G1 F2399.941
G1 X87.339 Y103.105 E.03555
G1 X86.199 Y103.579 E0.04854
G1 F2396.951
G1 X85.317 Y103.777 E.03558
G1 X84.295 Y103.833 E0.04023
G1 F2398.974
G1 X83.07 Y103.656 E.04869
G1 F2399.298
G1 X81.879 Y103.203 E.05013
G1 X81.311 Y102.874 E0.02581
G1 X80.316 Y102.059 E.05059
G1 X79.563 Y101.098 E.04803
G1 X79.023 Y99.991 E.04845
G1 X78.727 Y98.792 E0.04858
G1 X78.694 Y97.57 E.04809
G1 X78.833 Y96.664 E.03605
G1 X79.076 Y95.882 E0.03219
G1 F2398.214
G1 X79.242 Y95.489 E.01679
G1 X79.867 Y94.462 E0.0473
G1 X80.672 Y93.6 E.04641
G1 X81.708 Y92.885 E0.04949
G1 F2399.623
G1 X82.296 Y92.604 E.02563
G1 F2396.222
G1 X82.647 Y92.502 E.0144
G1 F2399.092
G1 X81.869 Y92.202 E.0328
G1 X81.497 Y91.991 E0.01681
G1 X80.826 Y91.519 E.03227
G1 X80.168 Y90.889 E.03585
