; generated by SuperSlicer 2.5.59.9 on 2024-05-05 at 18:46:33 UTC


;
;

;
;

;
;

;
;

;
;
; 

; external perimeters extrusion width = 0.40mm
; perimeters extrusion width = 0.40mm
; infill extrusion width = 0.40mm
; solid infill extrusion width = 0.40mm
; top infill extrusion width = 0.40mm

; object:{"name":"EBB36 1","id":"EBB36 1.0 lgx lite mount overmold strain relief.stl id:0 copy 0","object_center":[60.808747,62.514876,0.000000],"boundingbox_center":[60.808747,62.514876,4.431967],"boundingbox_size":[58.435303,51.435364,8.863934]}
EXCLUDE_OBJECT_DEFINE NAME=EBB36_1_0_lgx_lite_mount_overmold_strain_relief_stl_id_0_copy_0 CENTER=60.808747,62.514876 POLYGON=[[31.59,61.60],[31.60,61.43],[31.61,61.26],[31.64,61.10],[31.67,60.93],[31.88,60.12],[31.91,60.00],[31.93,59.94],[31.95,59.88],[31.99,59.77],[31.99,59.77],[32.01,59.71],[32.04,59.65],[32.06,59.60],[32.10,59.53],[32.14,59.44],[32.16,59.42],[32.22,59.31],[32.24,59.29],[32.30,59.20],[32.34,59.14],[32.37,59.10],[32.45,59.00],[32.46,59.00],[32.53,58.92],[32.58,58.86],[32.60,58.84],[32.67,58.77],[32.71,58.73],[32.74,58.71],[32.78,58.68],[32.81,58.65],[32.85,58.62],[32.91,58.57],[33.85,57.84],[52.44,43.75],[52.62,43.62],[52.81,43.50],[53.01,43.38],[53.21,43.28],[53.42,43.19],[69.14,36.99],[69.17,36.98],[69.24,36.96],[69.25,36.95],[69.30,36.94],[69.33,36.93],[69.41,36.90],[69.42,36.90],[69.46,36.89],[69.52,36.88],[69.57,36.86],[69.59,36.86],[69.62,36.85],[69.63,36.85],[69.67,36.84],[69.73,36.83],[69.77,36.83],[69.79,36.82],[69.85,36.82],[69.92,36.81],[69.95,36.81],[69.96,36.81],[69.99,36.80],[70.06,36.80],[70.13,36.80],[80.96,36.80],[81.14,36.80],[81.32,36.82],[81.49,36.85],[81.66,36.90],[81.83,36.95],[82.00,37.02],[82.16,37.10],[82.31,37.19],[82.46,37.30],[82.60,37.41],[82.73,37.53],[82.85,37.66],[82.96,37.80],[83.06,37.95],[83.15,38.10],[83.23,38.26],[83.30,38.42],[83.36,38.59],[83.40,38.77],[87.93,58.45],[88.01,58.82],[88.03,58.91],[88.10,59.27],[88.12,59.38],[88.18,59.74],[88.19,59.84],[88.24,60.20],[88.26,60.31],[88.30,60.66],[90.01,77.60],[90.02,77.81],[90.03,78.03],[90.02,78.25],[90.00,78.47],[89.97,78.69],[89.93,78.90],[89.88,79.11],[89.81,79.32],[89.74,79.53],[89.65,79.73],[89.55,79.92],[89.45,80.11],[89.33,80.30],[89.20,80.48],[84.11,87.24],[84.00,87.37],[84.00,87.37],[83.88,87.50],[83.88,87.50],[83.75,87.62],[83.74,87.63],[83.61,87.73],[83.61,87.74],[83.46,87.84],[83.46,87.84],[83.31,87.93],[83.31,87.93],[83.15,88.01],[83.15,88.01],[82.99,88.07],[82.98,88.08],[82.82,88.13],[82.81,88.13],[82.64,88.18],[82.64,88.18],[82.47,88.21],[82.47,88.21],[82.29,88.23],[82.29,88.23],[82.11,88.23],[70.12,88.23],[70.05,88.23],[69.98,88.22],[69.93,88.22],[69.92,88.21],[69.86,88.21],[69.80,88.20],[69.75,88.19],[69.74,88.19],[69.63,88.16],[69.57,88.15],[69.54,88.14],[69.44,88.12],[69.39,88.10],[69.35,88.09],[69.27,88.06],[69.22,88.04],[69.19,88.03],[69.11,88.00],[69.05,87.97],[69.04,87.97],[68.97,87.94],[68.88,87.90],[34.31,70.97],[34.15,70.88],[33.99,70.79],[33.85,70.68],[32.92,69.96],[32.92,69.95],[32.85,69.90],[32.83,69.88],[32.80,69.86],[32.77,69.84],[32.74,69.81],[32.71,69.79],[32.67,69.75],[32.60,69.68],[32.58,69.66],[32.53,69.61],[32.46,69.53],[32.38,69.44],[32.34,69.38],[32.31,69.34],[32.24,69.24],[32.24,69.23],[32.20,69.18],[32.17,69.12],[32.14,69.08],[32.13,69.06],[32.10,69.00],[32.07,68.94],[32.06,68.92],[32.04,68.88],[32.02,68.82],[31.99,68.75],[31.99,68.75],[31.95,68.64],[31.93,68.58],[31.91,68.52],[31.88,68.40],[31.67,67.59],[31.64,67.42],[31.61,67.26],[31.60,67.09],[31.59,66.92],[31.59,61.60]]
; plater:{"center":[60.808747,62.514876,0.000000],"boundingbox_center":[60.808747,62.514876,4.431967],"boundingbox_size":[58.435303,51.435364,8.863934]}

M73 P0 R55
M107
;TYPE:Custom
CALCULATE_PA MATERIAL=ASA BOWDEN_LENGTH=6 LAYER_HEIGHT=0.24 NOZZLE_SIZE=0.4 PRINT_SPEED=50%


START_PRINT EXTRUDER=260 BED=105

G21 ; set units to millimeters
G90 ; use absolute coordinates
M83 ; use relative distances for extrusion
ACTIVATE_EXTRUDER EXTRUDER=extruder
; Filament gcode
M104 S260 T0 ; set temperature
M109 S260 T0 ; set temperature and wait for it to be reached
M190 S105 ; set bed temperature and wait for it to be reached
;LAYER_CHANGE
;Z:0.24
;HEIGHT:0.24
;BEFORE_LAYER_CHANGE
G92 E0.0

G1 E-0.4 F3000
M73 P0 R54
G1 Z0.4 F3600000
;AFTER_LAYER_CHANGE
;0.24




CALCULATE_PA MATERIAL=ASA BOWDEN_LENGTH=6.0 LAYER_HEIGHT=0.2 NOZZLE_SIZE=0.4 PRINT_SPEED=0.45


G92 E0
G1 X25.94183 Y45.59924
G1 Z0.24
G1 E0.4 F3000
;TYPE:Skirt
;WIDTH:0.4
M107
G1 F2700
G1 X28.10838 Y44.37467 E0.08654
G1 X30.40855 Y43.47501 E0.08588
G1 X32.67961 Y42.93463 E0.08118
G1 X34.84478 Y42.71447 E0.07568
G1 X36.77961 Y42.70824 E0.06728
G1 X37.12026 Y41.42141 E0.04629
G1 X37.67401 Y39.89597 E0.05643
G1 X38.3705 Y38.39635 E0.0575
G1 X39.41879 Y36.62623 E0.07154
G1 X40.6663 Y34.97052 E0.07209
G1 X41.68332 Y33.8608 E0.05234
G1 X42.76818 Y32.84994 E0.05156
G1 X44.20416 Y31.73386 E0.06324
G1 X45.87201 Y30.68972 E0.06842
G1 X47.63667 Y29.8314 E0.06824
G1 X64.06099 Y23.34162 E0.61409
G1 X66.43572 Y22.6391 E0.08611
G1 X68.14172 Y22.35369 E0.06015
G1 X69.87235 Y22.23448 E0.06032
G1 X81.59536 Y22.24128 E0.40764
G1 X84.13843 Y22.53247 E0.08901
G1 X86.64064 Y23.21061 E0.09015
G1 X88.37274 Y23.92971 E0.06521
G1 X90.00999 Y24.8327 E0.06502
G1 X91.94463 Y26.24156 E0.08322
G1 X93.68547 Y27.93 E0.08433
G1 X95.24495 Y29.96516 E0.08916
G1 X96.40365 Y32.04139 E0.08268
G1 X97.31042 Y34.42095 E0.08855
G1 X97.83987 Y36.80724 E0.085
G1 X98.01678 Y38.86739 E0.0719
G1 X98.03058 Y45.28072 E0.22301
G1 X98.2939 Y45.69162 E0.01697
G1 X99.15852 Y47.22207 E0.06112
G1 X99.93918 Y48.79634 E0.0611
G1 X100.6369 Y50.41826 E0.0614
G1 X101.21479 Y51.98473 E0.05806
G1 X101.72402 Y53.62389 E0.05969
G1 X102.19419 Y55.50271 E0.06735
G1 X102.55204 Y57.39997 E0.06714
G1 X102.76945 Y59.0568 E0.05811
G1 X104.55489 Y76.7938 E0.61989
G1 X104.52999 Y79.5029 E0.09421
G1 X104.11421 Y82.20032 E0.09491
G1 X103.09114 Y85.33571 E0.11468
G1 X101.54438 Y88.22749 E0.11404
G1 X95.55061 Y96.24596 E0.34811
G1 X94.58062 Y97.37926 E0.05187
G1 X93.50457 Y98.43534 E0.05243
G1 X91.78663 Y99.78777 E0.07603
G1 X89.90348 Y100.91337 E0.07629
G1 X87.65482 Y101.87009 E0.08498
G1 X85.28064 Y102.49915 E0.08541
G1 X82.92647 Y102.77195 E0.08241
G1 X69.64509 Y102.79547 E0.46183
G1 X66.76081 Y102.44091 E0.10105
G1 X64.29894 Y101.74599 E0.08895
G1 X61.96942 Y100.71453 E0.08859
G1 X59.93949 Y99.44539 E0.08325
G1 X58.10278 Y97.90418 E0.08337
G1 X56.24119 Y95.74076 E0.09925
G1 X55.08877 Y95.44289 E0.04139
G1 X51.06962 Y93.28388 E0.15865
G1 X49.02241 Y91.3194 E0.09866
G1 X47.56333 Y89.32914 E0.08581
G1 X47.02988 Y88.11195 E0.04621
G1 X45.27439 Y87.13642 E0.06984
G1 X43.76675 Y85.82269 E0.06954
G1 X35.15393 Y85.81922 E0.29949
G1 X33.02456 Y85.63983 E0.07431
G1 X30.95593 Y85.20574 E0.0735
G1 X28.69953 Y84.41438 E0.08315
G1 X26.04953 Y82.99081 E0.1046
G1 X23.11404 Y80.738 E0.12867
G1 X21.44822 Y79.05843 E0.08226
G1 X20.06725 Y77.22892 E0.07971
G1 X18.93461 Y75.22319 E0.0801
G1 X18.06172 Y73.03311 E0.08198
G1 X17.45953 Y70.76685 E0.08154
G1 X17.06793 Y68.09285 E0.09397
G1 X17.0408 Y61.00542 E0.24645
G1 X17.18499 Y59.27604 E0.06034
G1 X17.49677 Y57.59592 E0.05942
G1 X18.04672 Y55.53271 E0.07425
G1 X18.82015 Y53.53641 E0.07445
G1 X20.31593 Y50.91746 E0.10488
G1 X21.53049 Y49.36749 E0.06847
G1 X22.91709 Y47.95776 E0.06876
G1 X25.89451 Y45.63613 E0.13129
M107
G1 X26.10768 Y45.90945 F3600000
M107
G1 F2700
G1 X26.12469 Y45.89618 E0.00075
G1 X28.24687 Y44.69471 E0.0848
G1 X30.52419 Y43.80399 E0.08503
G1 X32.72632 Y43.28017 E0.07871
G1 X34.87149 Y43.06205 E0.07498
G1 X37.0482 Y43.05599 E0.07569
G1 X37.45052 Y41.53296 E0.05478
G1 X37.999 Y40.02201 E0.05589
G1 X38.68284 Y38.55117 E0.0564
G1 X39.71365 Y36.81224 E0.07029
G1 X40.92887 Y35.19981 E0.07021
G1 X41.93558 Y34.10135 E0.05181
G1 X42.99996 Y33.1103 E0.05057
G1 X44.41097 Y32.0145 E0.06212
G1 X46.03287 Y30.99901 E0.06654
G1 X47.77095 Y30.15305 E0.06722
G1 X64.18189 Y23.66856 E0.61359
G1 X66.50371 Y22.98106 E0.0842
G1 X68.19087 Y22.69881 E0.05948
G1 X69.87817 Y22.58298 E0.05881
G1 X81.58523 Y22.58977 E0.40709
G1 X84.08556 Y22.87719 E0.08752
G1 X86.53839 Y23.54396 E0.08839
G1 X88.23 Y24.24778 E0.06371
G1 X89.83195 Y25.13248 E0.06364
G1 X91.7294 Y26.51593 E0.08166
G1 X93.43353 Y28.17112 E0.08261
G1 X94.94689 Y30.14618 E0.08652
G1 X96.08252 Y32.17736 E0.08092
G1 X96.98023 Y34.53311 E0.08766
G1 X97.49711 Y36.8712 E0.08327
G1 X97.6683 Y38.87538 E0.06995
G1 X97.68231 Y45.38326 E0.2263
G1 X97.9929 Y45.86733 E0.02
G1 X98.84841 Y47.38115 E0.06046
G1 X99.62093 Y48.93843 E0.06045
G1 X100.31155 Y50.54324 E0.06075
G1 X100.88335 Y52.09252 E0.05743
G1 X101.38715 Y53.71328 E0.05902
G1 X101.85269 Y55.57239 E0.06664
G1 X102.20715 Y57.45017 E0.06645
G1 X102.42297 Y59.09432 E0.05766
G1 X104.20719 Y76.81917 E0.61946
G1 X104.18163 Y79.48701 E0.09277
G1 X103.77197 Y82.13307 E0.09311
G1 X102.77655 Y85.18501 E0.11163
G1 X101.25735 Y88.0294 E0.11213
G1 X95.27494 Y96.03268 E0.34745
G1 X94.32085 Y97.14682 E0.05101
G1 X93.26737 Y98.17985 E0.05131
G1 X91.57994 Y99.50697 E0.07465
G1 X89.75592 Y100.59744 E0.0739
G1 X87.55325 Y101.53649 E0.08326
G1 X85.2279 Y102.15444 E0.08367
G1 X82.91591 Y102.42347 E0.08094
G1 X69.65527 Y102.44696 E0.46111
G1 X66.84247 Y102.10186 E0.09854
G1 X64.42851 Y101.42225 E0.0872
G1 X62.14346 Y100.41235 E0.08687
G1 X60.15415 Y99.17058 E0.08155
G1 X58.33767 Y97.64635 E0.08246
G1 X56.43373 Y95.43009 E0.1016
G1 X55.23491 Y95.1258 E0.04301
G1 X51.25554 Y92.98816 E0.15708
G1 X49.2946 Y91.10126 E0.09463
G1 X47.85588 Y89.13877 E0.08462
G1 X47.30244 Y87.86472 E0.0483
G1 X45.45979 Y86.84076 E0.0733
G1 X43.89772 Y85.47424 E0.07217
G1 X35.17575 Y85.47133 E0.30329
G1 X33.08542 Y85.29653 E0.07294
G1 X31.06025 Y84.87304 E0.07194
G1 X28.85243 Y84.10092 E0.08133
G1 X26.2269 Y82.6905 E0.10364
G1 X23.33571 Y80.46883 E0.12679
G1 X21.70408 Y78.82153 E0.08062
G1 X20.3525 Y77.02837 E0.07808
G1 X19.24395 Y75.06227 E0.07849
G1 X18.38939 Y72.91397 E0.0804
G1 X17.79892 Y70.6871 E0.08011
G1 X17.41637 Y68.07913 E0.09166
G1 X17.38873 Y61.02668 E0.24524
G1 X17.52925 Y59.33091 E0.05917
G1 X17.83528 Y57.67904 E0.05842
G1 X18.37514 Y55.6497 E0.07302
G1 X19.14041 Y53.67445 E0.07366
G1 X20.59807 Y51.12241 E0.1022
G1 X21.79872 Y49.59019 E0.06769
G1 X23.15741 Y48.2104 E0.06734
G1 X26.06036 Y45.94635 E0.12802
M107
G1 X26.27355 Y46.21964 F3600000
M107
G1 F2700
G1 X26.30756 Y46.19312 E0.0015
G1 X28.40772 Y45.00411 E0.08392
G1 X30.63963 Y44.13303 E0.08331
G1 X32.77314 Y43.6257 E0.07626
G1 X34.88108 Y43.41052 E0.07368
G1 X37.33455 Y43.40368 E0.08531
G1 X37.36628 Y43.21653 E0.0066
G1 X37.78079 Y41.64446 E0.05653
G1 X38.32398 Y40.14808 E0.05536
G1 X38.99513 Y38.70607 E0.05531
G1 X39.99777 Y37.01427 E0.06838
M73 P1 R54
G1 X41.20211 Y35.41628 E0.06958
G1 X42.18771 Y34.34203 E0.05069
G1 X43.23164 Y33.37075 E0.04958
G1 X44.6177 Y32.29519 E0.06101
G1 X46.19379 Y31.30827 E0.06466
G1 X47.90525 Y30.4747 E0.0662
G1 X64.30281 Y23.9955 E0.61309
G1 X66.57186 Y23.32299 E0.08229
G1 X68.22329 Y23.04589 E0.05823
G1 X69.88401 Y22.93148 E0.05789
G1 X81.57507 Y22.93826 E0.40653
G1 X84.0325 Y23.22187 E0.08602
G1 X86.43588 Y23.87722 E0.08662
G1 X88.08702 Y24.56574 E0.06221
G1 X89.65373 Y25.43216 E0.06226
G1 X91.51399 Y26.79016 E0.08009
G1 X93.18145 Y28.41209 E0.08089
G1 X94.64894 Y30.32738 E0.0839
G1 X95.76141 Y32.31339 E0.07916
G1 X96.65 Y34.64521 E0.08677
G1 X97.15429 Y36.93492 E0.08153
G1 X97.31982 Y38.88333 E0.068
G1 X97.33403 Y45.48588 E0.22959
G1 X97.69195 Y46.04312 E0.02303
G1 X98.53833 Y47.54027 E0.0598
G1 X99.3027 Y49.08056 E0.05979
G1 X99.98623 Y50.66827 E0.06011
G1 X100.55193 Y52.20036 E0.05679
G1 X101.05028 Y53.80268 E0.05835
G1 X101.51339 Y55.65207 E0.06629
G1 X101.86225 Y57.50038 E0.06541
G1 X102.07649 Y59.13184 E0.05722
G1 X103.85948 Y76.84451 E0.61904
G1 X103.83328 Y79.47095 E0.09133
G1 X103.42978 Y82.06559 E0.09131
G1 X102.45004 Y85.06223 E0.10963
G1 X100.97033 Y87.83131 E0.10917
G1 X94.99928 Y95.81939 E0.3468
G1 X94.06115 Y96.9143 E0.05014
G1 X93.03024 Y97.92429 E0.05018
G1 X91.39139 Y99.21367 E0.07251
G1 X89.60812 Y100.28162 E0.07228
G1 X87.45143 Y101.20297 E0.08155
G1 X85.17497 Y101.80976 E0.08192
G1 X82.90531 Y102.075 E0.07946
G1 X69.66542 Y102.09845 E0.46039
G1 X66.92393 Y101.76276 E0.09604
G1 X64.55786 Y101.09841 E0.08546
G1 X62.31729 Y100.11005 E0.08516
G1 X60.36875 Y98.89573 E0.07984
G1 X58.57254 Y97.3885 E0.08154
G1 X56.72789 Y95.24263 E0.0984
G1 X56.64461 Y95.12349 E0.00505
G1 X55.38071 Y94.80853 E0.04529
G1 X51.44157 Y92.69249 E0.15549
G1 X49.56687 Y90.88322 E0.0906
G1 X48.14859 Y88.94862 E0.08341
G1 X47.5754 Y87.61747 E0.0504
G1 X45.67524 Y86.56621 E0.07551
G1 X44.02868 Y85.12578 E0.07607
G1 X35.19741 Y85.12344 E0.30709
G1 X33.14605 Y84.95318 E0.07158
G1 X31.16429 Y84.54024 E0.07039
G1 X29.00526 Y83.78742 E0.07951
G1 X26.40433 Y82.39021 E0.10267
G1 X23.55756 Y80.19981 E0.1249
G1 X21.9601 Y78.58481 E0.07899
G1 X20.63789 Y76.82803 E0.07646
G1 X19.5534 Y74.90155 E0.07687
G1 X18.71713 Y72.79504 E0.07881
G1 X18.13834 Y70.60746 E0.07869
G1 X17.76482 Y68.06537 E0.08935
G1 X17.73666 Y61.04779 E0.24402
G1 X17.87353 Y59.38565 E0.05799
G1 X18.17379 Y57.76214 E0.05741
G1 X18.70945 Y55.74856 E0.07245
G1 X19.46061 Y53.8126 E0.07221
G1 X20.8803 Y51.32725 E0.09953
G1 X22.05399 Y49.82766 E0.06622
G1 X23.39773 Y48.46303 E0.0666
G1 X26.22625 Y46.25655 E0.12474
M107
G1 X26.43948 Y46.52983 F3600000
M107
G1 F2700
G1 X26.4906 Y46.48995 E0.00225
G1 X28.5461 Y45.3242 E0.08217
G1 X30.75507 Y44.46207 E0.08246
G1 X32.82005 Y43.97121 E0.07381
G1 X34.89071 Y43.75899 E0.07238
G1 X37.63027 Y43.75136 E0.09526
G1 X37.70537 Y43.29736 E0.016
G1 X38.11107 Y41.75594 E0.05543
G1 X38.64895 Y40.27419 E0.05481
G1 X39.30736 Y38.86111 E0.05421
G1 X40.29256 Y37.20039 E0.06715
G1 X41.47524 Y35.63289 E0.06828
G1 X42.43972 Y34.58283 E0.04958
G1 X43.46322 Y33.63129 E0.04859
G1 X44.82435 Y32.57594 E0.05989
G1 X46.35477 Y31.61749 E0.06279
G1 X48.03957 Y30.79634 E0.06517
G1 X64.42375 Y24.32242 E0.61259
G1 X66.64015 Y23.66489 E0.08039
G1 X68.25583 Y23.39297 E0.05697
G1 X69.88988 Y23.27998 E0.05696
G1 X81.56486 Y23.28675 E0.40597
G1 X83.97926 Y23.56653 E0.08452
G1 X86.33309 Y24.2104 E0.08486
G1 X87.9438 Y24.88359 E0.0607
G1 X89.47539 Y25.73176 E0.06088
G1 X91.27982 Y27.04854 E0.07768
G1 X92.92937 Y28.65305 E0.08002
G1 X94.35111 Y30.50876 E0.08129
G1 X95.44033 Y32.44948 E0.07739
G1 X96.31975 Y34.75725 E0.08588
G1 X96.81143 Y36.99839 E0.07978
G1 X96.97134 Y38.89123 E0.06605
G1 X96.98576 Y45.58859 E0.23289
G1 X97.39104 Y46.21897 E0.02606
G1 X98.22827 Y47.69944 E0.05914
G1 X98.9845 Y49.22274 E0.05914
G1 X99.66092 Y50.79335 E0.05946
G1 X100.22052 Y52.30825 E0.05616
G1 X100.71342 Y53.8921 E0.05768
G1 X101.17409 Y55.73175 E0.06595
G1 X101.51736 Y57.5506 E0.06436
G1 X101.73001 Y59.16937 E0.05677
G1 X103.51178 Y76.86988 E0.61861
G1 X103.48698 Y79.42986 E0.08902
G1 X103.08759 Y81.99812 E0.09038
G1 X102.13542 Y84.91159 E0.10658
G1 X100.68328 Y87.63325 E0.10727
G1 X94.72363 Y95.60608 E0.34613
G1 X93.80153 Y96.68171 E0.04927
G1 X92.79319 Y97.66867 E0.04906
G1 X91.20266 Y98.9205 E0.07038
G1 X89.46008 Y99.9659 E0.07066
G1 X87.34935 Y100.86953 E0.07984
G1 X85.12184 Y101.46511 E0.08018
G1 X82.89466 Y101.72652 E0.07798
G1 X69.67556 Y101.74993 E0.45967
G1 X67.00537 Y101.42365 E0.09354
G1 X64.66396 Y100.76623 E0.08457
G1 X62.49094 Y99.80765 E0.08259
G1 X60.58331 Y98.62083 E0.07812
G1 X58.80746 Y97.13069 E0.08061
G1 X56.99836 Y95.02267 E0.0966
G1 X56.8563 Y94.81651 E0.00871
G1 X55.52619 Y94.49108 E0.04762
G1 X51.62773 Y92.3969 E0.15388
G1 X49.83922 Y90.6653 E0.08656
G1 X48.44147 Y88.75869 E0.08221
G1 X47.8489 Y87.3705 E0.05249
G1 X45.86037 Y86.27036 E0.07902
G1 X44.15999 Y84.77731 E0.07869
G1 X35.21906 Y84.77554 E0.3109
G1 X33.18552 Y84.60676 E0.07096
G1 X31.26808 Y84.20737 E0.06811
G1 X29.15802 Y83.47389 E0.07768
G1 X26.58181 Y82.08996 E0.10169
G1 X23.77958 Y79.93094 E0.12301
G1 X22.21629 Y78.34827 E0.07735
G1 X20.92341 Y76.62789 E0.07483
G1 X19.86296 Y74.74105 E0.07526
G1 X19.04494 Y72.67633 E0.07723
G1 X18.47778 Y70.52794 E0.07727
G1 X18.11326 Y68.05156 E0.08704
G1 X18.08461 Y61.06876 E0.24282
G1 X18.21783 Y59.44027 E0.05682
