; generated by PrusaSlicer 2.7.1+MacOS-arm64 on 2024-02-27 at 03:04:03 UTC


;
;

;
;

;
;

;
;

;
;
; 

; external perimeters extrusion width = 0.45mm
; perimeters extrusion width = 0.45mm
; infill extrusion width = 0.45mm
; solid infill extrusion width = 0.45mm
; top infill extrusion width = 0.40mm

M73 P0 R58

EXCLUDE_OBJECT_DEFINE NAME=echo_outlet_mount_stl CENTER=87.206,115.740 POLYGON=[[94.689,40.218],[95.666,40.455],[97.274,41.157],[98.694,42.188],[104.632,47.960],[105.703,49.352],[106.450,50.940],[129.032,124.385],[129.508,126.134],[130.073,128.794],[130.490,131.482],[130.718,134.192],[130.794,136.910],[130.681,139.628],[130.416,142.334],[130.138,144.126],[129.360,147.667],[128.574,150.272],[127.644,152.827],[126.146,156.129],[124.378,159.295],[122.351,162.300],[120.661,164.432],[118.856,166.466],[117.579,167.753],[115.557,169.573],[113.438,171.278],[110.447,173.326],[107.294,175.117],[104.002,176.639],[100.596,177.879],[98.856,178.391],[96.208,179.013],[93.529,179.485],[90.825,179.769],[88.109,179.903],[84.484,179.802],[80.881,179.398],[78.210,178.889],[75.570,178.231],[73.838,177.695],[71.289,176.747],[67.987,175.250],[65.595,173.957],[63.298,172.500],[61.087,170.917],[59.674,169.780],[57.653,167.962],[55.134,165.354],[53.385,163.270],[51.787,161.071],[50.313,158.785],[49.418,157.208],[48.208,154.772],[47.136,152.273],[46.516,150.569],[45.492,147.091],[44.927,144.430],[44.510,141.743],[44.282,139.033],[44.206,136.315],[44.319,133.598],[44.584,130.891],[44.862,129.099],[45.640,125.557],[66.148,51.507],[66.851,49.899],[67.882,48.477],[73.655,42.540],[75.046,41.470],[76.398,40.811],[77.113,40.574],[78.098,40.373],[79.100,40.296],[93.188,40.097]]

;TYPE:Custom
CALCULATE_PA MATERIAL=PLA BOWDEN_LENGTH=6 LAYER_HEIGHT=0.2 NOZZLE_SIZE=0.4 PRINT_SPEED=90


START_PRINT EXTRUDER=210 BED=65
G21 ; set units to millimeters
G90 ; use absolute coordinates
M83 ; use relative distances for extrusion
; Filament gcode
M107
;LAYER_CHANGE
;Z:0.2
;HEIGHT:0.2
;BEFORE_LAYER_CHANGE
G92 E0.0
;0.2
;M201 X4000 Y4000
;M74 W0

G1 Z.2 F60000
;AFTER_LAYER_CHANGE
;0.2
CALCULATE_PA MATERIAL=PLA BOWDEN_LENGTH=6.0 LAYER_HEIGHT=0.24 NOZZLE_SIZE=0.4PRINT_SPEED=90
G1 E-2 F3000
G1 X63.463 Y46.35 F60000
G1 Z.2
G1 E2 F3000
;TYPE:Skirt/Brim
;WIDTH:0.45
G1 F1800
G1 X64.385 Y45.215 E.0495
G1 X70.351 Y39.084 E.28957
G1 X71.397 Y38.188 E.04662
G1 X72.509 Y37.416 E.04582
G1 X74.673 Y36.356 E.08156
G1 X76.522 Y35.808 E.06528
G1 X77.663 Y35.612 E.03919
G1 X78.822 Y35.522 E.03935
G1 X93.483 Y35.324 E.4963
G1 X95.592 Y35.521 E.0717
G1 X96.866 Y35.827 E.04435
G1 X98.098 Y36.254 E.04414
G1 X99.783 Y37.084 E.06358
G1 X100.834 Y37.78 E.04267
G1 X101.789 Y38.543 E.04138
G1 X108.195 Y44.77 E.3024
G1 X108.986 Y45.706 E.04148
G1 X109.778 Y46.854 E.04721
G1 X110.46 Y48.126 E.04885
G1 X110.918 Y49.235 E.04061
G1 X133.637 Y123.095 E2.61567
G1 X134.172 Y125.078 E.06952
G1 X134.763 Y127.863 E.09637
G1 X135.248 Y130.999 E.10741
G1 X135.492 Y133.923 E.09932
G1 X135.576 Y136.865 E.09962
G1 X135.456 Y139.869 E.10176
G1 X135.169 Y142.86 E.10171
G1 X134.856 Y144.906 E.07006
G1 X133.953 Y148.997 E.14181
G1 X133.104 Y151.801 E.09917
G1 X132.103 Y154.557 E.09925
G1 X130.01 Y159.044 E.16759
G1 X127.883 Y162.682 E.14264
G1 X126.209 Y165.124 E.10022
G1 X124.369 Y167.452 E.10044
G1 X122.391 Y169.686 E.101
G1 X120.937 Y171.157 E.07001
G1 X117.985 Y173.786 E.1338
G1 X115.553 Y175.644 E.10359
G1 X113.038 Y177.345 E.10277
G1 X109.582 Y179.317 E.13469
G1 X106.625 Y180.709 E.11063
G1 X102.929 Y182.134 E.13408
G1 X99.093 Y183.26 E.13532
G1 X96.296 Y183.876 E.09694
G1 X94.233 Y184.215 E.07077
G1 X91.264 Y184.531 E.10106
G1 X88.266 Y184.682 E.10161
G1 X85.193 Y184.624 E.10404
G1 X80.085 Y184.114 E.17376
G1 X77.216 Y183.566 E.09887
G1 X74.384 Y182.863 E.09877
G1 X72.235 Y182.2 E.07612
G1 X69.535 Y181.195 E.09752
G1 X65.972 Y179.587 E.13232
G1 X63.104 Y178.038 E.11033
G1 X60.597 Y176.445 E.10054
G1 X58.167 Y174.702 E.10122
G1 X56.525 Y173.379 E.07138
G1 X54.393 Y171.461 E.09707
G1 X51.528 Y168.495 E.13958
G1 X49.565 Y166.146 E.10362
G1 X47.804 Y163.716 E.10158
G1 X46.185 Y161.199 E.1013
G1 X45.148 Y159.361 E.07143
G1 X43.863 Y156.767 E.09799
G1 X42.717 Y154.1 E.09826
G1 X41.999 Y152.139 E.07069
G1 X40.836 Y148.181 E.13964
G1 X40.226 Y145.307 E.09945
G1 X39.773 Y142.395 E.09975
G1 X39.512 Y139.371 E.10274
G1 X39.424 Y136.368 E.10169
G1 X39.543 Y133.368 E.10163
G1 X39.831 Y130.366 E.10208
G1 X40.152 Y128.275 E.07161
G1 X41.016 Y124.341 E.13633
G1 X61.567 Y50.134 E2.60636
G1 X62.032 Y48.872 E.04552
G1 X62.623 Y47.662 E.04558
G1 X63.43 Y46.4 E.0507
G1 X63.773 Y46.62 F60000
G1 F1800
G1 X63.799 Y46.579 E.00164
G1 X64.683 Y45.492 E.04742
G1 X70.624 Y39.387 E.28834
G1 X71.637 Y38.516 E.04522
G1 X72.728 Y37.759 E.04495
G1 X74.812 Y36.739 E.07854
G1 X76.597 Y36.208 E.06304
G1 X77.722 Y36.015 E.03864
G1 X78.847 Y35.928 E.03819
G1 X93.456 Y35.73 E.49454
G1 X95.54 Y35.925 E.07085
G1 X96.743 Y36.215 E.04189
G1 X97.93 Y36.625 E.04251
G1 X99.591 Y37.444 E.06269
G1 X100.587 Y38.104 E.04044
G1 X101.513 Y38.842 E.04008
G1 X107.891 Y45.041 E.30106
G1 X108.657 Y45.946 E.04013
G1 X109.425 Y47.056 E.04569
G1 X110.096 Y48.309 E.04811
G1 X110.538 Y49.381 E.03925
G1 X133.245 Y123.205 E2.61439
G1 X133.775 Y125.168 E.06882
G1 X134.364 Y127.942 E.09599
G1 X134.843 Y131.04 E.10611
G1 X135.086 Y133.952 E.09891
G1 X135.169 Y136.869 E.09878
G1 X135.05 Y139.847 E.10088
G1 X134.764 Y142.815 E.10093
G1 X134.454 Y144.838 E.06928
G1 X133.561 Y148.886 E.14031
G1 X132.716 Y151.678 E.09874
G1 X131.723 Y154.409 E.09836
G1 X129.645 Y158.864 E.16639
G1 X127.543 Y162.458 E.14093
G1 X125.878 Y164.888 E.09971
G1 X124.053 Y167.195 E.09957
G1 X122.09 Y169.412 E.10023
G1 X120.652 Y170.866 E.06922
G1 X117.72 Y173.477 E.13289
G1 X115.31 Y175.317 E.10263
G1 X112.816 Y177.003 E.1019
G1 X109.388 Y178.959 E.13359
G1 X106.472 Y180.332 E.1091
G1 X102.806 Y181.746 E.133
G1 X98.998 Y182.864 E.13434
G1 X96.214 Y183.477 E.09649
G1 X94.173 Y183.812 E.07001
G1 X91.227 Y184.126 E.10028
G1 X88.253 Y184.275 E.10079
G1 X85.209 Y184.217 E.10305
G1 X80.152 Y183.712 E.17202
G1 X77.309 Y183.169 E.09797
G1 X74.487 Y182.469 E.09842
G1 X72.371 Y181.816 E.07496
G1 X69.683 Y180.816 E.09708
G1 X66.146 Y179.219 E.13136
G1 X63.316 Y177.691 E.10886
G1 X60.829 Y176.111 E.09973
G1 X58.418 Y174.382 E.10043
G1 X56.793 Y173.073 E.07063
G1 X54.671 Y171.163 E.09664
G1 X51.836 Y168.228 E.13812
G1 X49.89 Y165.901 E.10268
G1 X48.143 Y163.491 E.10075
G1 X46.537 Y160.993 E.10052
G1 X45.51 Y159.175 E.07068
G1 X44.23 Y156.591 E.09761
G1 X43.094 Y153.945 E.09747
G1 X42.384 Y152.005 E.06993
G1 X41.233 Y148.089 E.13816
G1 X40.626 Y145.228 E.099
G1 X40.176 Y142.34 E.09893
G1 X39.918 Y139.342 E.10185
G1 X39.831 Y136.363 E.10088
G1 X39.95 Y133.39 E.10071
G1 X40.236 Y130.41 E.10133
G1 X40.553 Y128.344 E.07075
G1 X41.41 Y124.444 E.13516
G1 X61.957 Y50.251 E2.60587
G1 X62.41 Y49.023 E.0443
G1 X62.983 Y47.851 E.04416
G1 X63.741 Y46.671 E.04747
G1 X64.083 Y46.891 F60000
G1 F1800
G1 X64.135 Y46.809 E.00329
G1 X64.981 Y45.769 E.04538
G1 X70.896 Y39.689 E.28712
G1 X71.878 Y38.844 E.04385
G1 X72.947 Y38.103 E.04403
G1 X74.95 Y37.122 E.07549
G1 X76.672 Y36.608 E.06083
G1 X77.763 Y36.42 E.03747
G1 X78.872 Y36.335 E.03765
G1 X93.43 Y36.137 E.49282
G1 X95.459 Y36.324 E.06897
G1 X96.638 Y36.608 E.04105
G1 X97.785 Y37.005 E.04108
G1 X99.377 Y37.79 E.06008
G1 X100.341 Y38.428 E.03913
G1 X101.251 Y39.154 E.0394
G1 X107.587 Y45.312 E.29907
G1 X108.328 Y46.185 E.03876
G1 X109.083 Y47.278 E.04497
G1 X109.732 Y48.492 E.0466
G1 X110.158 Y49.527 E.03788
G1 X132.852 Y123.315 E2.61309
G1 X133.378 Y125.258 E.06814
G1 X133.965 Y128.021 E.09561
G1 X134.438 Y131.081 E.10481
G1 X134.679 Y133.969 E.0981
G1 X134.762 Y136.874 E.09837
G1 X134.643 Y139.824 E.09994
G1 X134.359 Y142.77 E.10018
G1 X134.053 Y144.77 E.06849
G1 X133.169 Y148.776 E.13886
G1 X132.332 Y151.544 E.09788
G1 X131.344 Y154.262 E.09789
G1 X129.28 Y158.683 E.16515
G1 X127.203 Y162.234 E.13925
G1 X125.554 Y164.641 E.09876
G1 X123.738 Y166.938 E.09911
G1 X121.789 Y169.137 E.09946
G1 X120.367 Y170.575 E.06845
G1 X117.455 Y173.168 E.13198
G1 X115.068 Y174.99 E.10164
G1 X112.594 Y176.662 E.10107
G1 X109.193 Y178.602 E.13253
G1 X106.318 Y179.955 E.10755
G1 X102.683 Y181.358 E.13189
G1 X98.904 Y182.468 E.13332
G1 X96.132 Y183.079 E.09608
G1 X94.113 Y183.41 E.06925
G1 X91.189 Y183.72 E.09953
G1 X88.24 Y183.868 E.09995
G1 X85.225 Y183.81 E.10207
G1 X80.22 Y183.311 E.17025
G1 X77.401 Y182.773 E.09714
G1 X74.591 Y182.075 E.09801
G1 X72.508 Y181.433 E.07378
G1 X69.832 Y180.437 E.09665
G1 X66.32 Y178.851 E.13044
G1 X63.528 Y177.344 E.10739
G1 X61.052 Y175.77 E.09931
G1 X58.669 Y174.061 E.09926
G1 X57.061 Y172.766 E.06989
G1 X54.948 Y170.865 E.09621
M73 P1 R58
G1 X52.143 Y167.961 E.13666
G1 X50.216 Y165.657 E.10167
G1 X48.482 Y163.266 E.09998
G1 X46.888 Y160.788 E.09973
G1 X45.873 Y158.989 E.06992
G1 X44.602 Y156.425 E.09687
G1 X43.47 Y153.789 E.0971
G1 X42.769 Y151.872 E.06909
G1 X41.63 Y147.997 E.13671
G1 X41.027 Y145.16 E.09817
G1 X40.579 Y142.284 E.09852
G1 X40.324 Y139.313 E.10093
G1 X40.238 Y136.359 E.10003
G1 X40.356 Y133.412 E.09983
G1 X40.641 Y130.455 E.10055
G1 X40.955 Y128.412 E.06997
G1 X41.804 Y124.547 E.13394
G1 X62.347 Y50.368 E2.60538
G1 X62.781 Y49.193 E.0424
G1 X63.344 Y48.041 E.0434
G1 X64.05 Y46.941 E.04424
G1 X64.393 Y47.161 F60000
G1 F1800
G1 X64.471 Y47.039 E.0049
G1 X65.279 Y46.047 E.04331
G1 X71.168 Y39.992 E.2859
G1 X72.119 Y39.173 E.04248
G1 X73.167 Y38.446 E.04317
G1 X75.089 Y37.505 E.07244
G1 X76.748 Y37.008 E.05862
G1 X77.823 Y36.823 E.03692
G1 X78.896 Y36.741 E.03643
G1 X93.403 Y36.543 E.49109
G1 X95.378 Y36.724 E.06713
G1 X96.514 Y36.996 E.03954
G1 X97.64 Y37.386 E.04034
G1 X99.163 Y38.137 E.05748
G1 X100.108 Y38.762 E.03835
G1 X100.989 Y39.466 E.03817
G1 X107.283 Y45.583 E.29708
G1 X107.999 Y46.426 E.03744
G1 X108.73 Y47.48 E.04342
G1 X109.368 Y48.675 E.04585
G1 X109.778 Y49.673 E.03652
G1 X132.46 Y123.424 E2.61178
G1 X132.981 Y125.348 E.06747
M73 P1 R57
G1 X133.565 Y128.1 E.09523
G1 X134.032 Y131.122 E.10351
G1 X134.273 Y133.997 E.09766
G1 X134.355 Y136.878 E.09756
G1 X134.237 Y139.802 E.09905
G1 X133.955 Y142.725 E.0994
G1 X133.651 Y144.701 E.06767
G1 X132.777 Y148.666 E.13743
G1 X131.947 Y151.41 E.09704
G1 X130.964 Y154.114 E.09739
G1 X128.916 Y158.502 E.16391
G1 X126.863 Y162.01 E.13758
G1 X125.222 Y164.405 E.09827
G1 X123.422 Y166.681 E.09822
G1 X121.488 Y168.863 E.09869
G1 X120.082 Y170.285 E.06769
G1 X117.191 Y172.859 E.13102
G1 X114.826 Y174.662 E.10066
G1 X112.373 Y176.32 E.10022
G1 X108.998 Y178.244 E.1315
G1 X106.165 Y179.578 E.10599
G1 X102.56 Y180.97 E.13081
G1 X98.809 Y182.072 E.13233
G1 X96.05 Y182.68 E.09563
G1 X94.053 Y183.007 E.0685
G1 X91.152 Y183.315 E.09875
G1 X88.226 Y183.461 E.09916
G1 X85.241 Y183.403 E.10106
G1 X80.287 Y182.909 E.16852
G1 X77.483 Y182.374 E.09662
G1 X74.694 Y181.682 E.09727
G1 X72.644 Y181.049 E.07262
G1 X69.98 Y180.058 E.09621
G1 X66.494 Y178.483 E.12948
G1 X63.74 Y176.996 E.10594
G1 X61.285 Y175.436 E.09846
G1 X58.92 Y173.74 E.09851
G1 X57.329 Y172.46 E.06912
G1 X55.226 Y170.567 E.09578
G1 X52.451 Y167.694 E.1352
G1 X50.541 Y165.412 E.10073
G1 X48.822 Y163.041 E.09913
G1 X47.24 Y160.583 E.09894
G1 X46.235 Y158.804 E.06916
G1 X44.969 Y156.249 E.09652
G1 X43.846 Y153.634 E.09633
G1 X43.153 Y151.738 E.06833
G1 X42.026 Y147.905 E.13523
G1 X41.427 Y145.081 E.09772
G1 X40.983 Y142.228 E.09773
G1 X40.73 Y139.284 E.10002
G1 X40.645 Y136.354 E.09922
G1 X40.763 Y133.434 E.09892
G1 X41.045 Y130.5 E.09977
G1 X41.356 Y128.48 E.06918
G1 X42.197 Y124.651 E.1327
G1 X62.737 Y50.485 E2.60493
G1 X63.159 Y49.344 E.04118
G1 X63.704 Y48.231 E.04195
G1 X64.36 Y47.212 E.04102
G1 X64.702 Y47.433 F60000
G1 F1800
G1 X64.807 Y47.269 E.00659
G1 X65.577 Y46.324 E.04126
G1 X71.441 Y40.294 E.28471
G1 X72.36 Y39.501 E.04109
G1 X73.386 Y38.789 E.04227
G1 X75.228 Y37.888 E.06941
G1 X76.823 Y37.408 E.05638
G1 X77.863 Y37.228 E.03573
G1 X78.921 Y37.147 E.03592
G1 X93.377 Y36.949 E.48936
G1 X95.298 Y37.123 E.06529
G1 X96.409 Y37.39 E.03868
G1 X97.494 Y37.766 E.03887
G1 X98.95 Y38.484 E.05495
G1 X99.862 Y39.086 E.03699
G1 X100.728 Y39.778 E.03752
G1 X106.979 Y45.854 E.29507
G1 X107.671 Y46.666 E.03611
G1 X108.388 Y47.702 E.04265
G1 X109.004 Y48.857 E.04431
G1 X109.398 Y49.819 E.03519
G1 X132.068 Y123.534 E2.61049
G1 X132.583 Y125.439 E.0668
G1 X133.166 Y128.179 E.09482
G1 X133.627 Y131.163 E.1022
G1 X133.866 Y134.014 E.09684
G1 X133.947 Y136.883 E.09715
G1 X133.83 Y139.78 E.09814
G1 X133.55 Y142.68 E.09862
G1 X133.25 Y144.633 E.06688
G1 X132.385 Y148.555 E.13595
G1 X131.563 Y151.276 E.09621
G1 X130.585 Y153.966 E.09688
G1 X128.551 Y158.321 E.1627
G1 X126.523 Y161.786 E.1359
G1 X124.898 Y164.158 E.09732
G1 X123.106 Y166.424 E.09779
G1 X121.187 Y168.589 E.09793
G1 X119.797 Y169.994 E.0669
G1 X116.926 Y172.55 E.13011
G1 X114.584 Y174.335 E.09967
G1 X112.152 Y175.978 E.09935
G1 X108.804 Y177.886 E.13044
G1 X106.011 Y179.201 E.10449
G1 X102.438 Y180.581 E.12965
G1 X98.715 Y181.676 E.13136
G1 X95.968 Y182.281 E.09521
G1 X93.993 Y182.604 E.06774
G1 X91.115 Y182.909 E.09796
G1 X88.213 Y183.054 E.09835
G1 X85.257 Y182.997 E.10008
G1 X80.355 Y182.508 E.16675
G1 X77.565 Y181.975 E.09615
G1 X74.798 Y181.288 E.0965
G1 X72.781 Y180.666 E.07145
G1 X70.129 Y179.679 E.09578
G1 X66.668 Y178.115 E.12856
G1 X63.952 Y176.649 E.10447
G1 X61.517 Y175.102 E.09765
G1 X59.17 Y173.419 E.09776
G1 X57.597 Y172.154 E.06833
G1 X55.503 Y170.269 E.09537
G1 X52.758 Y167.427 E.13374
G1 X50.866 Y165.167 E.09977
G1 X49.161 Y162.815 E.09833
G1 X47.591 Y160.377 E.09815
G1 X46.597 Y158.618 E.06839
G1 X45.341 Y156.083 E.09576
G1 X44.222 Y153.479 E.09594
G1 X43.538 Y151.605 E.06753
G1 X42.423 Y147.813 E.13379
G1 X41.828 Y145.013 E.09689
G1 X41.386 Y142.173 E.09729
G1 X41.136 Y139.255 E.09913
G1 X41.052 Y136.349 E.09841
G1 X41.169 Y133.456 E.098
G1 X41.45 Y130.545 E.09899
G1 X41.758 Y128.549 E.06836
G1 X42.591 Y124.754 E.13151
G1 X63.127 Y50.602 E2.60443
G1 X63.537 Y49.495 E.03996
G1 X64.064 Y48.421 E.04049
G1 X64.669 Y47.483 E.03778
G1 X65.011 Y47.704 F60000
G1 F1800
G1 X65.143 Y47.5 E.00822
G1 X65.875 Y46.602 E.03922
G1 X71.727 Y40.584 E.28413
G1 X72.601 Y39.829 E.03909
G1 X73.605 Y39.132 E.04137
G1 X75.367 Y38.271 E.06638
G1 X76.898 Y37.808 E.05414
G1 X77.923 Y37.63 E.03521
G1 X78.945 Y37.554 E.03469
G1 X93.352 Y37.356 E.48771
G1 X95.218 Y37.522 E.06341
G1 X96.285 Y37.778 E.03714
G1 X97.349 Y38.147 E.03812
G1 X98.736 Y38.831 E.05235
G1 X99.63 Y39.421 E.03626
G1 X100.466 Y40.089 E.03622
G1 X106.676 Y46.125 E.29313
G1 X107.342 Y46.906 E.03474
G1 X108.035 Y47.904 E.04113
G1 X108.64 Y49.039 E.04354
G1 X109.018 Y49.964 E.03382
G1 X131.676 Y123.643 E2.60921
G1 X132.186 Y125.529 E.06613
G1 X132.767 Y128.258 E.09444
G1 X133.222 Y131.204 E.1009
G1 X133.46 Y134.043 E.09643
G1 X133.54 Y136.887 E.0963
G1 X133.424 Y139.758 E.09726
G1 X133.145 Y142.635 E.09784
G1 X132.849 Y144.565 E.06609
G1 X131.993 Y148.445 E.13449
M73 P2 R57
G1 X131.175 Y151.153 E.09575
G1 X130.205 Y153.819 E.09603
G1 X128.186 Y158.141 E.16147
G1 X126.183 Y161.562 E.13419
G1 X124.567 Y163.922 E.09682
G1 X122.79 Y166.167 E.09691
G1 X120.887 Y168.315 E.09714
G1 X119.513 Y169.703 E.06611
G1 X116.661 Y172.24 E.1292
G1 X114.342 Y174.008 E.09871
G1 X111.93 Y175.637 E.09852
G1 X108.609 Y177.529 E.12937
G1 X105.858 Y178.824 E.10292
G1 X102.314 Y180.193 E.1286
G1 X98.62 Y181.28 E.13034
G1 X95.886 Y181.882 E.09476
G1 X93.933 Y182.202 E.06699
G1 X91.078 Y182.504 E.09718
G1 X88.2 Y182.647 E.09754
G1 X85.273 Y182.59 E.09909
G1 X80.422 Y182.106 E.16502
G1 X77.647 Y181.577 E.09562
G1 X74.902 Y180.894 E.09575
G1 X72.917 Y180.282 E.07031
G1 X70.277 Y179.3 E.09534
G1 X66.843 Y177.747 E.12757
G1 X64.165 Y176.301 E.10302
G1 X61.75 Y174.768 E.09682
G1 X59.421 Y173.099 E.09699
G1 X57.865 Y171.847 E.0676
G1 X55.781 Y169.971 E.09491
G1 X53.066 Y167.16 E.13228
G1 X51.192 Y164.922 E.0988
G1 X49.5 Y162.59 E.09752
G1 X47.943 Y160.172 E.09735
G1 X46.96 Y158.432 E.06765
G1 X45.713 Y155.918 E.09499
G1 X44.599 Y153.323 E.09559
G1 X43.922 Y151.471 E.06675
G1 X42.819 Y147.72 E.13234
G1 X42.227 Y144.934 E.09641
