; generated by SuperSlicer 2.5.59 on 2024-02-27 at 00:18:04 UTC


;
;

;
;
; 

; external perimeters extrusion width = 0.56mm
; perimeters extrusion width = 0.56mm
; infill extrusion width = 0.56mm
; solid infill extrusion width = 0.56mm
; top infill extrusion width = 0.56mm
; first layer extrusion width = 0.56mm


M73 P0 R84
;TYPE:Custom
CALCULATE_PA MATERIAL=PLA BOWDEN_LENGTH=6 LAYER_HEIGHT=0.2 NOZZLE_SIZE=0.4 PRINT_SPEED=75


START_PRINT EXTRUDER=205 BED=60
; Filament gcode
;_TOOLCHANGE 0
M107
;LAYER_CHANGE
;Z:0.2
;HEIGHT:0.2
;print_cfg variables
SET_GCODE_VARIABLE MACRO=_printcfg VARIABLE=material_type VALUE="'PLA'"
SET_GCODE_VARIABLE MACRO=_printcfg VARIABLE=material_color VALUE=65280
SET_GCODE_VARIABLE MACRO=_printcfg VARIABLE=layer_count VALUE=98
SET_GCODE_VARIABLE MACRO=_printcfg VARIABLE=layer_num VALUE=0
SET_GCODE_VARIABLE MACRO=_printcfg VARIABLE=layer_z VALUE=0.2
G1 E-0.4 F3600
M73 P0 R83
G1 Z0.2 F180000
;print_cfg variables
SET_GCODE_VARIABLE MACRO=_printcfg VARIABLE=material_type VALUE="'PLA'"
SET_GCODE_VARIABLE MACRO=_printcfg VARIABLE=material_color VALUE=65280
SET_GCODE_VARIABLE MACRO=_printcfg VARIABLE=layer_count VALUE=98
SET_GCODE_VARIABLE MACRO=_printcfg VARIABLE=layer_num VALUE=0
SET_GCODE_VARIABLE MACRO=_printcfg VARIABLE=layer_z VALUE=0.2

; Increment layer in Klipper
SET_PRINT_STATS_INFO TOTAL_LAYER=98 CURRENT_LAYER=0
_BEGIN_LAYER
G92 E0
M204 S1500
G1 Z1
G1 X54.124 Y52.891
G1 Z0.2
G1 E0.4 F2400
;TYPE:Skirt
;WIDTH:0.48
M107
G1 F1200
G1 X52.139 Y55.038 E0.51265
G1 X50.404 Y57.133 E0.61744
G1 X48.681 Y59.52 E0.73086
G1 X46.443 Y63.162 E0.89551
G1 X44.442 Y67.202 E1.06921
G1 X43.328 Y70.026 E1.18615
G1 X42.408 Y72.839 E1.30017
G1 X41.48 Y76.624 E1.45031
G1 X41.09 Y78.816 E1.53608
G1 X40.764 Y81.536 E1.6416
G1 X40.575 Y84.422 E1.75305
G1 X40.584 Y87.406 E1.86798
G1 X40.784 Y90.58 E1.99049
G1 X41.175 Y93.476 E2.10308
G1 X41.682 Y96.148 E2.20785
G1 X42.163 Y98.108 E2.28558
G1 X63.167 Y172.144 E5.25031
G1 X63.492 Y173.055 E5.28756
G1 X64.348 Y174.766 E5.36128
G1 X65.624 Y176.5 E5.44423
G1 X71.642 Y182.63 E5.77514
G1 X72.379 Y183.28 E5.81301
G1 X73.702 Y184.225 E5.87564
G1 X75.252 Y185.012 E5.9426
G1 X76.349 Y185.415 E5.98765
G1 X77.306 Y185.665 E6.02575
G1 X79.332 Y185.912 E6.10438
G1 X93.961 Y186.037 E6.66795
G1 X94.937 Y185.988 E6.70561
G1 X96.158 Y185.805 E6.75315
G1 X98.022 Y185.258 E6.82802
G1 X99.847 Y184.372 E6.90617
G1 X101.047 Y183.552 E6.96215
G1 X101.852 Y182.865 E7.00291
G1 X107.753 Y177.056 E7.32192
G1 X108.686 Y175.957 E7.37745
G1 X109.496 Y174.735 E7.43391
G1 X110.116 Y173.497 E7.48726
G1 X110.489 Y172.512 E7.52784
G1 X132.609 Y98.927 E10.48794
G1 X133.52 Y95.192 E10.63603
G1 X133.88 Y93.204 E10.71386
G1 X134.236 Y90.268 E10.82781
G1 X134.426 Y87.384 E10.93916
G1 X134.416 Y84.409 E11.05375
G1 X134.24 Y81.49 E11.1664
G1 X133.858 Y78.54 E11.281
G1 X133.248 Y75.366 E11.40552
G1 X132.307 Y71.894 E11.54411
G1 X131.586 Y69.765 E11.6307
G1 X130.488 Y67.057 E11.74327
G1 X129.306 Y64.542 E11.85034
G1 X128.277 Y62.639 E11.93368
G1 X126.853 Y60.321 E12.03846
G1 X125.192 Y57.918 E12.151
G1 X123.318 Y55.57 E12.26674
G1 X120.708 Y52.735 E12.41518
G1 X118.396 Y50.557 E12.53753
G1 X116.865 Y49.277 E12.61443
G1 X114.505 Y47.514 E12.72792
G1 X112.24 Y46.007 E12.83269
G1 X109.66 Y44.529 E12.94726
G1 X105.942 Y42.744 E13.10615
G1 X103.405 Y41.736 E13.21133
G1 X101.268 Y41.025 E13.29807
G1 X98.475 Y40.269 E13.40956
G1 X95.815 Y39.702 E13.51433
G1 X90.962 Y39.1 E13.7027
G1 X87.993 Y38.962 E13.81722
G1 X84.816 Y39.045 E13.93966
G1 X82.106 Y39.27 E14.04441
G1 X79.876 Y39.583 E14.13117
G1 X76.958 Y40.169 E14.24582
G1 X73.457 Y41.121 E14.38557
G1 X69.798 Y42.437 E14.53538
G1 X66.815 Y43.763 E14.66114
G1 X63.392 Y45.623 E14.81122
G1 X61.072 Y47.115 E14.91747
G1 X58.701 Y48.831 E15.03023
G1 X55.556 Y51.501 E15.18917
G1 X54.124 Y52.891 E15.26604
M107
G1 X54.444 Y53.188 F180000
M107
G1 F1200
G1 X52.476 Y55.317 E15.37775
G1 X50.74 Y57.412 E15.48254
G1 X49.036 Y59.775 E15.59478
G1 X46.911 Y63.212 E15.75046
G1 X44.836 Y67.391 E15.93021
G1 X43.736 Y70.185 E16.04588
G1 X42.829 Y72.955 E16.15819
G1 X41.905 Y76.727 E16.30778
G1 X41.524 Y78.868 E16.39156
G1 X41.198 Y81.588 E16.49708
G1 X41.012 Y84.432 E16.60688
G1 X41.021 Y87.403 E16.72135
G1 X41.218 Y90.522 E16.84174
G1 X41.604 Y93.395 E16.95339
G1 X42.111 Y96.067 E17.05817
G1 X42.587 Y98.002 E17.13495
G1 X63.587 Y172.025 E20.09912
G1 X63.902 Y172.903 E20.13508
G1 X64.712 Y174.523 E20.20487
G1 X65.96 Y176.221 E20.28604
G1 X71.953 Y182.323 E20.61553
G1 X72.664 Y182.948 E20.65199
G1 X73.927 Y183.85 E20.71178
G1 X75.405 Y184.603 E20.77568
G1 X76.476 Y184.997 E20.81965
G1 X77.414 Y185.241 E20.85699
G1 X79.377 Y185.477 E20.93315
G1 X93.941 Y185.6 E21.49424
G1 X94.899 Y185.552 E21.53119
G1 X96.075 Y185.376 E21.577
G1 X97.851 Y184.855 E21.64831
G1 X99.606 Y184.007 E21.72339
G1 X100.767 Y183.216 E21.77753
G1 X101.545 Y182.554 E21.81689
G1 X107.447 Y176.744 E22.13591
G1 X108.327 Y175.709 E22.18826
G1 X109.108 Y174.534 E22.2426
G1 X109.709 Y173.337 E22.29419
G1 X110.071 Y172.386 E22.3334
G1 X132.19 Y98.801 E25.2935
M73 P1 R83
G1 X133.095 Y95.089 E25.44067
G1 X133.45 Y93.128 E25.51746
G1 X133.802 Y90.216 E25.63045
G1 X133.99 Y87.356 E25.74087
G1 X133.979 Y84.412 E25.85429
G1 X133.804 Y81.518 E25.96599
G1 X133.424 Y78.598 E26.07942
G1 X132.844 Y75.547 E26.19904
G1 X131.885 Y72.008 E26.3403
G1 X131.181 Y69.928 E26.42489
G1 X130.092 Y67.243 E26.53653
G1 X128.912 Y64.732 E26.64341
G1 X127.904 Y62.867 E26.72505
G1 X126.48 Y60.55 E26.82983
G1 X124.833 Y58.167 E26.94144
G1 X122.989 Y55.858 E27.05528
G1 X120.387 Y53.032 E27.20326
G1 X118.115 Y50.892 E27.32351
G1 X116.603 Y49.627 E27.39947
G1 X114.263 Y47.878 E27.51201
G1 X111.998 Y46.371 E27.61678
G1 X109.444 Y44.908 E27.73018
G1 X105.862 Y43.183 E27.88334
G1 X103.243 Y42.142 E27.9919
G1 X101.153 Y41.447 E28.07676
G1 X98.383 Y40.697 E28.18731
G1 X95.724 Y40.129 E28.29208
G1 X90.91 Y39.534 E28.47894
G1 X87.974 Y39.399 E28.59215
G1 X84.852 Y39.481 E28.71248
G1 X82.142 Y39.706 E28.81723
G1 X79.961 Y40.012 E28.90208
G1 X77.206 Y40.558 E29.01025
G1 X73.572 Y41.543 E29.15533
G1 X69.964 Y42.84 E29.30301
G1 X67.023 Y44.147 E29.42702
G1 X63.629 Y45.99 E29.5758
G1 X61.234 Y47.532 E29.68552
G1 X58.973 Y49.172 E29.79314
G1 X55.859 Y51.816 E29.95048
G1 X54.444 Y53.188 E30.02642
M107
M104 S205 ; set temperature
G92 E0
G1 E-0.28 F3600
;WIPE_START
G1 F144000
G1 X55.859 Y51.816 E-0.32682
G1 X58.016 Y49.985 E-0.394
;WIPE_END
G1 E-0.4 F3600
G1 Z1 F180000
G1 X48.218 Y101.689
G1 Z0.2
G1 E0 F2400
;TYPE:Internal perimeter
;WIDTH:0.56292
M107
G1 F1200
G1 X49.024 Y103.649 E0.09711
G1 X50.657 Y106.829 E0.26097
G1 X52.032 Y109.069 E0.38145
G1 X54.623 Y112.633 E0.58338
G1 X56.989 Y115.304 E0.74693
G1 X59.598 Y117.79 E0.91212
G1 X61.628 Y119.448 E1.03223
G1 X63.74 Y120.985 E1.15194
G1 X65.302 Y121.996 E1.23723
G1 X68.341 Y123.697 E1.39683
G1 X71.61 Y125.184 E1.56144
G1 X74.945 Y126.373 E1.72371
G1 X76.638 Y126.86 E1.80447
G1 X80.086 Y127.622 E1.96632
G1 X81.886 Y127.902 E2.04977
G1 X85.353 Y128.221 E2.20934
G1 X88.93 Y128.252 E2.37332
G1 X92.46 Y127.984 E2.53558
G1 X94.264 Y127.733 E2.61903
G1 X97.675 Y127.035 E2.7786
G1 X101.122 Y126.027 E2.94323
G1 X104.458 Y124.734 E3.10722
G1 X107.622 Y123.193 E3.2685
G1 X110.657 Y121.388 E3.43032
G1 X112.836 Y119.855 E3.55242
G1 X114.937 Y118.194 E3.6752
G1 X117.523 Y115.802 E3.83668
G1 X118.77 Y114.496 E3.91944
G1 X121.046 Y111.788 E4.08155
G1 X122.608 Y109.611 E4.20435
G1 X124.013 Y107.399 E4.32443
G1 X125.692 Y104.252 E4.48794
G1 X126.458 Y102.557 E4.57318
G1 X126.823 Y102.693 E4.59102
G1 X106.23 Y171.197 E7.86952
G1 X105.982 Y171.83 E7.90065
G1 X105.563 Y172.638 E7.94238
G1 X105.044 Y173.388 E7.9842
G1 X104.602 Y173.903 E8.01528
G1 X98.749 Y179.665 E8.39172
G1 X98.23 Y180.097 E8.42269
G1 X97.438 Y180.622 E8.46621
G1 X96.331 Y181.132 E8.52209
G1 X95.295 Y181.431 E8.57151
G1 X94.494 Y181.551 E8.60861
G1 X94.078 Y181.57 E8.6277
G1 X94.029 Y181.191 E8.64524
G1 X94.64 Y181.059 E8.67389
G1 X95.683 Y180.693 E8.72455
G1 X96.671 Y180.199 E8.77516
G1 X97.59 Y179.585 E8.82581
G1 X98.424 Y178.861 E8.87646
G1 X99.162 Y178.037 E8.92714
G1 X99.79 Y177.129 E8.97776
G1 X100.299 Y176.146 E9.02846
G1 X100.546 Y175.473 E9.06134
G1 X101.225 Y175.236 E9.09429
G1 X102.213 Y174.742 E9.14495
G1 X103.132 Y174.128 E9.1956
G1 X103.967 Y173.404 E9.24624
G1 X104.704 Y172.581 E9.29689
G1 X105.332 Y171.671 E9.34754
G1 X105.841 Y170.691 E9.39817
G1 X106.226 Y169.65 E9.44903
G1 X106.518 Y168.312 E9.51178
G1 X106.595 Y167.228 E9.56163
G1 X106.679 Y156.32 E10.06156
G1 X106.58 Y154.975 E10.12338
G1 X106.275 Y153.643 E10.186
G1 X105.975 Y152.84 E10.22529
G1 X105.351 Y151.63 E10.28771
G1 X104.707 Y150.73 E10.33842
G1 X104.138 Y150.101 E10.3773
G1 X103.125 Y149.217 E10.43891
G1 X102.636 Y148.878 E10.4662
G1 X101.439 Y148.238 E10.52839
G1 X100.769 Y147.993 E10.56108
G1 X100.628 Y147.56 E10.58195
G1 X100.205 Y146.65 E10.62793
G1 X98.708 Y144.578 E10.7451
G1 X97.193 Y143.34 E10.83474
G1 X95.224 Y142.395 E10.93487
G1 X93.865 Y142.062 E10.99901
G1 X92.522 Y141.941 E11.06079
G1 X81.581 Y141.856 E11.56227
G1 X79.212 Y142.179 E11.67186
G1 X78.139 Y142.555 E11.72396
G1 X77.152 Y143.049 E11.77458
G1 X76.218 Y143.673 E11.82602
G1 X75.018 Y144.806 E11.90164
G1 X73.848 Y146.454 E11.99431
G1 X73.414 Y147.348 E12.03985
G1 X73.267 Y147.779 E12.06072
G1 X72.593 Y148.013 E12.09342
G1 X71.387 Y148.635 E12.15561
G1 X70.891 Y148.967 E12.18295
G1 X69.855 Y149.844 E12.24517
G1 X68.953 Y150.877 E12.30802
G1 X68.487 Y151.584 E12.34685
G1 X67.985 Y152.549 E12.3967
G1 X67.674 Y153.343 E12.43577
G1 X67.348 Y154.67 E12.49839
G1 X67.228 Y156.013 E12.56021
G1 X67.143 Y166.928 E13.06048
G1 X67.242 Y168.268 E13.12205
G1 X67.475 Y169.354 E13.17295
G1 X67.843 Y170.395 E13.22358
G1 X68.336 Y171.384 E13.27421
G1 X68.95 Y172.303 E13.32486
G1 X69.674 Y173.137 E13.37551
G1 X70.497 Y173.874 E13.42615
G1 X71.407 Y174.502 E13.4768
G1 X72.387 Y175.012 E13.52746
G1 X73.063 Y175.259 E13.56041
G1 X73.299 Y175.936 E13.59329
G1 X73.792 Y176.926 E13.64399
G1 X74.407 Y177.845 E13.69463
G1 X75.131 Y178.68 E13.74529
G1 X75.954 Y179.417 E13.79594
G1 X76.864 Y180.045 E13.84659
G1 X77.844 Y180.554 E13.8972
G1 X78.881 Y180.936 E13.94786
G1 X79.323 Y181.039 E13.96866
G1 X79.259 Y181.424 E13.98656
G1 X78.348 Y181.331 E14.02852
G1 X77.692 Y181.164 E14.05955
G1 X76.86 Y180.855 E14.10023
G1 X76.132 Y180.477 E14.13779
G1 X75.251 Y179.872 E14.1868
G1 X74.794 Y179.479 E14.21443
G1 X69.031 Y173.627 E14.59087
G1 X68.598 Y173.105 E14.62192
G1 X68.085 Y172.336 E14.66429
G1 X67.674 Y171.51 E14.7066
G1 X67.446 Y170.896 E14.7366
G1 X47.847 Y101.818 E18.02761
M73 P1 R82
G1 X48.218 Y101.689 E18.04562
M107
G92 E0
G1 E-0.28 F3600
;WIPE_START
G1 F144000
G1 X47.847 Y101.818 E-0.28933
G1 X49.049 Y106.057 E-0.394
;WIPE_END
G1 E-0.4 F3600
G1 X100.353 Y148.394 F180000
G1 E0 F2400
;TYPE:External perimeter
M107
G1 F1200
G1 X100.144 Y147.751 E0.03101
G1 X99.754 Y146.915 E0.07328
G1 X98.326 Y144.938 E0.18507
G1 X96.912 Y143.782 E0.26875
G1 X95.048 Y142.887 E0.36356
G1 X93.779 Y142.576 E0.42342
G1 X92.497 Y142.461 E0.48242
G1 X81.614 Y142.376 E0.98122
G1 X79.334 Y142.687 E1.08668
G1 X78.342 Y143.035 E1.13486
G1 X77.413 Y143.5 E1.18248
G1 X76.543 Y144.081 E1.23043
G1 X75.413 Y145.148 E1.30169
G1 X74.297 Y146.72 E1.39003
G1 X73.896 Y147.547 E1.43214
G1 X73.677 Y148.187 E1.46315
G1 X72.799 Y148.493 E1.50576
G1 X71.651 Y149.083 E1.5649
G1 X71.205 Y149.383 E1.58954
G1 X70.221 Y150.215 E1.64863
G1 X69.368 Y151.193 E1.70808
G1 X68.936 Y151.848 E1.74406
G1 X68.459 Y152.765 E1.79141
G1 X68.171 Y153.501 E1.82764
G1 X67.862 Y154.756 E1.88687
G1 X67.748 Y156.038 E1.9459
G1 X67.663 Y166.911 E2.44423
G1 X67.757 Y168.194 E2.50318
G1 X67.977 Y169.212 E2.55091
G1 X68.322 Y170.192 E2.59854
G1 X68.787 Y171.122 E2.64619
G1 X69.364 Y171.987 E2.69384
G1 X70.045 Y172.772 E2.74148
G1 X70.82 Y173.465 E2.78912
G1 X71.675 Y174.056 E2.83678
G1 X72.598 Y174.535 E2.88441
G1 X73.473 Y174.855 E2.92711
G1 X73.779 Y175.734 E2.96977
G1 X74.243 Y176.665 E3.01743
G1 X74.821 Y177.528 E3.06507
G1 X75.502 Y178.314 E3.11274
G1 X76.277 Y179.008 E3.16038
G1 X77.132 Y179.598 E3.20803
G1 X78.054 Y180.078 E3.25565
G1 X79.03 Y180.437 E3.3033
G1 X80.044 Y180.672 E3.35103
G1 X81.325 Y180.788 E3.40998
G1 X92.198 Y180.872 E3.90832
G1 X93.481 Y180.777 E3.96727
G1 X94.499 Y180.558 E4.015
G1 X95.48 Y180.213 E4.06265
G1 X96.409 Y179.748 E4.11027
G1 X97.274 Y179.171 E4.15792
G1 X98.059 Y178.49 E4.20556
G1 X98.752 Y177.714 E4.25326
G1 X99.344 Y176.86 E4.30087
G1 X99.822 Y175.937 E4.34853
G1 X100.142 Y175.063 E4.39118
G1 X101.022 Y174.756 E4.43389
G1 X101.952 Y174.291 E4.48152
G1 X102.816 Y173.714 E4.52918
G1 X103.601 Y173.033 E4.57682
G1 X104.295 Y172.258 E4.62445
G1 X104.885 Y171.403 E4.67211
G1 X105.365 Y170.48 E4.71976
G1 X105.726 Y169.504 E4.76747
G1 X106.002 Y168.238 E4.82683
G1 X106.075 Y167.207 E4.87421
G1 X106.159 Y156.337 E5.37242
G1 X106.065 Y155.053 E5.43145
G1 X105.776 Y153.793 E5.49068
G1 X105.498 Y153.051 E5.52698
G1 X104.906 Y151.901 E5.58627
G1 X104.301 Y151.057 E5.63387
G1 X103.773 Y150.473 E5.66999
G1 X102.805 Y149.628 E5.72887
G1 X102.364 Y149.322 E5.75345
G1 X101.226 Y148.714 E5.81259
G1 X100.353 Y148.394 E5.8552
M107
;WIPE_START
G1 X100.52 Y148.031 F180000
;WIPE_END
G92 E0
G1 E-0.28 F3600
;WIPE_START
G1 F144000
G1 X100.33 Y147.677 E-0.28953
G1 X99.927 Y146.813 E-0.31217
G1 X98.473 Y144.799 E-0.37117
G1 X97.729 Y144.191 E-0.394
;WIPE_END
G1 E-0.4 F3600
G1 X120.635 Y111.469 F180000
G1 E0 F2400
M107
G1 F1200
G1 X122.177 Y109.319 E0.12122
G1 X123.564 Y107.137 E0.23973
G1 X125.225 Y104.022 E0.40155
G1 X125.973 Y102.367 E0.48477
G1 X127.198 Y99.152 E0.64248
G1 X127.711 Y97.5 E0.72177
G1 X128.546 Y94.066 E0.88374
G1 X129.241 Y88.907 E1.1223
G1 X129.338 Y86.233 E1.24495
G1 X129.282 Y83.56 E1.36746
G1 X128.949 Y80.134 E1.52524
G1 X128.664 Y78.37 E1.60715
G1 X128.102 Y75.804 E1.72752
G1 X127.4 Y73.286 E1.84734
G1 X126.52 Y70.809 E1.96783
G1 X125.503 Y68.384 E2.08836
G1 X123.911 Y65.28 E2.24823
G1 X122.535 Y63.035 E2.36891
G1 X119.979 Y59.52 E2.5681
G1 X117.637 Y56.872 E2.73014
G1 X115.102 Y54.453 E2.89074
G1 X113.015 Y52.751 E3.01414
G1 X108.718 Y49.847 E3.25186
G1 X106.413 Y48.578 E3.37246
G1 X104.801 Y47.803 E3.45442
G1 X100.755 Y46.224 E3.65348
G1 X98.179 Y45.446 E3.77681
G1 X94.817 Y44.705 E3.93459
G1 X93.05 Y44.429 E4.01655
G1 X89.578 Y44.111 E4.17637
G1 X86.09 Y44.084 E4.33624
G1 X84.309 Y44.181 E4.418
G1 X82.592 Y44.348 E4.49703
G1 X80.824 Y44.596 E4.57886
G1 X77.395 Y45.297 E4.73929
G1 X74.867 Y46.022 E4.85983
G1 X72.424 Y46.87 E4.97837
G1 X69.186 Y48.28 E5.14022
G1 X66.863 Y49.512 E5.26073
G1 X64.612 Y50.873 E5.38128
G1 X61.774 Y52.901 E5.54116
G1 X59.734 Y54.609 E5.66308
G1 X57.225 Y57.029 E5.82286
G1 X55.461 Y58.984 E5.94355
G1 X52.85 Y62.457 E6.1427
G1 X51.414 Y64.716 E6.26537
G1 X49.774 Y67.795 E6.42524
G1 X48.718 Y70.205 E6.54586
G1 X47.545 Y73.491 E6.70576
G1 X46.456 Y77.742 E6.9069
G1 X46.146 Y79.49 E6.98826
G1 X45.755 Y82.954 E7.14804
G1 X45.662 Y85.582 E7.26857
G1 X45.718 Y88.254 E7.39107
G1 X46.051 Y91.685 E7.54904
G1 X46.695 Y95.188 E7.71229
G1 X47.595 Y98.513 E7.87016
G1 X48.17 Y100.206 E7.95209
G1 X49.497 Y103.431 E8.11191
G1 X51.111 Y106.574 E8.27385
G1 X52.465 Y108.78 E8.3925
G1 X55.029 Y112.307 E8.59235
G1 X57.364 Y114.943 E8.75374
G1 X59.943 Y117.4 E8.91701
G1 X61.946 Y119.036 E9.03554
G1 X64.034 Y120.556 E9.15393
G1 X65.571 Y121.55 E9.23781
G1 X68.576 Y123.232 E9.39566
G1 X71.805 Y124.702 E9.55826
G1 X75.104 Y125.878 E9.71878
G1 X76.766 Y126.356 E9.79805
G1 X80.183 Y127.111 E9.9584
G1 X81.95 Y127.386 E10.04036
G1 X85.379 Y127.701 E10.19819
G1 X88.913 Y127.732 E10.36017
G1 X92.405 Y127.467 E10.52067
G1 X94.176 Y127.22 E10.60262
G1 X97.549 Y126.53 E10.76045
G1 X100.955 Y125.534 E10.92308
G1 X104.25 Y124.257 E11.08506
G1 X107.375 Y122.735 E11.24435
G1 X110.374 Y120.952 E11.40426
G1 X112.524 Y119.438 E11.52478
G1 X114.598 Y117.798 E11.64597
G1 X117.159 Y115.431 E11.80579
G1 X118.383 Y114.148 E11.88706
G1 X120.635 Y111.469 E12.04749
M107
;WIPE_START
G1 X121.032 Y111.518 F180000
;WIPE_END
G92 E0
G1 E-0.28 F3600
;WIPE_START
G1 F144000
