; generated by SuperSlicer 2.5.59 on 2024-02-27 at 03:13:20 UTC


;
;

;
;
; 

; external perimeters extrusion width = 0.56mm
; perimeters extrusion width = 0.56mm
; infill extrusion width = 0.56mm
; solid infill extrusion width = 0.56mm
; top infill extrusion width = 0.56mm
; first layer extrusion width = 0.56mm

; object:{"name":"echo_outlet_mount","id":"echo_outlet_mount.stl id:0 copy 0","object_center":[87.500000,112.500000,0.000000],"boundingbox_center":[87.500000,112.500000,8.499000],"boundingbox_size":[86.560643,139.855026,16.997999]}
EXCLUDE_OBJECT_DEFINE NAME=echo_outlet_mount_stl_id_0_copy_0 CENTER=87.500000,112.500000 POLYGON=[[44.22,86.55],[44.25,83.83],[44.31,82.93],[44.47,81.12],[44.85,78.43],[45.19,76.65],[45.86,74.01],[46.11,73.14],[47.00,70.57],[48.03,68.05],[49.66,64.81],[50.12,64.03],[51.55,61.72],[52.08,60.98],[53.70,58.80],[55.47,56.74],[57.36,54.78],[58.68,53.54],[60.78,51.80],[61.49,51.24],[62.96,50.18],[63.72,49.69],[66.03,48.26],[66.83,47.82],[69.25,46.59],[71.76,45.53],[72.60,45.20],[75.19,44.36],[76.06,44.10],[77.82,43.65],[78.70,43.47],[80.49,43.14],[81.38,42.99],[83.18,42.77],[85.89,42.60],[88.61,42.57],[91.33,42.74],[92.23,42.82],[95.82,43.36],[98.47,43.98],[101.08,44.74],[102.79,45.35],[105.30,46.40],[106.12,46.77],[108.53,48.02],[110.87,49.41],[113.11,50.96],[115.26,52.63],[116.62,53.82],[118.57,55.72],[120.41,57.72],[120.98,58.42],[122.65,60.57],[124.16,62.83],[125.54,65.18],[126.37,66.79],[127.48,69.27],[128.45,71.81],[129.01,73.54],[129.69,76.17],[129.89,77.05],[130.35,79.73],[130.66,82.44],[130.78,85.15],[130.75,87.87],[130.53,90.58],[130.15,93.28],[129.81,95.06],[129.38,96.82],[128.89,98.56],[105.60,171.26],[105.45,171.74],[105.16,172.44],[104.68,173.32],[104.10,174.14],[103.60,174.70],[97.59,180.40],[97.00,180.87],[96.16,181.42],[95.71,181.65],[94.78,182.02],[94.06,182.23],[93.81,182.28],[93.07,182.39],[92.81,182.41],[92.06,182.43],[77.98,182.06],[76.48,181.88],[75.75,181.69],[75.51,181.61],[74.82,181.32],[73.94,180.84],[73.72,180.71],[73.12,180.26],[72.56,179.76],[66.85,173.75],[66.38,173.16],[65.84,172.32],[65.79,172.21],[65.41,171.41],[65.31,171.18],[65.16,170.70],[65.03,170.22],[53.85,127.95],[45.51,96.42],[45.11,94.65],[44.65,91.97],[44.34,89.27],[44.22,86.55]]
; plater:{"center":[87.500000,112.500000,0.000000],"boundingbox_center":[87.500000,112.500000,8.499000],"boundingbox_size":[86.560643,139.855026,16.997999]}

M73 P0 R45
;TYPE:Custom
CALCULATE_PA MATERIAL=PLA BOWDEN_LENGTH=6 LAYER_HEIGHT=0.2 NOZZLE_SIZE=0.4 PRINT_SPEED=75


START_PRINT EXTRUDER=220 BED=60
; Filament gcode
;_TOOLCHANGE 0
M107
;LAYER_CHANGE
;Z:0.2
;HEIGHT:0.2
;print_cfg variables
SET_GCODE_VARIABLE MACRO=_printcfg VARIABLE=material_type VALUE="'PLA'"
SET_GCODE_VARIABLE MACRO=_printcfg VARIABLE=material_color VALUE=65280
SET_GCODE_VARIABLE MACRO=_printcfg VARIABLE=layer_count VALUE=55
SET_GCODE_VARIABLE MACRO=_printcfg VARIABLE=layer_num VALUE=0
SET_GCODE_VARIABLE MACRO=_printcfg VARIABLE=layer_z VALUE=0.2
G1 E-0.4 F3600
G1 Z0.2 F180000
;print_cfg variables
SET_GCODE_VARIABLE MACRO=_printcfg VARIABLE=material_type VALUE="'PLA'"
SET_GCODE_VARIABLE MACRO=_printcfg VARIABLE=material_color VALUE=65280
SET_GCODE_VARIABLE MACRO=_printcfg VARIABLE=layer_count VALUE=55
SET_GCODE_VARIABLE MACRO=_printcfg VARIABLE=layer_num VALUE=0
SET_GCODE_VARIABLE MACRO=_printcfg VARIABLE=layer_z VALUE=0.2

; Increment layer in Klipper
SET_PRINT_STATS_INFO TOTAL_LAYER=55 CURRENT_LAYER=0
_BEGIN_LAYER
G92 E0
M204 S1500
G1 Z1
G1 X54.633 Y52.334
G1 Z0.2
G1 E0.4 F2400
;TYPE:Skirt
;WIDTH:0.48
M107
G1 F1200
G1 X52.699 Y54.353 E0.50769
G1 X50.926 Y56.416 E0.61247
G1 X49.161 Y58.772 E0.72589
G1 X46.944 Y62.218 E0.88375
G1 X44.785 Y66.376 E1.06426
M73 P0 R44
G1 X43.621 Y69.18 E1.1812
G1 X42.655 Y71.957 E1.29447
G1 X41.654 Y75.744 E1.44536
G1 X41.225 Y77.929 E1.53113
G1 X40.85 Y80.642 E1.63665
G1 X40.611 Y83.498 E1.74707
G1 X40.564 Y86.508 E1.86303
G1 X40.708 Y89.685 E1.98554
G1 X41.046 Y92.588 E2.09813
G1 X41.505 Y95.268 E2.2029
G1 X41.951 Y97.236 E2.28063
G1 X61.622 Y171.638 E5.24535
G1 X61.921 Y172.531 E5.28164
G1 X62.756 Y174.28 E5.35633
G1 X64 Y176.038 E5.43927
M73 P1 R44
G1 X69.907 Y182.274 E5.77019
G1 X70.633 Y182.938 E5.80806
G1 X71.977 Y183.93 E5.87242
G1 X73.74 Y184.831 E5.94869
G1 X75.516 Y185.41 E6.02068
G1 X77.538 Y185.694 E6.09931
G1 X92.162 Y186.082 E6.66289
G1 X93.159 Y186.048 E6.70132
G1 X94.372 Y185.888 E6.74846
G1 X96.227 Y185.379 E6.82256
G1 X98.077 Y184.522 E6.90111
G1 X99.291 Y183.724 E6.95708
G1 X100.109 Y183.052 E6.99785
G1 X106.113 Y177.35 E7.31686
G1 X107.066 Y176.268 E7.37238
G1 X107.897 Y175.061 E7.42885
G1 X108.539 Y173.834 E7.4822
G1 X108.93 Y172.856 E7.52278
G1 X132.368 Y99.679 E10.48288
G1 X133.346 Y95.962 E10.63096
G1 X133.741 Y93.981 E10.7088
G1 X134.15 Y91.051 E10.82275
G1 X134.392 Y88.171 E10.9341
G1 X134.436 Y85.197 E11.04869
G1 X134.312 Y82.275 E11.16133
G1 X133.982 Y79.319 E11.27594
G1 X133.447 Y76.203 E11.39774
G1 X132.552 Y72.645 E11.53906
G1 X131.869 Y70.504 E11.62564
G1 X130.819 Y67.777 E11.73822
G1 X129.686 Y65.247 E11.845
G1 X128.688 Y63.319 E11.92862
G1 X127.306 Y60.977 E12.0334
G1 X125.689 Y58.544 E12.14594
G1 X123.869 Y56.177 E12.26096
G1 X121.298 Y53.282 E12.41013
G1 X119.026 Y51.063 E12.53247
G1 X117.518 Y49.755 E12.60937
G1 X115.19 Y47.95 E12.72286
G1 X112.739 Y46.266 E12.83743
G1 X110.4 Y44.878 E12.94221
G1 X106.806 Y43.066 E13.09727
G1 X104.195 Y41.973 E13.20627
G1 X102.072 Y41.224 E13.29302
G1 X99.292 Y40.419 E13.40451
G1 X96.643 Y39.803 E13.50928
G1 X91.802 Y39.115 E13.69764
G1 X88.836 Y38.924 E13.81217
G1 X85.658 Y38.95 E13.9346
G1 X82.944 Y39.126 E14.03936
G1 X80.701 Y39.4 E14.12641
G1 X77.926 Y39.899 E14.23505
G1 X74.263 Y40.821 E14.38053
G1 X70.606 Y42.061 E14.5293
G1 X67.576 Y43.343 E14.65607
G1 X64.12 Y45.141 E14.80615
G1 X61.68 Y46.65 E14.91666
G1 X59.386 Y48.253 E15.02445
G1 X56.179 Y50.878 E15.18413
G1 X54.722 Y52.241 E15.261
G1 X54.633 Y52.334 E15.26597
M107
G1 X54.948 Y52.637 F180000
M107
G1 F1200
G1 X53.031 Y54.638 E15.37274
G1 X51.258 Y56.701 E15.47753
G1 X49.512 Y59.033 E15.58976
G1 X47.321 Y62.438 E15.74575
G1 X45.175 Y66.573 E15.9252
G1 X44.025 Y69.346 E16.04087
G1 X43.068 Y72.1 E16.15317
G1 X42.077 Y75.855 E16.30277
G1 X41.658 Y77.988 E16.38655
G1 X41.283 Y80.702 E16.49207
G1 X41.046 Y83.534 E16.60155
G1 X41.001 Y86.513 E16.71634
G1 X41.142 Y89.635 E16.83673
G1 X41.477 Y92.514 E16.94838
G1 X41.936 Y95.195 E17.05316
G1 X42.377 Y97.138 E17.12994
G1 X62.044 Y171.526 E20.09411
G1 X62.334 Y172.387 E20.12911
G1 X63.124 Y174.045 E20.19985
G1 X64.342 Y175.765 E20.28102
G1 X70.224 Y181.973 E20.61052
G1 X70.923 Y182.611 E20.64698
G1 X72.209 Y183.559 E20.70851
G1 X73.899 Y184.423 E20.78164
G1 X75.632 Y184.989 E20.85186
G1 X77.59 Y185.26 E20.92802
G1 X92.15 Y185.645 E21.48912
G1 X93.128 Y185.612 E21.52684
G1 X94.296 Y185.457 E21.5722
G1 X96.063 Y184.974 E21.64279
G1 X97.842 Y184.154 E21.71827
G1 X99.018 Y183.383 E21.77241
G1 X99.808 Y182.735 E21.81177
G1 X105.812 Y177.033 E22.13078
G1 X106.711 Y176.013 E22.18314
G1 X107.513 Y174.852 E22.23748
G1 X108.135 Y173.667 E22.28907
G1 X108.514 Y172.722 E22.32827
G1 X131.952 Y99.546 E25.28837
G1 X132.923 Y95.851 E25.43554
G1 X133.312 Y93.896 E25.51234
G1 X133.717 Y90.992 E25.62532
G1 X133.956 Y88.135 E25.73574
G1 X133.999 Y85.192 E25.84916
G1 X133.876 Y82.295 E25.96087
G1 X133.548 Y79.368 E26.07429
G1 X133.021 Y76.3 E26.19423
G1 X132.128 Y72.752 E26.33518
G1 X131.461 Y70.66 E26.41977
M73 P2 R44
G1 X130.42 Y67.955 E26.53141
G1 X129.288 Y65.43 E26.63804
G1 X128.312 Y63.542 E26.71993
G1 X126.929 Y61.199 E26.8247
G1 X125.325 Y58.787 E26.93631
G1 X123.523 Y56.445 E27.05016
G1 X120.972 Y53.573 E27.19815
G1 X118.739 Y51.392 E27.31838
G1 X117.25 Y50.1 E27.39434
G1 X114.941 Y48.31 E27.50688
G1 X112.704 Y46.762 E27.61166
G1 X110.177 Y45.254 E27.72506
G1 X106.626 Y43.464 E27.87823
G1 X104.027 Y42.377 E27.98678
G1 X101.95 Y41.644 E28.07164
G1 X99.193 Y40.844 E28.18219
G1 X96.544 Y40.229 E28.28696
G1 X91.742 Y39.548 E28.47381
G1 X88.809 Y39.36 E28.58703
G1 X85.686 Y39.386 E28.70736
G1 X82.973 Y39.562 E28.81211
G1 X80.778 Y39.83 E28.89727
G1 X78.014 Y40.327 E29.00545
G1 X74.371 Y41.245 E29.15021
G1 X70.748 Y42.474 E29.29758
G1 X67.776 Y43.731 E29.42189
G1 X64.349 Y45.512 E29.57068
G1 X61.921 Y47.016 E29.68072
G1 X59.637 Y48.611 E29.78803
G1 X56.476 Y51.198 E29.94536
G1 X55.037 Y52.544 E30.0213
G1 X54.948 Y52.637 E30.02624
M107
G92 E0
G1 E-0.28 F3600
;WIPE_START
G1 F144000
G1 X55.037 Y52.544 E-0.28304
G1 X56.476 Y51.198 E-0.32986
G1 X58.566 Y49.487 E-0.394
;WIPE_END
G1 E-0.4 F3600
G1 Z1 F180000
; printing object echo_outlet_mount.stl id:0 copy 0
EXCLUDE_OBJECT_START NAME=echo_outlet_mount_stl_id_0_copy_0
G1 X47.941 Y100.926
G1 Z0.2
G1 E0 F2400
;TYPE:Internal perimeter
;WIDTH:0.56292
M107
G1 F1200
G1 X48.712 Y102.899 E0.09711
G1 X50.287 Y106.109 E0.26097
G1 X51.622 Y108.373 E0.38145
G1 X54.149 Y111.983 E0.58338
G1 X56.466 Y114.696 E0.74693
G1 X59.03 Y117.229 E0.91212
G1 X61.03 Y118.923 E1.03222
G1 X63.114 Y120.498 E1.15194
G1 X64.658 Y121.536 E1.23722
G1 X67.666 Y123.291 E1.39683
G1 X70.907 Y124.837 E1.56144
G1 X74.22 Y126.086 E1.7237
G1 X75.905 Y126.603 E1.80447
G1 X79.338 Y127.427 E1.96632
G1 X81.132 Y127.739 E2.04977
G1 X84.593 Y128.12 E2.20934
G1 X88.17 Y128.216 E2.37332
G1 X91.704 Y128.011 E2.53557
G1 X93.512 Y127.792 E2.61903
G1 X96.934 Y127.156 E2.7786
G1 X100.4 Y126.21 E2.94323
G1 X103.758 Y124.977 E3.10722
G1 X106.949 Y123.493 E3.2685
G1 X110.016 Y121.743 E3.43032
G1 X112.222 Y120.25 E3.55242
G1 X114.352 Y118.626 E3.67519
G1 X116.982 Y116.281 E3.83668
G1 X118.252 Y114.997 E3.91944
G1 X120.576 Y112.331 E4.08154
G1 X122.176 Y110.182 E4.20435
G1 X123.621 Y107.996 E4.32443
G1 X125.356 Y104.879 E4.48794
G1 X126.153 Y103.199 E4.57318
G1 X126.515 Y103.342 E4.59102
G1 X104.695 Y171.465 E7.86952
G1 X104.436 Y172.092 E7.90064
G1 X104.002 Y172.893 E7.94237
G1 X103.47 Y173.634 E7.9842
G1 X103.019 Y174.141 E8.01528
G1 X97.064 Y179.797 E8.39172
G1 X96.537 Y180.22 E8.42269
G1 X95.735 Y180.73 E8.46622
G1 X94.619 Y181.22 E8.52208
G1 X93.578 Y181.5 E8.57151
G1 X92.776 Y181.606 E8.60861
G1 X92.359 Y181.618 E8.6277
G1 X92.317 Y181.237 E8.64524
G1 X92.93 Y181.117 E8.67389
G1 X93.98 Y180.769 E8.72455
G1 X94.976 Y180.293 E8.77516
G1 X95.906 Y179.696 E8.8258
G1 X96.753 Y178.987 E8.87646
G1 X97.505 Y178.176 E8.92714
G1 X98.15 Y177.279 E8.97776
G1 X98.677 Y176.306 E9.02846
G1 X98.935 Y175.637 E9.06134
G1 X99.618 Y175.413 E9.09429
G1 X100.616 Y174.936 E9.14495
G1 X101.546 Y174.34 E9.1956
G1 X102.393 Y173.63 E9.24624
G1 X103.145 Y172.821 E9.29689
G1 X103.789 Y171.922 E9.34754
G1 X104.315 Y170.951 E9.39817
G1 X104.719 Y169.918 E9.44903
G1 X105.035 Y168.585 E9.51178
G1 X105.131 Y167.502 E9.56163
G1 X105.412 Y156.598 E10.06156
G1 X105.337 Y155.251 E10.12338
G1 X105.054 Y153.91 E10.18622
G1 X104.769 Y153.106 E10.2253
G1 X104.168 Y151.884 E10.28771
G1 X103.54 Y150.973 E10.33842
G1 X102.982 Y150.334 E10.3773
G1 X101.985 Y149.432 E10.43891
G1 X101.502 Y149.084 E10.4662
G1 X100.318 Y148.423 E10.52838
G1 X99.652 Y148.166 E10.56108
G1 X99.519 Y147.73 E10.58195
G1 X99.112 Y146.813 E10.62793
G1 X97.652 Y144.715 E10.7451
G1 X96.161 Y143.45 E10.83474
G1 X94.208 Y142.469 E10.93487
G1 X92.855 Y142.112 E10.99901
G1 X91.515 Y141.967 E11.06079
G1 X80.577 Y141.685 E11.56227
G1 X78.203 Y141.966 E11.67186
G1 X77.123 Y142.323 E11.72396
G1 X76.127 Y142.799 E11.77457
G1 X75.182 Y143.405 E11.82602
G1 X73.963 Y144.517 E11.90164
G1 X72.763 Y146.144 E11.99431
G1 X72.313 Y147.03 E12.03985
G1 X72.158 Y147.458 E12.06072
G1 X71.48 Y147.681 E12.09341
G1 X70.263 Y148.28 E12.1556
G1 X69.762 Y148.603 E12.18295
G1 X68.709 Y149.461 E12.24517
G1 X67.789 Y150.478 E12.30802
G1 X67.31 Y151.177 E12.34685
G1 X66.791 Y152.133 E12.3967
G1 X66.466 Y152.921 E12.43577
G1 X66.116 Y154.242 E12.49839
G1 X65.972 Y155.583 E12.56021
G1 X65.691 Y166.494 E13.06048
G1 X65.766 Y167.836 E13.12205
G1 X65.98 Y168.925 E13.17295
G1 X66.328 Y169.973 E13.22358
G1 X66.804 Y170.97 E13.27421
G1 X67.401 Y171.9 E13.32486
G1 X68.111 Y172.748 E13.37551
G1 X68.92 Y173.5 E13.42615
G1 X69.818 Y174.144 E13.4768
G1 X70.79 Y174.671 E13.52745
G1 X71.46 Y174.93 E13.56041
G1 X71.684 Y175.612 E13.59329
G1 X72.16 Y176.61 E13.64399
G1 X72.758 Y177.539 E13.69463
G1 X73.467 Y178.387 E13.74529
G1 X74.277 Y179.139 E13.79594
G1 X75.175 Y179.783 E13.84659
G1 X76.145 Y180.31 E13.8972
G1 X77.176 Y180.711 E13.94786
G1 X77.616 Y180.821 E13.96866
G1 X77.545 Y181.206 E13.98656
G1 X76.636 Y181.096 E14.02852
G1 X75.983 Y180.917 E14.05955
G1 X75.156 Y180.593 E14.10023
G1 X74.436 Y180.203 E14.13779
G1 X73.566 Y179.581 E14.1868
G1 X73.115 Y179.18 E14.21443
G1 X67.459 Y173.226 E14.59087
G1 X67.035 Y172.697 E14.62192
G1 X66.536 Y171.918 E14.66429
G1 X66.14 Y171.085 E14.7066
G1 X65.923 Y170.467 E14.7366
G1 X47.567 Y101.048 E18.02761
G1 X47.941 Y100.926 E18.04562
M107
G92 E0
G1 E-0.28 F3600
;WIPE_START
G1 F144000
G1 X47.567 Y101.048 E-0.28933
G1 X48.694 Y105.308 E-0.394
;WIPE_END
G1 E-0.4 F3600
G1 X99.229 Y148.56 F180000
G1 E0 F2400
;TYPE:External perimeter
M107
G1 F1200
G1 X99.031 Y147.913 E0.03101
G1 X98.657 Y147.07 E0.07328
G1 X97.264 Y145.067 E0.18507
G1 X95.872 Y143.886 E0.26875
G1 X94.023 Y142.958 E0.36356
G1 X92.76 Y142.624 E0.42342
G1 X91.48 Y142.486 E0.48242
G1 X80.601 Y142.206 E0.98122
G1 X78.316 Y142.476 E1.08668
G1 X77.318 Y142.806 E1.13486
M73 P2 R43
G1 X76.381 Y143.254 E1.18248
G1 X75.5 Y143.819 E1.23043
G1 X74.351 Y144.867 E1.30169
M73 P3 R43
G1 X73.207 Y146.418 E1.39003
G1 X72.791 Y147.237 E1.43214
G1 X72.56 Y147.873 E1.46315
G1 X71.677 Y148.163 E1.50576
G1 X70.519 Y148.733 E1.5649
G1 X70.068 Y149.025 E1.58954
G1 X69.069 Y149.839 E1.64863
G1 X68.198 Y150.801 E1.70808
G1 X67.754 Y151.449 E1.74406
G1 X67.261 Y152.357 E1.79141
G1 X66.96 Y153.087 E1.82764
G1 X66.629 Y154.337 E1.88687
G1 X66.491 Y155.617 E1.9459
G1 X66.211 Y166.486 E2.44423
G1 X66.283 Y167.771 E2.50318
G1 X66.484 Y168.793 E2.55092
G1 X66.812 Y169.779 E2.59854
G1 X67.26 Y170.717 E2.64619
G1 X67.821 Y171.592 E2.69384
G1 X68.488 Y172.389 E2.74148
G1 X69.25 Y173.096 E2.78912
G1 X70.095 Y173.702 E2.83678
G1 X71.008 Y174.198 E2.88441
G1 X71.878 Y174.534 E2.92712
G1 X72.168 Y175.418 E2.96977
G1 X72.615 Y176.357 E3.01743
G1 X73.178 Y177.231 E3.06507
G1 X73.845 Y178.029 E3.11274
G1 X74.607 Y178.736 E3.16038
G1 X75.452 Y179.342 E3.20803
G1 X76.365 Y179.838 E3.25565
G1 X77.334 Y180.215 E3.3033
G1 X78.344 Y180.468 E3.35103
G1 X79.622 Y180.606 E3.40998
G1 X90.492 Y180.886 E3.90832
G1 X91.776 Y180.814 E3.96727
G1 X92.798 Y180.613 E4.015
G1 X93.785 Y180.286 E4.06265
G1 X94.722 Y179.838 E4.11027
G1 X95.597 Y179.276 E4.15792
G1 X96.394 Y178.609 E4.20556
G1 X97.102 Y177.846 E4.25326
G1 X97.708 Y177.003 E4.30087
G1 X98.203 Y176.088 E4.34853
G1 X98.539 Y175.22 E4.39118
G1 X99.424 Y174.929 E4.43389
G1 X100.362 Y174.481 E4.48152
G1 X101.237 Y173.92 E4.52918
G1 X102.034 Y173.253 E4.57682
G1 X102.741 Y172.491 E4.62446
G1 X103.347 Y171.646 E4.67211
G1 X103.843 Y170.732 E4.71976
G1 X104.222 Y169.762 E4.76747
G1 X104.52 Y168.502 E4.82683
G1 X104.612 Y167.472 E4.87421
G1 X104.891 Y156.606 E5.37242
G1 X104.82 Y155.32 E5.43146
G1 X104.553 Y154.051 E5.49089
G1 X104.29 Y153.308 E5.52699
G1 X103.718 Y152.148 E5.58627
G1 X103.129 Y151.293 E5.63387
G1 X102.61 Y150.699 E5.66999
G1 X101.658 Y149.837 E5.72887
G1 X101.223 Y149.523 E5.75345
G1 X100.096 Y148.895 E5.81259
G1 X99.229 Y148.56 E5.8552
M107
;WIPE_START
G1 X99.402 Y148.199 F180000
;WIPE_END
G92 E0
G1 E-0.28 F3600
;WIPE_START
G1 F144000
G1 X99.219 Y147.842 E-0.28953
G1 X98.832 Y146.971 E-0.31217
G1 X97.413 Y144.932 E-0.37117
G1 X96.68 Y144.31 E-0.394
;WIPE_END
G1 E-0.4 F3600
G1 X120.171 Y112.004 F180000
G1 E0 F2400
M107
G1 F1200
G1 X121.751 Y109.883 E0.12122
G1 X123.177 Y107.726 E0.23973
G1 X124.894 Y104.641 E0.40155
G1 X125.671 Y103 E0.48477
G1 X126.954 Y99.807 E0.64248
G1 X127.496 Y98.165 E0.72176
G1 X128.393 Y94.746 E0.88374
G1 X129.18 Y89.601 E1.12231
G1 X129.326 Y86.929 E1.24495
G1 X129.318 Y84.256 E1.36746
G1 X129.046 Y80.824 E1.52524
G1 X128.793 Y79.055 E1.60715
G1 X128.277 Y76.48 E1.72752
G1 X127.62 Y73.949 E1.84734
G1 X126.785 Y71.456 E1.96783
