; generated by SuperSlicer 2.5.59.10 on 2024-05-28 at 01:58:15 UTC


;
;

;
;
; 

; external perimeters extrusion width = 0.60mm
; perimeters extrusion width = 0.60mm
; infill extrusion width = 0.60mm
; solid infill extrusion width = 0.60mm
; top infill extrusion width = 0.60mm
; first layer extrusion width = 0.60mm

; object:{"name":"Eddy Mount_Part 1__Main_2024-05-27 20-57-20","id":"Eddy Mount_Part 1__Main_2024-05-27 20-57-20.stl id:0 copy 0","object_center":[90.000000,92.500000,0.000000],"boundingbox_center":[90.000000,92.500000,3.000000],"boundingbox_size":[40.749641,35.175406,6.000000]}
EXCLUDE_OBJECT_DEFINE NAME=Eddy_Mount_Part_1__Main_2024_05_27_20_57_20_stl_id_0_copy_0 CENTER=90.000000,92.500000 POLYGON=[[69.63,86.34],[69.63,86.18],[69.64,86.01],[69.66,85.85],[69.68,85.69],[69.71,85.53],[69.75,85.37],[69.80,85.22],[69.85,85.06],[69.91,84.91],[69.97,84.76],[70.04,84.62],[70.12,84.47],[70.21,84.33],[70.30,84.20],[70.39,84.07],[70.49,83.94],[70.60,83.82],[70.71,83.70],[70.83,83.59],[70.95,83.48],[71.08,83.38],[71.21,83.28],[71.34,83.19],[71.48,83.10],[71.62,83.02],[71.77,82.95],[71.91,82.88],[91.13,74.91],[109.13,74.91],[110.36,86.49],[110.37,86.64],[110.37,86.79],[110.37,86.94],[110.37,87.09],[110.35,87.24],[110.33,87.39],[110.31,87.53],[110.27,87.68],[110.23,87.83],[110.19,87.97],[110.14,88.11],[110.08,88.25],[110.01,88.38],[109.95,88.52],[109.87,88.65],[109.79,88.77],[109.70,88.90],[109.61,89.02],[109.52,89.13],[109.42,89.24],[109.31,89.35],[109.02,89.63],[100.13,98.25],[74.96,109.74],[74.81,109.80],[74.65,109.86],[74.50,109.92],[74.34,109.96],[74.18,110.00],[74.02,110.03],[73.86,110.06],[73.70,110.07],[73.54,110.08],[73.37,110.09],[73.21,110.08],[73.05,110.07],[72.88,110.06],[72.72,110.03],[72.56,110.00],[72.40,109.96],[72.25,109.91],[72.09,109.86],[71.94,109.80],[71.79,109.74],[71.64,109.66],[71.50,109.58],[71.36,109.50],[71.22,109.41],[71.09,109.31],[70.96,109.21],[70.84,109.10],[70.72,108.99],[70.61,108.87],[70.50,108.75],[70.40,108.62],[70.30,108.49],[70.21,108.35],[70.13,108.21],[70.05,108.07],[69.98,107.92],[69.91,107.77],[69.85,107.62],[69.80,107.46],[69.75,107.31],[69.71,107.15],[69.68,106.99],[69.66,106.83],[69.64,106.66],[69.63,106.50],[69.63,106.34],[69.63,86.34]]
; plater:{"center":[90.000000,92.500000,0.000000],"boundingbox_center":[90.000000,92.500000,3.000000],"boundingbox_size":[40.749641,35.175406,6.000000]}

M107
;TYPE:Custom
START_PRINT EXTRUDER=270 BED=105
M107
G21 ; set units to millimeters
G90 ; use absolute coordinates
M83 ; use relative distances for extrusion
ACTIVATE_EXTRUDER EXTRUDER=extruder
; Filament gcode
FILAMENT_START MATERIAL=ASA COLOR=#368900 VENDOR=123-3D
;SET_PRESSURE_ADVANCE ADVANCE=0.062
SET_PRESSURE_ADVANCE ADVANCE=0.055
M104 S270 T0 ; set temperature
M109 S270 T0 ; set temperature and wait for it to be reached
M190 S105 ; set bed temperature and wait for it to be reached
;LAYER_CHANGE
;Z:0.24
;HEIGHT:0.24
G1 E-1 F3600
G1 Z0.24 F102000
G92 E0
M204 S750
G1 X68.324 Y81.007
G1 E1 F3600
;TYPE:Skirt
;WIDTH:0.45
M107
G1 F2399.713
G1 X67.392 Y82.079 E.0548
G1 X66.676 Y83.329 E.05556
G1 X66.186 Y84.841 E0.06128
G1 F2398.949
G1 X66.031 Y86.175 E.05181
G1 X66.052 Y106.893 E0.79906
G1 X66.187 Y107.843 E.03703
G1 X66.623 Y109.225 E0.05588
G1 F2399.54
G1 X67.31 Y110.478 E.05512
G1 X68.069 Y111.418 E0.0466
G1 F2398.113
G1 X68.772 Y112.062 E.03679
G1 X69.564 Y112.618 E0.0373
G1 F2397.439
G1 X70.705 Y113.181 E.04911
G1 X71.627 Y113.473 E0.0373
G1 F2399.643
G1 X72.566 Y113.639 E.03678
G1 X73.774 Y113.671 E0.0466
G1 X74.798 Y113.545 E.0398
G1 X75.495 Y113.369 E.02772
G1 X76.3 Y113.077 E0.03301
G1 F2398.689
G1 X80.52 Y111.152 Z.24 E.17889
G1 X84.739 Y109.227 Z.24 E.17889
G1 X88.959 Y107.302 Z.24 E.17889
G1 X93.179 Y105.377 Z.24 E.17889
G1 X97.398 Y103.452 Z.24 E.17889
G1 X101.618 Y101.527 Z.24 E.17889
G1 X102.629 Y100.837 E0.04719
G1 F2399.152
G1 X105.796 Y97.76 Z.24 E.1703
G1 X108.963 Y94.684 Z.24 E.1703
G1 F2400
G1 X112.13 Y91.607 Z.24 E.1703
G1 F2399.658
G1 X113.025 Y90.379 E.05861
G1 X113.43 Y89.556 E0.03537
G1 X113.724 Y88.696 E.03505
G1 X113.934 Y87.571 E0.04412
G1 F2397.698
G1 X113.949 Y86.279 E.04987
G1 X112.703 Y74.532 E0.45559
G1 F2399.265
G1 X112.042 Y72.806 E.0713
G1 X110.763 Y71.709 E0.06498
G1 X109.125 Y71.315 E.06498
G1 X91.125 Y71.315 E0.69425
G1 X89.746 Y71.589 E.05423
G1 X85.904 Y73.183 Z.24 E.16044
G1 X82.062 Y74.778 Z.24 E.16044
G1 X78.22 Y76.372 Z.24 E.16044
G1 X74.378 Y77.967 Z.24 E.16044
G1 X70.536 Y79.561 Z.24 E.16044
G1 X69.259 Y80.253 E0.05601
G1 X68.371 Y80.969 E.04401
M107
G1 X68.62 Y81.279 F102000
M107
G1 F2385.891
G1 X68.588 Y81.305 E.0016
G1 X67.724 Y82.3 E0.05081
G1 F2399.545
G1 X67.034 Y83.505 E.05356
G1 X66.573 Y84.935 E.05796
G1 X66.429 Y86.175 E.04816
G1 X66.433 Y90.31 Z.24 E.15948
G1 X66.437 Y94.445 Z.24 E.15948
G1 F2398.939
G1 X66.44 Y98.579 Z.24 E.15948
G1 X66.444 Y102.714 Z.24 E.15948
G1 F2397.877
G1 X66.448 Y106.849 Z.24 E.15948
G1 X66.574 Y107.749 E0.03502
G1 F2398.597
G1 X66.994 Y109.081 E.05387
G1 X67.631 Y110.243 E0.0511
G1 F2399.878
G1 X68.363 Y111.149 E.04492
G1 F2398.813
G1 X69.015 Y111.746 E.03411
G1 X69.778 Y112.282 E0.03596
G1 F2399.927
G1 X70.842 Y112.807 E.04576
G1 X71.731 Y113.088 E.03596
G1 X72.602 Y113.242 E0.03411
G1 X73.766 Y113.272 E.04492
G1 F2397.842
G1 X74.712 Y113.155 E.03678
G1 X75.368 Y112.991 E0.02605
G1 F2398.7
G1 X76.135 Y112.714 E.03145
G1 F2399.734
G1 X80.355 Y110.789 Z.24 E.17889
G1 X84.574 Y108.864 Z.24 E.17889
G1 X88.794 Y106.939 Z.24 E.17889
G1 X93.014 Y105.014 Z.24 E.17889
G1 X97.233 Y103.089 Z.24 E.17889
G1 X101.453 Y101.164 Z.24 E.17889
G1 X102.352 Y100.551 E0.04196
G1 X105.515 Y97.478 Z.24 E.17008
G1 F2398.451
G1 X108.677 Y94.406 Z.24 E.17008
G1 F2397.445
G1 X111.84 Y91.333 Z.24 E.17008
G1 X112.376 Y90.659 E0.03318
G1 F2395.014
G1 X112.815 Y89.932 E.0328
G1 X113.341 Y88.583 E0.05582
G1 F2399.669
G1 X113.538 Y87.534 E.04116
G1 X113.553 Y86.318 E.04691
G1 X113.138 Y82.403 Z.24 E.15183
G1 X112.722 Y78.489 Z.24 E.15183
G1 X112.307 Y74.574 Z.24 E.15183
G1 X111.822 Y73.191 E0.05652
G1 X110.663 Y72.107 E.06122
G1 X109.125 Y71.713 E0.06122
G1 X104.625 Y71.713 Z.24 E.17356
G1 X100.125 Y71.713 Z.24 E.17356
G1 X95.625 Y71.713 Z.24 E.17356
G1 F2400
G1 X91.125 Y71.713 Z.24 E.17356
G1 F2399.66
G1 X89.899 Y71.957 E.04822
G1 X86.057 Y73.551 Z.24 E.16044
G1 X82.215 Y75.146 Z.24 E.16044
G1 X78.372 Y76.74 Z.24 E.16044
G1 X74.53 Y78.335 Z.24 E.16044
G1 X70.688 Y79.929 Z.24 E.16044
G1 X69.489 Y80.578 E.05258
G1 X68.667 Y81.242 E0.04075
M107
G1 X67.697 Y80.151 F102000
;WIDTH:0.6
M107
G1 F1749.084
G1 X68.099 Y79.793 E.02856
G1 F1758.647
G1 X68.786 Y79.294 E.04511
G1 F1774.349
G1 X69.501 Y78.876 E.04397
G1 F1790.149
G1 X70.263 Y78.529 E.04442
G1 F1805.377
G1 X71.272 Y78.197 E.0564
G1 F1825.344
G1 X72.309 Y77.998 E.05603
G1 F1836.857
G1 X72.93 Y77.942 E.03315
G1 F1851.998
G1 X73.548 Y77.932 E.03279
G1 F1863.563
G1 X74.411 Y77.994 E.04595
G1 F1880.626
G1 X75.219 Y78.136 E.04353
G1 F1896.446
G1 X76.1 Y78.384 E.04857
G1 F1914.303
G1 X77.146 Y78.823 E.06024
G1 F1936.343
G1 X78.132 Y79.406 E.06081
G1 F1956.489
G1 X78.936 Y80.033 E.05414
G1 F1974.679
G1 X79.464 Y80.541 E.03888
G1 F1987.378
G1 X79.939 Y81.085 E.03835
G1 F2004.818
G1 X80.536 Y81.932 E.05502
G1 F2020.803
G1 X80.793 Y82.413 E.02895
G1 F2054.911
G1 X83.63 Y82.412 Z.24 E.15059
G1 F2141.701
G1 X86.466 Y82.411 Z.24 E.15059
G1 F2187.592
G1 X86.49 Y78.238 Z.24 E.22152
G1 F2324.448
G1 X86.513 Y74.065 Z.24 E.22152
G1 F2332.308
G1 X86.69 Y73.393 E.03689
G1 F2349.052
G1 X86.935 Y72.812 E.03345
G1 F2357.927
G1 X87.259 Y72.263 E.0339
G1 F2384.036
G1 X88.094 Y71.357 E.0654
G1 F2399.393
G1 X88.891 Y70.79 E.05191
G1 F2398.247
G1 X89.777 Y70.423 E.05093
G1 X90.694 Y70.255 E0.04947
G1 F2399.01
G1 X95.425 Y70.256 Z.24 E.25115
G1 X100.156 Y70.257 Z.24 E.25114
G1 X104.886 Y70.259 Z.24 E.25115
G1 X109.617 Y70.26 Z.24 E.25115
G1 X110.406 Y70.403 E0.04256
G1 X111.196 Y70.705 E.04489
G1 X112.107 Y71.31 E.05806
G1 X112.737 Y71.946 E.04752
G1 X113.207 Y72.605 E0.04296
G1 X113.543 Y73.347 E.04325
G1 X113.746 Y74.137 E.04331
G1 X113.784 Y82.507 E0.44435
G1 F2398.729
G1 X113.923 Y82.721 E.01355
G1 X114.263 Y83.367 E0.03873
G1 F2399.206
G1 X114.567 Y84.111 E.04267
G1 X114.823 Y84.977 E.04795
G1 F2398.419
G1 X114.946 Y85.621 E.03482
G1 X115.016 Y86.245 E0.03331
G1 F2399.35
G1 X115.031 Y87.153 E.0482
G1 X114.965 Y87.923 E.04103
G1 X114.828 Y88.674 E0.04052
G1 X114.611 Y89.441 E.04233
G1 X114.345 Y90.126 E0.03902
G1 F2398.807
G1 X114.022 Y90.781 E.03879
G1 X113.647 Y91.394 E0.03814
G1 F2399.55
G1 X113.128 Y92.084 E.04583
G1 X112.628 Y92.628 E0.03921
G1 X109.471 Y95.686 Z.24 E.23334
G1 X106.313 Y98.743 Z.24 E.23334
G1 X103.156 Y101.801 Z.24 E.23334
G1 X102.082 Y102.489 E0.06769
G1 X101.221 Y102.787 E.04837
G1 X100.395 Y102.911 E.04436
G1 X88.538 Y102.911 E0.62943
G1 X84.963 Y105.884 Z.24 E.24688
G1 X81.387 Y108.857 Z.24 E.24688
G1 X81.119 Y109.61 E0.04242
G1 F2398.709
G1 X80.673 Y110.512 E.05343
G1 F2399.895
G1 X80.122 Y111.354 E.0534
G1 X79.46 Y112.138 E0.05445
G1 F2398.436
G1 X78.771 Y112.785 E.05019
G1 X77.973 Y113.375 E0.05267
G1 F2397.856
G1 X77.273 Y113.787 E.04315
G1 X76.53 Y114.13 E0.04344
G1 F2398.559
G1 X75.639 Y114.434 E.04999
G1 X74.857 Y114.613 E0.04256
G1 X74.082 Y114.715 E.0415
G1 X73.015 Y114.737 E0.05665
G1 F2397.728
G1 X72.291 Y114.674 E.03861
G1 F2399.774
G1 X71.574 Y114.55 E.03862
G1 X70.863 Y114.361 E0.03904
G1 F2396.91
G1 X70.16 Y114.106 E.03973
G1 X69.274 Y113.676 E0.05225
G1 F2395.832
G1 X68.541 Y113.216 E.04598
G1 X67.958 Y112.767 E0.03902
G1 F2397.327
G1 X67.418 Y112.271 E.03895
G1 F2399.879
G1 X66.897 Y111.696 E.0412
G1 X66.319 Y110.91 E.0518
G1 X65.676 Y109.716 E.07198
G1 X65.356 Y108.864 E0.0483
G1 F2398.154
G1 X65.13 Y107.983 E.04831
G1 X64.978 Y106.739 E0.06652
G1 F2399.422
G1 X64.977 Y102.591 Z.24 E.22022
G1 X64.977 Y98.443 Z.24 E.22022
G1 F2398.881
G1 X64.976 Y94.294 Z.24 E.22022
G1 X64.976 Y90.146 Z.24 E.22022
G1 X64.975 Y85.998 Z.24 E.22022
G1 X65.112 Y84.784 E0.06481
G1 X65.348 Y83.839 E.05172
G1 X65.677 Y82.959 E0.04988
G1 X66.113 Y82.103 E.05102
G1 X66.63 Y81.319 E0.04984
G1 F2399.909
G1 X67.467 Y80.356 E.06772
G1 F2398.216
G1 X67.652 Y80.191 E.01317
M107
G1 X68.017 Y80.6 F102000
M107
G1 F2399.964
G1 X68.433 Y80.229 E.0296
G1 F2398.484
G1 X69.075 Y79.76 E.04222
G1 X69.743 Y79.369 E0.04105
G1 F2396.762
G1 X70.449 Y79.045 E.04127
G1 F2399.995
G1 X71.394 Y78.733 E.05282
G1 X72.372 Y78.543 E0.05288
G1 X72.95 Y78.49 E.03081
G1 X73.545 Y78.48 E.0316
G1 F2397.402
G1 X74.357 Y78.54 E.04325
G1 X75.085 Y78.668 E0.03919
G1 X75.904 Y78.897 E.04517
G1 X76.884 Y79.306 E0.05638
G1 F2398.824
G1 X77.809 Y79.849 E.05695
G1 X78.588 Y80.457 E0.05242
G1 F2395.611
G1 X79.059 Y80.911 E.03478
G1 F2399.328
G1 X79.499 Y81.412 E.0354
G1 X80.077 Y82.234 E0.05332
G1 X80.463 Y82.962 E.04373
G1 X83.646 Y82.96 Z.24 E.16894
G1 F2400
G1 X86.828 Y82.959 Z.24 E.16894
G1 F2395.803
G1 X87.013 Y82.683 E.01767
G1 F2399.977
G1 X87.033 Y78.426 Z.24 E.22598
G1 X87.053 Y74.17 Z.24 E.22598
G1 X87.204 Y73.588 E0.03192
G1 F2398.867
G1 X87.433 Y73.043 E.03139
G1 X87.715 Y72.568 E0.02931
G1 F2399.135
G1 X88.477 Y71.751 E.05931
G1 X89.132 Y71.283 E0.04273
G1 F2398.837
G1 X89.907 Y70.956 E.04467
G1 X90.719 Y70.804 E0.04385
G1 F2399.792
G1 X95.437 Y70.805 Z.24 E.25047
G1 X100.156 Y70.807 Z.24 E.25047
G1 X104.874 Y70.808 Z.24 E.25047
G1 F2400
G1 X109.592 Y70.809 Z.24 E.25047
G1 F2399.018
G1 X110.28 Y70.938 E.03719
G1 F2398.554
G1 X110.969 Y71.205 E.03926
G1 F2399.411
G1 X111.738 Y71.717 E.04903
G1 X112.306 Y72.285 E0.04261
G1 F2398.541
G1 X112.719 Y72.856 E.03742
G1 F2399.544
G1 X113.033 Y73.551 E.04049
G1 X113.206 Y74.239 E0.03765
G1 F2398.708
G1 X113.221 Y78.455 Z.24 E.22386
G1 F2397.587
G1 X113.236 Y82.672 Z.24 E.22386
G1 X113.444 Y82.989 E0.02011
G1 F2399.495
G1 X113.761 Y83.588 E.03596
G1 F2396.374
G1 X114.045 Y84.279 E.0397
G1 X114.293 Y85.119 E0.04647
G1 F2398.055
G1 X114.405 Y85.713 E.03209
G1 X114.47 Y86.293 E0.03095
G1 F2397.374
G1 X114.484 Y87.12 E.04394
G1 F2399.68
G1 X114.423 Y87.837 E.03821
G1 X114.29 Y88.562 E.03913
G1 X114.087 Y89.279 E0.03954
G1 F2398.41
G1 X113.839 Y89.916 E.03631
G1 X113.547 Y90.506 E.03496
G1 X113.2 Y91.075 E0.03536
G1 F2397.582
G1 X112.698 Y91.743 E.04439
G1 X112.241 Y92.239 E0.0358
G1 F2399.839
G1 X109.092 Y95.289 Z.24 E.23271
G1 X105.943 Y98.338 Z.24 E.23271
G1 X102.794 Y101.388 Z.24 E.23271
G1 X101.87 Y101.982 E0.05831
G1 X101.113 Y102.249 E.04262
G1 X100.374 Y102.362 E0.03968
G1 X96.363 Y102.362 Z.24 E.21295
G1 X92.351 Y102.362 Z.24 E.21295
G1 F2400
G1 X88.34 Y102.362 Z.24 E.21295
G1 F2399.361
G1 X84.63 Y105.447 Z.24 E.25616
G1 F2397.758
G1 X80.92 Y108.532 Z.24 E.25616
G1 X80.62 Y109.382 E0.04781
G1 X80.189 Y110.254 E.05167
G1 X79.673 Y111.039 E0.04986
G1 F2399.996
G1 X79.052 Y111.771 E.05095
G1 X78.408 Y112.374 E.04683
G1 X77.682 Y112.91 E0.04789
G1 X77.03 Y113.295 E.04021
G1 F2398.742
G1 X76.313 Y113.626 E.04195
G1 X75.502 Y113.903 E0.04549
G1 F2399.069
G1 X74.773 Y114.071 E.03973
G1 X74.026 Y114.169 E.04
G1 X73.048 Y114.189 E0.05191
G1 X72.35 Y114.129 E.0372
G1 X71.681 Y114.012 E.03607
G1 X71.017 Y113.834 E0.03649
G1 X70.361 Y113.596 E.03705
G1 X69.528 Y113.19 E.04919
G1 X68.865 Y112.773 E.04157
G1 X68.32 Y112.355 E0.03643
G1 F2398.219
G1 X67.816 Y111.892 E.03635
G1 F2399.022
G1 X67.331 Y111.359 E.03827
G1 X66.772 Y110.6 E0.05002
G1 F2397.935
G1 X66.183 Y109.506 E.06598
G1 X65.875 Y108.685 E0.04652
G1 F2398.792
G1 X65.666 Y107.864 E.04499
G1 F2399.167
G1 X65.524 Y106.69 E.06281
G1 X65.524 Y102.555 Z.24 E.21953
G1 X65.524 Y98.419 Z.24 E.21953
G1 X65.523 Y94.284 Z.24 E.21953
G1 X65.523 Y90.148 Z.24 E.21953
G1 X65.523 Y86.013 Z.24 E.21953
G1 X65.649 Y84.899 E0.05951
G1 F2398.193
G1 X65.867 Y84.016 E.0483
G1 X66.173 Y83.193 E0.04658
G1 X66.58 Y82.392 E.04771
G1 X67.078 Y81.636 E0.04805
G1 F2399.984
G1 X67.845 Y80.753 E.06208
G1 F2390.004
G1 X67.972 Y80.64 E.00906
M107
G1 X68.338 Y81.048 F102000
M107
G1 F2400
G1 X68.768 Y80.663 E0.03063
G1 F2395.6
G1 X69.365 Y80.226 E.03932
G1 X69.985 Y79.861 E0.03815
G1 F2397.537
G1 X70.637 Y79.56 E.03813
G1 X71.517 Y79.267 E0.04921
G1 F2396.666
G1 X72.435 Y79.088 E.04969
G1 X72.989 Y79.038 E0.02951
G1 F2398.091
G1 X73.541 Y79.029 E.02932
G1 X74.303 Y79.086 E0.04056
G1 F2399.283
G1 X74.951 Y79.2 E.03493
G1 X75.71 Y79.41 E0.04179
G1 F2396.9
G1 X76.623 Y79.789 E.05252
G1 X77.487 Y80.293 E0.05307
G1 F2399.733
G1 X78.218 Y80.862 E.04916
G1 X78.671 Y81.298 E.03339
G1 X79.077 Y81.762 E.03275
G1 X79.618 Y82.534 E.05006
G1 X80.045 Y83.345 E0.04864
G1 F2396.069
G1 X80.108 Y83.51 E.00939
G1 X87.152 Y83.507 E0.37394
G1 F2392.889
G1 X87.261 Y83.297 E.01259
G1 X87.561 Y82.851 E0.0285
G1 F2397.463
G1 X87.577 Y78.562 Z.24 E.22773
G1 F2399.045
G1 X87.593 Y74.272 Z.24 E.22773
G1 X87.718 Y73.779 E0.02699
G1 X87.914 Y73.306 E.02719
G1 F2396.75
G1 X88.171 Y72.875 E.02667
G1 X88.858 Y72.146 E0.05314
G1 F2398.057
G1 X89.376 Y71.775 E.03384
G1 X90.041 Y71.489 E0.03843
G1 X90.745 Y71.352 E.0381
G1 F2399.684
G1 X95.45 Y71.353 Z.24 E.24977
G1 X100.155 Y71.354 Z.24 E.24977
G1 F2398.42
G1 X104.86 Y71.356 Z.24 E.24977
G1 F2397.471
G1 X109.565 Y71.357 Z.24 E.24977
G1 X110.151 Y71.471 E0.03166
G1 F2396.729
G1 X110.74 Y71.705 E.03368
G1 F2397.982
G1 X111.369 Y72.124 E.04014
G1 X111.903 Y72.658 E0.04004
G1 F2398.069
G1 X112.231 Y73.108 E.02957
G1 F2399.812
G1 X112.523 Y73.754 E.03765
G1 X112.666 Y74.337 E.03188
G1 X112.677 Y78.587 Z.24 E.22564
G1 F2397.56
G1 X112.688 Y82.838 Z.24 E.22564
G1 X112.966 Y83.258 E0.02671
G1 F2398.174
G1 X113.259 Y83.81 E.03319
G1 F2397.174
G1 X113.523 Y84.448 E.03669
G1 X113.763 Y85.261 E0.04496
G1 F2398.299
G1 X113.864 Y85.804 E.02932
G1 X113.923 Y86.34 E0.02861
G1 F2399.223
G1 X113.936 Y87.088 E.03972
G1 F2396.577
G1 X113.877 Y87.777 E.03675
G1 X113.753 Y88.45 E0.0363
G1 F2399.585
G1 X113.563 Y89.116 E.03675
G1 F2398.363
G1 X113.332 Y89.705 E.03361
G1 F2399.841
G1 X113.072 Y90.232 E.03121
G1 X112.754 Y90.756 E.03255
G1 F2398.813
G1 X112.268 Y91.402 E.04293
G1 X111.853 Y91.85 E0.0324
G1 X108.713 Y94.892 Z.24 E.2321
G1 F2399.229
G1 X105.572 Y97.934 Z.24 E.23211
G1 F2400
G1 X102.432 Y100.976 Z.24 E.2321
G1 F2398.52
