; generated by SuperSlicer 2.5.59.10 on 2024-05-26 at 03:13:34 UTC


;
;

;
;
; 

; external perimeters extrusion width = 0.42mm
; perimeters extrusion width = 0.45mm
; infill extrusion width = 0.45mm
; solid infill extrusion width = 0.45mm
; top infill extrusion width = 0.42mm

; object:{"name":"Eddy Mount_Part 1__Main_2024-05-25 23-11-50","id":"Eddy Mount_Part 1__Main_2024-05-25 23-11-50.stl id:0 copy 0","object_center":[90.000000,100.000000,0.000000],"boundingbox_center":[90.000000,100.000000,2.500000],"boundingbox_size":[41.749710,27.499998,5.000000]}
EXCLUDE_OBJECT_DEFINE NAME=Eddy_Mount_Part_1__Main_2024_05_25_23_11_50_stl_id_0_copy_0 CENTER=90.000000,100.000000 POLYGON=[[69.13,90.00],[69.13,89.84],[69.14,89.67],[69.16,89.51],[69.18,89.35],[69.21,89.19],[69.25,89.03],[69.30,88.87],[69.35,88.72],[69.41,88.56],[69.48,88.42],[69.55,88.27],[69.63,88.12],[69.71,87.99],[69.80,87.85],[69.90,87.72],[70.00,87.59],[70.11,87.47],[70.22,87.35],[70.34,87.24],[70.46,87.13],[70.59,87.02],[70.72,86.93],[70.86,86.84],[71.00,86.75],[71.14,86.67],[71.29,86.60],[71.44,86.54],[71.59,86.48],[71.75,86.42],[71.90,86.38],[72.06,86.34],[72.22,86.31],[72.39,86.28],[72.55,86.26],[72.71,86.25],[72.88,86.25],[73.04,86.25],[73.20,86.26],[73.36,86.28],[73.53,86.31],[73.69,86.34],[73.85,86.38],[74.00,86.42],[107.72,97.13],[107.90,97.20],[108.09,97.27],[108.26,97.34],[108.44,97.43],[108.61,97.52],[108.78,97.62],[108.94,97.73],[109.10,97.85],[109.25,97.97],[109.40,98.09],[109.54,98.23],[109.67,98.37],[109.80,98.51],[109.93,98.67],[110.04,98.82],[110.15,98.98],[110.26,99.15],[110.35,99.32],[110.44,99.49],[110.52,99.67],[110.59,99.85],[110.65,100.04],[110.71,100.22],[110.76,100.41],[110.80,100.60],[110.83,100.80],[110.85,100.99],[110.87,101.18],[110.87,101.38],[110.87,101.57],[110.86,101.77],[110.84,101.96],[110.82,102.15],[110.78,102.35],[110.74,102.54],[110.68,102.72],[110.62,102.91],[110.56,103.09],[110.48,103.27],[110.40,103.45],[110.31,103.62],[110.21,103.79],[110.10,103.95],[109.99,104.11],[109.87,104.26],[109.74,104.41],[109.61,104.56],[109.47,104.69],[109.33,104.82],[109.18,104.95],[109.02,105.07],[108.86,105.18],[108.70,105.28],[108.53,105.38],[108.36,105.47],[108.18,105.55],[108.00,105.63],[107.82,105.69],[107.63,105.75],[107.44,105.80],[73.69,113.66],[73.53,113.69],[73.36,113.72],[73.20,113.74],[73.04,113.75],[72.88,113.75],[72.71,113.75],[72.55,113.74],[72.39,113.72],[72.22,113.69],[72.06,113.66],[71.90,113.62],[71.75,113.58],[71.59,113.52],[71.44,113.46],[71.29,113.40],[71.14,113.33],[71.00,113.25],[70.86,113.16],[70.72,113.07],[70.59,112.98],[70.46,112.87],[70.34,112.76],[70.22,112.65],[70.11,112.53],[70.00,112.41],[69.90,112.28],[69.80,112.15],[69.71,112.01],[69.63,111.88],[69.55,111.73],[69.48,111.58],[69.41,111.44],[69.35,111.28],[69.30,111.13],[69.25,110.97],[69.21,110.81],[69.18,110.65],[69.16,110.49],[69.14,110.33],[69.13,110.16],[69.13,110.00],[69.13,90.00]]
; plater:{"center":[90.000000,100.000000,0.000000],"boundingbox_center":[90.000000,100.000000,2.500000],"boundingbox_size":[41.749710,27.499998,5.000000]}

M107
;TYPE:Custom
START_PRINT EXTRUDER=270 BED=105
M107
G21 ; set units to millimeters
G90 ; use absolute coordinates
M83 ; use relative distances for extrusion
ACTIVATE_EXTRUDER EXTRUDER=extruder
; Filament gcode
FILAMENT_START MATERIAL=ASA COLOR=#368900 VENDOR=123-3D
SET_PRESSURE_ADVANCE ADVANCE=0.06175
M104 S270 T0 ; set temperature
M109 S270 T0 ; set temperature and wait for it to be reached
M190 S105 ; set bed temperature and wait for it to be reached
;LAYER_CHANGE
;Z:0.24
;HEIGHT:0.24
G1 E-1 F3600
G1 Z0.24 F90000
G92 E0
M204 S750
G1 X68.135 Y84.097
G1 E1 F3600
;TYPE:Skirt
;WIDTH:0.6
M107
G1 F2399.5
G1 X66.972 Y85.26 E.08644
G1 X66.237 Y86.36 E.0695
G1 X65.681 Y87.648 E0.07369
G1 F2398.705
G1 X65.349 Y89.177 E.08224
G1 X65.361 Y110.908 E1.14174
G1 F2399.682
G1 X65.681 Y112.352 E.07771
G1 X66.05 Y113.271 E0.05202
G1 X66.535 Y114.134 E.05202
G1 X67.129 Y114.926 E.05202
G1 X67.821 Y115.634 E.05202
G1 X69.022 Y116.514 E0.07821
G1 X70.443 Y117.17 E.08224
G1 X71.64 Y117.467 E.0648
G1 X73.039 Y117.569 E0.07369
G1 X74.354 Y117.425 E.0695
G1 X79.177 Y116.302 Z.24 E.2602
G1 X84.001 Y115.18 Z.24 E.2602
G1 X88.824 Y114.057 Z.24 E.2602
G1 X93.648 Y112.934 Z.24 E.2602
G1 X98.471 Y111.811 Z.24 E.2602
G1 X103.295 Y110.689 Z.24 E.2602
G1 X108.118 Y109.566 Z.24 E.2602
G1 X109.862 Y108.984 E0.09658
G1 X111.468 Y108.006 E.09881
G1 X112.674 Y106.861 E.08736
G1 X113.586 Y105.576 E0.08276
G1 F2398.813
G1 X114.309 Y103.93 E.09448
G1 F2399.573
G1 X114.648 Y102.302 E.08736
G1 X114.686 Y101.086 E0.06389
G1 F2398.001
G1 X114.442 Y99.388 E.09017
G1 X113.775 Y97.629 E0.09881
G1 F2399.354
G1 X112.872 Y96.233 E.08736
G1 X111.84 Y95.154 E.07844
G1 X110.604 Y94.265 E0.07998
G1 X108.876 Y93.491 E.09949
G1 X75.16 Y82.78 E1.85867
G1 X73.455 Y82.454 E.09122
G1 X72.049 Y82.474 E0.07385
G1 F2398.971
G1 X70.755 Y82.732 E.06934
G1 X69.232 Y83.363 E0.08661
G1 F2399.314
G1 X68.185 Y84.063 E.06618
M107
G1 X68.488 Y84.517 F90000
M107
G1 F2400
G1 X67.602 Y85.362 E0.06431
G1 F2399.528
G1 X66.723 Y86.613 E.08034
G1 X66.208 Y87.801 E.06804
G1 X65.895 Y89.225 E0.0766
G1 X65.897 Y93.545 Z.24 E.22697
G1 X65.898 Y97.865 Z.24 E.22697
G1 X65.9 Y102.185 Z.24 E.22697
G1 X65.901 Y106.505 Z.24 E.22697
G1 X65.903 Y110.825 Z.24 E.22697
G1 X66.208 Y112.199 E0.07394
G1 X66.552 Y113.05 E.04825
G1 F2398.668
G1 X67.004 Y113.849 E.04825
G1 X67.557 Y114.583 E0.04825
G1 X68.2 Y115.238 E.04825
G1 X69.285 Y116.033 E.07068
G1 X70.34 Y116.549 E0.06165
G1 X71.747 Y116.929 E.07659
G1 X73.039 Y117.021 E0.06804
G1 F2399.13
G1 X74.235 Y116.89 E.06323
G1 X107.994 Y109.031 E1.82109
G1 F2398.182
G1 X109.36 Y108.605 E.07523
G1 X110.773 Y107.834 E0.08456
G1 F2399.761
G1 X111.566 Y107.21 E.05302
G1 X112.272 Y106.489 E.05302
G1 X113.101 Y105.32 E.07529
G1 X113.78 Y103.783 E0.08825
G1 X114.104 Y102.225 E.08362
G1 X114.14 Y101.128 E0.05766
G1 X113.913 Y99.535 E.08456
G1 X113.296 Y97.897 E.09197
G1 X112.431 Y96.561 E0.08362
G1 F2398.926
G1 X111.49 Y95.576 E.07159
G1 X110.342 Y94.747 E0.07437
G1 F2394.679
G1 X108.71 Y94.013 E.09401
G1 F2355.165
G1 X104.495 Y92.674 Z.24 E.23233
G1 F2285.862
G1 X100.281 Y91.336 Z.24 E.23233
G1 F2216.559
G1 X96.066 Y89.997 Z.24 E.23233
G1 F2147.256
G1 X91.852 Y88.658 Z.24 E.23233
G1 F2077.953
G1 X87.638 Y87.319 Z.24 E.23233
G1 F2008.649
G1 X83.423 Y85.98 Z.24 E.23233
G1 F1939.346
G1 X79.209 Y84.642 Z.24 E.23233
G1 F1835.392
G1 X74.994 Y83.303 Z.24 E.23233
G1 F1824.52
G1 X73.395 Y82.999 E.08551
G1 F1804.376
G1 X72.121 Y83.018 E.06696
G1 F1788.138
G1 X70.92 Y83.255 E.06432
G1 F1770.66
G1 X69.506 Y83.838 E.08033
G1 F1751.129
G1 X68.538 Y84.483 E.06116
M107
;WIPE_START
G1 F72000
G1 X69.506 Y83.838 E-0.0553
G1 X70.92 Y83.255 E-0.07263
G1 X72.121 Y83.018 E-0.05815
G1 X73.395 Y82.999 E-0.06053
G1 X74.994 Y83.303 E-0.07731
G1 X87.556 Y87.294 E-0.62609
;WIPE_END
G1 E-0.05 F3600
; printing object Eddy Mount_Part 1__Main_2024-05-25 23-11-50.stl id:0 copy 0
EXCLUDE_OBJECT_START NAME=Eddy_Mount_Part_1__Main_2024_05_25_23_11_50_stl_id_0_copy_0
G1 X78.543 Y98.572 F90000
G1 E1 F3600
;TYPE:Internal perimeter
;WIDTH:0.449999
M107
G1 F2399.975
G1 X78.141 Y98.463 E.01591
G1 F2398.251
G1 X77.556 Y98.247 E.02382
G1 X77.073 Y97.961 E0.02141
G1 F2397.893
G1 X76.564 Y97.603 E.02376
G1 X76.088 Y97.147 E0.02515
G1 F2399.672
G1 X75.59 Y96.477 E.03186
G1 F2396.287
G1 X75.298 Y95.965 E.02252
G1 X75.059 Y95.35 E0.02516
G1 F2393.749
G1 X74.96 Y94.98 E.01465
G1 F2398.868
G1 X74.86 Y94.329 E.02514
G1 X74.837 Y94.062 E0.01022
G1 F2395.385
G1 X74.643 Y94.417 E.01545
G1 X74.356 Y94.776 E0.01751
G1 F2394.969
G1 X74.028 Y95.035 E.01597
G1 X73.542 Y95.271 E0.02062
G1 F2397.409
G1 X73.127 Y95.366 E.01627
G1 F2399.413
G1 X72.626 Y95.362 E.01913
G1 X71.844 Y95.107 E0.03139
G1 F2398.021
G1 X71.219 Y94.573 E.03139
G1 X70.917 Y93.991 E0.02501
G1 X70.916 Y98.348 Z.24 E.16632
G1 F2399.082
G1 X70.916 Y102.705 Z.24 E.16632
G1 F2400
G1 X70.915 Y107.062 Z.24 E.16632
G1 F2399.19
G1 X71.558 Y106.721 E.0278
G1 F2398.038
G1 X72.26 Y106.518 E.02791
G1 X72.875 Y106.464 E0.02354
G1 X73.426 Y106.505 E.0211
G1 F2396.855
G1 X73.976 Y106.639 E.02163
G1 X74.509 Y106.864 E0.02206
G1 F2397.594
G1 X75.136 Y107.284 E.02882
G1 F2399.43
G1 X75.365 Y106.74 E.02253
G1 X75.79 Y106.071 E0.03024
G1 F2398.92
G1 X76.146 Y105.658 E.02082
G1 X76.768 Y105.092 E.03211
G1 X77.307 Y104.744 E0.02447
G1 F2399.333
G1 X77.884 Y104.484 E.02415
G1 X78.483 Y104.278 E.02419
G1 F2398.286
G1 X79.4 Y104.153 E.03535
G1 X79.625 Y104.139 E0.0086
G1 F2399.035
G1 X84.593 Y104.137 Z.24 E.18963
G1 F2400
G1 X89.561 Y104.135 Z.24 E.18963
G1 F2399.87
G1 X89.221 Y103.671 E.02196
G1 F2397.462
G1 X88.904 Y103.038 E.02704
G1 X88.716 Y102.468 E0.02289
G1 X88.604 Y101.769 E.02703
G1 X88.596 Y101.17 E0.02286
G1 F2399.743
G1 X88.78 Y100.183 E.03832
G1 X89.089 Y99.421 E.0314
G1 X89.563 Y98.718 E.03237
G1 X84.594 Y98.718 Z.24 E.1897
G1 F2398.619
G1 X79.624 Y98.718 Z.24 E.1897
G1 X78.778 Y98.635 E0.03243
G1 F2397.737
G1 X78.601 Y98.588 E.007
M107
G1 X78.638 Y98.188 F90000
M107
G1 F2396.32
G1 X78.269 Y98.086 E.01464
G1 X77.734 Y97.891 E0.02172
G1 F2397.377
G1 X77.28 Y97.62 E.02019
G1 X76.839 Y97.315 E0.02045
G1 F2399.553
G1 X76.363 Y96.859 E.02515
G1 F2397.859
G1 X75.921 Y96.256 E.02855
G1 X75.669 Y95.82 E0.01921
G1 X75.43 Y95.206 E.02516
G1 X75.252 Y94.259 E0.03677
M107
;WIDTH:0.486881
M107
G1 F2192.125
G1 X75.23 Y94.115 E.00609
M107
;WIDTH:0.523762
M107
G1 F2025.519
G1 X75.208 Y93.971 E.0066
M107
;WIDTH:0.560644
M107
G1 F1879.657
G1 X75.186 Y93.827 E.00712
M107
;WIDTH:0.597525
M107
G1 F1770.012
G1 X75.163 Y93.682 E.00763
G1 F1768.171
G1 X75.159 Y92.263 E.07425
G1 F1774.394
G1 X74.74 Y92.616 E.02868
G1 F1775.339
G1 X74.569 Y92.72 E.01045
G1 F1776.86
G1 X74.623 Y92.911 E.01034
G1 F1762.755
G1 X74.641 Y93.468 E.02918
G1 F1766.51
G1 X74.622 Y93.636 E.00881
G1 F1752.127
G1 X74.572 Y93.727 E.00545
M107
;WIDTH:0.560644
M107
G1 F1889.919
G1 X74.522 Y93.819 E.00509
M107
;WIDTH:0.523762
M107
G1 F2036.352
G1 X74.472 Y93.911 E.00472
M107
;WIDTH:0.486881
M107
G1 F2188.848
G1 X74.422 Y94.002 E.00435
M107
;WIDTH:0.449999
M107
G1 F2397.232
G1 X74.08 Y94.488 E.0227
G1 X73.801 Y94.708 E0.01354
G1 X73.35 Y94.911 E.01889
G1 F2393.881
G1 X73.074 Y94.971 E.01081
G1 X72.551 Y94.947 E0.01998
G1 F2399.875
G1 X72.05 Y94.766 E.02033
G1 X71.54 Y94.336 E.02546
G1 X71.374 Y94.043 E0.01285
M107
;WIDTH:0.498875
M107
G1 F2138.695
G1 X71.162 Y93.641 E.0195
M107
;WIDTH:0.584477
M107
G1 F1799.359
G1 X71.115 Y93.532 E.00607
G1 F1808.888
G1 X71.147 Y92.709 E.04204
G1 F1819.058
G1 X70.592 Y92.255 E.03661
G1 F1815.825
G1 X70.586 Y93.578 E.06755
G1 F1803.455
G1 X70.569 Y93.817 E.01225
M107
;WIDTH:0.539651
M107
G1 F1965.236
G1 X70.552 Y94.056 E.01122
M107
;WIDTH:0.494825
M107
G1 F2168.698
G1 X70.535 Y94.296 E.01019
M107
;WIDTH:0.449999
M107
G1 F2398.277
G1 X70.518 Y94.535 E.00916
G1 X70.516 Y107.934 E0.51144
G1 X70.872 Y107.585 E.01903
G1 X71.417 Y107.224 E0.02493
G1 X72.052 Y106.974 E.02605
G1 X72.62 Y106.873 E0.02201
G1 F2397.913
G1 X73.167 Y106.876 E.02089
G1 X73.807 Y107.006 E0.02492
G1 F2395.752
G1 X74.34 Y107.225 E.02202
G1 X74.882 Y107.59 E0.02492
G1 F2397.272
G1 X75.333 Y108.054 E.02472
M107
M107
G1 F2400
G1 X75.466 Y107.533 E0.02053
G1 F2398.273
G1 X75.658 Y107.053 E.01974
G1 X75.956 Y106.547 E0.02239
G1 F2396.557
G1 X76.286 Y106.083 E.02175
G1 F2399.674
G1 X76.759 Y105.608 E.02558
G1 X77.385 Y105.168 E0.02919
G1 F2395.431
G1 X77.781 Y104.949 E.0173
G1 F2399.513
G1 X78.381 Y104.723 E.02447
G1 X78.88 Y104.621 E0.01943
G1 F2397.418
G1 X79.625 Y104.537 E.02864
G1 X90.538 Y104.534 E0.41657
G1 X89.907 Y103.932 E.03331
G1 X89.553 Y103.449 E0.02283
G1 F2398.42
G1 X89.265 Y102.869 E.02472
G1 F2396.743
G1 X89.099 Y102.357 E.02057
G1 X88.999 Y101.717 E0.02472
G1 F2399.47
G1 X88.995 Y101.179 E.02054
G1 F2396.692
G1 X89.169 Y100.27 E.03535
G1 X89.451 Y99.589 E0.02809
G1 F2395.498
G1 X89.912 Y98.915 E.0312
G1 F2399.827
G1 X90.415 Y98.419 E.02696
G1 X90.548 Y98.319 E0.00635
G1 X86.907 Y98.319 Z.24 E.139
G1 X83.265 Y98.319 Z.24 E.139
G1 F2400
G1 X79.624 Y98.319 Z.24 E.139
G1 F2391.032
G1 X78.822 Y98.239 E.03078
G1 X78.696 Y98.204 E0.00496
M107
G1 E-1 F3600
G1 X75.588 Y109.387 F90000
G1 E1 F3600
;WIDTH:0.536758
M107
G1 F1963.312
G1 X75.611 Y109.134 E.01179
M107
;WIDTH:0.449999
M107
G1 F2394.604
G1 X75.679 Y108.339 E.03046
G1 F2396.982
G1 X75.787 Y107.838 E.01958
G1 X76.027 Y107.205 E0.02582
G1 F2395.061
G1 X76.291 Y106.764 E.01965
G1 F2399.717
G1 X76.588 Y106.344 E.01963
G1 X77.041 Y105.89 E.02447
G1 X77.601 Y105.503 E0.02597
G1 F2396.224
G1 X77.922 Y105.322 E.01408
G1 X78.522 Y105.095 E0.02447
G1 X79.625 Y104.936 E.04258
G1 F2399.875
G1 X83.689 Y104.935 Z.24 E.15514
G1 X87.754 Y104.933 Z.24 E.15514
G1 X91.818 Y104.932 Z.24 E.15514
G1 X92.085 Y104.919 E0.0102
M107
;WIDTH:0.501468
M107
G1 F2127.605
G1 X92.352 Y104.906 E.01152
G1 F2129.453
G1 X92.102 Y104.833 E.01122
M107
;WIDTH:0.449999
M107
G1 F2399.519
G1 X91.852 Y104.761 E.00994
G1 X91.243 Y104.509 E.02517
G1 X90.801 Y104.236 E.01983
G1 X90.188 Y103.65 E.03237
G1 X89.884 Y103.228 E0.01985
G1 X89.626 Y102.701 E.0224
G1 X89.451 Y102.101 E0.02385
G1 F2398.984
G1 X89.386 Y101.518 E.0224
G1 X89.416 Y101 E0.01981
G1 X89.558 Y100.356 E.02518
G1 X89.812 Y99.758 E0.02479
G1 X90.234 Y99.151 E.02823
G1 X90.684 Y98.713 E.02398
G1 X91.307 Y98.313 E0.02823
G1 F2397.522
G1 X91.593 Y98.182 E.01202
M107
;WIDTH:0.513728
M107
G1 F2076.455
G1 X91.962 Y98.015 E.01792
M107
;WIDTH:0.567598
M107
G1 F1860.845
G1 X92.044 Y97.979 E.00443
G1 F1870.135
G1 X91.888 Y97.965 E.00771
M107
;WIDTH:0.528399
M107
G1 F2010.97
G1 X91.733 Y97.95 E.00712
M107
;WIDTH:0.489199
M107
G1 F2186.221
G1 X91.578 Y97.935 E.00654
M107
;WIDTH:0.449999
M107
G1 F2397.785
G1 X91.423 Y97.921 E.00595
G1 F2399.939
G1 X87.49 Y97.921 Z.24 E.15012
G1 X83.557 Y97.921 Z.24 E.15012
G1 X79.624 Y97.921 Z.24 E.15012
G1 X78.865 Y97.843 E.02912
G1 X78.036 Y97.586 E0.03312
G1 F2397.894
G1 X77.487 Y97.279 E.02402
G1 X77.115 Y97.027 E0.01714
G1 F2399.718
G1 X76.639 Y96.571 E.02515
G1 F2394.875
G1 X76.253 Y96.035 E.02525
G1 X76.041 Y95.676 E0.0159
G1 F2397.251
G1 X75.802 Y95.062 E.02516
G1 X75.668 Y94.343 E0.0279
G1 F2399.275
G1 X75.636 Y93.682 E.02526
G1 X75.634 Y90.878 E.10704
G1 F2398.225
G1 X75.619 Y90.679 E.00763
M107
;WIDTH:0.50801
M107
G1 F2107.595
G1 X75.604 Y90.479 E.00874
G1 F2105.355
G1 X75.512 Y90.748 E.0124
M107
;WIDTH:0.449999
M107
G1 F2397.633
G1 X75.42 Y91.016 E.01083
G1 X75.192 Y91.46 E0.01904
G1 F2398.596
G1 X74.837 Y91.912 E.02195
G1 X74.382 Y92.281 E.02238
G1 X73.971 Y92.548 E0.01871
G1 F2395.949
G1 X74.13 Y92.889 E.01439
G1 F2398.624
G1 X74.191 Y93.252 E.01406
G1 X74.098 Y93.757 E0.01959
G1 X73.961 Y94.005 E.01082
G1 F2395.563
G1 X73.707 Y94.283 E.01439
G1 X73.308 Y94.51 E0.01749
G1 F2397.595
G1 X73.02 Y94.576 E.01128
G1 F2395.261
G1 X72.611 Y94.553 E.01566
G1 X72.139 Y94.354 E0.01953
G1 F2396.432
G1 X71.78 Y93.99 E.01953
G1 X71.587 Y93.516 E0.01953
G1 F2394.503
G1 X71.57 Y93.139 E.01442
G1 X71.652 Y92.782 E0.01395
G1 F2393.215
G1 X71.783 Y92.507 E.01164
G1 X71.333 Y92.264 E0.0195
G1 F2397.661
G1 X70.963 Y91.962 E.01824
G1 X70.64 Y91.582 E0.01904
G1 X70.358 Y91.081 E.02195
G1 X70.261 Y90.857 E0.0093
M107
;WIDTH:0.538062
M107
G1 F1956.212
G1 X70.165 Y90.634 E.01136
G1 F1969.077
G1 X70.143 Y90.988 E.01652
M107
;WIDTH:0.449999
M107
G1 F2397.548
G1 X70.12 Y91.341 E.01353
G1 X70.117 Y108.913 E0.67074
G1 F2398.293
G1 X70.137 Y109.172 E.00993
M107
;WIDTH:0.526964
M107
G1 F2022.087
G1 X70.156 Y109.432 E.01184
G1 F2020.773
G1 X70.248 Y109.198 E.01143
M107
;WIDTH:0.449999
M107
G1 F2398
G1 X70.34 Y108.965 E.00958
G1 X70.611 Y108.458 E0.02195
G1 F2399.254
G1 X70.913 Y108.088 E.01824
G1 X71.293 Y107.765 E0.01904
G1 X71.814 Y107.476 E.02275
G1 F2398.408
G1 X72.364 Y107.308 E.02196
G1 X72.84 Y107.261 E0.01824
G1 F2399.012
G1 X73.337 Y107.301 E.01903
G1 X73.891 Y107.455 E.02195
G1 X74.34 Y107.687 E0.01929
G1 F2398.732
G1 X74.787 Y108.038 E.0217
G1 X75.12 Y108.434 E0.01974
G1 F2397.029
G1 X75.387 Y108.903 E.02062
G1 F2398.901
G1 X75.488 Y109.145 E.01001
M107
;WIDTH:0.536758
M107
G1 F1967.673
G1 X75.565 Y109.332 E.0094
M107
