; generated by SuperSlicer 2.5.59.10 on 2024-05-31 at 22:36:20 UTC


;
;

;
;
; 

; external perimeters extrusion width = 0.60mm
; perimeters extrusion width = 0.60mm
; infill extrusion width = 0.60mm
; solid infill extrusion width = 0.60mm
; top infill extrusion width = 0.60mm
; first layer extrusion width = 0.60mm

; object:{"name":"Ender3 linear rail bed bracket_Part 1__Main_2024-05-31 18-27-54","id":"Ender3 linear rail bed bracket_Part 1__Main_2024-05-31 18-27-54.stl id:0 copy 0","object_center":[90.000000,92.500000,0.000000],"boundingbox_center":[90.000000,92.500000,17.500000],"boundingbox_size":[43.499998,40.000000,35.000000]}
EXCLUDE_OBJECT_DEFINE NAME=Ender3_linear_rail_bed_bracket_Part_1__Main_2024_05_31_18_27_54_stl_id_0_copy_0 CENTER=90.000000,92.500000 POLYGON=[[68.25,72.50],[111.75,72.50],[111.75,112.50],[68.25,112.50],[68.25,72.50]]
; plater:{"center":[90.000000,92.500000,0.000000],"boundingbox_center":[90.000000,92.500000,17.500000],"boundingbox_size":[43.499998,40.000000,35.000000]}

M107
;TYPE:Custom
START_PRINT EXTRUDER=250 BED=100
M107
G21 ; set units to millimeters
G90 ; use absolute coordinates
M83 ; use relative distances for extrusion
ACTIVATE_EXTRUDER EXTRUDER=extruder
; Filament gcode
FILAMENT_START MATERIAL=ASA COLOR=#368900 VENDOR=123-3D
SET_PRESSURE_ADVANCE ADVANCE=0.062
M104 S250 T0 ; set temperature
M109 S250 T0 ; set temperature and wait for it to be reached
M190 S100 ; set bed temperature and wait for it to be reached
;LAYER_CHANGE
;Z:0.24
;HEIGHT:0.24
G1 E-1 F3600
G1 Z0.24 F360000
G92 E0
M204 S750
G1 X64.98 Y69.005
G1 E1 F3600
;TYPE:Skirt
;WIDTH:0.45
M107
G1 F2400
G1 X63.858 Y70.598 E0.07126
G1 F2399.316
G1 X63.462 Y72.505 E.07126
G1 X63.462 Y112.495 E1.46288
G1 X63.741 Y114.107 E.05986
G1 X64.755 Y115.77 E.07126
G1 X66.348 Y116.892 E0.07126
G1 X68.255 Y117.288 E.07126
G1 X111.745 Y117.288 E1.59091
G1 X113.357 Y117.009 E.05986
G1 X115.02 Y115.995 E.07126
G1 X116.142 Y114.402 E0.07126
G1 X116.538 Y112.495 E.07126
G1 X116.538 Y72.505 E1.46288
G1 X116.259 Y70.893 E.05986
G1 X115.245 Y69.23 E.07126
G1 X113.652 Y68.108 E0.07126
G1 X111.745 Y67.712 E.07126
G1 X68.255 Y67.712 E1.59091
G1 X66.643 Y67.991 E.05986
G1 X65.031 Y68.974 E0.06906
M107
G1 X65.352 Y69.214 F360000
M107
G1 F2399.237
G1 X64.256 Y70.683 E.06706
G1 X63.86 Y72.505 E0.0682
G1 X63.86 Y77.504 Z.24 E.18286
G1 X63.86 Y82.503 Z.24 E.18286
G1 X63.86 Y87.501 Z.24 E.18286
G1 X63.86 Y92.5 Z.24 E.18286
G1 X63.86 Y97.499 Z.24 E.18286
G1 X63.86 Y102.497 Z.24 E.18286
G1 X63.86 Y107.496 Z.24 E.18286
G1 X63.86 Y112.495 Z.24 E.18286
G1 X64.042 Y113.745 E0.0462
G1 X64.939 Y115.379 E.0682
G1 X66.433 Y116.494 E.0682
G1 X68.255 Y116.89 E0.0682
G1 X73.087 Y116.89 Z.24 E.17677
G1 X77.919 Y116.89 Z.24 E.17677
G1 X82.752 Y116.89 Z.24 E.17677
G1 X87.584 Y116.89 Z.24 E.17677
G1 X92.416 Y116.89 Z.24 E.17677
G1 X97.248 Y116.89 Z.24 E.17677
G1 X102.081 Y116.89 Z.24 E.17677
G1 X106.913 Y116.89 Z.24 E.17677
G1 X111.745 Y116.89 Z.24 E.17677
G1 X112.995 Y116.708 E0.0462
G1 X114.629 Y115.811 E.0682
G1 X115.744 Y114.317 E.0682
G1 X116.14 Y112.495 E0.0682
G1 X116.14 Y107.496 Z.24 E.18286
G1 X116.14 Y102.497 Z.24 E.18286
G1 X116.14 Y97.499 Z.24 E.18286
G1 X116.14 Y92.5 Z.24 E.18286
G1 X116.14 Y87.501 Z.24 E.18286
G1 X116.14 Y82.503 Z.24 E.18286
G1 X116.14 Y77.504 Z.24 E.18286
G1 X116.14 Y72.505 Z.24 E.18286
G1 X115.958 Y71.255 E0.0462
G1 X115.061 Y69.621 E.0682
G1 X113.567 Y68.506 E.0682
G1 X111.745 Y68.11 E0.0682
G1 X106.913 Y68.11 Z.24 E.17677
G1 X102.081 Y68.11 Z.24 E.17677
G1 X97.248 Y68.11 Z.24 E.17677
G1 X92.416 Y68.11 Z.24 E.17677
G1 X87.584 Y68.11 Z.24 E.17677
G1 X82.752 Y68.11 Z.24 E.17677
G1 X77.919 Y68.11 Z.24 E.17677
G1 X73.087 Y68.11 Z.24 E.17677
G1 X68.255 Y68.11 Z.24 E.17677
G1 X67.005 Y68.292 E0.0462
G1 X65.396 Y69.175 E.06714
M107
G1 X65.72 Y69.433 F360000
M107
G1 F2400
G1 X64.654 Y70.773 E0.06263
G1 F2399.309
G1 X64.259 Y72.505 E.065
G1 X64.259 Y112.495 E1.46288
G1 F2398.584
G1 X64.36 Y113.389 E.03293
G1 F2399.995
G1 X65.133 Y114.989 E.065
G1 X66.523 Y116.096 E0.065
G1 X68.255 Y116.491 E.065
G1 X111.745 Y116.491 E1.59091
G1 F2398.581
G1 X112.639 Y116.39 E.03293
G1 F2399.995
G1 X114.239 Y115.617 E.065
G1 X115.346 Y114.227 E0.065
G1 X115.741 Y112.495 E.065
G1 X115.741 Y72.505 E1.46288
G1 F2398.583
G1 X115.64 Y71.611 E.03293
G1 F2399.995
G1 X114.867 Y70.011 E.065
G1 X113.477 Y68.904 E0.065
G1 X111.745 Y68.509 E.065
G1 X68.255 Y68.509 E1.59091
G1 F2398.623
G1 X67.361 Y68.61 E.03293
G1 X65.758 Y69.386 E0.06515
M107
G1 X66.083 Y69.665 F360000
M107
G1 F2399.839
G1 X65.052 Y70.867 E.05793
G1 X64.657 Y72.505 E0.06163
G1 X64.657 Y77.504 Z.24 E.18286
G1 X64.657 Y82.503 Z.24 E.18286
G1 X64.657 Y87.501 Z.24 E.18286
G1 X64.657 Y92.5 Z.24 E.18286
G1 X64.657 Y97.499 Z.24 E.18286
G1 X64.657 Y102.497 Z.24 E.18286
G1 X64.657 Y107.496 Z.24 E.18286
G1 F2400
G1 X64.657 Y112.495 Z.24 E.18286
G1 F2399.153
G1 X65.338 Y114.601 E.08099
G1 X66.617 Y115.698 E0.06163
G1 X68.255 Y116.093 E.06163
G1 X73.087 Y116.093 Z.24 E.17677
G1 X77.919 Y116.093 Z.24 E.17677
G1 X82.752 Y116.093 Z.24 E.17677
G1 X87.584 Y116.093 Z.24 E.17677
G1 X92.416 Y116.093 Z.24 E.17677
G1 X97.248 Y116.093 Z.24 E.17677
G1 X102.081 Y116.093 Z.24 E.17677
G1 X106.913 Y116.093 Z.24 E.17677
G1 F2400
G1 X111.745 Y116.093 Z.24 E.17677
G1 F2399.151
G1 X113.851 Y115.412 E.08099
G1 X114.948 Y114.133 E0.06163
G1 X115.343 Y112.495 E.06163
G1 X115.343 Y107.496 Z.24 E.18286
G1 X115.343 Y102.497 Z.24 E.18286
G1 X115.343 Y97.499 Z.24 E.18286
G1 X115.343 Y92.5 Z.24 E.18286
G1 X115.343 Y87.501 Z.24 E.18286
G1 X115.343 Y82.503 Z.24 E.18286
G1 X115.343 Y77.504 Z.24 E.18286
G1 F2400
G1 X115.343 Y72.505 Z.24 E.18286
G1 F2399.153
G1 X114.662 Y70.399 E.08099
G1 X113.383 Y69.302 E0.06163
G1 X111.745 Y68.907 E.06163
G1 X106.913 Y68.907 Z.24 E.17677
G1 X102.081 Y68.907 Z.24 E.17677
G1 X97.248 Y68.907 Z.24 E.17677
G1 X92.416 Y68.907 Z.24 E.17677
G1 X87.584 Y68.907 Z.24 E.17677
G1 X82.752 Y68.907 Z.24 E.17677
G1 X77.919 Y68.907 Z.24 E.17677
G1 X73.087 Y68.907 Z.24 E.17677
G1 F2400
G1 X68.255 Y68.907 Z.24 E.17677
G1 F2373.804
G1 X66.149 Y69.588 E.08099
G1 X66.122 Y69.62 E0.0015
M107
G1 X66.436 Y69.913 F360000
M107
G1 F2366.542
G1 X65.45 Y70.967 E.05281
G1 F2393.047
G1 X65.056 Y72.505 E.05806
G1 F2399.277
G1 X65.056 Y77.504 Z.24 E.18286
G1 X65.056 Y82.503 Z.24 E.18286
G1 X65.056 Y87.501 Z.24 E.18286
G1 X65.056 Y92.5 Z.24 E.18286
G1 X65.056 Y97.499 Z.24 E.18286
G1 X65.056 Y102.497 Z.24 E.18286
G1 X65.056 Y107.496 Z.24 E.18286
G1 F2400
G1 X65.056 Y112.495 Z.24 E.18286
G1 F2399.793
G1 X65.558 Y114.216 E.06559
G1 X66.717 Y115.3 E.05806
G1 X68.255 Y115.694 E0.05806
G1 X73.087 Y115.694 Z.24 E.17677
G1 X77.919 Y115.694 Z.24 E.17677
G1 X82.752 Y115.694 Z.24 E.17677
G1 X87.584 Y115.694 Z.24 E.17677
G1 X92.416 Y115.694 Z.24 E.17677
G1 X97.248 Y115.694 Z.24 E.17677
G1 X102.081 Y115.694 Z.24 E.17677
G1 X106.913 Y115.694 Z.24 E.17677
G1 F2400
G1 X111.745 Y115.694 Z.24 E.17677
G1 F2399.791
G1 X113.466 Y115.192 E.06559
G1 X114.55 Y114.033 E.05806
G1 X114.944 Y112.495 E0.05806
G1 X114.944 Y107.496 Z.24 E.18286
G1 X114.944 Y102.497 Z.24 E.18286
G1 X114.944 Y97.499 Z.24 E.18286
G1 X114.944 Y92.5 Z.24 E.18286
G1 X114.944 Y87.501 Z.24 E.18286
G1 X114.944 Y82.503 Z.24 E.18286
G1 X114.944 Y77.504 Z.24 E.18286
G1 F2400
G1 X114.944 Y72.505 Z.24 E.18286
G1 F2399.793
G1 X114.442 Y70.784 E.06559
G1 X113.283 Y69.7 E.05806
G1 X111.745 Y69.306 E0.05806
G1 X106.913 Y69.306 Z.24 E.17677
G1 X102.081 Y69.306 Z.24 E.17677
G1 X97.248 Y69.306 Z.24 E.17677
G1 X92.416 Y69.306 Z.24 E.17677
G1 X87.584 Y69.306 Z.24 E.17677
G1 X82.752 Y69.306 Z.24 E.17677
G1 X77.919 Y69.306 Z.24 E.17677
G1 X73.087 Y69.306 Z.24 E.17677
G1 F2400
G1 X68.255 Y69.306 Z.24 E.17677
G1 F2399.81
G1 X66.534 Y69.808 E.06559
G1 F2397.316
G1 X66.477 Y69.869 E.00306
M107
;WIPE_START
G1 F288000
G1 X66.534 Y69.808 E-0.00099
G1 X68.255 Y69.306 E-0.02129
G1 X111.745 Y69.306 E-0.51644
G1 X113.283 Y69.7 E-0.01885
G1 X114.442 Y70.784 E-0.01885
G1 X114.944 Y72.505 E-0.02129
G1 X114.944 Y102.171 E-0.35228
;WIPE_END
G1 E-0.05 F3600
; printing object Ender3 linear rail bed bracket_Part 1__Main_2024-05-31 18-27-54.stl id:0 copy 0
EXCLUDE_OBJECT_START NAME=Ender3_linear_rail_bed_bracket_Part_1__Main_2024_05_31_18_27_54_stl_id_0_copy_0
G1 X68.555 Y77.445 F360000
G1 E1 F3600
;TYPE:External perimeter
;WIDTH:0.599999
M107
G1 F2400
G1 X71.781 Y77.445 E0.16242
G1 X71.945 Y77.5 E0.00873
G1 X72.051 Y77.67 E0.01006
G1 X72.055 Y78.677 E0.05071
G1 X72.055 Y87.281 E0.43321
G1 X71.991 Y87.457 E0.00945
G1 X71.84 Y87.549 E0.00888
G1 X71.781 Y87.555 E0.003
G1 X68.555 Y87.555 E0.16242
G1 X68.555 Y97.445 E0.49797
G1 X71.781 Y97.445 E0.16242
G1 X71.957 Y97.509 E0.00945
G1 X72.047 Y97.653 E0.00852
G1 X72.055 Y107.281 E0.48478
G1 X72 Y107.445 E0.00873
G1 X71.828 Y107.551 E0.01016
G1 X68.555 Y107.555 E0.16481
G1 X68.555 Y112.195 E0.23363
G1 X111.445 Y112.195 E2.15954
G1 X111.445 Y72.805 E1.98332
G1 X68.555 Y72.805 E2.15954
G1 X68.555 Y77.385 E0.23061
M107
;WIPE_START
M204 S1500
G1 X68.901 Y77.245 F360000
;WIPE_END
M204 S750
G1 X69.103 Y76.897
;TYPE:Internal perimeter
M107
G1 F2399.786
G1 X71.781 Y76.897 E.1348
G1 X72.048 Y76.941 E.01362
G1 F2389.409
G1 X72.274 Y77.061 E.01292
G1 X72.439 Y77.226 E0.01172
G1 F2394.821
G1 X72.59 Y77.571 E.01898
G1 F2399.999
G1 X72.603 Y78.677 E.05569
G1 X72.603 Y82.979 Z.24 E.21661
G1 X72.603 Y87.281 Z.24 E.2166
G1 X72.545 Y87.585 E.01558
G1 X72.357 Y87.868 E0.0171
G1 F2398.01
G1 X72.093 Y88.042 E.01594
G1 F2397.922
G1 X71.781 Y88.103 E.01603
G1 X69.103 Y88.103 E0.1348
G1 F2399.596
G1 X69.103 Y92.5 Z.24 E.22137
G1 X69.103 Y96.897 Z.24 E.22136
G1 X71.781 Y96.897 E0.1348
G1 F2396.407
G1 X72.093 Y96.958 E.01603
G1 F2398.924
G1 X72.358 Y97.133 E.01599
G1 X72.547 Y97.42 E0.01729
G1 F2393.725
G1 X72.603 Y97.719 E.01535
G1 X72.603 Y107.281 E0.48143
G1 F2394.794
G1 X72.54 Y107.597 E.01625
G1 F2391.095
G1 X72.439 Y107.774 E.01028
G1 X72.274 Y107.939 E0.01172
G1 F2392.714
G1 X71.923 Y108.091 E.01929
G1 F2399.9
G1 X69.103 Y108.103 E.14196
G1 X69.103 Y111.647 E0.17839
G1 X73.747 Y111.647 Z.24 E.23381
G1 X78.391 Y111.647 Z.24 E.23381
G1 X83.034 Y111.647 Z.24 E.23381
G1 X87.678 Y111.647 Z.24 E.23381
G1 X92.322 Y111.647 Z.24 E.23381
G1 X96.966 Y111.647 Z.24 E.23381
G1 X101.609 Y111.647 Z.24 E.23381
G1 X106.253 Y111.647 Z.24 E.23381
G1 X110.897 Y111.647 Z.24 E.23381
G1 X110.897 Y73.353 E1.92808
G1 X106.253 Y73.353 Z.24 E.23381
G1 X101.609 Y73.353 Z.24 E.23381
G1 X96.966 Y73.353 Z.24 E.23381
G1 X92.322 Y73.353 Z.24 E.23381
G1 X87.678 Y73.353 Z.24 E.23381
G1 X83.034 Y73.353 Z.24 E.23381
G1 X78.391 Y73.353 Z.24 E.23381
G1 X73.747 Y73.353 Z.24 E.23381
G1 X69.103 Y73.353 Z.24 E.23381
G1 X69.103 Y76.837 E0.17537
M107
G1 X69.652 Y76.348 F360000
M107
G1 F2399.807
G1 X71.781 Y76.348 E.10718
G1 F2396.408
G1 X72.225 Y76.422 E.0227
G1 X72.603 Y76.622 E.02154
G1 X72.878 Y76.897 E0.01953
G1 F2395.021
G1 X73.047 Y77.192 E.01713
G1 F2399.187
G1 X73.13 Y77.472 E.01471
G1 X73.152 Y78.677 E0.06068
G1 X73.152 Y82.979 Z.24 E.21661
G1 F2400
G1 X73.152 Y87.281 Z.24 E.2166
G1 F2398.977
G1 X73.101 Y87.651 E.01882
G1 F2396.248
G1 X72.907 Y88.063 E.02295
G1 X72.662 Y88.331 E0.01824
G1 F2395.095
G1 X72.301 Y88.549 E.02125
G1 X72.077 Y88.62 E0.01183
G1 F2396.43
G1 X71.781 Y88.652 E.01501
G1 X69.652 Y88.652 E0.10718
G1 F2399.654
G1 X69.652 Y92.5 Z.24 E.19375
G1 X69.652 Y96.348 Z.24 E.19375
G1 X71.781 Y96.348 E0.10718
G1 F2395.68
G1 X72.077 Y96.38 E.01501
G1 X72.445 Y96.519 E0.01979
G1 F2396.929
G1 X72.743 Y96.742 E.01875
G1 X72.993 Y97.079 E0.02111
G1 F2399.071
G1 X73.111 Y97.386 E.01656
G1 F2397.464
G1 X73.152 Y97.719 E.01691
G1 X73.152 Y107.281 E0.48143
G1 X73.13 Y107.528 E.0125
G1 F2399.64
G1 X73.047 Y107.808 E.01471
G1 F2395.021
G1 X72.878 Y108.103 E.01713
G1 X72.603 Y108.378 E0.01953
G1 F2396.387
G1 X72.225 Y108.578 E.02154
G1 X71.781 Y108.652 E.0227
G1 X69.652 Y108.652 E0.10718
G1 F2399.761
G1 X69.652 Y111.098 E.12316
G1 X110.348 Y111.098 E2.04907
G1 X110.348 Y106.449 Z.24 E.2341
G1 X110.348 Y101.799 Z.24 E.23411
G1 X110.348 Y97.149 Z.24 E.23411
G1 X110.348 Y92.5 Z.24 E.2341
G1 X110.348 Y87.851 Z.24 E.2341
G1 X110.348 Y83.201 Z.24 E.23411
G1 X110.348 Y78.551 Z.24 E.23411
G1 X110.348 Y73.902 Z.24 E.2341
G1 X69.652 Y73.902 E2.04907
G1 X69.652 Y76.288 E.12014
M107
G1 X70.2 Y75.8 F360000
M107
G1 F2400
G1 X71.781 Y75.8 E0.07957
G1 F2395.632
G1 X72.403 Y75.903 E.03178
G1 X72.933 Y76.183 E0.03015
G1 F2398.385
G1 X73.317 Y76.567 E.02734
G1 X73.553 Y76.981 E0.02398
G1 X73.669 Y77.373 E.02059
G1 X73.7 Y78.677 E0.06567
G1 F2399.875
G1 X73.7 Y82.979 Z.24 E.21661
G1 F2400
G1 X73.7 Y87.281 Z.24 E.2166
G1 F2398.677
G1 X73.629 Y87.799 E.02635
G1 F2397.761
G1 X73.463 Y88.205 E.0221
G1 X73.156 Y88.62 E0.02596
G1 X72.71 Y88.96 E.02825
G1 F2399.063
G1 X72.196 Y89.155 E.0277
G1 X71.781 Y89.2 E.02102
G1 X70.2 Y89.2 E0.07957
G1 X70.2 Y92.5 Z.24 E.16614
G1 X70.2 Y95.8 Z.24 E.16613
G1 X71.781 Y95.8 E0.07957
G1 X72.196 Y95.845 E.02102
G1 F2398.855
G1 X72.71 Y96.04 E.0277
G1 X73.126 Y96.35 E.02613
G1 X73.382 Y96.66 E0.02023
G1 F2396.715
G1 X73.569 Y97.02 E.02045
G1 F2399.408
G1 X73.689 Y97.513 E.02556
G1 X73.7 Y107.281 E0.49179
G1 X73.669 Y107.627 E.0175
G1 F2398.119
G1 X73.553 Y108.019 E.0206
G1 X73.317 Y108.433 E0.02398
G1 X72.933 Y108.817 E.02734
G1 X72.403 Y109.097 E0.03015
G1 X72.112 Y109.172 E.01513
G1 X70.2 Y109.2 E.09628
G1 X70.2 Y110.55 E0.06792
G1 X75.15 Y110.55 Z.24 E.24923
G1 X80.1 Y110.55 Z.24 E.24923
G1 X85.05 Y110.55 Z.24 E.24923
G1 X90 Y110.55 Z.24 E.24923
G1 F2399.139
G1 X94.95 Y110.55 Z.24 E.24924
G1 X99.9 Y110.55 Z.24 E.24923
G1 X104.85 Y110.55 Z.24 E.24923
G1 X109.8 Y110.55 Z.24 E.24923
G1 X109.8 Y74.45 E1.81761
G1 F2360.523
G1 X104.85 Y74.45 Z.24 E.24923
G1 F2281.591
G1 X99.9 Y74.45 Z.24 E.24923
G1 F2202.658
G1 X94.95 Y74.45 Z.24 E.24923
G1 F2123.726
G1 X90 Y74.45 Z.24 E.24924
G1 F2044.793
G1 X85.05 Y74.45 Z.24 E.24923
G1 F1965.86
G1 X80.1 Y74.45 Z.24 E.24923
G1 F1886.928
G1 X75.15 Y74.45 Z.24 E.24923
G1 F1768.529
G1 X70.2 Y74.45 Z.24 E.24923
G1 F1761.03
G1 X70.2 Y75.74 E.0649
M107
G1 X70.675 Y75.325 F360000
;WIDTH:0.451772
M107
G1 F2400
G1 X71.781 Y75.325 E0.04063
G1 F2399.391
G1 X72.175 Y75.373 E.01459
M107
;WIDTH:0.523835
M107
G1 F2037.017
G1 X72.569 Y75.42 E.01721
G1 F2045.67
G1 X72.915 Y75.583 E.01658
M107
;WIDTH:0.599999
M107
G1 F1769.06
G1 X73.262 Y75.745 E.01926
G1 F1771.91
G1 X73.755 Y76.238 E.03515
G1 F1784.359
G1 X74.059 Y76.77 E.03083
G1 F1790.714
G1 X74.209 Y77.274 E.02648
G1 F1797.559
G1 X74.249 Y77.719 E.0225
G1 F1835.579
G1 X74.249 Y82.5 Z.24 E.24072
G1 F1939.407
G1 X74.249 Y87.281 Z.24 E.24072
G1 F1938.901
G1 X74.218 Y87.672 E.01978
G1 F1949.801
G1 X74.074 Y88.192 E.02716
G1 F1957.273
G1 X73.807 Y88.689 E.02841
G1 F1963.579
G1 X73.511 Y89.041 E.02318
G1 F1974.937
G1 X73.191 Y89.306 E.02089
G1 F1977.011
G1 X72.718 Y89.564 E.02716
G1 F1989.486
G1 X72.314 Y89.691 E.02129
G1 F1992.091
G1 X71.781 Y89.749 E.02702
G1 F2006.799
G1 X70.749 Y89.749 E.05195
G1 F2014.789
G1 X70.749 Y92.5 Z.24 E.13852
G1 F2016.277
G1 X70.749 Y95.251 Z.24 E.13851
G1 F2008.777
G1 X71.781 Y95.251 E.05195
G1 F1994.054
G1 X72.314 Y95.309 E.02702
G1 F1988.801
G1 X72.976 Y95.56 E.03561
G1 F1977.162
G1 X73.368 Y95.829 E.02394
G1 F1969.57
G1 X73.671 Y96.133 E.02162
G1 F1960.815
G1 X73.963 Y96.566 E.02633
G1 F1955.623
G1 X74.175 Y97.119 E.02981
G1 F1946.154
G1 X74.249 Y97.719 E.03043
G1 F1906.693
G1 X74.249 Y102.5 Z.24 E.24072
G1 F1802.761
G1 X74.249 Y107.281 Z.24 E.24072
G1 F1799.347
G1 X74.209 Y107.726 E.0225
G1 F1792.496
G1 X74.059 Y108.23 E.02648
G1 F1786.135
G1 X73.755 Y108.762 E.03083
G1 F1773.673
G1 X73.262 Y109.255 E.03515
G1 F1767.48
G1 X72.581 Y109.616 E.03877
G1 F1758.102
G1 X72.381 Y109.63 E.0101
M107
;WIDTH:0.55059
M107
G1 F1929.203
G1 X72.181 Y109.645 E.00919
M107
;WIDTH:0.501181
M107
G1 F2138.725
G1 X71.981 Y109.66 E.00828
M107
;WIDTH:0.451772
M107
G1 F2399.577
G1 X71.781 Y109.675 E.00737
G1 X70.675 Y109.675 E0.04063
G1 F2397.309
G1 X70.675 Y110.075 E.01471
G1 F2399.968
G1 X71.781 Y110.075 E.04063
G1 X72.336 Y110.049 E0.02041
M107
;WIDTH:0.514286
M107
G1 F2070.559
G1 X72.439 Y110.033 E.00444
M107
;WIDTH:0.557143
M107
G1 F1896.329
