; generated by SuperSlicer 2.5.59.10 on 2024-05-27 at 04:11:54 UTC


;
;

;
;
; 

; external perimeters extrusion width = 0.60mm
; perimeters extrusion width = 0.60mm
; infill extrusion width = 0.60mm
; solid infill extrusion width = 0.60mm
; top infill extrusion width = 0.60mm
; first layer extrusion width = 0.60mm

; object:{"name":"Ender3 y - bumper 4040_Y-Bumpstop__Main_2024-05-26 22-47-23","id":"Ender3 y - bumper 4040_Y-Bumpstop__Main_2024-05-26 22-47-23.stl id:0 copy 0","object_center":[90.000000,92.500000,0.000000],"boundingbox_center":[90.000000,92.500000,3.250002],"boundingbox_size":[10.000000,42.500000,6.500004]}
EXCLUDE_OBJECT_DEFINE NAME=Ender3_y_bumper_4040_Y_Bumpstop__Main_2024_05_26_22_47_23_stl_id_0_copy_0 CENTER=90.000000,92.500000 POLYGON=[[85.00,71.25],[95.00,71.25],[95.00,113.75],[85.00,113.75],[85.00,71.25]]
; plater:{"center":[90.000000,92.500000,0.000000],"boundingbox_center":[90.000000,92.500000,3.250002],"boundingbox_size":[10.000000,42.500000,6.500004]}

M107
;TYPE:Custom
START_PRINT EXTRUDER=270 BED=105
M107
G21 ; set units to millimeters
G90 ; use absolute coordinates
M83 ; use relative distances for extrusion
; Filament gcode
FILAMENT_START MATERIAL=ASA COLOR=#368900 VENDOR=123-3D
SET_PRESSURE_ADVANCE ADVANCE=0.062
M104 S270 ; set temperature
M109 S270 ; set temperature and wait for it to be reached
M190 S105 ; set bed temperature and wait for it to be reached
;LAYER_CHANGE
;Z:0.24
;HEIGHT:0.24
G1 E-1 F3600
G1 Z0.24 F102000
G92 E0
M204 S750
G1 X81.797 Y69.612
G1 E1 F3600
;TYPE:Skirt
;WIDTH:0.45
M107
G1 F2400
G1 X81.402 Y71.25 E0.06498
G1 F2399.748
G1 X81.402 Y75.972 Z.24 E.18213
G1 X81.402 Y80.694 Z.24 E.18213
G1 X81.402 Y85.417 Z.24 E.18213
G1 X81.402 Y90.139 Z.24 E.18213
G1 X81.402 Y94.861 Z.24 E.18213
G1 X81.402 Y99.583 Z.24 E.18213
G1 X81.402 Y104.306 Z.24 E.18213
G1 X81.402 Y109.028 Z.24 E.18213
G1 F2400
G1 X81.402 Y113.75 Z.24 E.18213
G1 F2399.204
G1 X82.083 Y115.856 E.08539
G1 X83.362 Y116.953 E0.06498
G1 X85 Y117.348 E.06498
G1 X90 Y117.348 Z.24 E.19285
G1 F2400
G1 X95 Y117.348 Z.24 E.19284
G1 F2399.198
G1 X97.106 Y116.667 E.08539
G1 X98.203 Y115.388 E0.06498
G1 X98.598 Y113.75 E.06498
G1 X98.598 Y109.028 Z.24 E.18213
G1 X98.598 Y104.306 Z.24 E.18213
G1 X98.598 Y99.583 Z.24 E.18213
G1 X98.598 Y94.861 Z.24 E.18213
G1 X98.598 Y90.139 Z.24 E.18213
G1 X98.598 Y85.417 Z.24 E.18213
G1 X98.598 Y80.694 Z.24 E.18213
G1 X98.598 Y75.972 Z.24 E.18213
G1 F2400
G1 X98.598 Y71.25 Z.24 E.18213
G1 F2399.204
G1 X97.917 Y69.144 E.08539
G1 X96.638 Y68.047 E0.06498
G1 X95 Y67.652 E.06498
G1 X90 Y67.652 Z.24 E.19285
G1 F2400
G1 X85 Y67.652 Z.24 E.19284
G1 F2398.75
G1 X82.894 Y68.333 E.08539
G1 X81.836 Y69.567 E0.06266
M107
G1 X82.195 Y69.712 F102000
M107
G1 F2399.669
G1 X81.801 Y71.25 E.06122
G1 X81.801 Y75.972 Z.24 E.18213
G1 X81.801 Y80.694 Z.24 E.18213
G1 X81.801 Y85.417 Z.24 E.18213
G1 X81.801 Y90.139 Z.24 E.18213
G1 X81.801 Y94.861 Z.24 E.18213
G1 X81.801 Y99.583 Z.24 E.18213
G1 X81.801 Y104.306 Z.24 E.18213
G1 X81.801 Y109.028 Z.24 E.18213
G1 F2400
G1 X81.801 Y113.75 Z.24 E.18213
G1 F2399.708
G1 X82.303 Y115.471 E.06916
G1 X83.462 Y116.555 E.06122
G1 X85 Y116.949 E0.06122
G1 X90 Y116.949 Z.24 E.19284
G1 F2400
G1 X95 Y116.949 Z.24 E.19285
G1 F2399.686
G1 X96.721 Y116.447 E.06916
G1 X97.805 Y115.288 E.06122
G1 X98.199 Y113.75 E0.06122
G1 X98.199 Y109.028 Z.24 E.18213
G1 X98.199 Y104.306 Z.24 E.18213
G1 X98.199 Y99.583 Z.24 E.18213
G1 X98.199 Y94.861 Z.24 E.18213
G1 X98.199 Y90.139 Z.24 E.18213
G1 X98.199 Y85.417 Z.24 E.18213
G1 X98.199 Y80.694 Z.24 E.18213
G1 X98.199 Y75.972 Z.24 E.18213
G1 F2400
G1 X98.199 Y71.25 Z.24 E.18213
G1 F2399.691
G1 X97.697 Y69.529 E.06916
G1 X96.538 Y68.445 E.06122
G1 X95 Y68.051 E0.06122
G1 X90 Y68.051 Z.24 E.19284
G1 F2400
G1 X85 Y68.051 Z.24 E.19285
G1 F2398.785
G1 X83.279 Y68.553 E.06916
G1 X82.235 Y69.669 E0.05891
M107
G1 X80.938 Y68.928 F102000
;WIDTH:0.6
M107
G1 F1741.849
G1 X81.122 Y68.605 E.01978
G1 F1760.104
G1 X81.977 Y67.676 E.06702
G1 F1781.805
G1 X82.906 Y67.047 E.05952
G1 F1794.505
G1 X83.516 Y66.797 E.03503
G1 F1809.967
G1 X84.152 Y66.632 E.03484
G1 F1850.07
G1 X88.027 Y66.629 Z.24 E.20572
G1 F1923.016
G1 X91.902 Y66.626 Z.24 E.20572
G1 F2032.435
G1 X95.777 Y66.623 Z.24 E.20572
G1 F2040.128
G1 X96.57 Y66.827 E.04348
G1 F2057.969
G1 X97.313 Y67.163 E.04327
G1 F2071.864
G1 X97.971 Y67.633 E.04296
G1 F2091.118
G1 X98.602 Y68.258 E.04714
G1 F2108.837
G1 X99.088 Y68.943 E.04458
G1 F2126.978
G1 X99.445 Y69.737 E.0462
G1 F2145.621
G1 X99.662 Y70.811 E.0582
G1 F2171.773
G1 X99.662 Y75.627 Z.24 E.25569
G1 F2198.623
G1 X99.662 Y80.444 Z.24 E.25569
G1 F2225.473
G1 X99.662 Y85.26 Z.24 E.25569
G1 F2252.323
G1 X99.662 Y90.077 Z.24 E.25569
G1 F2279.174
G1 X99.662 Y94.893 Z.24 E.25569
G1 F2306.024
G1 X99.662 Y99.71 Z.24 E.25569
G1 F2332.874
G1 X99.662 Y104.526 Z.24 E.25569
G1 F2359.725
G1 X99.662 Y109.343 Z.24 E.25569
G1 F2400
G1 X99.662 Y114.159 Z.24 E.25569
G1 F2399.892
G1 X99.571 Y114.826 E.03574
G1 X99.243 Y115.755 E.05232
G1 F2398.657
G1 X98.878 Y116.395 E.03914
G1 F2399.301
G1 X98.023 Y117.324 E.06702
G1 X97.094 Y117.953 E0.05952
G1 F2395.669
G1 X96.484 Y118.203 E.03503
G1 X95.849 Y118.367 E0.03478
G1 F2397.836
G1 X92.098 Y118.382 Z.24 E.19915
G1 F2398.702
G1 X88.346 Y118.397 Z.24 E.19915
G1 F2400
G1 X84.595 Y118.412 Z.24 E.19915
G1 F2398.058
G1 X83.925 Y118.321 E.03592
G1 X82.995 Y117.993 E0.05234
G1 F2396.988
G1 X82.355 Y117.628 E.03914
G1 X81.425 Y116.772 E0.06704
G1 X80.787 Y115.825 E.06066
G1 X80.478 Y115.009 E0.04628
G1 F2398.933
G1 X80.338 Y114.181 E.04458
G1 X80.338 Y70.841 E2.30081
G1 F2399.915
G1 X80.429 Y70.174 E.03574
G1 F2397.678
G1 X80.757 Y69.245 E.05232
G1 X80.908 Y68.98 E0.01617
M107
G1 X81.381 Y69.254 F102000
M107
G1 F2398.71
G1 X81.582 Y68.906 E.02133
G1 F2399.84
G1 X82.358 Y68.072 E.06047
G1 F2398.565
G1 X83.141 Y67.543 E.05019
G1 X83.672 Y67.323 E0.03051
G1 F2399.143
G1 X84.255 Y67.172 E.03198
G1 X95.676 Y67.164 E0.60629
G1 X96.366 Y67.337 E.03777
G1 F2398.637
G1 X97.061 Y67.651 E.0405
G1 X97.632 Y68.065 E0.03742
G1 F2396.641
G1 X98.197 Y68.629 E.04241
G1 X98.623 Y69.237 E0.03938
G1 F2397.807
G1 X98.932 Y69.931 E.04035
G1 F2399.957
G1 X99.114 Y70.838 E.04911
G1 X99.114 Y114.14 E2.29873
G1 F2396.304
G1 X99.032 Y114.721 E.03119
G1 X98.735 Y115.546 E0.04653
G1 F2399.84
G1 X98.418 Y116.094 E.0336
G1 X97.642 Y116.928 E.06047
G1 F2398.565
G1 X96.859 Y117.457 E.05019
G1 X96.328 Y117.677 E.03051
G1 X95.745 Y117.828 E0.03194
G1 X92.034 Y117.84 Z.24 E.197
G1 X88.324 Y117.852 Z.24 E.197
G1 F2400
G1 X84.613 Y117.864 Z.24 E.197
G1 F2399.647
G1 X84.029 Y117.782 E.03131
G1 X83.204 Y117.485 E.04654
G1 X82.656 Y117.168 E0.0336
G1 X81.822 Y116.392 E.06047
G1 F2396.88
G1 X81.288 Y115.599 E.05079
G1 X81.014 Y114.888 E0.04041
G1 X80.886 Y114.158 E.03938
G1 X80.886 Y70.86 E2.29853
G1 X80.968 Y70.279 E.03119
G1 X81.265 Y69.454 E0.04653
G1 F2398.173
G1 X81.351 Y69.306 E.00909
M107
G1 X81.821 Y69.582 F102000
M107
G1 F2400
G1 X82.039 Y69.21 E0.02288
G1 F2399.645
G1 X82.736 Y68.47 E.05396
G1 F2397.201
G1 X83.376 Y68.039 E.04098
G1 X83.864 Y67.837 E0.028
G1 F2395.637
G1 X84.357 Y67.712 E.02703
G1 X95.578 Y67.704 E0.59569
G1 F2398.99
G1 X96.163 Y67.847 E.03198
G1 X96.809 Y68.14 E.03765
G1 X97.26 Y68.468 E0.02957
G1 F2397.421
G1 X97.792 Y69 E.03997
G1 F2399.743
G1 X98.157 Y69.527 E.03405
G1 X98.417 Y70.123 E.03453
G1 X98.565 Y70.865 E.04017
G1 X98.565 Y114.12 E2.29625
G1 F2396.866
G1 X98.493 Y114.614 E.02653
G1 X98.229 Y115.334 E0.04069
G1 F2399.726
G1 X97.961 Y115.79 E.02807
G1 X97.264 Y116.53 E.05396
G1 F2397.201
G1 X96.624 Y116.961 E.04098
G1 X96.136 Y117.163 E0.028
G1 F2398.352
G1 X95.643 Y117.288 E.027
G1 F2399.75
G1 X91.973 Y117.297 Z.24 E.19486
G1 X88.302 Y117.306 Z.24 E.19486
G1 X84.632 Y117.315 Z.24 E.19486
G1 X84.136 Y117.243 E0.0266
G1 X83.416 Y116.979 E.0407
G1 X82.96 Y116.711 E0.02807
G1 X82.22 Y116.014 E.05396
G1 X81.787 Y115.37 E0.04119
G1 X81.549 Y114.764 E.03456
G1 X81.435 Y114.133 E.03405
G1 X81.435 Y70.88 E2.29618
G1 F2396.886
G1 X81.507 Y70.386 E.02653
G1 F2399.424
G1 X81.771 Y69.666 E.04069
G1 F2355.573
G1 X81.79 Y69.634 E.00201
M107
G1 X82.276 Y69.883 F102000
M107
G1 F2400
G1 X82.494 Y69.518 E0.02254
G1 F2396.16
G1 X83.112 Y68.871 E.04753
G1 X83.611 Y68.535 E0.03192
G1 F2398.152
G1 X84.054 Y68.352 E.02546
G1 F2399.909
G1 X84.456 Y68.253 E.02198
G1 X95.544 Y68.253 E0.58863
G1 F2398.782
G1 X95.959 Y68.357 E.02272
G1 X96.557 Y68.627 E0.03482
G1 F2397.882
G1 X96.886 Y68.87 E.02172
G1 X97.386 Y69.37 E0.03751
G1 X97.689 Y69.814 E.02856
G1 F2399.167
G1 X97.901 Y70.312 E.02875
G1 X98.017 Y70.892 E0.0314
G1 X98.017 Y75.693 Z.24 E.25486
G1 X98.017 Y80.494 Z.24 E.25486
G1 X98.017 Y85.294 Z.24 E.25486
G1 F2398.663
G1 X98.017 Y90.095 Z.24 E.25486
G1 X98.017 Y94.896 Z.24 E.25486
G1 F2397.96
G1 X98.017 Y99.697 Z.24 E.25486
G1 X98.017 Y104.497 Z.24 E.25486
G1 X98.017 Y109.298 Z.24 E.25486
G1 F2396.729
G1 X98.017 Y114.099 Z.24 E.25486
G1 X97.955 Y114.504 E0.02172
G1 F2393.768
G1 X97.724 Y115.117 E.03482
G1 X97.506 Y115.482 E0.02254
G1 F2396.237
G1 X96.888 Y116.129 E.04753
G1 X96.389 Y116.465 E0.03192
G1 F2397.183
G1 X95.946 Y116.648 E.02546
G1 X95.544 Y116.747 E0.02196
G1 F2398.365
G1 X91.913 Y116.754 Z.24 E.19275
G1 F2399.019
G1 X88.283 Y116.76 Z.24 E.19275
G1 F2400
G1 X84.652 Y116.767 Z.24 E.19275
G1 F2399.76
G1 X84.247 Y116.705 E.02175
G1 F2398.643
G1 X83.633 Y116.474 E.03482
G1 X83.268 Y116.256 E0.02254
G1 F2396.237
G1 X82.621 Y115.638 E.04753
G1 F2399.859
G1 X82.285 Y115.139 E.03192
G1 X82.083 Y114.636 E0.02876
G1 F2396.58
G1 X81.983 Y114.108 E.02856
G1 F2399.818
G1 X81.983 Y109.307 Z.24 E.25486
G1 X81.983 Y104.506 Z.24 E.25486
G1 X81.983 Y99.706 Z.24 E.25486
G1 F2398.728
G1 X81.983 Y94.905 Z.24 E.25486
G1 X81.983 Y90.104 Z.24 E.25486
G1 X81.983 Y85.303 Z.24 E.25486
G1 F2397.638
G1 X81.983 Y80.503 Z.24 E.25486
G1 X81.983 Y75.702 Z.24 E.25486
G1 F2396.729
G1 X81.983 Y70.901 Z.24 E.25486
G1 X82.045 Y70.496 E0.02172
G1 F2395.971
G1 X82.255 Y69.939 E.03163
M107
G1 X82.766 Y70.137 F102000
M107
G1 F2393.191
G1 X82.778 Y70.104 E.00187
G1 X82.946 Y69.831 E0.01701
G1 F2399.522
G1 X83.486 Y69.273 E.04122
G1 F2396.991
G1 X83.846 Y69.032 E.02302
G1 X84.244 Y68.867 E0.02286
G1 F2399.689
G1 X84.552 Y68.794 E.0168
G1 X88.184 Y68.794 Z.24 E.19281
G1 F2398.627
G1 X91.816 Y68.794 Z.24 E.19281
G1 F2397.767
G1 X95.448 Y68.794 Z.24 E.19281
G1 X95.761 Y68.869 E0.01707
G1 F2398.161
G1 X96.259 Y69.089 E.02892
G1 F2397.253
G1 X96.514 Y69.273 E.01672
G1 F2399.601
G1 X96.979 Y69.738 E.03492
G1 X97.218 Y70.096 E0.02285
G1 X97.384 Y70.497 E.02304
G1 X97.468 Y70.919 E.02285
G1 X97.468 Y75.714 Z.24 E.25457
G1 X97.468 Y80.51 Z.24 E.25457
G1 X97.468 Y85.305 Z.24 E.25457
G1 X97.468 Y90.1 Z.24 E.25457
G1 X97.468 Y94.896 Z.24 E.25457
G1 X97.468 Y99.691 Z.24 E.25457
G1 X97.468 Y104.486 Z.24 E.25457
G1 X97.468 Y109.282 Z.24 E.25457
G1 X97.468 Y114.077 Z.24 E.25457
G1 X97.418 Y114.388 E0.01672
G1 F2398.25
G1 X97.222 Y114.896 E.02892
G1 X97.054 Y115.169 E0.01701
G1 F2399.522
G1 X96.514 Y115.727 E.04122
G1 F2396.991
G1 X96.154 Y115.968 E.02302
G1 X95.756 Y116.133 E0.02286
G1 F2399.689
G1 X95.448 Y116.206 E.0168
G1 X91.856 Y116.21 Z.24 E.19067
G1 X88.265 Y116.214 Z.24 E.19067
G1 F2400
G1 X84.673 Y116.218 Z.24 E.19067
G1 F2399.229
G1 X84.362 Y116.168 E.01673
G1 F2398.95
G1 X83.854 Y115.972 E.02892
G1 X83.581 Y115.804 E0.01701
G1 F2399.522
G1 X83.023 Y115.264 E.04122
G1 F2397.616
G1 X82.782 Y114.904 E.02302
G1 X82.616 Y114.503 E0.02304
G1 F2399.21
G1 X82.532 Y114.081 E.02285
G1 X82.532 Y109.286 Z.24 E.25457
G1 X82.532 Y104.49 Z.24 E.25457
G1 X82.532 Y99.695 Z.24 E.25457
G1 X82.532 Y94.9 Z.24 E.25457
G1 X82.532 Y90.104 Z.24 E.25457
G1 X82.532 Y85.309 Z.24 E.25457
G1 X82.532 Y80.514 Z.24 E.25457
G1 X82.532 Y75.718 Z.24 E.25457
G1 X82.532 Y70.923 Z.24 E.25457
G1 X82.582 Y70.612 E0.01672
G1 F2396.974
G1 X82.744 Y70.193 E.02386
M107
G1 X83.252 Y70.396 F102000
M107
G1 F2400
G1 X83.278 Y70.331 E0.00371
G1 F2399.003
G1 X83.394 Y70.149 E.01145
G1 F2395.603
G1 X83.857 Y69.678 E.03509
G1 X84.081 Y69.528 E0.01429
G1 F2393.407
G1 X84.432 Y69.383 E.02018
G1 X84.643 Y69.336 E0.01145
G1 F2394.803
G1 X88.214 Y69.336 Z.24 E.1896
G1 X91.786 Y69.336 Z.24 E.18961
G1 X95.357 Y69.336 Z.24 E.1896
G1 X95.568 Y69.383 E0.01145
G1 F2391.86
G1 X95.966 Y69.554 E.02303
G1 X96.143 Y69.678 E0.01145
G1 F2393.48
G1 X96.572 Y70.107 E.03224
G1 X96.722 Y70.331 E0.01429
G1 F2395.53
G1 X96.867 Y70.682 E.02018
G1 X96.92 Y70.946 E0.01429
G1 F2399.271
G1 X96.92 Y75.736 Z.24 E.25427
G1 X96.92 Y80.526 Z.24 E.25427
G1 X96.92 Y85.315 Z.24 E.25427
G1 X96.92 Y90.105 Z.24 E.25427
G1 X96.92 Y94.895 Z.24 E.25427
G1 X96.92 Y99.685 Z.24 E.25427
G1 X96.92 Y104.474 Z.24 E.25427
G1 X96.92 Y109.264 Z.24 E.25427
G1 F2400
G1 X96.92 Y114.054 Z.24 E.25427
G1 F2393.801
G1 X96.883 Y114.266 E.01145
G1 F2399.875
G1 X96.722 Y114.669 E.02303
G1 X96.606 Y114.851 E0.01145
G1 F2395.603
G1 X96.143 Y115.322 E.03509
G1 X95.919 Y115.472 E0.01429
G1 F2393.407
G1 X95.568 Y115.617 E.02018
G1 X95.357 Y115.664 E0.01145
G1 F2395.796
G1 X91.803 Y115.666 Z.24 E.18865
G1 F2397.478
G1 X88.25 Y115.668 Z.24 E.18866
G1 F2400
G1 X84.696 Y115.67 Z.24 E.18865
G1 F2393.813
G1 X84.484 Y115.633 E.01145
G1 F2399.875
G1 X84.081 Y115.472 E.02303
G1 X83.899 Y115.356 E0.01145
G1 F2395.603
G1 X83.428 Y114.893 E.03509
G1 X83.278 Y114.669 E0.01429
G1 X83.133 Y114.318 E.02018
G1 X83.08 Y114.054 E0.01429
G1 F2399.271
G1 X83.08 Y109.264 Z.24 E.25427
G1 X83.08 Y104.474 Z.24 E.25427
G1 X83.08 Y99.685 Z.24 E.25427
G1 X83.08 Y94.895 Z.24 E.25427
G1 X83.08 Y90.105 Z.24 E.25427
G1 X83.08 Y85.315 Z.24 E.25427
G1 X83.08 Y80.526 Z.24 E.25427
G1 X83.08 Y75.736 Z.24 E.25427
G1 F2400
G1 X83.08 Y70.946 Z.24 E.25427
G1 F2394.324
G1 X83.117 Y70.734 E.01145
G1 F2399.526
G1 X83.23 Y70.452 E.01613
M107
G1 X83.735 Y70.661 F102000
M107
G1 F2400
G1 X83.775 Y70.566 E0.00547
G1 F2399.842
G1 X83.835 Y70.476 E.00574
G1 F2397.364
G1 X84.226 Y70.085 E.02938
G1 X84.316 Y70.025 E0.00574
G1 F2398.341
G1 X84.617 Y69.9 E.01732
G1 F2399.026
G1 X84.723 Y69.879 E.00574
G1 X95.277 Y69.879 E0.56025
G1 X95.383 Y69.9 E.00574
G1 F2398.341
G1 X95.684 Y70.025 E.01732
G1 X95.774 Y70.085 E0.00574
G1 F2397.364
G1 X96.165 Y70.476 E.02938
G1 X96.225 Y70.566 E0.00574
G1 F2398.341
G1 X96.35 Y70.867 E.01732
G1 F2399.083
G1 X96.371 Y70.973 E.00574
G1 X96.371 Y114.027 E2.28559
G1 X96.35 Y114.133 E.00574
G1 F2398.341
G1 X96.225 Y114.434 E.01732
G1 X96.165 Y114.524 E0.00574
G1 F2397.364
G1 X95.774 Y114.915 E.02938
G1 X95.684 Y114.975 E0.00574
G1 F2398.341
G1 X95.383 Y115.1 E.01732
G1 F2399.026
G1 X95.277 Y115.121 E.00574
G1 X84.723 Y115.121 E0.56025
G1 X84.617 Y115.1 E.00574
G1 F2398.341
G1 X84.316 Y114.975 E.01732
G1 X84.226 Y114.915 E0.00574
G1 F2397.364
G1 X83.835 Y114.524 E.02938
G1 X83.775 Y114.434 E0.00574
G1 F2398.341
G1 X83.65 Y114.133 E.01732
G1 F2399.083
G1 X83.629 Y114.027 E.00574
G1 X83.629 Y70.973 E2.28559
G1 F2398.958
G1 X83.65 Y70.867 E.00574
G1 X83.712 Y70.716 E0.00867
M107
G1 X84.219 Y70.926 F102000
M107
G1 F2387.436
G1 X84.261 Y70.826 E.00579
G1 X84.576 Y70.511 E0.02365
G1 F2396.662
G1 X84.777 Y70.427 E.01158
G1 X95.223 Y70.427 E0.55452
G1 X95.424 Y70.511 E.01158
G1 X95.739 Y70.826 E0.02364
G1 X95.823 Y71.027 E.01158
G1 X95.823 Y113.973 E2.27985
G1 X95.739 Y114.174 E.01158
G1 X95.424 Y114.489 E0.02365
G1 X95.223 Y114.573 E.01158
G1 X84.777 Y114.573 E0.55452
G1 X84.576 Y114.489 E.01158
G1 X84.261 Y114.174 E0.02364
G1 X84.177 Y113.973 E.01158
G1 X84.177 Y71.027 E2.27985
G1 F2385.571
G1 X84.196 Y70.982 E.00261
M107
G1 X84.726 Y71.136 F102000
M107
G1 F2391.352
G1 X84.886 Y70.976 E.01206
G1 X95.114 Y70.976 E0.54293
G1 F2390.781
G1 X95.274 Y71.136 E.01206
G1 X95.274 Y113.864 E2.26827
G1 X95.114 Y114.024 E.01206
G1 X84.886 Y114.024 E0.54293
G1 X84.726 Y113.864 E.01206
G1 F2399.861
G1 X84.726 Y109.123 Z.24 E.25168
G1 X84.726 Y104.382 Z.24 E.25167
G1 X84.726 Y99.641 Z.24 E.25168
G1 X84.726 Y94.9 Z.24 E.25168
G1 F2398.749
G1 X84.726 Y90.16 Z.24 E.25167
G1 X84.726 Y85.419 Z.24 E.25168
G1 X84.726 Y80.678 Z.24 E.25168
G1 F2397.915
G1 X84.726 Y75.937 Z.24 E.25167
G1 X84.726 Y71.196 Z.24 E.25168
M107
;WIPE_START
G1 F81600
