; generated by SuperSlicer 2.5.59.10 on 2024-05-27 at 21:18:51 UTC


;
;

;
;
; 

; external perimeters extrusion width = 0.60mm
; perimeters extrusion width = 0.60mm
; infill extrusion width = 0.60mm
; solid infill extrusion width = 0.60mm
; top infill extrusion width = 0.60mm
; first layer extrusion width = 0.60mm

; external perimeters extrusion width = 0.60mm
; perimeters extrusion width = 0.60mm
; infill extrusion width = 0.60mm
; solid infill extrusion width = 0.60mm
; top infill extrusion width = 0.60mm
; first layer extrusion width = 0.60mm

; object:{"name":"Ender3 y - bumper 4040_Y-Bumpstop__Main_2024-05-26 22-47-23","id":"Ender3 y - bumper 4040_Y-Bumpstop__Main_2024-05-26 22-47-23.stl id:0 copy 0","object_center":[114.253871,112.720037,0.000000],"boundingbox_center":[114.253871,112.720037,3.250002],"boundingbox_size":[10.000000,42.500000,6.500004]}
EXCLUDE_OBJECT_DEFINE NAME=Ender3_y_bumper_4040_Y_Bumpstop__Main_2024_05_26_22_47_23_stl_id_0_copy_0 CENTER=114.253871,112.720037 POLYGON=[[109.25,91.47],[119.25,91.47],[119.25,133.97],[109.25,133.97],[109.25,91.47]]
; object:{"name":"Eddy Mount_Part 1__Main_2024-05-27 15-52-00","id":"Eddy Mount_Part 1__Main_2024-05-27 15-52-00.stl id:1 copy 0","object_center":[83.878793,112.720036,0.000000],"boundingbox_center":[83.878793,112.720036,3.000000],"boundingbox_size":[40.749886,35.175406,6.000000]}
EXCLUDE_OBJECT_DEFINE NAME=Eddy_Mount_Part_1__Main_2024_05_27_15_52_00_stl_id_1_copy_0 CENTER=83.878793,112.720036 POLYGON=[[63.50,106.56],[63.51,106.39],[63.52,106.23],[63.54,106.07],[63.56,105.91],[63.59,105.75],[63.63,105.59],[63.68,105.43],[63.73,105.28],[63.79,105.12],[63.86,104.97],[63.93,104.83],[64.01,104.68],[64.09,104.54],[64.18,104.41],[64.28,104.27],[64.38,104.15],[64.49,104.02],[64.60,103.91],[64.72,103.79],[64.84,103.69],[64.97,103.58],[65.10,103.49],[65.24,103.40],[65.38,103.31],[65.52,103.23],[65.67,103.16],[65.82,103.09],[85.00,95.13],[103.00,95.13],[104.25,117.81],[104.25,117.96],[104.25,118.11],[104.24,118.26],[104.23,118.41],[104.21,118.56],[104.18,118.71],[104.14,118.86],[104.10,119.00],[104.06,119.15],[104.00,119.29],[103.94,119.43],[103.88,119.56],[103.81,119.70],[103.73,119.83],[103.65,119.95],[103.56,120.08],[103.47,120.20],[103.37,120.31],[103.27,120.42],[103.16,120.53],[103.05,120.63],[102.93,120.73],[102.81,120.82],[102.69,120.91],[102.56,120.99],[102.43,121.06],[102.29,121.13],[102.15,121.19],[102.01,121.25],[101.87,121.30],[101.73,121.35],[101.58,121.39],[68.22,130.18],[68.07,130.22],[67.91,130.25],[67.74,130.28],[67.58,130.29],[67.42,130.30],[67.25,130.31],[67.09,130.30],[66.93,130.29],[66.76,130.28],[66.60,130.25],[66.44,130.22],[66.28,130.18],[66.13,130.13],[65.97,130.08],[65.82,130.02],[65.67,129.96],[65.52,129.88],[65.38,129.81],[65.24,129.72],[65.10,129.63],[64.97,129.53],[64.84,129.43],[64.72,129.32],[64.60,129.21],[64.49,129.09],[64.38,128.97],[64.28,128.84],[64.18,128.71],[64.09,128.57],[64.01,128.43],[63.93,128.29],[63.86,128.14],[63.79,127.99],[63.73,127.84],[63.68,127.69],[63.63,127.53],[63.59,127.37],[63.56,127.21],[63.54,127.05],[63.52,126.88],[63.51,126.72],[63.50,126.56],[63.50,106.56]]
; plater:{"center":[91.378860,112.720037,0.000000],"boundingbox_center":[91.378860,112.720037,3.250002],"boundingbox_size":[55.750021,42.500000,6.500004]}

M107
;TYPE:Custom
START_PRINT EXTRUDER=270 BED=105
M107
G21 ; set units to millimeters
G90 ; use absolute coordinates
M83 ; use relative distances for extrusion
ACTIVATE_EXTRUDER EXTRUDER=extruder
; Filament gcode
FILAMENT_START MATERIAL=ASA COLOR=#368900 VENDOR=123-3D
;SET_PRESSURE_ADVANCE ADVANCE=0.062
SET_PRESSURE_ADVANCE ADVANCE=0.055
M104 S270 T0 ; set temperature
M109 S270 T0 ; set temperature and wait for it to be reached
M190 S105 ; set bed temperature and wait for it to be reached
;LAYER_CHANGE
;Z:0.24
;HEIGHT:0.24
G1 E-1 F3600
G1 Z0.24 F102000
G92 E0
M204 S750
G1 X62.907 Y100.636
G1 E1 F3600
;TYPE:Skirt
;WIDTH:0.45
M107
G1 F2398.7
G1 X62.23 Y101.201 E.03404
G1 X61.574 Y101.903 E0.03705
G1 X61.144 Y102.479 E.02774
G1 X60.701 Y103.242 E0.03403
G1 F2399.766
G1 X60.178 Y104.58 E.05541
G1 X59.924 Y106.074 E0.05844
G1 X59.922 Y110.218 Z.24 E.15982
G1 X59.92 Y114.362 Z.24 E.15982
G1 X59.918 Y118.505 Z.24 E.15982
G1 X59.916 Y122.649 Z.24 E.15982
G1 F2400
G1 X59.914 Y126.793 Z.24 E.15982
G1 F2399.953
G1 X60.05 Y127.994 E.04662
G1 F2398.44
G1 X60.324 Y128.989 E.03982
G1 X60.664 Y129.804 E0.03404
G1 F2397.633
G1 X61.287 Y130.839 E.04662
G1 X62.23 Y131.914 E0.05514
G1 F2398.004
G1 X62.907 Y132.48 E.03404
G1 X63.509 Y132.875 E0.02774
G1 F2395.234
G1 X64.292 Y133.28 E.03403
G1 X64.965 Y133.536 E0.02774
G1 F2398.259
G1 X66.451 Y133.86 E.05867
G1 F2399.993
G1 X71.172 Y134.27 Z.24 E.18278
G1 X75.893 Y134.681 Z.24 E.18278
G1 X80.615 Y135.091 Z.24 E.18278
G1 X85.336 Y135.502 Z.24 E.18278
G1 X90.057 Y135.912 Z.24 E.18278
G1 X94.778 Y136.323 Z.24 E.18278
G1 X99.5 Y136.733 Z.24 E.18278
G1 X104.221 Y137.144 Z.24 E.18278
G1 X108.942 Y137.554 Z.24 E.18278
G1 X119.254 Y137.568 E0.39771
G1 X121.36 Y136.887 E.08539
G1 X122.457 Y135.608 E0.06498
G1 X122.852 Y133.97 E.06498
G1 X122.852 Y129.248 Z.24 E.18213
G1 X122.852 Y124.526 Z.24 E.18213
G1 X122.852 Y119.803 Z.24 E.18213
G1 X122.852 Y115.081 Z.24 E.18213
G1 X122.852 Y110.359 Z.24 E.18213
G1 X122.852 Y105.637 Z.24 E.18213
G1 X122.852 Y100.914 Z.24 E.18213
G1 X122.852 Y96.192 Z.24 E.18213
G1 F2400
G1 X122.852 Y91.47 Z.24 E.18213
G1 F2399.855
G1 X122.17 Y89.364 E.08539
G1 X120.892 Y88.267 E.06498
G1 X119.254 Y87.872 E0.06498
G1 X115.742 Y87.886 Z.24 E.13547
G1 X112.229 Y87.899 Z.24 E.13547
G1 X108.717 Y87.913 Z.24 E.13547
G1 X103.867 Y88.645 Z.24 E.18918
G1 X99.017 Y89.378 Z.24 E.18918
G1 F2398.802
G1 X94.167 Y90.11 Z.24 E.18918
G1 X89.317 Y90.843 Z.24 E.18918
G1 F2397.604
G1 X84.467 Y91.575 Z.24 E.18918
G1 X83.624 Y91.81 E0.03372
G1 X79.757 Y93.415 Z.24 E.16149
G1 X75.89 Y95.02 Z.24 E.16149
G1 X72.024 Y96.626 Z.24 E.16149
G1 F2398.096
G1 X68.157 Y98.231 Z.24 E.16149
G1 X64.29 Y99.836 Z.24 E.16149
G1 F2378.894
G1 X62.959 Y100.606 E.05927
M107
G1 X63.159 Y100.949 F102000
M107
G1 F2400
G1 X63.136 Y100.962 E0.001
G1 F2369.751
G1 X62.493 Y101.501 E.03236
G1 F2391.315
G1 X61.873 Y102.165 E.03504
G1 F2399.891
G1 X61.05 Y103.434 E.05833
G1 X60.56 Y104.692 E0.05206
G1 F2398.573
G1 X60.322 Y106.091 E.05476
G1 F2399.961
G1 X60.32 Y110.226 Z.24 E.15949
G1 X60.318 Y114.361 Z.24 E.15949
G1 X60.315 Y118.497 Z.24 E.15949
G1 X60.313 Y122.632 Z.24 E.15949
G1 X60.311 Y126.767 Z.24 E.15949
G1 X60.442 Y127.925 E.04494
G1 X60.696 Y128.845 E0.0368
G1 F2398.82
G1 X61.017 Y129.62 E.03236
G1 X61.619 Y130.618 E0.04494
G1 F2399.825
G1 X62.493 Y131.615 E.05113
G1 F2398.508
G1 X63.7 Y132.525 E.05833
G1 F2399.698
G1 X65.076 Y133.153 E.05833
G1 X66.486 Y133.463 E0.05566
G1 X71.207 Y133.873 Z.24 E.18278
G1 X75.928 Y134.284 Z.24 E.18278
G1 X80.65 Y134.694 Z.24 E.18278
G1 X85.371 Y135.105 Z.24 E.18278
G1 X90.092 Y135.515 Z.24 E.18278
G1 X94.813 Y135.926 Z.24 E.18278
G1 X99.535 Y136.336 Z.24 E.18278
G1 X104.256 Y136.747 Z.24 E.18278
G1 F2400
G1 X108.977 Y137.157 Z.24 E.18278
G1 F2399.996
G1 X112.403 Y137.161 Z.24 E.13213
G1 X115.828 Y137.165 Z.24 E.13213
G1 F2400
G1 X119.254 Y137.169 Z.24 E.13213
G1 F2399.697
G1 X120.975 Y136.667 E.06916
G1 X122.059 Y135.508 E.06122
G1 X122.453 Y133.97 E0.06122
G1 X122.453 Y129.248 Z.24 E.18213
G1 X122.453 Y124.526 Z.24 E.18213
G1 X122.453 Y119.803 Z.24 E.18213
G1 X122.453 Y115.081 Z.24 E.18213
G1 X122.453 Y110.359 Z.24 E.18213
G1 X122.453 Y105.637 Z.24 E.18213
G1 X122.453 Y100.914 Z.24 E.18213
G1 X122.453 Y96.192 Z.24 E.18213
G1 F2400
G1 X122.453 Y91.47 Z.24 E.18213
G1 F2399.693
G1 X121.951 Y89.749 E.06916
G1 X120.792 Y88.665 E.06122
G1 X119.254 Y88.271 E0.06122
G1 X115.761 Y88.283 Z.24 E.13471
G1 X112.269 Y88.295 Z.24 E.13471
G1 F2400
G1 X108.776 Y88.307 Z.24 E.13471
G1 F2399.841
G1 X103.926 Y89.039 Z.24 E.18918
G1 X99.076 Y89.772 Z.24 E.18918
G1 X94.226 Y90.504 Z.24 E.18918
G1 X89.376 Y91.237 Z.24 E.18918
G1 X84.526 Y91.969 Z.24 E.18918
G1 X83.777 Y92.178 E0.02998
G1 X79.91 Y93.783 Z.24 E.16149
G1 X76.043 Y95.388 Z.24 E.16149
G1 X72.176 Y96.994 Z.24 E.16149
G1 X68.309 Y98.599 Z.24 E.16149
G1 X64.442 Y100.204 Z.24 E.16149
G1 X63.21 Y100.919 E0.05493
M107
G1 X62.377 Y99.718 F102000
;WIDTH:0.6
M107
G1 F1748.406
G1 X62.831 Y99.403 E.02933
G1 F1759.779
G1 X63.596 Y98.982 E.04637
G1 F1777.035
G1 X64.619 Y98.569 E.05858
G1 F1797.994
G1 X65.804 Y98.271 E.06486
G1 F1817.061
G1 X66.623 Y98.17 E.04378
G1 F1831.509
G1 X67.57 Y98.151 E.05029
G1 F1849.757
G1 X68.669 Y98.265 E.05867
G1 F1867.597
G1 X69.485 Y98.447 E.04439
G1 F1885.651
G1 X70.421 Y98.765 E.05245
G1 F1901.681
G1 X71.233 Y99.147 E.04765
G1 F1920.978
G1 X72.17 Y99.73 E.05858
G1 F1938.527
G1 X72.816 Y100.248 E.04397
G1 F1956.684
G1 X73.509 Y100.932 E.05168
G1 F1973.868
G1 X74.069 Y101.627 E.04739
G1 F1992.374
G1 X74.525 Y102.327 E.04432
G1 F2007.069
G1 X74.868 Y102.981 E.03919
G1 F2018.958
G1 X75.151 Y103.659 E.03904
G1 F2037.968
G1 X75.413 Y104.512 E.04735
G1 F2056.368
G1 X75.599 Y105.494 E.05305
G1 F2074.781
G1 X75.665 Y106.445 E.05063
G1 F2120.417
G1 X75.67 Y109.817 E.17901
G1 F2205.805
G1 X80.342 Y109.822 E.24803
G1 F2274.212
G1 X80.345 Y106.011 Z.24 E.2023
G1 F2309.94
G1 X80.348 Y102.201 Z.24 E.2023
G1 F2345.667
G1 X80.35 Y98.39 Z.24 E.2023
G1 F2399.259
G1 X80.353 Y94.579 Z.24 E.2023
G1 X80.57 Y93.587 E0.05389
G1 X80.971 Y92.728 E.05034
G1 F2398.058
G1 X81.414 Y92.129 E.03959
G1 F2399.186
G1 X82.012 Y91.531 E.0449
G1 X82.699 Y91.043 E0.04471
G1 X83.611 Y90.649 E.05272
G1 F2398.795
G1 X84.568 Y90.47 E.0517
G1 X103.503 Y90.475 E1.00519
G1 F2399.695
G1 X104.359 Y90.638 E.04627
G1 F2396.795
G1 X104.633 Y90.745 E.01563
G1 X104.731 Y90.208 E0.02895
G1 X105.04 Y89.403 E.04581
G1 X105.461 Y88.713 E0.0429
G1 F2399.415
G1 X106.323 Y87.818 E.06597
G1 X107.054 Y87.323 E.04686
G1 X107.823 Y87 E0.04426
G1 F2398.013
G1 X108.614 Y86.827 E.04301
G1 F2399.692
G1 X112.375 Y86.827 Z.24 E.19964
G1 X116.135 Y86.827 Z.24 E.19964
G1 F2398.153
G1 X119.896 Y86.827 Z.24 E.19964
G1 X120.722 Y87.012 E0.0449
G1 F2397.406
G1 X121.564 Y87.382 E.04886
G1 F2399.682
G1 X122.225 Y87.853 E.04309
G1 X122.856 Y88.478 E0.04714
G1 X123.342 Y89.163 E.04458
G1 X123.699 Y89.957 E0.0462
G1 F2398.212
G1 X123.916 Y91.031 E.0582
G1 X123.916 Y134.383 E2.30142
G1 X123.777 Y135.231 E.04564
G1 F2399.331
G1 X123.42 Y136.134 E.05153
G1 X123.005 Y136.781 E0.04077
G1 F2397.558
G1 X122.124 Y137.672 E.06655
G1 X121.339 Y138.178 E0.04957
G1 F2398.324
G1 X120.636 Y138.456 E.04015
G1 X119.894 Y138.613 E0.04025
G1 F2399.285
G1 X116.211 Y138.619 Z.24 E.19554
G1 X112.527 Y138.626 Z.24 E.19554
G1 X108.844 Y138.632 Z.24 E.19554
G1 X107.997 Y138.494 E0.04555
G1 F2398.602
G1 X107.188 Y138.184 E.04601
G1 X106.496 Y137.763 E0.04299
G1 F2399.511
G1 X105.676 Y136.989 E.05987
G1 F2398.141
G1 X105.133 Y136.217 E.05013
G1 X104.785 Y135.409 E0.04667
G1 X104.607 Y134.567 E.04569
G1 F2399.939
G1 X104.6 Y129.872 Z.24 E.24921
G1 X104.593 Y125.178 Z.24 E.24922
G1 X104.339 Y125.319 E0.01542
G1 F2398.504
G1 X103.433 Y125.696 E.05211
G1 X102.305 Y126.001 E0.062
G1 F2396.604
G1 X101.673 Y126.097 E.03396
G1 X101.055 Y126.143 E0.03287
G1 F2397.982
G1 X96.823 Y126.145 Z.24 E.22469
G1 F2398.349
G1 X92.59 Y126.147 Z.24 E.22469
G1 X88.358 Y126.149 Z.24 E.22469
G1 F2399.083
G1 X84.126 Y126.152 Z.24 E.22469
G1 X79.893 Y126.154 Z.24 E.22469
G1 F2400
G1 X75.661 Y126.156 Z.24 E.22469
G1 F2399.909
G1 X75.648 Y127.105 E.05039
G1 X75.521 Y128.112 E.0539
G1 X75.319 Y128.949 E.04572
G1 X75.053 Y129.711 E0.04283
G1 F2398.279
G1 X74.736 Y130.403 E.04042
G1 X74.352 Y131.073 E0.04098
G1 F2397.403
G1 X73.9 Y131.715 E.0417
G1 X73.421 Y132.279 E0.03925
G1 F2395.788
G1 X72.885 Y132.808 E.04001
G1 X72.319 Y133.274 E0.03888
G1 X71.701 Y133.698 E.03983
G1 F2399.79
G1 X70.931 Y134.123 E.04668
G1 X70.065 Y134.486 E0.04983
G1 F2398.797
G1 X69.029 Y134.781 E.0572
G1 F2399.88
G1 X67.972 Y134.939 E.05673
G1 X66.927 Y134.963 E0.05548
G1 F2397.679
G1 X66.117 Y134.893 E.04318
G1 X65.343 Y134.75 E0.04175
G1 F2399.267
G1 X64.489 Y134.502 E.0472
G1 F2395.43
G1 X63.643 Y134.156 E.04858
G1 X62.902 Y133.756 E0.04465
G1 F2394.776
G1 X62.199 Y133.283 E.04504
G1 X61.245 Y132.444 E0.06741
G1 F2397.548
G1 X60.49 Y131.559 E.06179
G1 F2399.642
G1 X60.022 Y130.855 E.04486
G1 X59.616 Y130.082 E0.04632
G1 F2398.168
G1 X59.248 Y129.139 E.05376
G1 X59.026 Y128.311 E0.04551
G1 X58.895 Y127.503 E.04347
G1 X58.845 Y126.718 E0.04174
G1 X58.845 Y122.661 Z.24 E.21539
G1 F2399.029
G1 X58.844 Y118.604 Z.24 E.21539
G1 X58.844 Y114.546 Z.24 E.21539
G1 X58.843 Y110.489 Z.24 E.21539
G1 X58.843 Y106.432 Z.24 E.21539
G1 X58.906 Y105.515 E.04878
G1 X59.073 Y104.604 E0.04912
G1 F2396.808
G1 X59.308 Y103.795 E.04476
G1 X59.616 Y103.031 E0.04373
G1 F2399.261
G1 X60.063 Y102.194 E.05038
G1 X60.573 Y101.445 E0.04809
G1 F2397.64
G1 X61.351 Y100.565 E.06239
G1 X62.097 Y99.912 E0.0526
G1 F2395.056
G1 X62.327 Y99.752 E.01491
M107
G1 X62.641 Y100.201 F102000
M107
G1 F2398.022
G1 X63.107 Y99.876 E.0302
G1 X63.846 Y99.471 E0.04472
G1 F2399.285
G1 X64.806 Y99.085 E.05494
G1 X65.92 Y98.808 E.06095
G1 X66.675 Y98.716 E.04037
G1 X67.531 Y98.699 E0.04543
G1 F2397.901
G1 X68.566 Y98.804 E.05526
G1 X69.323 Y98.972 E0.04116
G1 F2398.722
G1 X70.23 Y99.279 E.05084
G1 X70.958 Y99.621 E0.04267
G1 F2396.575
G1 X71.84 Y100.169 E.05516
G1 X72.442 Y100.649 E0.04084
G1 F2399.149
G1 X73.092 Y101.289 E.04842
G1 X73.633 Y101.961 E.04581
G1 X74.058 Y102.615 E0.0414
G1 F2397.4
G1 X74.376 Y103.224 E.0365
G1 X74.639 Y103.858 E0.03642
G1 F2399.626
G1 X74.877 Y104.63 E.04288
G1 F2397.787
G1 X75.053 Y105.548 E.04966
G1 X75.116 Y106.455 E0.04826
G1 F2399.956
G1 X75.122 Y110.365 E.20755
G1 X78.006 Y110.368 Z.24 E.1531
G1 X80.89 Y110.371 Z.24 E.1531
G1 X80.896 Y94.665 E0.83379
G1 X81.081 Y93.789 E.04754
G1 X81.429 Y93.03 E0.04432
G1 X81.817 Y92.502 E.03478
G1 X82.383 Y91.935 E.04253
G1 F2398.495
G1 X82.991 Y91.508 E.03945
G1 X83.744 Y91.182 E0.04353
G1 X84.594 Y91.019 E.04596
G1 X103.476 Y91.024 E1.00239
G1 F2399.841
G1 X104.227 Y91.171 E.04063
G1 X104.927 Y91.458 E.04018
G1 X105.142 Y91.597 E.01359
G1 X105.147 Y90.992 E0.03212
G1 X105.253 Y90.38 E.03299
G1 X105.543 Y89.622 E.04309
G1 X105.878 Y89.07 E.03428
G1 X106.656 Y88.254 E.05985
G1 X107.295 Y87.817 E0.04107
G1 F2397.862
G1 X107.968 Y87.529 E.03888
G1 X108.645 Y87.376 E0.03684
G1 F2399.614
G1 X112.385 Y87.376 Z.24 E.19854
G1 X116.125 Y87.376 Z.24 E.19854
G1 F2400
G1 X119.865 Y87.376 Z.24 E.19854
G1 F2398.971
G1 X120.572 Y87.54 E.03854
G1 X121.315 Y87.872 E0.04319
G1 F2399.408
G1 X121.886 Y88.285 E.03742
G1 F2397.48
G1 X122.451 Y88.849 E.04241
G1 X122.877 Y89.457 E0.03938
G1 X123.186 Y90.151 E.04035
G1 F2399.977
G1 X123.368 Y91.058 E.04911
G1 X123.368 Y134.361 E2.29882
G1 F2398.837
G1 X123.255 Y135.059 E.03755
G1 X122.942 Y135.864 E0.04584
G1 F2399.736
G1 X122.593 Y136.418 E.03476
G1 F2398.774
G1 X121.8 Y137.229 E.06023
G1 X121.11 Y137.679 E0.04371
G1 F2399.502
G1 X120.496 Y137.925 E.03511
G1 F2398.622
G1 X119.864 Y138.064 E.03437
G1 X108.865 Y138.084 E0.58389
G1 F2399.59
G1 X108.167 Y137.972 E.03753
G1 X107.408 Y137.681 E0.04314
G1 F2398.724
G1 X106.809 Y137.311 E.03739
G1 F2399.749
G1 X106.075 Y136.611 E.05385
G1 X105.599 Y135.927 E0.04423
G1 F2397.268
G1 X105.301 Y135.221 E.04071
G1 X105.15 Y134.484 E0.03991
G1 F2398
G1 X105.147 Y131.052 Z.24 E.1822
G1 F2397.474
G1 X105.144 Y127.62 Z.24 E.18219
G1 F2396.684
G1 X105.141 Y124.188 Z.24 E.1822
G1 X104.851 Y124.403 E0.01914
G1 F2398.326
G1 X104.112 Y124.819 E.04502
G1 X103.272 Y125.172 E.0484
G1 X102.207 Y125.461 E0.05857
G1 F2399.855
G1 X101.621 Y125.551 E.03147
G1 F2398.498
G1 X101.045 Y125.594 E.03068
G1 X75.119 Y125.608 E1.37635
G1 F2399.591
G1 X75.101 Y127.052 E.07669
G1 F2398.622
G1 X74.979 Y128.028 E.05224
G1 X74.789 Y128.806 E0.04249
G1 F2399.275
G1 X74.539 Y129.517 E.04001
G1 F2397.309
G1 X74.243 Y130.162 E.03771
G1 F2399.716
G1 X73.883 Y130.788 E.03832
G1 X73.459 Y131.389 E0.03902
G1 X73.011 Y131.914 E.03663
G1 F2398.115
G1 X72.526 Y132.393 E.0362
G1 X71.998 Y132.829 E0.03633
G1 X71.424 Y133.225 E.03704
G1 F2399.158
G1 X70.679 Y133.636 E.04518
