; generated by SuperSlicer 2.5.59.10 on 2024-05-27 at 01:22:19 UTC


;
;

;
;
; 

; external perimeters extrusion width = 0.42mm
; perimeters extrusion width = 0.45mm
; infill extrusion width = 0.45mm
; solid infill extrusion width = 0.45mm
; top infill extrusion width = 0.42mm

; object:{"name":"Ender3 y - bumper 4040_Y-Bumpstop__Main_2024-05-26 19-21-49","id":"Ender3 y - bumper 4040_Y-Bumpstop__Main_2024-05-26 19-21-49.stl id:0 copy 0","object_center":[90.000000,100.000000,0.000000],"boundingbox_center":[90.000000,100.000000,4.995943],"boundingbox_size":[20.000000,42.500000,9.991886]}
EXCLUDE_OBJECT_DEFINE NAME=Ender3_y_bumper_4040_Y_Bumpstop__Main_2024_05_26_19_21_49_stl_id_0_copy_0 CENTER=90.000000,100.000000 POLYGON=[[80.00,78.75],[100.00,78.75],[100.00,121.25],[80.00,121.25],[80.00,78.75]]
; plater:{"center":[90.000000,100.000000,0.000000],"boundingbox_center":[90.000000,100.000000,4.995943],"boundingbox_size":[20.000000,42.500000,9.991886]}

M107
;TYPE:Custom
START_PRINT EXTRUDER=270 BED=105
M107
G21 ; set units to millimeters
G90 ; use absolute coordinates
M83 ; use relative distances for extrusion
ACTIVATE_EXTRUDER EXTRUDER=extruder
; Filament gcode
FILAMENT_START MATERIAL=ASA COLOR=#368900 VENDOR=123-3D
SET_PRESSURE_ADVANCE ADVANCE=0.06175
M104 S270 T0 ; set temperature
M109 S270 T0 ; set temperature and wait for it to be reached
M190 S105 ; set bed temperature and wait for it to be reached
;LAYER_CHANGE
;Z:0.24
;HEIGHT:0.24
G1 E-1 F3600
G1 Z0.24 F90000
G92 E0
M204 S750
G1 X77.675 Y75.716
G1 E1 F3600
;TYPE:Skirt
;WIDTH:0.6
M107
G1 F2399.738
G1 X76.572 Y77.058 E.09128
G1 X76.177 Y78.75 E0.09128
G1 X76.177 Y83.472 Z.24 E.24811
G1 X76.177 Y88.194 Z.24 E.24811
G1 X76.177 Y92.917 Z.24 E.24811
G1 X76.177 Y97.639 Z.24 E.24811
G1 X76.177 Y102.361 Z.24 E.24811
G1 X76.177 Y107.083 Z.24 E.24811
G1 X76.177 Y111.806 Z.24 E.24811
G1 X76.177 Y116.528 Z.24 E.24811
G1 F2400
G1 X76.177 Y121.25 Z.24 E.24811
G1 F2399.978
G1 X76.966 Y123.575 E.129
G1 X78.308 Y124.678 E.09128
G1 X80 Y125.073 E0.09128
G1 X85 Y125.073 Z.24 E.2627
G1 X90 Y125.073 Z.24 E.2627
G1 X95 Y125.073 Z.24 E.2627
G1 F2400
G1 X100 Y125.073 Z.24 E.2627
G1 F2399.975
G1 X102.325 Y124.284 E.129
G1 X103.428 Y122.942 E.09128
G1 X103.823 Y121.25 E0.09128
G1 X103.823 Y116.528 Z.24 E.24811
G1 X103.823 Y111.806 Z.24 E.24811
G1 X103.823 Y107.083 Z.24 E.24811
G1 X103.823 Y102.361 Z.24 E.24811
G1 X103.823 Y97.639 Z.24 E.24811
G1 X103.823 Y92.917 Z.24 E.24811
G1 X103.823 Y88.194 Z.24 E.24811
G1 X103.823 Y83.472 Z.24 E.24811
G1 F2400
G1 X103.823 Y78.75 Z.24 E.24811
G1 F2399.976
G1 X103.034 Y76.425 E.129
G1 X101.692 Y75.322 E.09128
G1 X100 Y74.927 E0.09128
G1 X95 Y74.927 Z.24 E.2627
G1 X90 Y74.927 Z.24 E.2627
G1 X85 Y74.927 Z.24 E.2627
G1 F2400
G1 X80 Y74.927 Z.24 E.2627
G1 F2399.53
G1 X77.732 Y75.696 E.12585
M107
G1 X78.146 Y76.077 F90000
M107
G1 F2399.932
G1 X77.12 Y77.193 E.07965
G1 X76.726 Y78.75 E0.08438
G1 X76.726 Y83.472 Z.24 E.24811
G1 X76.726 Y88.194 Z.24 E.24811
G1 X76.726 Y92.917 Z.24 E.24811
G1 X76.726 Y97.639 Z.24 E.24811
G1 X76.726 Y102.361 Z.24 E.24811
G1 X76.726 Y107.083 Z.24 E.24811
G1 X76.726 Y111.806 Z.24 E.24811
G1 X76.726 Y116.528 Z.24 E.24811
G1 F2400
G1 X76.726 Y121.25 Z.24 E.24811
G1 F2399.625
G1 X77.261 Y123.043 E.09833
G1 X78.443 Y124.13 E.08438
G1 X80 Y124.524 E0.08438
G1 X85 Y124.524 Z.24 E.2627
G1 X90 Y124.524 Z.24 E.2627
G1 X95 Y124.524 Z.24 E.2627
G1 F2400
G1 X100 Y124.524 Z.24 E.2627
G1 F2399.626
G1 X101.793 Y123.989 E.09833
G1 X102.88 Y122.807 E.08438
G1 X103.274 Y121.25 E0.08438
G1 F2384.939
G1 X103.274 Y116.528 Z.24 E.24811
G1 F2354.998
G1 X103.274 Y111.806 Z.24 E.24811
G1 F2325.057
G1 X103.274 Y107.083 Z.24 E.24811
G1 F2295.117
G1 X103.274 Y102.361 Z.24 E.24811
G1 F2265.176
G1 X103.274 Y97.639 Z.24 E.24811
G1 F2235.235
G1 X103.274 Y92.917 Z.24 E.24811
G1 F2205.295
G1 X103.274 Y88.194 Z.24 E.24811
G1 F2175.354
G1 X103.274 Y83.472 Z.24 E.24811
G1 F2130.443
G1 X103.274 Y78.75 Z.24 E.24811
G1 F2115.308
G1 X102.739 Y76.957 E.09833
G1 F2088.397
G1 X101.557 Y75.87 E.08438
G1 F2063.985
G1 X100 Y75.476 E.08438
G1 F2016.19
G1 X95 Y75.476 Z.24 E.2627
G1 F1945.346
G1 X90 Y75.476 Z.24 E.2627
G1 F1874.503
G1 X85 Y75.476 Z.24 E.2627
G1 F1768.237
G1 X80 Y75.476 Z.24 E.2627
G1 F1755.674
G1 X78.207 Y76.011 E.09833
G1 F1764.228
G1 X78.186 Y76.033 E.00158
M107
;WIPE_START
G1 F72000
G1 X78.207 Y76.011 E-0.00143
G1 X80 Y75.476 E-0.0889
G1 X98.098 Y75.476 E-0.85967
;WIPE_END
G1 E-0.05 F3600
; printing object Ender3 y - bumper 4040_Y-Bumpstop__Main_2024-05-26 19-21-49.stl id:0 copy 0
EXCLUDE_OBJECT_START NAME=Ender3_y_bumper_4040_Y_Bumpstop__Main_2024_05_26_19_21_49_stl_id_0_copy_0
G1 X81.789 Y80.539 F90000
G1 E1 F3600
;TYPE:Internal perimeter
;WIDTH:0.449999
M107
G1 F2400
G1 X81.789 Y82.88 E0.08935
G1 F2399.743
G1 X81.789 Y87.453 Z.24 E.17455
G1 X81.789 Y92.025 Z.24 E.17455
G1 X81.789 Y96.598 Z.24 E.17455
G1 X81.789 Y101.171 Z.24 E.17454
G1 X81.789 Y105.743 Z.24 E.17455
G1 X81.789 Y110.316 Z.24 E.17455
G1 X81.789 Y114.888 Z.24 E.17455
G1 X81.789 Y119.461 Z.24 E.17455
G1 X98.211 Y119.461 E0.62685
G1 X98.211 Y114.596 Z.24 E.18571
G1 X98.211 Y109.73 Z.24 E.18571
G1 X98.211 Y104.865 Z.24 E.18571
G1 X98.211 Y100 Z.24 E.18571
G1 X98.211 Y95.135 Z.24 E.18571
G1 X98.211 Y90.27 Z.24 E.18571
G1 X98.211 Y85.404 Z.24 E.18571
G1 X98.211 Y80.539 Z.24 E.18571
G1 X94.813 Y80.539 Z.24 E.12968
G1 F2397.061
G1 X91.416 Y80.539 Z.24 E.12969
G1 X91.873 Y80.789 E0.01986
G1 F2396.892
G1 X92.442 Y81.247 E.0279
G1 X92.859 Y81.752 E0.025
G1 F2399.881
G1 X93.222 Y82.43 E.02936
G1 X93.426 Y83.132 E.02791
G1 F2398.612
G1 X93.482 Y83.671 E.02068
G1 X93.453 Y84.171 E0.01909
G1 F2396.44
G1 X93.317 Y84.811 E.02499
G1 X93.081 Y85.381 E0.02354
G1 F2398.98
G1 X92.677 Y85.99 E.02791
G1 F2399.189
G1 X92.128 Y86.528 E.02936
G1 F2398.397
G1 X91.579 Y86.885 E.025
G1 X90.898 Y87.153 E0.0279
G1 X90.254 Y87.272 E.025
G1 F2396.731
G1 X89.524 Y87.259 E.0279
G1 X88.883 Y87.123 E0.025
G1 F2398.29
G1 X88.213 Y86.831 E.0279
G1 X87.673 Y86.46 E0.02499
G1 X87.237 Y86.024 E.02354
G1 F2397.573
G1 X86.829 Y85.418 E.02791
G1 X86.542 Y84.704 E0.02936
G1 F2399.693
G1 X86.422 Y84.06 E.025
G1 X86.436 Y83.329 E0.0279
G1 F2398.561
G1 X86.572 Y82.689 E.02499
G1 F2399.868
G1 X86.807 Y82.119 E.02354
G1 X87.211 Y81.51 E0.0279
G1 X87.67 Y81.043 E.025
G1 F2397.811
G1 X88.276 Y80.634 E.02791
G1 X88.481 Y80.539 E0.00861
G1 F2396.827
G1 X85.165 Y80.539 Z.24 E.12657
G1 F2399.597
G1 X81.849 Y80.539 Z.24 E.12658
M107
G1 X81.39 Y80.14 F90000
M107
G1 F2400
G1 X81.39 Y82.88 E0.10457
M107
M107
G1 F2399.595
G1 X81.39 Y87.502 Z.24 E.17645
G1 X81.39 Y92.125 Z.24 E.17645
G1 X81.39 Y96.747 Z.24 E.17645
G1 X81.39 Y101.37 Z.24 E.17645
G1 X81.39 Y105.993 Z.24 E.17645
G1 X81.39 Y110.615 Z.24 E.17645
G1 X81.39 Y115.238 Z.24 E.17645
G1 X81.39 Y119.86 Z.24 E.17645
G1 X98.61 Y119.86 E0.65728
G1 X98.61 Y114.895 Z.24 E.18952
G1 X98.61 Y109.93 Z.24 E.18952
G1 X98.61 Y104.965 Z.24 E.18952
G1 X98.61 Y100 Z.24 E.18952
G1 X98.61 Y95.035 Z.24 E.18952
G1 X98.61 Y90.07 Z.24 E.18952
G1 X98.61 Y85.105 Z.24 E.18952
G1 F2400
G1 X98.61 Y80.14 Z.24 E.18952
G1 F2398.975
G1 X94.946 Y80.14 Z.24 E.13986
G1 F2396.035
G1 X91.282 Y80.14 Z.24 E.13986
G1 X90.978 Y80.16 E0.01161
M107
;WIDTH:0.526339
M107
G1 F2015.497
G1 X90.674 Y80.179 E.01384
G1 F2016.133
G1 X90.322 Y80.169 E.01604
M107
;WIDTH:0.487765
M107
G1 F2202.62
G1 X89.657 Y80.166 E.02778
M107
;WIDTH:0.513503
M107
G1 F2074.034
G1 X88.99 Y80.156 E.02952
M107
;WIDTH:0.449999
M107
G1 F2400
G1 X88.635 Y80.14 E0.01355
G1 F2398.065
G1 X85.042 Y80.14 Z.24 E.13713
G1 F2399.973
G1 X81.45 Y80.14 Z.24 E.13713
M107
G1 X80.992 Y79.742 F90000
M107
G1 F2400
G1 X80.992 Y82.88 E0.11978
G1 F2399.941
G1 X80.992 Y87.552 Z.24 E.17835
G1 X80.992 Y92.225 Z.24 E.17835
G1 X80.992 Y96.897 Z.24 E.17835
G1 X80.992 Y101.569 Z.24 E.17835
G1 X80.992 Y106.241 Z.24 E.17835
G1 X80.992 Y110.913 Z.24 E.17835
G1 X80.992 Y115.586 Z.24 E.17835
G1 X80.992 Y120.258 Z.24 E.17835
G1 F2400
G1 X85.496 Y120.258 Z.24 E.17192
G1 F2399.999
G1 X90 Y120.258 Z.24 E.17193
G1 X94.504 Y120.258 Z.24 E.17192
G1 X99.008 Y120.258 Z.24 E.17192
G1 X99.008 Y79.742 E1.54656
G1 X94.519 Y79.742 Z.24 E.17135
G1 X90.03 Y79.742 Z.24 E.17135
G1 X85.541 Y79.742 Z.24 E.17135
G1 X81.052 Y79.742 Z.24 E.17135
M107
G1 X80.593 Y79.343 F90000
M107
G1 F2400
G1 X80.593 Y82.88 E0.13499
G1 F2399.655
G1 X80.593 Y87.602 Z.24 E.18025
G1 X80.593 Y92.324 Z.24 E.18025
G1 X80.593 Y97.046 Z.24 E.18025
G1 X80.593 Y101.768 Z.24 E.18025
G1 X80.593 Y106.491 Z.24 E.18025
G1 X80.593 Y111.213 Z.24 E.18025
G1 X80.593 Y115.935 Z.24 E.18025
G1 X80.593 Y120.657 Z.24 E.18025
G1 X99.407 Y120.657 E0.71812
G1 X99.407 Y116.067 Z.24 E.17522
G1 X99.407 Y111.476 Z.24 E.17522
G1 X99.407 Y106.886 Z.24 E.17522
G1 X99.407 Y102.295 Z.24 E.17522
G1 X99.407 Y97.705 Z.24 E.17522
G1 X99.407 Y93.114 Z.24 E.17522
G1 X99.407 Y88.524 Z.24 E.17522
G1 X99.407 Y83.933 Z.24 E.17522
G1 X99.407 Y79.343 Z.24 E.17522
G1 F2377.412
G1 X94.718 Y79.343 Z.24 E.17896
G1 F2332.237
G1 X90.03 Y79.343 Z.24 E.17896
G1 F2287.062
G1 X85.341 Y79.343 Z.24 E.17896
G1 F2219.3
G1 X80.653 Y79.343 Z.24 E.17896
M107
G1 X80.21 Y78.96 F90000
;TYPE:External perimeter
;WIDTH:0.419999
M107
G1 F2400
G1 X80.21 Y82.88 E0.13836
G1 X80.21 Y121.04 E1.34697
G1 X99.79 Y121.04 E0.69113
G1 X99.79 Y78.96 E1.48533
G1 X80.27 Y78.96 E0.68901
M107
;WIPE_START
M204 S1500
G1 X80.41 Y79.306 F90000
;WIPE_END
G1 E-1 F3600
M204 S750
G1 X87.78 Y86.007 F90000
G1 E1 F3600
;TYPE:Internal perimeter
;WIDTH:0.449999
M107
G1 F2222.073
G1 X87.531 Y85.755 E.01353
G1 F2236.025
G1 X87.169 Y85.211 E.02493
G1 F2250.045
G1 X86.919 Y84.576 E.02605
G1 F2264.421
G1 X86.817 Y84.008 E.02203
G1 F2269.804
G1 X86.805 Y83.829 E.00686
M107
M107
G1 F2283.07
G1 X86.843 Y83.256 E.02191
G1 F2298.694
G1 X87.038 Y82.568 E.02728
G1 F2312.111
G1 X87.305 Y82.057 E.02201
G1 F2326.176
G1 X87.711 Y81.546 E.02492
G1 F2339.965
G1 X88.153 Y81.176 E.02202
G1 F2359.712
G1 X88.753 Y80.849 E.02605
G1 F2367.906
G1 X89.035 Y80.744 E.01149
M107
;WIDTH:0.518733
M107
G1 F2019.268
G1 X89.316 Y80.639 E.01347
G1 F2034.561
G1 X89.591 Y80.616 E.01233
M107
;WIDTH:0.486092
M107
G1 F2192.201
G1 X89.866 Y80.593 E.01147
G1 X90.239 Y80.619 E.01559
M107
;WIDTH:0.526339
M107
G1 F2016.342
G1 X90.613 Y80.645 E.01704
G1 F2010.615
G1 X90.869 Y80.744 E.01251
M107
;WIDTH:0.449999
M107
G1 F2400
G1 X91.126 Y80.843 E0.0105
G1 F2397.719
G1 X91.637 Y81.11 E.02201
G1 X92.148 Y81.517 E0.02492
G1 F2399.76
G1 X92.519 Y81.959 E.02202
G1 F2396.078
G1 X92.845 Y82.558 E.02605
G1 X93.031 Y83.185 E0.02493
G1 F2398.843
G1 X93.08 Y83.76 E.02202
G1 F2399.444
G1 X93.038 Y84.293 E.02041
G1 X92.851 Y84.932 E.02542
G1 X92.584 Y85.443 E.02201
G1 X92.155 Y85.974 E0.02605
G1 F2397.844
G1 X91.648 Y86.385 E.02493
G1 F2399.185
G1 X91.136 Y86.651 E.02202
G1 X90.652 Y86.81 E0.01943
G1 F2396.345
G1 X90.149 Y86.883 E.01941
G1 X89.549 Y86.861 E0.02289
G1 F2395.62
G1 X88.986 Y86.738 E.02202
G1 X88.389 Y86.473 E0.02492
G1 F2390.129
G1 X87.916 Y86.144 E.02201
G1 X87.822 Y86.049 E0.00507
M107
G1 X88.121 Y85.784 F90000
M107
G1 F2376.731
G1 X88.034 Y85.714 E.00428
G1 F2395.347
G1 X87.71 Y85.334 E.01904
G1 F2397.963
G1 X87.421 Y84.813 E.02275
G1 X87.259 Y84.303 E0.02043
G1 X87.204 Y83.829 E.01823
G1 F2399.156
G1 X87.238 Y83.311 E.01981
G1 X87.399 Y82.736 E0.02277
G1 F2398.521
G1 X87.626 Y82.292 E.01904
G1 F2397.073
G1 X87.98 Y81.84 E.02194
G1 X88.36 Y81.516 E0.01905
G1 F2399.805
G1 X88.881 Y81.226 E.02275
G1 F2397.14
G1 X89.391 Y81.065 E.02043
G1 X89.928 Y81.012 E0.02059
G1 F2398.136
G1 X90.5 Y81.067 E.02194
G1 X90.958 Y81.205 E0.01824
G1 F2397.927
G1 X91.402 Y81.432 E.01904
G1 X91.855 Y81.786 E0.02194
G1 X92.178 Y82.166 E.01905
G1 X92.468 Y82.687 E0.02275
G1 F2396.707
G1 X92.635 Y83.237 E.02196
G1 X92.683 Y83.734 E0.01905
G1 F2397.078
G1 X92.627 Y84.306 E.02195
G1 X92.489 Y84.764 E0.01824
G1 F2398.599
G1 X92.262 Y85.208 E.01904
G1 F2399.872
G1 X91.892 Y85.675 E.02275
G1 F2397.703
G1 X91.448 Y86.04 E.02196
G1 X91.007 Y86.274 E0.01905
G1 F2399.318
G1 X90.478 Y86.438 E.02114
G1 X89.96 Y86.488 E0.01986
G1 F2397.906
G1 X89.388 Y86.433 E.02195
G1 X88.911 Y86.286 E0.01905
G1 F2394.757
G1 X88.404 Y86.016 E.02194
G1 F2393.117
G1 X88.167 Y85.822 E.01167
M107
G1 X88.373 Y85.481 F90000
M107
G1 F2400
G1 X88.327 Y85.444 E0.00224
G1 F2387.683
G1 X88.051 Y85.127 E.01606
G1 F2396.287
G1 X87.798 Y84.685 E.01945
G1 X87.648 Y84.211 E0.01898
G1 F2398.879
G1 X87.602 Y83.829 E.01469
G1 F2399.141
G1 X87.647 Y83.297 E.02037
G1 X87.76 Y82.904 E0.01559
G1 F2396.004
G1 X87.948 Y82.528 E.01606
G1 X88.25 Y82.133 E0.01897
G1 X88.567 Y81.857 E.01607
G1 F2397.079
G1 X89.009 Y81.604 E.01945
G1 X89.484 Y81.454 E0.01898
G1 F2394.516
G1 X89.902 Y81.409 E.01607
G1 F2397.498
G1 X90.397 Y81.452 E.01897
G1 X90.79 Y81.566 E0.01559
G1 F2398.049
G1 X91.167 Y81.753 E.01606
G1 F2395.906
G1 X91.561 Y82.056 E.01897
G1 F2386.406
G1 X91.838 Y82.373 E.01607
G1 F2374.105
G1 X92.091 Y82.815 E.01945
G1 F2362.956
G1 X92.256 Y83.406 E.02341
G1 F2349.151
G1 X92.285 Y83.708 E.01159
G1 F2340.692
G1 X92.242 Y84.203 E.01897
G1 F2334.747
G1 X92.128 Y84.596 E.01559
G1 F2316.169
G1 X91.941 Y84.972 E.01606
G1 F2309.995
G1 X91.629 Y85.375 E.01945
G1 F2299.456
G1 X91.248 Y85.695 E.01898
G1 F2282.481
G1 X90.879 Y85.896 E.01607
G1 F2277.168
G1 X90.405 Y86.046 E.01897
G1 F2267.706
G1 X89.986 Y86.091 E.01607
G1 F2254.552
G1 X89.491 Y86.048 E.01897
G1 F2245.213
G1 X89.087 Y85.929 E.01607
G1 F2235.767
G1 X88.646 Y85.699 E.01897
G1 F2221.498
G1 X88.42 Y85.518 E.01107
M107
G1 X88.61 Y85.185 F90000
;TYPE:External perimeter
;WIDTH:0.419999
M107
G1 F2400
G1 X88.379 Y84.928 E0.01221
G1 X88.161 Y84.561 E0.01505
G1 X88.028 Y84.16 E0.01491
G1 X87.986 Y83.829 E0.0118
G1 X88.017 Y83.396 E0.01532
G1 X88.108 Y83.066 E0.01207
G1 X88.257 Y82.754 E0.01221
G1 X88.509 Y82.416 E0.0149
G1 X88.767 Y82.184 E0.01222
G1 X89.133 Y81.967 E0.01505
G1 X89.534 Y81.834 E0.01491
G1 X89.878 Y81.792 E0.01222
G1 X90.298 Y81.823 E0.0149
G1 X90.628 Y81.914 E0.01207
G1 X90.94 Y82.063 E0.01221
G1 X91.278 Y82.315 E0.0149
G1 X91.51 Y82.572 E0.01222
G1 X91.728 Y82.939 E0.01505
G1 X91.876 Y83.456 E0.019
G1 X91.902 Y83.683 E0.00807
G1 X91.871 Y84.104 E0.0149
G1 X91.781 Y84.434 E0.01207
G1 X91.631 Y84.746 E0.01221
G1 X91.376 Y85.087 E0.01505
G1 X91.056 Y85.363 E0.01491
G1 X90.755 Y85.533 E0.01222
G1 X90.354 Y85.666 E0.0149
G1 X90.011 Y85.708 E0.01222
G1 X89.59 Y85.677 E0.0149
G1 X89.257 Y85.584 E0.01222
G1 X88.879 Y85.395 E0.0149
G1 X88.657 Y85.222 E0.00995
M107
;WIPE_START
M204 S1500
G1 X88.224 Y85.291 F90000
;WIPE_END
G1 E-1 F3600
M204 S750
G1 X87.403 Y101.31 F90000
G1 E1 F3600
;TYPE:Internal perimeter
;WIDTH:0.449999
M107
G1 F2224.067
G1 X87.67 Y101.043 E.01443
G1 F2238.269
G1 X88.276 Y100.635 E.0279
G1 F2255.714
G1 X88.879 Y100.379 E.025
G1 F2270.203
G1 X89.385 Y100.266 E.01978
G1 F2278.161
G1 X89.882 Y100.213 E.0191
G1 F2294.226
G1 X90.434 Y100.247 E.0211
G1 F2308.6
G1 X91.006 Y100.377 E.02237
G1 F2321.778
G1 X91.676 Y100.669 E.0279
G1 F2336.144
G1 X92.215 Y101.04 E.025
G1 F2356.106
G1 X92.723 Y101.566 E.0279
G1 F2374.401
G1 X93.08 Y102.116 E.025
G1 F2387.359
G1 X93.347 Y102.796 E.0279
G1 F2398.211
G1 X93.466 Y103.44 E.025
G1 X93.453 Y104.171 E0.0279
G1 F2397.849
G1 X93.317 Y104.811 E.02499
G1 X93.081 Y105.381 E0.02354
G1 F2399.062
G1 X92.677 Y105.99 E.02791
G1 F2398.494
G1 X92.128 Y106.528 E.02936
G1 F2399.91
G1 X91.579 Y106.885 E.02499
G1 X91.009 Y107.121 E0.02354
G1 F2398.863
G1 X90.293 Y107.267 E.0279
G1 X89.638 Y107.272 E0.025
G1 F2397.7
G1 X88.921 Y107.132 E.0279
G1 X88.313 Y106.887 E0.025
G1 F2398.862
G1 X87.704 Y106.483 E.0279
G1 F2399.866
G1 X87.237 Y106.024 E.025
G1 F2397.915
G1 X86.829 Y105.418 E.02791
G1 X86.542 Y104.704 E0.02936
G1 F2399.589
G1 X86.422 Y104.06 E.025
G1 X86.436 Y103.329 E0.0279
G1 F2397.248
G1 X86.572 Y102.689 E.025
G1 X86.864 Y102.019 E0.0279
G1 F2399.956
G1 X87.234 Y101.479 E.02499
G1 F2398.231
G1 X87.36 Y101.353 E.00681
M107
G1 X87.688 Y101.586 F90000
M107
G1 F2399.281
G1 X87.939 Y101.336 E.01353
G1 F2398.855
G1 X88.483 Y100.975 E.02492
G1 X89.016 Y100.753 E0.02202
G1 F2399.191
G1 X89.657 Y100.627 E.02493
G1 F2397.512
G1 X90.339 Y100.639 E.02605
