; generated by SuperSlicer 2.5.60.0 on 2024-07-29 at 22:05:29 UTC


;
;

;
;
; 

; external perimeters extrusion width = 0.48mm
; perimeters extrusion width = 0.48mm
; infill extrusion width = 0.48mm
; solid infill extrusion width = 0.48mm
; top infill extrusion width = 0.48mm
; support material extrusion width = 0.42mm
; first layer extrusion width = 0.48mm

; object:{"name":"Two Trees 20W mount_Part 1__Main_2024-07-29 18-04-25","id":"Two Trees 20W mount_Part 1__Main_2024-07-29 18-04-25.stl id:0 copy 0","object_center":[90.000000,92.500000,0.000000],"boundingbox_center":[90.000000,92.500000,7.500000],"boundingbox_size":[60.250000,70.000000,15.000000]}
EXCLUDE_OBJECT_DEFINE NAME=Two_Trees_20W_mount_Part_1__Main_2024_07_29_18_04_25_stl_id_0_copy_0 CENTER=90.000000,92.500000 POLYGON=[[59.88,57.50],[120.12,57.50],[120.12,127.50],[59.88,127.50],[59.88,57.50]]
; Total objects to print: 1
; plater:{"center":[90.000000,92.500000,0.000000],"boundingbox_center":[90.000000,92.500000,7.500000],"boundingbox_size":[60.250000,70.000000,15.000000]}

M107
;TYPE:Custom
START_PRINT EXTRUDER=250 BED=100
G21 ; set units to millimeters
G90 ; use absolute coordinates
M83 ; use relative distances for extrusion
; Filament gcode
FILAMENT_START MATERIAL=ASA COLOR=#E8FEF0 VENDOR=123-3D
SET_PRESSURE_ADVANCE ADVANCE=0.062
M104 S250 ; set temperature
M109 S250 ; set temperature and wait for it to be reached
M190 S100 ; set bed temperature and wait for it to be reached
;LAYER_CHANGE
;Z:0.24
;HEIGHT:0.24
G1 E-1 F3600
G1 Z0.24 F180000
G92 E0
; printing object Two Trees 20W mount_Part 1__Main_2024-07-29 18-04-25.stl id:0 copy 0
EXCLUDE_OBJECT_START NAME=Two_Trees_20W_mount_Part_1__Main_2024_07_29_18_04_25_stl_id_0_copy_0
G1 X60.044 Y57.657
G1 E1 F3600
;TYPE:External perimeter
;WIDTH:0.479999
G1 F2400
M204 S1000
G1 X60.044 Y127.343 E2.68149
G1 X119.956 Y127.343 E2.30536
G1 X119.956 Y57.657 E2.68149
G1 X60.104 Y57.657 E2.30306
;WIPE_START
M204 S1500
G1 X60.244 Y58.004 F180000
;WIPE_END
G1 X60.473 Y58.086
;TYPE:Internal perimeter
G1 F2400
M204 S1000
G1 F2399.947
G1 X60.473 Y63.002 Z.24 E.18918
G1 X60.473 Y67.919 Z.24 E.18918
G1 X60.473 Y72.835 Z.24 E.18918
G1 X60.473 Y77.751 Z.24 E.18918
G1 X60.473 Y82.667 Z.24 E.18918
G1 X60.473 Y87.584 Z.24 E.18918
G1 X60.473 Y92.5 Z.24 E.18918
G1 X60.473 Y97.416 Z.24 E.18918
G1 X60.473 Y102.333 Z.24 E.18918
G1 X60.473 Y107.249 Z.24 E.18918
G1 X60.473 Y112.165 Z.24 E.18918
G1 X60.473 Y117.081 Z.24 E.18918
G1 X60.473 Y121.998 Z.24 E.18918
G1 X60.473 Y126.914 Z.24 E.18918
G1 X119.527 Y126.914 E2.27239
G1 X119.527 Y121.998 Z.24 E.18918
G1 X119.527 Y117.081 Z.24 E.18918
G1 X119.527 Y112.165 Z.24 E.18918
G1 X119.527 Y107.249 Z.24 E.18918
G1 X119.527 Y102.333 Z.24 E.18918
G1 X119.527 Y97.416 Z.24 E.18918
G1 X119.527 Y92.5 Z.24 E.18918
G1 X119.527 Y87.584 Z.24 E.18918
G1 X119.527 Y82.667 Z.24 E.18918
G1 X119.527 Y77.751 Z.24 E.18918
G1 X119.527 Y72.835 Z.24 E.18918
G1 X119.527 Y67.919 Z.24 E.18918
G1 X119.527 Y63.002 Z.24 E.18918
G1 X119.527 Y58.086 Z.24 E.18918
G1 X114.611 Y58.086 Z.24 E.18917
G1 X109.695 Y58.086 Z.24 E.18917
G1 X104.779 Y58.086 Z.24 E.18917
G1 X99.862 Y58.086 Z.24 E.18917
G1 X94.946 Y58.086 Z.24 E.18917
G1 X90.03 Y58.086 Z.24 E.18917
G1 X85.114 Y58.086 Z.24 E.18917
G1 X80.198 Y58.086 Z.24 E.18917
G1 X75.282 Y58.086 Z.24 E.18917
G1 X70.365 Y58.086 Z.24 E.18917
G1 X65.449 Y58.086 Z.24 E.18917
G1 X60.533 Y58.086 Z.24 E.18917
M204 S1500
G1 X60.901 Y58.514 F180000
G1 F2400
M204 S1000
G1 F2399.999
G1 X60.901 Y63.369 Z.24 E.18682
G1 X60.901 Y68.224 Z.24 E.18682
G1 X60.901 Y73.079 Z.24 E.18682
G1 X60.901 Y77.935 Z.24 E.18682
G1 X60.901 Y82.79 Z.24 E.18682
G1 X60.901 Y87.645 Z.24 E.18682
G1 X60.901 Y92.5 Z.24 E.18682
G1 X60.901 Y97.355 Z.24 E.18682
G1 X60.901 Y102.21 Z.24 E.18682
G1 X60.901 Y107.065 Z.24 E.18682
G1 X60.901 Y111.921 Z.24 E.18682
G1 X60.901 Y116.776 Z.24 E.18682
G1 X60.901 Y121.631 Z.24 E.18682
G1 X60.901 Y126.486 Z.24 E.18682
G1 X119.099 Y126.486 E2.23941
G1 X119.099 Y121.631 Z.24 E.18682
G1 X119.099 Y116.776 Z.24 E.18682
G1 X119.099 Y111.921 Z.24 E.18682
G1 X119.099 Y107.065 Z.24 E.18682
G1 X119.099 Y102.21 Z.24 E.18682
G1 X119.099 Y97.355 Z.24 E.18682
G1 X119.099 Y92.5 Z.24 E.18682
G1 X119.099 Y87.645 Z.24 E.18682
G1 X119.099 Y82.79 Z.24 E.18682
G1 X119.099 Y77.935 Z.24 E.18682
G1 X119.099 Y73.079 Z.24 E.18682
G1 X119.099 Y68.224 Z.24 E.18682
G1 X119.099 Y63.369 Z.24 E.18682
G1 X119.099 Y58.514 Z.24 E.18682
G1 X60.961 Y58.514 E2.2371
M204 S1500
G1 X61.33 Y58.943 F180000
G1 F2400
M204 S1000
G1 F2399.934
G1 X61.33 Y63.737 Z.24 E.18447
G1 X61.33 Y68.531 Z.24 E.18447
G1 X61.33 Y73.325 Z.24 E.18447
G1 X61.33 Y78.118 Z.24 E.18447
G1 X61.33 Y82.912 Z.24 E.18447
G1 X61.33 Y87.706 Z.24 E.18447
G1 X61.33 Y92.5 Z.24 E.18447
G1 X61.33 Y97.294 Z.24 E.18447
G1 X61.33 Y102.088 Z.24 E.18447
G1 X61.33 Y106.882 Z.24 E.18447
G1 X61.33 Y111.675 Z.24 E.18447
G1 X61.33 Y116.469 Z.24 E.18447
G1 X61.33 Y121.263 Z.24 E.18447
G1 X61.33 Y126.057 Z.24 E.18447
G1 X118.67 Y126.057 E2.20643
G1 X118.67 Y121.263 Z.24 E.18447
G1 X118.67 Y116.469 Z.24 E.18447
G1 X118.67 Y111.675 Z.24 E.18447
G1 X118.67 Y106.882 Z.24 E.18447
G1 X118.67 Y102.088 Z.24 E.18447
G1 X118.67 Y97.294 Z.24 E.18447
G1 X118.67 Y92.5 Z.24 E.18447
G1 X118.67 Y87.706 Z.24 E.18447
G1 X118.67 Y82.912 Z.24 E.18447
G1 X118.67 Y78.118 Z.24 E.18447
G1 X118.67 Y73.325 Z.24 E.18447
G1 X118.67 Y68.531 Z.24 E.18447
G1 X118.67 Y63.737 Z.24 E.18447
G1 X118.67 Y58.943 Z.24 E.18447
G1 X113.897 Y58.943 Z.24 E.18368
G1 X109.123 Y58.943 Z.24 E.18368
G1 X104.35 Y58.943 Z.24 E.18368
G1 X99.577 Y58.943 Z.24 E.18368
G1 X94.803 Y58.943 Z.24 E.18368
G1 X90.03 Y58.943 Z.24 E.18368
G1 X85.257 Y58.943 Z.24 E.18367
G1 X80.483 Y58.943 Z.24 E.18368
G1 X75.71 Y58.943 Z.24 E.18368
G1 X70.937 Y58.943 Z.24 E.18368
G1 X66.163 Y58.943 Z.24 E.18368
G1 X61.39 Y58.943 Z.24 E.18368
M204 S1500
G1 X61.758 Y59.371 F180000
G1 F2400
M204 S1000
G1 X61.758 Y64.104 Z.24 E.18211
G1 F2399.999
G1 X61.758 Y68.836 Z.24 E.18211
G1 X61.758 Y73.569 Z.24 E.18211
G1 X61.758 Y78.302 Z.24 E.18211
G1 X61.758 Y83.035 Z.24 E.18211
G1 X61.758 Y87.767 Z.24 E.18211
G1 X61.758 Y92.5 Z.24 E.18211
G1 X61.758 Y97.233 Z.24 E.18211
G1 X61.758 Y101.965 Z.24 E.18211
G1 X61.758 Y106.698 Z.24 E.18211
G1 X61.758 Y111.431 Z.24 E.18211
G1 X61.758 Y116.164 Z.24 E.18211
G1 X61.758 Y120.896 Z.24 E.18211
G1 X61.758 Y125.629 Z.24 E.18211
G1 X118.242 Y125.629 E2.17346
G1 X118.242 Y120.896 Z.24 E.18211
G1 X118.242 Y116.164 Z.24 E.18211
G1 X118.242 Y111.431 Z.24 E.18211
G1 X118.242 Y106.698 Z.24 E.18211
G1 X118.242 Y101.965 Z.24 E.18211
G1 X118.242 Y97.233 Z.24 E.18211
G1 X118.242 Y92.5 Z.24 E.18211
G1 X118.242 Y87.767 Z.24 E.18211
G1 X118.242 Y83.035 Z.24 E.18211
G1 X118.242 Y78.302 Z.24 E.18211
G1 X118.242 Y73.569 Z.24 E.18211
G1 X118.242 Y68.836 Z.24 E.18211
G1 X118.242 Y64.104 Z.24 E.18211
G1 X118.242 Y59.371 Z.24 E.18211
G1 X61.818 Y59.371 E2.17115
G1 E-1 F3600
M204 S1500
G1 X71.209 Y81.339 F180000
G1 X70.964 Y81.66
G1 E1 F3600
;TYPE:External perimeter
G1 F2400
M204 S1000
G1 X71.229 Y81.867 E0.01294
G1 X71.489 Y82.169 E0.01536
G1 X71.653 Y82.46 E0.01283
G1 X71.777 Y82.839 E0.01535
G1 X71.817 Y83.164 E0.0126
G1 X71.799 Y83.496 E0.01278
G1 X71.698 Y83.888 E0.01559
G1 X71.518 Y84.246 E0.01541
G1 X71.312 Y84.508 E0.01284
G1 X71.009 Y84.768 E0.01535
G1 X70.719 Y84.932 E0.01284
G1 X70.34 Y85.056 E0.01535
G1 X70.015 Y85.096 E0.0126
G1 X69.683 Y85.078 E0.01277
G1 X69.291 Y84.977 E0.01559
G1 X68.933 Y84.797 E0.01542
G1 X68.675 Y84.595 E0.01259
G1 X68.454 Y84.348 E0.01278
G1 X68.248 Y83.999 E0.01559
G1 X68.122 Y83.619 E0.01541
G1 X68.084 Y83.331 E0.01117
G1 X68.101 Y82.962 E0.0142
G1 X68.201 Y82.57 E0.0156
G1 X68.382 Y82.212 E0.01541
G1 X68.588 Y81.95 E0.01284
G1 X68.89 Y81.689 E0.01535
G1 X69.181 Y81.526 E0.01284
G1 X69.56 Y81.401 E0.01535
G1 X69.891 Y81.361 E0.01284
G1 X70.289 Y81.391 E0.01535
G1 X70.61 Y81.481 E0.01283
G1 X70.911 Y81.633 E0.01294
;WIPE_START
M204 S1500
G1 X70.899 Y81.862 F180000
;WIPE_END
G1 X71.16 Y81.286
;TYPE:Internal perimeter
G1 F2400
M204 S1000
G1 X71.227 Y81.321 E0.00289
G1 F2388.137
G1 X71.551 Y81.584 E.01606
G1 F2393.201
G1 X71.86 Y81.955 E.01858
G1 F2395.122
G1 X72.058 Y82.322 E.01606
G1 X72.202 Y82.783 E0.01857
G1 F2393.533
G1 X72.245 Y83.182 E.01547
G1 X72.215 Y83.597 E0.01599
G1 F2396.823
G1 X72.083 Y84.077 E.01917
G1 X71.858 Y84.506 E0.01864
G1 F2399.029
G1 X71.595 Y84.83 E.01606
G1 X71.224 Y85.139 E0.01857
G1 F2396.416
G1 X70.857 Y85.337 E.01606
G1 X70.396 Y85.481 E0.01857
G1 F2399.997
G1 X69.996 Y85.524 E.01547
G1 F2395.427
G1 X69.582 Y85.494 E.016
G1 F2399.559
G1 X69.102 Y85.362 E.01916
G1 X68.673 Y85.137 E0.01864
G1 X68.36 Y84.885 E.01546
G1 F2396.205
G1 X68.088 Y84.571 E.016
G1 X67.842 Y84.137 E0.01917
G1 F2397.548
G1 X67.697 Y83.675 E.01863
G1 X67.659 Y83.387 E0.01117
G1 X67.684 Y82.861 E.02028
G1 F2399.739
G1 X67.817 Y82.381 E.01917
G1 X68.042 Y81.952 E0.01864
G1 X68.305 Y81.628 E.01606
G1 X68.676 Y81.319 E0.01857
G1 X69.043 Y81.12 E.01606
G1 X69.504 Y80.976 E.01858
G1 F2397.61
G1 X69.919 Y80.934 E.01606
G1 X70.4 Y80.977 E0.01857
G1 F2399.912
G1 X70.8 Y81.097 E.01606
G1 F2394.88
G1 X71.107 Y81.258 E.01337
M204 S1500
G1 X71.453 Y80.971 F180000
G1 F2400
M204 S1000
G1 F2397.332
G1 X71.719 Y81.158 E.01253
G1 X72.108 Y81.57 E0.0218
G1 F2399.749
G1 X72.377 Y81.993 E.01929
G1 F2398.649
G1 X72.579 Y82.522 E.0218
G1 F2399.679
G1 X72.669 Y83.048 E.02053
G1 X72.656 Y83.559 E0.01966
G1 F2398.874
G1 X72.547 Y84.047 E.01925
G1 X72.309 Y84.588 E0.02275
G1 X72.021 Y84.998 E.01929
G1 F2399.524
G1 X71.609 Y85.387 E.0218
G1 X71.186 Y85.656 E0.01928
G1 F2398.318
G1 X70.657 Y85.858 E.0218
G1 X70.076 Y85.952 E.02265
G1 X69.48 Y85.911 E0.02297
G1 F2394.776
G1 X68.913 Y85.746 E.02275
G1 X68.412 Y85.477 E0.02186
G1 F2396.857
G1 X68.044 Y85.175 E.01833
G1 F2399.454
G1 X67.722 Y84.793 E.01922
G1 X67.436 Y84.275 E0.02275
G1 F2398.53
G1 X67.28 Y83.775 E.02016
G1 F2391.847
G1 X67.235 Y83.444 E.01289
G1 X67.239 Y82.967 E0.01833
G1 F2396.705
G1 X67.353 Y82.411 E.02186
G1 F2398.313
G1 X67.591 Y81.87 E.02275
G1 X67.879 Y81.459 E0.01929
G1 F2399.501
G1 X68.291 Y81.07 E.02179
G1 F2397.092
G1 X68.714 Y80.802 E.01929
G1 F2398.695
G1 X69.243 Y80.6 E.0218
G1 X69.737 Y80.513 E0.01929
G1 F2399.265
G1 X70.303 Y80.529 E.02179
G1 F2398.27
G1 X70.792 Y80.638 E.01929
G1 F2397.321
G1 X71.309 Y80.87 E.0218
G1 X71.404 Y80.936 E0.00444
M204 S1500
G1 X71.689 Y80.617 F180000
G1 F2400
M204 S1000
G1 F2394.549
G1 X71.98 Y80.818 E.01362
G1 F2397.438
G1 X72.43 Y81.287 E.02503
G1 F2399.466
G1 X72.748 Y81.778 E.02251
G1 X72.985 Y82.384 E0.02503
G1 X73.09 Y82.958 E.02245
G1 X73.089 Y83.509 E0.0212
G1 F2396.689
G1 X72.963 Y84.148 E.02509
G1 X72.693 Y84.777 E0.02633
G1 F2399.704
G1 X72.361 Y85.259 E.02252
G1 X71.892 Y85.709 E.02502
G1 F2398.694
G1 X71.401 Y86.027 E.02252
G1 X70.795 Y86.264 E0.02502
G1 F2399.363
G1 X70.221 Y86.369 E.02245
G1 F2398.449
G1 X69.67 Y86.368 E.02121
G1 X69.03 Y86.242 E0.02509
G1 F2399.966
G1 X68.401 Y85.972 E.02633
G1 F2398.24
G1 X67.921 Y85.641 E.02245
G1 F2399.292
G1 X67.532 Y85.251 E.0212
G1 X67.169 Y84.709 E0.02509
G1 F2398.087
G1 X66.915 Y84.074 E.02633
G1 X66.81 Y83.5 E0.02245
G1 X66.81 Y82.949 E.02121
G1 X66.937 Y82.309 E0.02509
G1 X67.206 Y81.68 E.02633
G1 F2399.621
G1 X67.539 Y81.199 E.02251
G1 X68.008 Y80.748 E0.02503
G1 F2396.774
G1 X68.499 Y80.431 E.02251
G1 X69.105 Y80.194 E0.02503
G1 F2398.028
G1 X69.68 Y80.089 E.02251
G1 F2397.726
G1 X70.33 Y80.102 E.02503
G1 X70.903 Y80.224 E0.02251
G1 F2390.795
G1 X71.498 Y80.485 E.02503
G1 X71.639 Y80.583 E0.00658
M204 S1500
G1 X71.922 Y80.26 F180000
G1 F2400
M204 S1000
G1 F2388.299
G1 X72.24 Y80.477 E.01484
G1 F2398.187
G1 X72.752 Y81.004 E.02825
G1 F2396.489
G1 X73.119 Y81.563 E.02575
G1 X73.39 Y82.246 E0.02825
G1 X73.515 Y82.901 E.02568
G1 F2399.898
G1 X73.517 Y83.527 E.02408
G1 X73.379 Y84.25 E0.02831
G1 F2393.619
G1 X73.236 Y84.644 E.01616
G1 X72.99 Y85.126 E0.0208
G1 F2397.58
G1 X72.66 Y85.571 E.02133
G1 F2398.559
G1 X72.175 Y86.031 E.02573
G1 X71.615 Y86.398 E0.02574
G1 F2397.475
G1 X70.933 Y86.669 E.02825
G1 X70.277 Y86.794 E0.02569
G1 X69.652 Y86.796 E.02407
G1 F2399.11
G1 X68.929 Y86.658 E.02832
G1 X68.534 Y86.515 E0.01615
G1 F2396.687
G1 X67.891 Y86.158 E.02832
G1 X67.413 Y85.754 E0.02407
G1 F2397.403
G1 X66.989 Y85.239 E.02569
G1 X66.625 Y84.552 E0.02991
G1 F2396.894
G1 X66.435 Y83.924 E.02525
G1 X66.385 Y83.556 E0.01426
G1 F2393.947
G1 X66.382 Y82.931 E.02408
G1 F2399.842
G1 X66.52 Y82.208 E.02831
G1 X66.822 Y81.491 E0.02992
G1 F2398.554
G1 X67.198 Y80.938 E.02574
G1 X67.725 Y80.427 E0.02825
G1 F2396.989
G1 X68.284 Y80.06 E.02575
G1 X68.967 Y79.788 E0.02825
G1 X69.624 Y79.664 E.02575
G1 F2399.788
G1 X70.358 Y79.674 E.02825
G1 X71.013 Y79.81 E0.02574
G1 F2396.013
G1 X71.687 Y80.101 E.02826
G1 X71.872 Y80.227 E0.00859
G1 E-1 F3600
M204 S1500
G1 X88.015 Y69.135 F180000
G1 E1 F3600
;TYPE:External perimeter
G1 F2400
M204 S1000
G1 X88.221 Y68.723 E0.01773
G1 X88.453 Y68.426 E0.01452
G1 X88.797 Y68.129 E0.01745
G1 X89.125 Y67.944 E0.01452
G1 X89.556 Y67.802 E0.01745
G1 X89.93 Y67.756 E0.01452
G1 X90.383 Y67.789 E0.01745
G1 X90.746 Y67.89 E0.01452
G1 X91.151 Y68.094 E0.01745
G1 X91.444 Y68.322 E0.01427
G1 X91.695 Y68.602 E0.01446
G1 X91.929 Y68.997 E0.01769
G1 X92.072 Y69.43 E0.01752
G1 X92.118 Y69.804 E0.01451
G1 X92.084 Y70.256 E0.01745
G1 X91.983 Y70.62 E0.01452
G1 X91.779 Y71.025 E0.01745
G1 X91.551 Y71.318 E0.01428
G1 X91.272 Y71.569 E0.01446
G1 X90.876 Y71.803 E0.01769
G1 X90.444 Y71.946 E0.01751
G1 X90.076 Y71.992 E0.01428
G1 X89.701 Y71.971 E0.01446
G1 X89.255 Y71.858 E0.01769
G1 X88.849 Y71.653 E0.01751
G1 X88.556 Y71.425 E0.01428
G1 X88.305 Y71.146 E0.01445
G1 X88.071 Y70.75 E0.0177
G1 X87.928 Y70.318 E0.01751
G1 X87.884 Y69.985 E0.01291
G1 X87.916 Y69.491 E0.01906
G1 X87.999 Y69.193 E0.01192
;WIPE_START
M204 S1500
G1 X88.226 Y69.157 F180000
;WIPE_END
G1 X87.634 Y68.942
;TYPE:Internal perimeter
G1 F2400
M204 S1000
G1 X87.844 Y68.515 E0.0183
G1 F2392.359
G1 X88.17 Y68.104 E.02023
G1 X88.582 Y67.758 E0.02067
G1 F2397.583
G1 X88.987 Y67.538 E.01774
G1 X89.473 Y67.381 E0.01965
G1 F2399.385
G1 X89.958 Y67.328 E.01878
G1 X90.493 Y67.375 E.02067
G1 X90.935 Y67.506 E.01774
G1 X91.412 Y67.754 E0.02067
G1 F2396.45
G1 X91.759 Y68.033 E.01715
G1 X92.061 Y68.379 E0.01767
G1 F2399.671
G1 X92.335 Y68.859 E.02127
G1 F2398.477
G1 X92.497 Y69.373 E.02074
G1 X92.545 Y69.832 E0.01774
G1 F2397.44
G1 X92.505 Y70.339 E.01958
G1 X92.368 Y70.809 E0.01884
G1 X92.12 Y71.285 E.02067
G1 F2399.507
G1 X91.841 Y71.633 E.01715
G1 X91.494 Y71.935 E0.01768
G1 F2395.352
G1 X91.047 Y72.197 E.01996
G1 X90.56 Y72.36 E0.01975
G1 X90.058 Y72.42 E.01947
G1 X89.599 Y72.388 E0.01768
G1 F2396.911
G1 X89.112 Y72.263 E.01936
G1 F2397.959
G1 X88.66 Y72.041 E.01938
G1 X88.259 Y71.734 E0.0194
G1 X87.939 Y71.368 E.01872
G1 X87.678 Y70.923 E.01988
G1 X87.509 Y70.414 E0.02063
G1 F2399.801
G1 X87.459 Y70.042 E.01444
G1 X87.481 Y69.505 E0.02067
G1 X87.608 Y68.996 E.02018
M204 S1500
G1 X87.247 Y68.784 F180000
G1 F2400
M204 S1000
G1 F2398.413
G1 X87.429 Y68.38 E.01705
G1 X87.744 Y67.935 E0.02096
G1 X88.197 Y67.51 E.0239
G1 X88.658 Y67.219 E0.02097
G1 F2399.57
G1 X89.239 Y67 E.02389
G1 X89.776 Y66.908 E.02097
G1 F2395.382
G1 X90.396 Y66.927 E.0239
G1 X90.928 Y67.048 E0.02096
G1 F2397.435
G1 X91.494 Y67.303 E.0239
G1 F2399.144
G1 X91.937 Y67.617 E.0209
G1 X92.301 Y67.989 E0.02002
G1 X92.642 Y68.51 E.02396
G1 F2398.717
G1 X92.874 Y69.112 E.02484
G1 F2399.345
G1 X92.966 Y69.649 E.02097
G1 X92.947 Y70.27 E0.0239
G1 X92.826 Y70.801 E.02096
G1 F2397.706
G1 X92.571 Y71.367 E.0239
G1 X92.257 Y71.811 E0.0209
G1 F2399.042
G1 X91.885 Y72.175 E.02002
G1 F2398.584
G1 X91.364 Y72.516 E.02396
G1 X90.761 Y72.748 E0.02484
G1 F2396.161
G1 X90.226 Y72.839 E.02091
G1 F2398.714
G1 X89.706 Y72.834 E.02001
G1 X89.096 Y72.706 E0.02396
G1 X88.506 Y72.444 E.02485
G1 F2396.166
G1 X88.063 Y72.131 E.0209
G1 X87.699 Y71.759 E0.02001
G1 F2398.508
G1 X87.358 Y71.238 E.02396
G1 X87.126 Y70.635 E0.02485
G1 X87.034 Y70.098 E.02097
G1 F2397.54
G1 X87.053 Y69.477 E.02389
G1 F2388.956
G1 X87.174 Y68.946 E.02097
G1 X87.223 Y68.838 E0.00454
M204 S1500
