; generated by SuperSlicer 2.5.59.8 on 2024-03-31 at 10:56:39 UTC


;
;

;
;

;
;

;
;

;
;
; 

; external perimeters extrusion width = 0.40mm
; perimeters extrusion width = 0.40mm
; infill extrusion width = 0.40mm
; solid infill extrusion width = 0.40mm
; top infill extrusion width = 0.40mm

; object:{"name":"face_rapido","id":"face_rapido.stl id:0 copy 0","object_center":[87.500000,110.000000,0.000000],"boundingbox_center":[87.500000,110.000000,11.500000],"boundingbox_size":[40.000000,40.000000,23.000000]}
EXCLUDE_OBJECT_DEFINE NAME=face_rapido_stl_id_0_copy_0 CENTER=87.500000,110.000000 POLYGON=[[67.50,92.50],[70.00,90.00],[105.00,90.00],[107.50,92.50],[107.50,127.50],[107.48,127.52],[105.00,130.00],[68.50,130.00],[67.50,129.00],[67.50,92.50]]
; plater:{"center":[87.500000,110.000000,0.000000],"boundingbox_center":[87.500000,110.000000,11.500000],"boundingbox_size":[40.000000,40.000000,23.000000]}

M73 P0 R79
M107
;TYPE:Custom
CALCULATE_PA MATERIAL=ABS BOWDEN_LENGTH=6 LAYER_HEIGHT=0.24 NOZZLE_SIZE=0.4 PRINT_SPEED=95


START_PRINT EXTRUDER=270 BED=100

M107
G21 ; set units to millimeters
G90 ; use absolute coordinates
M83 ; use relative distances for extrusion
ACTIVATE_EXTRUDER EXTRUDER=extruder
; Filament gcode
M104 S270 T0 ; set temperature
M109 S270 T0 ; set temperature and wait for it to be reached
M190 S100 ; set bed temperature and wait for it to be reached
;LAYER_CHANGE
;Z:0.24
;HEIGHT:0.24
;BEFORE_LAYER_CHANGE
G92 E0.0

G1 E-1.5 F3000
M73 P0 R78
G1 Z0.2 F3600000
G1 Z0.24
;AFTER_LAYER_CHANGE
;0.24




CALCULATE_PA MATERIAL=ABS BOWDEN_LENGTH=6.0 LAYER_HEIGHT=0.2 NOZZLE_SIZE=0.4 PRINT_SPEED=95


G92 E0
G1 Z0.44
G1 X66.869 Y86.336
G1 Z0.24
G1 E1.5 F3000
;TYPE:Skirt
;WIDTH:0.4
M107
G1 F2400
G1 X67.974 Y85.628 E0.04565
G1 X69.655 Y85.195 E0.06036
G1 X74.721 Y85.21 E0.17617
G1 X75.83 Y85.461 E0.03952
G1 X76.851 Y85.963 E0.03958
G1 X78.07 Y87.141 E0.05895
G1 X82.183 Y94.367 E0.28912
G1 X92.795 Y94.375 E0.36902
G1 X96.891 Y87.193 E0.28749
G1 X98.03 Y86.046 E0.05618
G1 X98.891 Y85.57 E0.03424
G1 X99.872 Y85.266 E0.03571
G1 X105.352 Y85.198 E0.19056
G1 X106.706 Y85.496 E0.04821
G1 X108.13 Y86.333 E0.05744
G1 X111.523 Y89.847 E0.16985
G1 X112.063 Y90.96 E0.04302
G1 X112.305 Y92.172 E0.04297
G1 X112.305 Y127.843 E1.2404
G1 X112.013 Y129.183 E0.04769
G1 X111.306 Y130.449 E0.0504
G1 X107.654 Y134.022 E0.17768
G1 X106.54 Y134.563 E0.04306
G1 X105.328 Y134.805 E0.04297
G1 X69.656 Y134.805 E1.2404
G1 X68.316 Y134.513 E0.0477
G1 X67.051 Y133.806 E0.0504
G1 X63.497 Y130.183 E0.17645
G1 X62.965 Y129.113 E0.04157
G1 X62.695 Y127.872 E0.04417
G1 X62.769 Y91.625 E1.26044
G1 X62.794 Y91.45 E0.00615
G1 X63.213 Y90.304 E0.04242
G1 X63.877 Y89.328 E0.04103
G1 X66.826 Y86.379 E0.14504
M107
G1 X67.073 Y86.625 F3600000
M107
G1 F2400
G1 X67.102 Y86.596 E0.00142
G1 X68.138 Y85.937 E0.04271
G1 X69.676 Y85.543 E0.05521
G1 X74.701 Y85.558 E0.17473
G1 X75.732 Y85.796 E0.03679
G1 X76.671 Y86.263 E0.03651
G1 X77.809 Y87.373 E0.05528
G1 X81.98 Y94.716 E0.29363
G1 X92.998 Y94.723 E0.38311
G1 X97.156 Y87.421 E0.29219
G1 X98.221 Y86.339 E0.05282
G1 X99.013 Y85.897 E0.03155
G1 X99.902 Y85.615 E0.03243
G1 X105.337 Y85.547 E0.18898
G1 X106.554 Y85.811 E0.04333
G1 X107.897 Y86.593 E0.05401
G1 X111.222 Y90.025 E0.16619
G1 X111.726 Y91.051 E0.03974
G1 X111.956 Y92.189 E0.04038
G1 X111.956 Y127.825 E1.23914
G1 X111.678 Y129.083 E0.04482
G1 X111.015 Y130.257 E0.04687
G1 X107.475 Y133.722 E0.17226
G1 X106.449 Y134.226 E0.03976
G1 X105.311 Y134.456 E0.04038
G1 X69.675 Y134.456 E1.23914
G1 X68.417 Y134.178 E0.04482
G1 X67.243 Y133.515 E0.04687
G1 X63.797 Y130.003 E0.17112
G1 X63.3 Y129.017 E0.03837
G1 X63.044 Y127.854 E0.04143
G1 X63.118 Y91.639 E1.25931
G1 X63.136 Y91.519 E0.00419
G1 X63.514 Y90.481 E0.03841
G1 X64.135 Y89.563 E0.03855
G1 X67.03 Y86.668 E0.14238
M107
G1 X67.277 Y86.914 F3600000
M107
G1 F2400
G1 X67.334 Y86.857 E0.00284
G1 X68.301 Y86.246 E0.03974
G1 X69.697 Y85.892 E0.05009
G1 X74.68 Y85.907 E0.17327
G1 X75.632 Y86.13 E0.03401
G1 X76.49 Y86.562 E0.03342
G1 X77.547 Y87.605 E0.05162
G1 X81.777 Y95.064 E0.29818
G1 X93.2 Y95.072 E0.39722
G1 X97.421 Y87.648 E0.29693
G1 X98.414 Y86.63 E0.04946
G1 X99.138 Y86.223 E0.0289
G1 X99.933 Y85.963 E0.02909
G1 X105.322 Y85.895 E0.18738
G1 X106.404 Y86.127 E0.03849
G1 X107.664 Y86.853 E0.05056
G1 X110.922 Y90.204 E0.16251
G1 X111.404 Y91.184 E0.038
G1 X111.608 Y92.207 E0.03625
G1 X111.608 Y127.805 E1.23787
G1 X111.344 Y128.981 E0.04191
G1 X110.725 Y130.063 E0.04333
G1 X107.296 Y133.421 E0.16689
G1 X106.316 Y133.904 E0.03801
G1 X105.293 Y134.108 E0.03625
G1 X69.695 Y134.108 E1.23787
G1 X68.519 Y133.844 E0.04191
G1 X67.437 Y133.224 E0.04333
G1 X64.095 Y129.821 E0.16588
G1 X63.636 Y128.919 E0.03518
G1 X63.392 Y127.835 E0.03865
G1 X63.466 Y91.654 E1.25812
G1 X63.477 Y91.595 E0.00209
G1 X63.834 Y90.621 E0.03606
G1 X64.393 Y89.798 E0.03462
G1 X67.234 Y86.957 E0.13972
M107
G1 X67.481 Y87.203 F3600000
M107
G1 F2400
G1 X67.567 Y87.117 E0.00424
G1 X68.462 Y86.556 E0.03674
G1 X69.717 Y86.24 E0.045
G1 X74.658 Y86.255 E0.17181
G1 X75.531 Y86.464 E0.03119
G1 X76.308 Y86.86 E0.03034
G1 X77.285 Y87.835 E0.04797
G1 X81.574 Y95.412 E0.30278
G1 X93.403 Y95.42 E0.41134
G1 X97.713 Y87.84 E0.30321
G1 X98.606 Y86.922 E0.04456
G1 X99.294 Y86.535 E0.02742
G1 X100.015 Y86.302 E0.02636
G1 X105.306 Y86.244 E0.18398
G1 X106.303 Y86.462 E0.0355
G1 X107.431 Y87.113 E0.04529
G1 X110.622 Y90.384 E0.15888
G1 X111.067 Y91.276 E0.03468
G1 X111.259 Y92.224 E0.03363
G1 X111.259 Y127.786 E1.23658
G1 X111.01 Y128.878 E0.03896
G1 X110.435 Y129.867 E0.03978
G1 X107.117 Y133.122 E0.16163
G1 X106.224 Y133.567 E0.03469
G1 X105.276 Y133.759 E0.03363
G1 X69.714 Y133.759 E1.23658
G1 X68.622 Y133.51 E0.03896
G1 X67.633 Y132.935 E0.03979
G1 X64.393 Y129.637 E0.16075
G1 X63.97 Y128.82 E0.03198
G1 X63.741 Y127.816 E0.03583
G1 X63.815 Y91.685 E1.25638
G1 X64.135 Y90.798 E0.03278
G1 X64.651 Y90.032 E0.03213
G1 X67.438 Y87.245 E0.13705
M107
G1 X67.685 Y87.492 F3600000
M107
G1 F2400
G1 X67.799 Y87.377 E0.00563
G1 X68.623 Y86.867 E0.03371
G1 X69.738 Y86.589 E0.03995
G1 X74.637 Y86.603 E0.17034
G1 X75.427 Y86.798 E0.02832
G1 X76.124 Y87.158 E0.02726
G1 X76.993 Y88.027 E0.04274
G1 X81.371 Y95.761 E0.30902
G1 X93.606 Y95.769 E0.42545
G1 X98.005 Y88.032 E0.3095
G1 X98.8 Y87.212 E0.03971
G1 X99.418 Y86.861 E0.0247
G1 X100.097 Y86.642 E0.02482
G1 X105.29 Y86.593 E0.18058
G1 X106.154 Y86.778 E0.03072
G1 X107.199 Y87.374 E0.04185
G1 X110.323 Y90.565 E0.15527
G1 X110.73 Y91.369 E0.03136
G1 X110.911 Y92.242 E0.03098
G1 X110.911 Y127.766 E1.23527
G1 X110.676 Y128.773 E0.03596
G1 X110.147 Y129.67 E0.03624
G1 X106.935 Y132.823 E0.15648
G1 X106.131 Y133.23 E0.03136
G1 X105.258 Y133.411 E0.03098
G1 X69.734 Y133.411 E1.23527
G1 X68.727 Y133.176 E0.03597
G1 X67.829 Y132.646 E0.03625
G1 X64.689 Y129.453 E0.15573
G1 X64.305 Y128.719 E0.0288
G1 X64.089 Y127.796 E0.03296
G1 X64.153 Y91.774 E1.25262
G1 X64.436 Y90.974 E0.02949
G1 X64.91 Y90.267 E0.0296
G1 X67.642 Y87.534 E0.13437
M107
G1 X67.889 Y87.781 F3600000
M107
G1 F2400
G1 X68.031 Y87.638 E0.007
G1 X68.782 Y87.178 E0.03064
G1 X69.758 Y86.937 E0.03495
G1 X74.614 Y86.952 E0.16886
G1 X75.322 Y87.131 E0.02539
G1 X75.939 Y87.454 E0.02421
G1 X76.701 Y88.219 E0.03756
G1 X81.167 Y96.109 E0.31527
G1 X93.808 Y96.118 E0.43957
G1 X98.297 Y88.223 E0.31579
G1 X98.994 Y87.503 E0.03485
G1 X99.574 Y87.173 E0.02319
G1 X100.177 Y86.982 E0.022
G1 X105.273 Y86.941 E0.17721
G1 X106.053 Y87.112 E0.02777
G1 X106.967 Y87.636 E0.03662
G1 X110.025 Y90.748 E0.15171
G1 X110.394 Y91.464 E0.02803
G1 X110.562 Y92.26 E0.02828
G1 X110.562 Y127.745 E1.23393
G1 X110.343 Y128.666 E0.03291
G1 X109.859 Y129.472 E0.03269
G1 X106.752 Y132.525 E0.15147
G1 X106.036 Y132.894 E0.02803
G1 X105.24 Y133.062 E0.02828
G1 X69.755 Y133.062 E1.23393
M73 P1 R78
G1 X68.834 Y132.843 E0.03292
G1 X68.028 Y132.359 E0.0327
G1 X64.985 Y129.267 E0.15085
G1 X64.639 Y128.617 E0.02561
G1 X64.438 Y127.776 E0.03005
G1 X64.491 Y91.862 E1.24885
G1 X64.757 Y91.111 E0.0277
G1 X65.168 Y90.501 E0.02557
G1 X67.846 Y87.823 E0.1317
M107
G1 X68.093 Y88.07 F3600000
M107
G1 F2400
G1 X68.263 Y87.9 E0.00835
G1 X68.94 Y87.49 E0.02753
G1 X69.778 Y87.286 E0.03
G1 X74.591 Y87.3 E0.16736
G1 X75.215 Y87.463 E0.0224
G1 X75.752 Y87.749 E0.02117
G1 X76.409 Y88.411 E0.03244
G1 X80.89 Y96.326 E0.31628
G1 X80.963 Y96.436 E0.00459
G1 X81.021 Y96.457 E0.00216
G1 X93.871 Y96.466 E0.44682
G1 X94.02 Y96.451 E0.0052
G1 X98.589 Y88.414 E0.32149
G1 X99.189 Y87.793 E0.03005
G1 X99.697 Y87.5 E0.02038
G1 X100.257 Y87.323 E0.02043
G1 X105.256 Y87.29 E0.17384
G1 X105.905 Y87.429 E0.02306
G1 X106.736 Y87.898 E0.03318
G1 X109.727 Y90.931 E0.14813
G1 X110.073 Y91.603 E0.02629
G1 X110.214 Y92.278 E0.02398
G1 X110.214 Y127.725 E1.23261
G1 X110.03 Y128.512 E0.02807
G1 X109.599 Y129.24 E0.02943
G1 X106.569 Y132.227 E0.14795
G1 X105.897 Y132.573 E0.02629
G1 X105.222 Y132.714 E0.02398
G1 X69.775 Y132.714 E1.23261
G1 X68.988 Y132.53 E0.02808
G1 X68.26 Y132.098 E0.02945
G1 X65.28 Y129.079 E0.14753
G1 X64.972 Y128.512 E0.02243
G1 X64.786 Y127.756 E0.02708
G1 X64.83 Y91.949 E1.24512
G1 X65.06 Y91.286 E0.02439
G1 X65.427 Y90.736 E0.02301
G1 X68.05 Y88.112 E0.12902
M107
G1 X68.297 Y88.358 F3600000
M107
G1 F2400
G1 X68.494 Y88.161 E0.00969
G1 X69.096 Y87.803 E0.02437
G1 X69.798 Y87.635 E0.02511
G1 X74.567 Y87.649 E0.16585
G1 X75.104 Y87.794 E0.01932
G1 X75.563 Y88.043 E0.01817
G1 X76.118 Y88.603 E0.02739
G1 X80.592 Y96.508 E0.31589
G1 X80.694 Y96.662 E0.0064
G1 X80.792 Y96.755 E0.0047
G1 X80.973 Y96.806 E0.00652
G1 X93.883 Y96.815 E0.44892
G1 X94.068 Y96.802 E0.00645
G1 X94.191 Y96.763 E0.00448
G1 X94.25 Y96.718 E0.00258
G1 X94.341 Y96.611 E0.00487
G1 X98.881 Y88.605 E0.32006
G1 X99.385 Y88.082 E0.02524
G1 X99.854 Y87.811 E0.01884
G1 X100.335 Y87.663 E0.01751
G1 X105.239 Y87.638 E0.17051
G1 X105.804 Y87.763 E0.02014
G1 X106.505 Y88.16 E0.028
G1 X109.431 Y91.116 E0.14461
G1 X109.737 Y91.699 E0.02292
G1 X109.865 Y92.296 E0.02124
G1 X109.865 Y127.705 E1.23126
G1 X109.697 Y128.405 E0.02502
G1 X109.338 Y129.007 E0.02441
G1 X106.384 Y131.931 E0.1445
G1 X105.801 Y132.237 E0.02292
G1 X105.204 Y132.365 E0.02124
G1 X69.795 Y132.365 E1.23126
G1 X69.095 Y132.197 E0.02503
G1 X68.492 Y131.837 E0.02443
G1 X65.573 Y128.889 E0.14429
G1 X65.304 Y128.405 E0.01925
G1 X65.135 Y127.734 E0.02404
G1 X65.169 Y92.033 E1.24143
G1 X65.363 Y91.459 E0.02107
G1 X65.686 Y90.969 E0.02039
G1 X68.254 Y88.401 E0.12631
M107
G1 X68.501 Y88.647 F3600000
M107
G1 F2400
G1 X68.724 Y88.424 E0.011
G1 X69.249 Y88.117 E0.02114
G1 X69.817 Y87.983 E0.0203
G1 X74.543 Y87.997 E0.16431
G1 X74.99 Y88.124 E0.01615
G1 X75.372 Y88.336 E0.01521
G1 X75.826 Y88.794 E0.02242
G1 X80.295 Y96.691 E0.31551
G1 X80.425 Y96.887 E0.0082
G1 X80.582 Y97.036 E0.00749
G1 X80.658 Y97.08 E0.00308
G1 X80.827 Y97.137 E0.00619
G1 X80.947 Y97.154 E0.00422
G1 X93.895 Y97.163 E0.45023
G1 X94.117 Y97.148 E0.00776
G1 X94.231 Y97.123 E0.00405
G1 X94.363 Y97.068 E0.00497
G1 X94.49 Y96.974 E0.00549
G1 X94.628 Y96.811 E0.00741
G1 X99.174 Y88.796 E0.32043
G1 X99.582 Y88.37 E0.02051
G1 X99.976 Y88.138 E0.0159
G1 X100.413 Y88.004 E0.0159
G1 X105.221 Y87.987 E0.16719
G1 X105.658 Y88.081 E0.01553
G1 X106.275 Y88.423 E0.02455
G1 X109.136 Y91.303 E0.14115
G1 X109.402 Y91.798 E0.01954
G1 X109.517 Y92.315 E0.01843
G1 X109.517 Y127.685 E1.2299
G1 X109.383 Y128.251 E0.02023
G1 X109.076 Y128.776 E0.02116
G1 X106.197 Y131.636 E0.14111
G1 X105.702 Y131.902 E0.01954
G1 X105.185 Y132.017 E0.01843
G1 X69.815 Y132.017 E1.2299
M73 P1 R77
G1 X69.249 Y131.883 E0.02023
G1 X68.723 Y131.576 E0.02118
G1 X65.864 Y128.696 E0.14111
G1 X65.635 Y128.295 E0.01607
G1 X65.483 Y127.712 E0.02093
G1 X65.509 Y92.115 E1.23781
G1 X65.668 Y91.63 E0.01776
G1 X65.945 Y91.203 E0.0177
G1 X68.458 Y88.69 E0.12359
M107
G1 X68.705 Y88.936 F3600000
M107
G1 F2400
G1 X68.954 Y88.686 E0.01228
G1 X69.4 Y88.432 E0.01784
G1 X69.836 Y88.332 E0.01557
G1 X74.516 Y88.346 E0.16275
G1 X74.871 Y88.452 E0.01286
G1 X75.179 Y88.627 E0.01233
G1 X75.534 Y88.986 E0.01755
G1 X79.998 Y96.873 E0.31513
G1 X80.149 Y97.101 E0.00951
G1 X80.251 Y97.215 E0.00534
G1 X80.382 Y97.323 E0.00589
G1 X80.514 Y97.399 E0.00529
G1 X80.746 Y97.477 E0.00852
G1 X80.922 Y97.503 E0.00618
G1 X93.907 Y97.512 E0.45153
G1 X94.167 Y97.494 E0.00907
G1 X94.336 Y97.457 E0.00601
G1 X94.536 Y97.374 E0.00754
G1 X94.73 Y97.23 E0.00839
G1 X94.915 Y97.012 E0.00995
G1 X99.466 Y88.987 E0.32081
G1 X99.78 Y88.658 E0.01578
G1 X100.135 Y88.45 E0.01432
G1 X100.488 Y88.345 E0.01282
G1 X105.202 Y88.336 E0.16393
G1 X105.557 Y88.415 E0.01264
G1 X106.046 Y88.686 E0.01943
G1 X108.843 Y91.493 E0.13779
G1 X109.068 Y91.9 E0.01616
G1 X109.168 Y92.335 E0.01553
G1 X109.168 Y127.665 E1.22853
G1 X109.068 Y128.1 E0.01553
G1 X108.814 Y128.546 E0.01784
G1 X106.007 Y131.343 E0.13779
G1 X105.6 Y131.568 E0.01616
G1 X105.165 Y131.668 E0.01553
G1 X69.835 Y131.668 E1.22853
G1 X69.4 Y131.568 E0.01553
G1 X68.954 Y131.313 E0.01786
G1 X66.153 Y128.501 E0.13801
G1 X65.966 Y128.181 E0.01291
G1 X65.832 Y127.689 E0.01772
G1 X65.849 Y92.197 E1.23416
G1 X65.992 Y91.76 E0.016
G1 X66.204 Y91.437 E0.01345
G1 X68.662 Y88.979 E0.12089
M107
G1 X68.909 Y89.225 F3600000
M107
G1 F2400
G1 X69.183 Y88.95 E0.01352
G1 X69.547 Y88.749 E0.01445
G1 X69.854 Y88.68 E0.01096
G1 X74.488 Y88.694 E0.16113
G1 X74.745 Y88.778 E0.0094
G1 X74.984 Y88.916 E0.00959
G1 X75.242 Y89.178 E0.01277
G1 X79.7 Y97.055 E0.31475
G1 X79.872 Y97.314 E0.01081
G1 X80.009 Y97.468 E0.00717
G1 X80.183 Y97.61 E0.00779
G1 X80.369 Y97.718 E0.0075
G1 X80.665 Y97.817 E0.01084
G1 X80.896 Y97.851 E0.00813
G1 X93.919 Y97.86 E0.45283
G1 X94.217 Y97.84 E0.01039
G1 X94.441 Y97.791 E0.00797
G1 X94.709 Y97.679 E0.01011
G1 X94.97 Y97.486 E0.0113
G1 X95.202 Y97.212 E0.01249
G1 X99.759 Y89.177 E0.32119
G1 X99.98 Y88.944 E0.01118
G1 X100.255 Y88.777 E0.01118
G1 X100.563 Y88.686 E0.01116
G1 X105.182 Y88.684 E0.16062
G1 X105.453 Y88.749 E0.00969
G1 X105.817 Y88.95 E0.01445
G1 X108.55 Y91.683 E0.13442
G1 X108.751 Y92.047 E0.01445
G1 X108.82 Y92.354 E0.01095
G1 X108.82 Y127.646 E1.2272
G1 X108.751 Y127.953 E0.01095
G1 X108.55 Y128.317 E0.01445
G1 X105.817 Y131.05 E0.13442
G1 X105.453 Y131.251 E0.01445
G1 X105.146 Y131.32 E0.01095
G1 X69.854 Y131.32 E1.2272
G1 X69.547 Y131.251 E0.01095
G1 X69.183 Y131.05 E0.01445
G1 X66.44 Y128.302 E0.13501
G1 X66.294 Y128.062 E0.00976
G1 X66.18 Y127.665 E0.01437
G1 X66.19 Y92.276 E1.23058
G1 X66.298 Y91.928 E0.01265
G1 X66.464 Y91.67 E0.01068
G1 X68.866 Y89.267 E0.11815
M107
G1 X69.113 Y89.514 F3600000
M107
G1 F2400
G1 X69.412 Y89.215 E0.0147
G1 X69.689 Y89.068 E0.01091
G1 X69.872 Y89.029 E0.00653
G1 X74.411 Y89.035 E0.15782
G1 X74.587 Y89.089 E0.00641
G1 X74.788 Y89.206 E0.00809
G1 X74.95 Y89.37 E0.00799
G1 X79.403 Y97.237 E0.31437
G1 X79.595 Y97.528 E0.01212
G1 X79.768 Y97.72 E0.00899
G1 X79.983 Y97.897 E0.00969
G1 X80.225 Y98.037 E0.00971
G1 X80.584 Y98.158 E0.01317
G1 X80.871 Y98.2 E0.01009
G1 X93.931 Y98.209 E0.45413
G1 X94.266 Y98.185 E0.0117
G1 X94.541 Y98.125 E0.0098
G1 X94.807 Y98.022 E0.0099
G1 X94.896 Y97.975 E0.00352
G1 X95.21 Y97.742 E0.0136
G1 X95.489 Y97.412 E0.01503
G1 X100.051 Y89.369 E0.32152
G1 X100.212 Y89.206 E0.00799
G1 X100.413 Y89.089 E0.00809
G1 X100.589 Y89.035 E0.0064
G1 X105.128 Y89.029 E0.15781
G1 X105.311 Y89.068 E0.00653
G1 X105.588 Y89.215 E0.01091
G1 X108.285 Y91.912 E0.13261
G1 X108.432 Y92.189 E0.01091
G1 X108.471 Y92.372 E0.00653
G1 X108.471 Y127.628 E1.22593
G1 X108.432 Y127.811 E0.00653
G1 X108.285 Y128.088 E0.01091
G1 X105.588 Y130.785 E0.13261
G1 X105.311 Y130.932 E0.01091
G1 X105.128 Y130.971 E0.00653
G1 X69.872 Y130.971 E1.22593
G1 X69.689 Y130.932 E0.00653
G1 X69.412 Y130.785 E0.01091
G1 X66.701 Y128.07 E0.13339
G1 X66.621 Y127.939 E0.00535
G1 X66.529 Y127.639 E0.01091
G1 X66.538 Y92.305 E1.22869
G1 X66.621 Y92.061 E0.00894
G1 X66.723 Y91.903 E0.00653
G1 X69.07 Y89.556 E0.11542
M107
G1 X69.317 Y89.803 F3600000
M107
G1 F2400
G1 X69.638 Y89.482 E0.01579
G1 X69.822 Y89.391 E0.00715
G1 X69.89 Y89.377 E0.00239
G1 X74.342 Y89.377 E0.15483
G1 X74.432 Y89.401 E0.00322
G1 X74.593 Y89.495 E0.00649
G1 X74.658 Y89.561 E0.00322
