; generated by SuperSlicer 2.5.59.8 on 2024-04-01 at 06:51:03 UTC


;
;

;
;

;
;

;
;

;
;
; 

; external perimeters extrusion width = 0.40mm
; perimeters extrusion width = 0.40mm
; infill extrusion width = 0.40mm
; solid infill extrusion width = 0.40mm
; top infill extrusion width = 0.40mm

; object:{"name":"face_rapido","id":"face_rapido.stl id:0 copy 0","object_center":[44.975874,128.038196,0.000000],"boundingbox_center":[44.975874,128.038196,11.500000],"boundingbox_size":[40.000000,40.000000,23.000000]}
EXCLUDE_OBJECT_DEFINE NAME=face_rapido_stl_id_0_copy_0 CENTER=44.975874,128.038196 POLYGON=[[24.98,110.54],[27.48,108.04],[62.48,108.04],[64.98,110.54],[64.98,145.54],[64.58,145.93],[64.29,146.23],[63.31,147.20],[62.48,148.04],[25.98,148.04],[24.98,147.04],[24.98,110.54]]
; plater:{"center":[44.975874,128.038196,0.000000],"boundingbox_center":[44.975874,128.038196,11.500000],"boundingbox_size":[40.000000,40.000000,23.000000]}

M73 P0 R84
M107
;TYPE:Custom
CALCULATE_PA MATERIAL=ABS BOWDEN_LENGTH=6 LAYER_HEIGHT=0.24 NOZZLE_SIZE=0.4 PRINT_SPEED=60


START_PRINT EXTRUDER=270 BED=100

M107
G21 ; set units to millimeters
G90 ; use absolute coordinates
M83 ; use relative distances for extrusion
ACTIVATE_EXTRUDER EXTRUDER=extruder
; Filament gcode
M104 S270 T0 ; set temperature
M109 S270 T0 ; set temperature and wait for it to be reached
M190 S100 ; set bed temperature and wait for it to be reached
;LAYER_CHANGE
;Z:0.24
;HEIGHT:0.24
;BEFORE_LAYER_CHANGE
G92 E0.0

G1 E-1.5 F3000
M73 P0 R83
G1 Z0.2 F3600000
G1 Z0.24
;AFTER_LAYER_CHANGE
;0.24




CALCULATE_PA MATERIAL=ABS BOWDEN_LENGTH=6.0 LAYER_HEIGHT=0.2 NOZZLE_SIZE=0.4 PRINT_SPEED=60


G92 E0
G1 Z0.44
G1 X26.823 Y98.353
G1 Z0.24
G1 E1.5 F3000
;TYPE:Skirt
;WIDTH:0.4
M107
G1 F1200
G1 X32.461 Y98.37 E0.19606
G1 X34.665 Y98.808 E0.07811
G1 X36.738 Y99.744 E0.07909
G1 X39.121 Y101.839 E0.11036
G1 X42.476 Y107.528 E0.22966
G1 X47.457 Y107.532 E0.1732
G1 X50.735 Y101.956 E0.22492
G1 X52.922 Y99.932 E0.10363
G1 X54.808 Y98.978 E0.07349
G1 X56.971 Y98.43 E0.0776
G1 X63.063 Y98.354 E0.21182
G1 X66.399 Y99.171 E0.11945
G1 X68.932 Y100.787 E0.10446
G1 X73.258 Y105.474 E0.2218
G1 X74.237 Y107.669 E0.08357
G1 X74.66 Y109.982 E0.08176
G1 X74.636 Y146.36 E1.26499
G1 X74.086 Y148.857 E0.08891
G1 X72.905 Y151.123 E0.08885
G1 X67.926 Y156.041 E0.24336
G1 X67.659 Y156.246 E0.01172
G1 X65.433 Y157.272 E0.08522
G1 X63.034 Y157.722 E0.08488
G1 X26.695 Y157.703 E1.26361
G1 X24.164 Y157.151 E0.09008
G1 X21.895 Y155.969 E0.08897
G1 X16.909 Y150.91 E0.24699
G1 X16.771 Y150.726 E0.008
G1 X15.757 Y148.531 E0.0841
G1 X15.291 Y146.147 E0.08444
G1 X15.367 Y109.462 E1.27565
G1 X15.614 Y108.015 E0.05106
G1 X16.452 Y105.918 E0.07854
G1 X17.747 Y104.072 E0.07841
G1 X21.068 Y100.751 E0.16331
G1 X23.088 Y99.379 E0.08493
G1 X26.765 Y98.369 E0.13259
M107
G1 X26.846 Y98.702 F3600000
M107
G1 F1200
G1 X32.443 Y98.718 E0.19465
G1 X34.576 Y99.146 E0.07565
G1 X36.57 Y100.05 E0.07612
G1 X38.87 Y102.082 E0.10671
G1 X42.276 Y107.877 E0.23373
G1 X47.656 Y107.88 E0.18707
G1 X50.991 Y102.194 E0.22923
G1 X53.102 Y100.232 E0.10022
G1 X54.913 Y99.311 E0.07065
G1 X56.997 Y98.778 E0.07478
G1 X63.045 Y98.703 E0.21034
G1 X66.236 Y99.481 E0.11422
G1 X68.691 Y101.04 E0.10113
G1 X72.952 Y105.642 E0.21808
G1 X73.898 Y107.752 E0.08041
G1 X74.311 Y109.997 E0.07938
G1 X74.292 Y146.304 E1.2625
G1 X73.766 Y148.716 E0.08585
G1 X72.608 Y150.938 E0.0871
G1 X67.69 Y155.785 E0.24014
G1 X67.463 Y155.957 E0.00988
G1 X65.347 Y156.933 E0.08104
G1 X63.018 Y157.373 E0.08244
G1 X26.75 Y157.358 E1.26113
G1 X24.304 Y156.831 E0.08701
G1 X22.08 Y155.673 E0.0872
G1 X17.166 Y150.675 E0.24373
G1 X17.062 Y150.534 E0.0061
G1 X16.082 Y148.404 E0.08152
G1 X15.64 Y146.131 E0.08052
G1 X15.715 Y109.478 E1.27455
G1 X15.945 Y108.127 E0.04765
G1 X16.749 Y106.101 E0.07579
G1 X18.005 Y104.308 E0.07612
G1 X21.303 Y101.009 E0.1622
G1 X23.26 Y99.683 E0.08221
G1 X26.788 Y98.717 E0.12718
M107
G1 X26.868 Y99.05 F3600000
M107
G1 F1200
G1 X32.425 Y99.067 E0.19324
G1 X34.488 Y99.484 E0.07318
G1 X36.402 Y100.357 E0.07315
G1 X38.618 Y102.324 E0.10306
G1 X42.076 Y108.225 E0.23783
G1 X47.856 Y108.229 E0.20097
G1 X51.247 Y102.431 E0.23356
G1 X53.282 Y100.531 E0.09682
G1 X55.019 Y99.643 E0.06781
G1 X57.022 Y99.126 E0.07194
G1 X63.027 Y99.051 E0.20885
G1 X66.074 Y99.79 E0.10901
G1 X68.451 Y101.294 E0.0978
G1 X72.646 Y105.811 E0.21437
G1 X73.559 Y107.836 E0.07725
G1 X73.963 Y110.013 E0.07698
G1 X73.947 Y146.248 E1.26
G1 X73.431 Y148.619 E0.08439
G1 X72.312 Y150.752 E0.08372
G1 X67.454 Y155.529 E0.23692
G1 X67.269 Y155.667 E0.00801
G1 X65.221 Y156.608 E0.07839
G1 X63.002 Y157.025 E0.07853
G1 X26.805 Y157.014 E1.25866
M73 P1 R83
G1 X24.444 Y156.511 E0.08393
G1 X22.265 Y155.377 E0.08543
G1 X17.424 Y150.44 E0.24042
G1 X17.354 Y150.343 E0.00414
G1 X16.42 Y148.317 E0.07761
G1 X15.989 Y146.115 E0.07802
G1 X16.064 Y109.493 E1.27346
G1 X16.275 Y108.238 E0.04424
G1 X17.065 Y106.248 E0.07445
G1 X18.262 Y104.543 E0.07243
G1 X21.538 Y101.268 E0.1611
G1 X23.431 Y99.988 E0.07948
G1 X26.81 Y99.066 E0.12179
M107
G1 X26.89 Y99.399 F3600000
M107
G1 F1200
G1 X32.407 Y99.415 E0.19183
G1 X34.361 Y99.809 E0.06933
G1 X36.233 Y100.663 E0.07154
G1 X38.366 Y102.566 E0.09939
G1 X41.876 Y108.573 E0.24195
G1 X48.056 Y108.578 E0.21488
G1 X51.504 Y102.668 E0.23792
G1 X53.463 Y100.83 E0.09342
G1 X55.125 Y99.976 E0.06498
G1 X57.047 Y99.475 E0.06908
G1 X63.01 Y99.4 E0.20736
G1 X65.912 Y100.1 E0.10382
G1 X68.211 Y101.548 E0.09447
G1 X72.34 Y105.981 E0.21066
G1 X73.22 Y107.921 E0.07408
G1 X73.614 Y110.029 E0.07457
G1 X73.603 Y146.193 E1.25753
G1 X73.111 Y148.479 E0.08129
G1 X72.016 Y150.566 E0.08195
G1 X67.219 Y155.271 E0.23367
G1 X67.077 Y155.375 E0.00611
G1 X65.095 Y156.282 E0.07578
G1 X62.986 Y156.676 E0.07464
G1 X26.86 Y156.669 E1.2562
M73 P1 R82
G1 X24.54 Y156.175 E0.08247
G1 X22.451 Y155.081 E0.082
G1 X17.684 Y150.207 E0.23707
G1 X17.65 Y150.158 E0.00206
G1 X16.745 Y148.19 E0.07533
G1 X16.337 Y146.098 E0.0741
G1 X16.412 Y109.508 E1.27237
G1 X16.606 Y108.349 E0.04085
G1 X17.362 Y106.431 E0.07168
G1 X18.519 Y104.779 E0.07013
G1 X21.772 Y101.526 E0.15998
G1 X23.602 Y100.293 E0.07674
G1 X26.833 Y99.414 E0.1164
M107
G1 X26.913 Y99.747 F3600000
M107
G1 F1200
G1 X32.389 Y99.764 E0.19042
G1 X34.272 Y100.147 E0.06684
G1 X36.064 Y100.969 E0.06855
G1 X38.113 Y102.807 E0.09572
G1 X41.676 Y108.922 E0.24609
G1 X48.256 Y108.926 E0.22881
G1 X51.762 Y102.904 E0.24229
G1 X53.645 Y101.128 E0.09001
G1 X55.232 Y100.308 E0.06214
G1 X57.073 Y99.823 E0.06619
G1 X62.993 Y99.749 E0.20586
G1 X65.751 Y100.411 E0.09864
G1 X67.972 Y101.802 E0.09113
G1 X72.034 Y106.151 E0.20693
G1 X72.894 Y108.046 E0.07235
G1 X73.266 Y110.045 E0.07071
G1 X73.258 Y146.138 E1.25505
G1 X72.775 Y148.382 E0.07982
G1 X71.721 Y150.379 E0.07853
G1 X66.984 Y155.013 E0.23041
G1 X66.888 Y155.082 E0.00415
G1 X65.01 Y155.943 E0.07182
G1 X62.969 Y156.328 E0.07221
G1 X26.914 Y156.324 E1.25376
G1 X24.681 Y155.855 E0.07935
G1 X22.637 Y154.785 E0.08021
G1 X17.954 Y149.985 E0.23319
G1 X17.083 Y148.102 E0.07213
G1 X16.686 Y146.082 E0.07159
G1 X16.76 Y109.523 E1.27128
G1 X16.937 Y108.459 E0.03749
G1 X17.66 Y106.614 E0.06891
G1 X18.776 Y105.015 E0.06782
G1 X22.006 Y101.784 E0.15886
G1 X23.773 Y100.598 E0.07399
G1 X26.855 Y99.763 E0.11103
M107
G1 X26.935 Y100.096 F3600000
M107
G1 F1200
G1 X32.37 Y100.112 E0.189
G1 X34.183 Y100.484 E0.06433
G1 X35.894 Y101.274 E0.06555
G1 X37.859 Y103.048 E0.09205
G1 X41.475 Y109.27 E0.25026
G1 X48.457 Y109.275 E0.24276
G1 X52.02 Y103.14 E0.24669
G1 X53.827 Y101.426 E0.08662
G1 X55.341 Y100.64 E0.05931
G1 X57.099 Y100.171 E0.06328
G1 X62.976 Y100.098 E0.20436
G1 X65.591 Y100.721 E0.09349
G1 X67.733 Y102.057 E0.08779
G1 X71.729 Y106.322 E0.20322
G1 X72.556 Y108.131 E0.06916
G1 X72.917 Y110.061 E0.06829
G1 X72.913 Y146.083 E1.2526
G1 X72.456 Y148.241 E0.07668
G1 X71.425 Y150.192 E0.07675
G1 X66.752 Y154.753 E0.22707
G1 X66.703 Y154.787 E0.00207
G1 X64.885 Y155.618 E0.06952
G1 X62.953 Y155.979 E0.06833
G1 X26.967 Y155.979 E1.25135
G1 X24.821 Y155.535 E0.07621
G1 X22.823 Y154.489 E0.07841
G1 X18.257 Y149.811 E0.2273
G1 X17.421 Y148.014 E0.06894
G1 X17.034 Y146.065 E0.06907
G1 X17.109 Y109.537 E1.27019
G1 X17.269 Y108.569 E0.03414
G1 X17.958 Y106.796 E0.06613
G1 X19.033 Y105.25 E0.06549
G1 X22.241 Y102.043 E0.15773
G1 X23.943 Y100.904 E0.07122
G1 X26.877 Y100.111 E0.10568
M107
G1 X26.957 Y100.444 F3600000
M107
G1 F1200
G1 X32.352 Y100.46 E0.18759
G1 X34.092 Y100.821 E0.06181
G1 X35.723 Y101.579 E0.06254
G1 X37.605 Y103.288 E0.08838
G1 X41.275 Y109.619 E0.25445
G1 X48.658 Y109.624 E0.25673
G1 X52.278 Y103.375 E0.25111
G1 X54.01 Y101.724 E0.08322
G1 X55.45 Y100.971 E0.05649
G1 X57.125 Y100.519 E0.06035
G1 X62.959 Y100.446 E0.20285
G1 X65.431 Y101.032 E0.08836
G1 X67.495 Y102.312 E0.08445
G1 X71.424 Y106.493 E0.1995
G1 X72.217 Y108.216 E0.06597
G1 X72.569 Y110.077 E0.06586
G1 X72.569 Y146.03 E1.25017
G1 X72.136 Y148.099 E0.07353
G1 X71.13 Y150.005 E0.07495
G1 X66.53 Y154.482 E0.22321
G1 X64.799 Y155.279 E0.06627
G1 X62.937 Y155.631 E0.06589
G1 X26.985 Y155.631 E1.25016
G1 X24.916 Y155.199 E0.07349
G1 X23.01 Y154.193 E0.07493
G1 X18.561 Y149.637 E0.22144
G1 X17.746 Y147.886 E0.06718
G1 X17.383 Y146.049 E0.0651
G1 X17.457 Y109.552 E1.26911
G1 X17.6 Y108.677 E0.03082
G1 X18.256 Y106.978 E0.06335
G1 X19.291 Y105.486 E0.06314
G1 X22.475 Y102.301 E0.15659
G1 X24.113 Y101.21 E0.06844
G1 X26.899 Y100.46 E0.10034
M107
G1 X26.979 Y100.793 F3600000
M107
G1 F1200
G1 X32.333 Y100.809 E0.18617
G1 X34.001 Y101.158 E0.05926
G1 X35.552 Y101.883 E0.05953
G1 X37.35 Y103.527 E0.08471
G1 X41.073 Y109.967 E0.25867
G1 X48.859 Y109.972 E0.27071
G1 X52.537 Y103.61 E0.25556
G1 X54.194 Y102.021 E0.07983
G1 X55.56 Y101.302 E0.05367
G1 X57.152 Y100.867 E0.05739
G1 X62.942 Y100.795 E0.20134
G1 X65.272 Y101.344 E0.08325
G1 X67.257 Y102.568 E0.0811
G1 X71.12 Y106.664 E0.19578
G1 X71.892 Y108.343 E0.06424
G1 X72.22 Y110.094 E0.06195
G1 X72.22 Y146.012 E1.24897
M73 P2 R82
G1 X71.8 Y148.004 E0.07079
G1 X70.835 Y149.818 E0.07146
G1 X66.357 Y154.179 E0.21736
G1 X64.713 Y154.941 E0.06302
G1 X62.92 Y155.282 E0.06344
G1 X27.003 Y155.282 E1.24896
G1 X25.012 Y154.863 E0.07076
G1 X23.198 Y153.898 E0.07145
G1 X18.864 Y149.463 E0.21563
G1 X18.083 Y147.797 E0.06398
G1 X17.731 Y146.032 E0.06257
G1 X17.806 Y109.567 E1.26803
G1 X17.932 Y108.785 E0.02753
G1 X18.555 Y107.159 E0.06056
G1 X19.548 Y105.721 E0.06078
G1 X22.709 Y102.56 E0.15544
G1 X24.282 Y101.516 E0.06565
G1 X26.921 Y100.808 E0.09501
M107
G1 X27.001 Y101.142 F3600000
M107
G1 F1200
G1 X32.314 Y101.157 E0.18474
G1 X33.909 Y101.495 E0.0567
G1 X35.379 Y102.187 E0.05651
G1 X37.094 Y103.766 E0.08105
G1 X40.872 Y110.315 E0.26292
G1 X49.06 Y110.321 E0.28471
G1 X52.797 Y103.844 E0.26003
G1 X54.378 Y102.317 E0.07644
G1 X55.671 Y101.633 E0.05085
G1 X57.179 Y101.216 E0.0544
G1 X62.925 Y101.144 E0.19983
G1 X65.114 Y101.655 E0.07817
G1 X67.02 Y102.824 E0.07775
G1 X70.815 Y106.837 E0.19206
G1 X71.553 Y108.429 E0.06102
G1 X71.872 Y110.11 E0.0595
G1 X71.872 Y145.993 E1.24777
G1 X71.465 Y147.907 E0.06803
G1 X70.541 Y149.63 E0.06797
G1 X66.183 Y153.875 E0.21154
G1 X64.586 Y154.616 E0.06124
G1 X62.904 Y154.934 E0.0595
G1 X27.021 Y154.934 E1.24776
G1 X25.108 Y154.527 E0.068
G1 X23.386 Y153.604 E0.06797
G1 X19.167 Y149.288 E0.20987
G1 X18.421 Y147.707 E0.06077
G1 X18.08 Y146.016 E0.06001
G1 X18.154 Y109.581 E1.26694
G1 X18.264 Y108.893 E0.02423
G1 X18.873 Y107.303 E0.0592
G1 X19.806 Y105.956 E0.05697
G1 X22.943 Y102.819 E0.15428
G1 X24.451 Y101.822 E0.06285
G1 X26.943 Y101.157 E0.0897
M107
G1 X27.023 Y101.49 F3600000
M107
G1 F1200
G1 X32.295 Y101.506 E0.18333
G1 X33.779 Y101.819 E0.05273
G1 X35.206 Y102.491 E0.05487
G1 X36.838 Y104.003 E0.07736
G1 X40.67 Y110.664 E0.2672
G1 X49.261 Y110.67 E0.29872
G1 X53.057 Y104.077 E0.26453
G1 X54.564 Y102.613 E0.07305
G1 X55.784 Y101.964 E0.04805
G1 X57.206 Y101.564 E0.05138
G1 X62.908 Y101.492 E0.1983
G1 X64.956 Y101.968 E0.0731
M73 P2 R81
G1 X66.783 Y103.081 E0.07439
G1 X70.512 Y107.01 E0.18834
G1 X71.215 Y108.515 E0.05779
G1 X71.523 Y110.126 E0.05704
G1 X71.523 Y145.975 E1.24656
G1 X71.129 Y147.81 E0.06525
G1 X70.247 Y149.441 E0.06448
G1 X66.009 Y153.572 E0.20578
G1 X64.499 Y154.277 E0.05797
G1 X62.888 Y154.585 E0.05704
G1 X27.039 Y154.585 E1.24656
G1 X25.251 Y154.209 E0.06354
G1 X23.574 Y153.309 E0.06618
G1 X19.469 Y149.112 E0.20414
G1 X18.758 Y147.617 E0.05757
G1 X18.428 Y145.999 E0.05743
G1 X18.503 Y109.595 E1.26586
G1 X18.596 Y109 E0.02096
G1 X19.171 Y107.483 E0.05639
G1 X20.064 Y106.191 E0.05459
G1 X23.177 Y103.078 E0.15312
G1 X24.619 Y102.128 E0.06003
G1 X26.965 Y101.505 E0.08441
M107
G1 X27.045 Y101.839 F3600000
M107
G1 F1200
G1 X32.276 Y101.854 E0.18191
G1 X33.686 Y102.155 E0.05015
G1 X35.033 Y102.795 E0.05183
G1 X36.581 Y104.24 E0.07367
G1 X40.469 Y111.012 E0.27151
G1 X49.463 Y111.018 E0.31275
G1 X53.318 Y104.309 E0.26906
G1 X54.75 Y102.909 E0.06967
G1 X55.897 Y102.294 E0.04525
G1 X57.233 Y101.912 E0.04833
G1 X62.892 Y101.841 E0.19677
G1 X64.799 Y102.28 E0.06807
G1 X66.547 Y103.338 E0.07102
G1 X70.208 Y107.183 E0.18464
G1 X70.877 Y108.603 E0.05456
G1 X71.175 Y110.143 E0.05455
G1 X71.175 Y145.957 E1.24534
G1 X70.811 Y147.666 E0.06076
G1 X69.953 Y149.252 E0.0627
G1 X65.834 Y153.269 E0.20005
G1 X64.411 Y153.939 E0.0547
G1 X62.871 Y154.237 E0.05455
G1 X27.058 Y154.237 E1.24534
G1 X25.348 Y153.873 E0.06077
G1 X23.763 Y153.015 E0.06268
G1 X19.771 Y148.936 E0.19847
G1 X19.095 Y147.526 E0.05437
G1 X18.777 Y145.981 E0.05483
G1 X18.851 Y109.609 E1.26478
G1 X18.929 Y109.105 E0.01772
G1 X19.47 Y107.663 E0.05356
G1 X20.321 Y106.427 E0.0522
G1 X23.411 Y103.337 E0.15194
G1 X24.786 Y102.435 E0.05719
G1 X26.987 Y101.854 E0.07914
M107
G1 X27.066 Y102.187 F3600000
M107
G1 F1200
G1 X32.257 Y102.203 E0.18048
G1 X33.593 Y102.492 E0.04753
G1 X34.858 Y103.097 E0.04878
G1 X36.324 Y104.476 E0.06998
G1 X40.267 Y111.36 E0.27586
G1 X49.665 Y111.367 E0.3268
G1 X53.579 Y104.541 E0.27362
G1 X54.938 Y103.204 E0.06629
G1 X56.012 Y102.623 E0.04247
G1 X57.261 Y102.26 E0.04524
G1 X62.876 Y102.19 E0.19524
G1 X64.644 Y102.593 E0.06306
G1 X66.311 Y103.595 E0.06764
G1 X69.905 Y107.357 E0.18093
G1 X70.552 Y108.731 E0.05282
G1 X70.826 Y110.16 E0.05056
G1 X70.826 Y145.938 E1.24413
G1 X70.475 Y147.568 E0.05797
G1 X69.659 Y149.062 E0.05919
G1 X65.66 Y152.966 E0.19436
G1 X64.283 Y153.615 E0.05293
G1 X62.855 Y153.888 E0.05056
G1 X27.076 Y153.888 E1.24413
G1 X25.446 Y153.538 E0.05798
G1 X23.953 Y152.722 E0.05918
G1 X20.072 Y148.758 E0.19286
G1 X19.432 Y147.434 E0.05117
G1 X19.125 Y145.964 E0.05221
G1 X19.2 Y109.623 E1.26371
G1 X19.262 Y109.21 E0.01451
G1 X19.77 Y107.843 E0.05072
G1 X20.579 Y106.662 E0.04978
G1 X23.645 Y103.596 E0.15075
G1 X24.953 Y102.742 E0.05434
G1 X27.008 Y102.202 E0.07389
M107
G1 X27.088 Y102.536 F3600000
M107
G1 F1200
G1 X32.237 Y102.551 E0.17905
G1 X33.498 Y102.828 E0.04489
G1 X34.682 Y103.399 E0.04572
G1 X36.065 Y104.712 E0.0663
G1 X40.064 Y111.709 E0.28024
G1 X49.867 Y111.715 E0.34086
G1 X53.841 Y104.772 E0.27821
G1 X55.126 Y103.498 E0.06291
G1 X56.129 Y102.952 E0.03971
G1 X57.29 Y102.608 E0.04211
G1 X62.859 Y102.539 E0.19369
G1 X64.489 Y102.906 E0.05808
G1 X66.075 Y103.854 E0.06425
G1 X69.602 Y107.532 E0.17722
G1 X70.214 Y108.819 E0.04956
G1 X70.478 Y110.176 E0.04806
G1 X70.478 Y145.919 E1.2429
M73 P3 R81
G1 X70.14 Y147.469 E0.05515
G1 X69.367 Y148.871 E0.05568
G1 X65.484 Y152.664 E0.18873
G1 X64.195 Y153.277 E0.04964
G1 X62.838 Y153.54 E0.04806
G1 X27.095 Y153.54 E1.2429
G1 X25.545 Y153.202 E0.05516
G1 X24.143 Y152.429 E0.05567
G1 X20.373 Y148.58 E0.18733
G1 X19.768 Y147.341 E0.04796
G1 X19.474 Y145.946 E0.04956
G1 X19.548 Y109.637 E1.26261
G1 X19.604 Y109.281 E0.01251
G1 X20.089 Y107.985 E0.04813
G1 X20.837 Y106.897 E0.04591
G1 X23.878 Y103.855 E0.14956
G1 X25.12 Y103.05 E0.05146
G1 X27.03 Y102.551 E0.06866
M107
G1 X27.109 Y102.884 F3600000
M107
G1 F1200
G1 X32.217 Y102.899 E0.17761
G1 X33.402 Y103.163 E0.04223
G1 X34.505 Y103.701 E0.04265
G1 X35.806 Y104.946 E0.06262
G1 X39.862 Y112.057 E0.28466
G1 X50.069 Y112.064 E0.35493
G1 X54.104 Y105.002 E0.28283
G1 X55.315 Y103.792 E0.05954
G1 X56.247 Y103.28 E0.03696
