; generated by SuperSlicer 2.5.59.9 on 2024-05-15 at 22:35:18 UTC


;
;

;
;

;
;

;
;

;
;
; 

; external perimeters extrusion width = 0.42mm
; perimeters extrusion width = 0.45mm
; infill extrusion width = 0.45mm
; solid infill extrusion width = 0.45mm
; top infill extrusion width = 0.42mm

; external perimeters extrusion width = 0.42mm
; perimeters extrusion width = 0.45mm
; infill extrusion width = 0.45mm
; solid infill extrusion width = 0.45mm
; top infill extrusion width = 0.42mm

; external perimeters extrusion width = 0.42mm
; perimeters extrusion width = 0.45mm
; infill extrusion width = 0.45mm
; solid infill extrusion width = 0.45mm
; top infill extrusion width = 0.42mm

; external perimeters extrusion width = 0.42mm
; perimeters extrusion width = 0.45mm
; infill extrusion width = 0.45mm
; solid infill extrusion width = 0.45mm
; top infill extrusion width = 0.42mm

; external perimeters extrusion width = 0.42mm
; perimeters extrusion width = 0.45mm
; infill extrusion width = 0.45mm
; solid infill extrusion width = 0.45mm
; top infill extrusion width = 0.42mm

; object:{"name":"filament_flow_test","id":"filament_flow_test id:0 copy 0","object_center":[14.543674,38.478844,0.000000],"boundingbox_center":[14.543674,38.478844,0.720000],"boundingbox_size":[20.000000,20.000000,1.440000]}
EXCLUDE_OBJECT_DEFINE NAME=filament_flow_test_id_0_copy_0 CENTER=14.543674,38.478844 POLYGON=[[4.54,28.48],[14.54,28.48],[24.54,30.98],[24.54,45.98],[14.54,48.48],[4.54,48.48],[4.54,28.48]]
; object:{"name":"filament_flow_test","id":"filament_flow_test id:1 copy 0","object_center":[14.543674,107.878845,0.000000],"boundingbox_center":[14.543674,107.878845,0.720000],"boundingbox_size":[20.000000,20.000000,1.440000]}
EXCLUDE_OBJECT_DEFINE NAME=filament_flow_test_id_1_copy_0 CENTER=14.543674,107.878845 POLYGON=[[4.54,97.88],[14.54,97.88],[24.54,100.38],[24.54,115.38],[14.54,117.88],[4.54,117.88],[4.54,97.88]]
; object:{"name":"filament_flow_test","id":"filament_flow_test id:2 copy 0","object_center":[14.543674,177.278847,0.000000],"boundingbox_center":[14.543674,177.278847,0.720000],"boundingbox_size":[20.000000,20.000000,1.440000]}
EXCLUDE_OBJECT_DEFINE NAME=filament_flow_test_id_2_copy_0 CENTER=14.543674,177.278847 POLYGON=[[4.54,167.28],[14.54,167.28],[24.54,169.78],[24.54,184.78],[14.54,187.28],[4.54,187.28],[4.54,167.28]]
; object:{"name":"filament_flow_test","id":"filament_flow_test id:3 copy 0","object_center":[83.943676,38.478844,0.000000],"boundingbox_center":[83.943676,38.478844,0.720000],"boundingbox_size":[20.000000,20.000000,1.440000]}
EXCLUDE_OBJECT_DEFINE NAME=filament_flow_test_id_3_copy_0 CENTER=83.943676,38.478844 POLYGON=[[73.94,28.48],[83.94,28.48],[93.94,30.98],[93.94,45.98],[83.94,48.48],[73.94,48.48],[73.94,28.48]]
; object:{"name":"filament_flow_test","id":"filament_flow_test id:4 copy 0","object_center":[83.943676,177.278847,0.000000],"boundingbox_center":[83.943676,177.278847,0.720000],"boundingbox_size":[20.000000,20.000000,1.440000]}
EXCLUDE_OBJECT_DEFINE NAME=filament_flow_test_id_4_copy_0 CENTER=83.943676,177.278847 POLYGON=[[73.94,167.28],[83.94,167.28],[93.94,169.78],[93.94,184.78],[83.94,187.28],[73.94,187.28],[73.94,167.28]]
; plater:{"center":[49.243675,107.878845,0.000000],"boundingbox_center":[49.243675,107.878845,0.720000],"boundingbox_size":[89.400002,158.800003,1.440000]}

M73 P0 R1233
M107
;TYPE:Custom
CALCULATE_PA MATERIAL=PLA BOWDEN_LENGTH=6 LAYER_HEIGHT=0.24 NOZZLE_SIZE=0.4 PRINT_SPEED=60
START_PRINT EXTRUDER=210 BED=60
SET_VELOCITY_LIMIT ACCEL=500



M107
G21 ; set units to millimeters
G90 ; use absolute coordinates
M83 ; use relative distances for extrusion
ACTIVATE_EXTRUDER EXTRUDER=extruder
; Filament gcode
M104 S210 T0 ; set temperature
M109 S210 T0 ; set temperature and wait for it to be reached
M190 S60 ; set bed temperature and wait for it to be reached
;LAYER_CHANGE
;Z:0.24
;HEIGHT:0.24
;BEFORE_LAYER_CHANGE
G92 E0.0

G1 E-0.4 F3600
G1 Z0.4 F600000
;AFTER_LAYER_CHANGE
;0.24
SET_VELOCITY_LIMIT ACCEL=5000


CALCULATE_PA MATERIAL=PLA BOWDEN_LENGTH=6.0 LAYER_HEIGHT=0.2 NOZZLE_SIZE=0.4 PRINT_SPEED=60


G92 E0
G1 X73.44665 Y166.38862
G1 Z0.24
G1 E0.4 F3600
;TYPE:Skirt
;WIDTH:0.45
M107
G1 F1799.99902
G1 X73.66563 Y166.29791 E.00942
G1 X73.74262 Y166.2826 E0.00312
G1 X77.20999 Y166.28259 Z.24 E.13787
G1 X80.67736 Y166.28259 Z.24 E.13787
G1 X84.14473 Y166.28259 Z.24 E.13787
G1 X84.22172 Y166.29791 E.00312
G1 X84.4407 Y166.38862 E0.00942
G1 X84.50597 Y166.43224 E.00312
G1 X84.79029 Y166.71655 E.01599
G1 X84.8339 Y166.78181 E.00312
G1 X84.92461 Y167.0008 E0.00942
G1 X84.93992 Y167.07779 E.00312
G1 X84.93992 Y168.78259 E.06779
G1 X89.54233 Y168.78259 Z.24 E.183
G1 X94.14473 Y168.78259 Z.24 E.183
G1 X94.22172 Y168.79791 E.00312
G1 X94.4407 Y168.88862 E0.00942
G1 X94.50597 Y168.93224 E.00312
G1 X94.79029 Y169.21655 E.01599
G1 X94.8339 Y169.28181 E.00312
G1 X94.92461 Y169.50079 E.00942
G1 X94.93992 Y169.57779 E0.00312
G1 X94.93992 Y173.42831 Z.24 E.15311
G1 X94.93992 Y177.27884 Z.24 E.15311
G1 X94.93992 Y181.12938 Z.24 E.15311
G1 X94.93992 Y184.9799 Z.24 E.15311
G1 X94.92461 Y185.05688 E.00312
G1 X94.8339 Y185.27588 E0.00942
G1 X94.79029 Y185.34114 E.00312
G1 X94.50597 Y185.62546 E.01599
G1 X94.4407 Y185.66908 E0.00312
G1 X94.22172 Y185.75978 E.00942
G1 X94.14473 Y185.7751 E.00312
G1 X89.54233 Y185.7751 Z.24 E.183
G1 F1800
G1 X84.93992 Y185.7751 Z.24 E.183
G1 F1799.63318
G1 X84.93992 Y187.4799 E.06779
G1 X84.92461 Y187.55688 E.00312
G1 X84.8339 Y187.77588 E0.00942
G1 X84.79029 Y187.84114 E.00312
G1 F1798.99902
G1 X84.50597 Y188.12546 E.01599
G1 X84.4407 Y188.16908 E0.00312
G1 F1799.9552
G1 X84.22172 Y188.25978 E.00942
G1 X84.14473 Y188.2751 E.00312
G1 X80.67736 Y188.2751 Z.24 E.13787
G1 X77.20999 Y188.2751 Z.24 E.13787
G1 X73.74262 Y188.2751 Z.24 E.13787
G1 X73.66563 Y188.25978 E0.00312
G1 X73.44665 Y188.16907 E.00942
G1 X73.38138 Y188.12546 E.00312
G1 F1798.92639
G1 X73.09706 Y187.84114 E.01599
G1 F1799.99829
G1 X73.05345 Y187.77586 E.00312
G1 X72.96274 Y187.55689 E0.00942
G1 X72.94743 Y187.4799 E.00312
G1 X72.94743 Y183.39948 Z.24 E.16225
G1 X72.94743 Y179.31906 Z.24 E.16225
G1 X72.94743 Y175.23863 Z.24 E.16225
G1 X72.94743 Y171.15822 Z.24 E.16225
G1 X72.94743 Y167.07779 Z.24 E.16225
G1 X72.96274 Y167.00079 E.00312
G1 X73.05345 Y166.78182 E0.00942
G1 X73.09706 Y166.71655 E.00312
G1 X73.38138 Y166.43224 E.01599
G1 F1788.76428
G1 X73.39676 Y166.42195 E.00074
M107
G1 X73.63541 Y166.74176 F600000
M107
G1 F1800
G1 X73.78187 Y166.6811 E0.0063
G1 F1799.0592
G1 X77.22307 Y166.68111 Z.24 E.13683
G1 X80.66428 Y166.68111 Z.24 E.13683
G1 X84.10548 Y166.68111 Z.24 E.13683
G1 X84.25194 Y166.74176 E0.0063
G1 F1798.68689
G1 X84.48076 Y166.97058 E.01287
G1 X84.54143 Y167.11704 E0.0063
G1 F1799.56116
G1 X84.54143 Y169.18111 E.08207
G1 X89.32346 Y169.18111 Z.24 E.19015
G1 X94.10548 Y169.18111 Z.24 E.19015
G1 X94.25194 Y169.24176 E0.0063
G1 F1798.68689
G1 X94.48076 Y169.47058 E.01287
G1 X94.54143 Y169.61704 E0.0063
G1 F1799.05579
G1 X94.54143 Y173.44794 Z.24 E.15233
G1 X94.54143 Y177.27884 Z.24 E.15232
G1 F1798.97571
G1 X94.54143 Y181.10974 Z.24 E.15233
G1 X94.54143 Y184.94064 Z.24 E.15233
G1 X94.48076 Y185.08712 E0.0063
G1 X94.25195 Y185.31593 E.01287
G1 X94.10548 Y185.3766 E0.0063
G1 F1799.10974
G1 X89.32346 Y185.3766 Z.24 E.19015
G1 X84.54143 Y185.3766 Z.24 E.19015
G1 X84.54143 Y187.44064 E.08207
G1 X84.48076 Y187.58712 E0.0063
G1 F1798.43384
G1 X84.25195 Y187.81593 E.01287
G1 X84.10548 Y187.8766 E0.0063
G1 X80.66428 Y187.8766 Z.24 E.13683
G1 X77.22307 Y187.8766 Z.24 E.13683
G1 X73.78187 Y187.8766 Z.24 E.13683
G1 X73.6354 Y187.81593 E0.0063
G1 X73.40659 Y187.58711 E.01287
G1 X73.34592 Y187.44065 E0.0063
G1 X73.34592 Y183.37592 Z.24 E.16162
G1 X73.34592 Y179.3112 Z.24 E.16162
G1 X73.34592 Y175.24648 Z.24 E.16162
G1 X73.34592 Y171.18176 Z.24 E.16162
G1 F1799.04529
G1 X73.34592 Y167.11703 Z.24 E.16162
G1 X73.40659 Y166.97058 E0.0063
G1 X73.59298 Y166.78419 E.01048
M107
G1 X73.86113 Y167.07959 F600000
M107
G1 F1799.74817
G1 X77.2495 Y167.07959 Z.24 E.13473
G1 X80.63786 Y167.07959 Z.24 E.13473
G1 X84.02622 Y167.07959 Z.24 E.13473
G1 X84.14293 Y167.19631 E0.00656
G1 X84.14293 Y169.57959 E.09476
G1 X89.08458 Y169.57959 Z.24 E.19649
G1 X94.02622 Y169.57959 Z.24 E.19649
G1 X94.14293 Y169.69631 E0.00656
G1 X94.14293 Y173.48758 Z.24 E.15075
G1 X94.14293 Y177.27884 Z.24 E.15075
G1 X94.14293 Y181.07011 Z.24 E.15075
G1 X94.14293 Y184.86139 Z.24 E.15075
G1 X94.02622 Y184.97811 E0.00656
G1 X89.08458 Y184.9781 Z.24 E.19649
G1 X84.14293 Y184.9781 Z.24 E.19649
G1 X84.14293 Y187.36139 E.09476
G1 X84.02622 Y187.47811 E0.00656
G1 X80.63786 Y187.4781 Z.24 E.13473
G1 X77.2495 Y187.4781 Z.24 E.13473
G1 X73.86113 Y187.4781 Z.24 E.13473
G1 X73.74442 Y187.36139 E0.00656
G1 X73.74442 Y183.32837 Z.24 E.16036
G1 X73.74442 Y179.29535 Z.24 E.16036
G1 X73.74442 Y175.26234 Z.24 E.16036
G1 X73.74442 Y171.22932 Z.24 E.16036
G1 F1800
G1 X73.74442 Y167.1963 Z.24 E.16036
G1 F1798.77295
G1 X73.81871 Y167.12202 E.00418
M107
;WIPE_START
G1 F480000
G1 X73.74442 Y167.19631 E-0.00075
G1 X73.74442 Y187.36139 E-0.14368
G1 X73.86113 Y187.47811 E-0.00118
G1 X84.02622 Y187.47811 E-0.07243
G1 X84.14293 Y187.36139 E-0.00118
G1 X84.14293 Y184.97811 E-0.01698
G1 X94.02622 Y184.97811 E-0.07042
G1 X94.14293 Y184.86139 E-0.00118
G1 X94.14293 Y174.72503 E-0.07222
;WIPE_END
G1 E-0.02 F3600
G1 Z0.4 F600000
G1 X25.53992 Y169.57779
G1 Z0.24
G1 E0.4 F3600
M107
G1 F1799.96851
G1 X25.53992 Y173.42831 Z.24 E.1531
G1 X25.53992 Y177.27884 Z.24 E.1531
G1 X25.53992 Y181.12938 Z.24 E.15311
G1 X25.53992 Y184.9799 Z.24 E.1531
G1 X25.52461 Y185.05688 E.00312
G1 X25.4339 Y185.27588 E0.00942
G1 X25.39029 Y185.34114 E.00312
G1 X25.10597 Y185.62546 E.01599
G1 X25.0407 Y185.66908 E.00312
G1 X24.82172 Y185.75978 E0.00942
G1 X24.74473 Y185.7751 E.00312
G1 X20.14232 Y185.7751 Z.24 E.183
G1 F1800
G1 X15.53992 Y185.7751 Z.24 E.183
G1 F1799.77588
G1 X15.53992 Y187.4799 E.06779
G1 X15.52461 Y187.55688 E.00312
G1 X15.4339 Y187.77588 E0.00942
G1 X15.39029 Y187.84114 E.00312
G1 X15.10597 Y188.12546 E.01599
G1 X15.0407 Y188.16908 E.00312
G1 X14.82172 Y188.25978 E0.00942
G1 X14.74473 Y188.2751 E.00312
G1 X11.27736 Y188.2751 Z.24 E.13787
G1 X7.80999 Y188.2751 Z.24 E.13787
G1 X4.34262 Y188.2751 Z.24 E.13787
G1 X4.26563 Y188.25978 E.00312
G1 X4.04664 Y188.16907 E0.00942
G1 X3.98138 Y188.12546 E.00312
G1 X3.69706 Y187.84114 E.01599
G1 X3.65345 Y187.77586 E.00312
G1 X3.56274 Y187.55689 E0.00942
G1 X3.54743 Y187.4799 E.00312
G1 X3.54743 Y183.39948 Z.24 E.16225
G1 X3.54743 Y179.31906 Z.24 E.16225
G1 X3.54743 Y175.23863 Z.24 E.16225
G1 X3.54743 Y171.15822 Z.24 E.16225
G1 X3.54743 Y167.07779 Z.24 E.16225
G1 X3.56274 Y167.00079 E.00312
G1 X3.65345 Y166.78182 E0.00942
G1 X3.69706 Y166.71655 E.00312
G1 X3.98138 Y166.43224 E.01599
G1 X4.04665 Y166.38863 E.00312
G1 X4.26563 Y166.29791 E0.00942
G1 X4.34262 Y166.28259 E.00312
G1 X7.80999 Y166.28259 Z.24 E.13787
G1 X11.27736 Y166.28259 Z.24 E.13787
G1 X14.74473 Y166.28259 Z.24 E.13787
G1 X14.82172 Y166.29791 E.00312
G1 X15.0407 Y166.38862 E0.00942
G1 X15.10597 Y166.43224 E.00312
G1 X15.39029 Y166.71655 E.01599
G1 X15.4339 Y166.78181 E.00312
G1 X15.52461 Y167.0008 E0.00942
G1 X15.53992 Y167.07779 E.00312
G1 X15.53992 Y168.78259 E.06779
G1 X20.14232 Y168.78259 Z.24 E.183
G1 X24.74473 Y168.78259 Z.24 E.183
G1 X24.82172 Y168.79791 E.00312
G1 X25.0407 Y168.88862 E0.00942
G1 X25.10597 Y168.93224 E.00312
G1 X25.39029 Y169.21655 E.01599
G1 X25.4339 Y169.28181 E.00312
G1 X25.52461 Y169.5008 E0.00942
G1 F1788.48816
G1 X25.52822 Y169.51894 E.00074
M107
G1 X25.14143 Y169.61704 F600000
M107
G1 F1799.6731
G1 X25.14143 Y173.44794 Z.24 E.15232
G1 X25.14143 Y177.27884 Z.24 E.15233
G1 X25.14143 Y181.10974 Z.24 E.15232
G1 F1798.90881
G1 X25.14143 Y184.94064 Z.24 E.15232
G1 X25.08076 Y185.08712 E0.0063
G1 X24.85194 Y185.31593 E.01287
G1 X24.70548 Y185.3766 E0.0063
G1 F1799.24744
G1 X19.92345 Y185.3766 Z.24 E.19014
G1 X15.14143 Y185.3766 Z.24 E.19015
G1 X15.14143 Y187.44064 E.08207
G1 X15.08076 Y187.58712 E0.0063
G1 F1798.57251
G1 X14.85194 Y187.81593 E.01287
G1 X14.70548 Y187.8766 E0.0063
G1 X11.26428 Y187.8766 Z.24 E.13683
G1 X7.82307 Y187.8766 Z.24 E.13683
G1 X4.38187 Y187.8766 Z.24 E.13683
G1 X4.2354 Y187.81593 E0.0063
G1 X4.00659 Y187.58711 E.01287
G1 X3.94592 Y187.44065 E0.0063
G1 X3.94592 Y183.37592 Z.24 E.16162
G1 X3.94592 Y179.3112 Z.24 E.16162
G1 X3.94592 Y175.24648 Z.24 E.16162
G1 F1799.02539
G1 X3.94592 Y171.18176 Z.24 E.16162
G1 X3.94592 Y167.11703 Z.24 E.16162
G1 X4.00659 Y166.97058 E0.0063
G1 F1798.46765
G1 X4.2354 Y166.74176 E.01287
G1 X4.38187 Y166.6811 E0.0063
G1 X7.82307 Y166.68111 Z.24 E.13683
G1 F1799.02124
G1 X11.26428 Y166.68111 Z.24 E.13683
G1 X14.70548 Y166.68111 Z.24 E.13683
G1 X14.85194 Y166.74176 E0.0063
G1 F1798.55261
G1 X15.08076 Y166.97058 E.01287
G1 X15.14143 Y167.11704 E0.0063
G1 F1799.56433
G1 X15.14143 Y169.18111 E.08207
G1 X19.92345 Y169.18111 Z.24 E.19015
G1 X24.70548 Y169.18111 Z.24 E.19014
G1 X24.85194 Y169.24176 E0.0063
G1 X25.08076 Y169.47058 E.01287
G1 X25.11847 Y169.56161 E.00392
M107
G1 X24.74293 Y169.69631 F600000
M107
G1 F1799.86914
G1 X24.74293 Y173.48758 Z.24 E.15075
G1 X24.74293 Y177.27884 Z.24 E.15075
G1 X24.74293 Y181.07011 Z.24 E.15075
G1 F1798.95264
G1 X24.74293 Y184.86139 Z.24 E.15075
G1 X24.62621 Y184.97811 E0.00656
G1 F1799.18018
G1 X19.68457 Y184.9781 Z.24 E.19649
G1 X14.74293 Y184.9781 Z.24 E.19649
G1 X14.74293 Y187.36139 E.09476
G1 X14.62622 Y187.47811 E0.00656
G1 X11.23786 Y187.4781 Z.24 E.13473
G1 X7.84949 Y187.4781 Z.24 E.13473
G1 X4.46113 Y187.4781 Z.24 E.13473
G1 X4.34442 Y187.36139 E0.00656
G1 X4.34442 Y183.32837 Z.24 E.16036
G1 X4.34442 Y179.29535 Z.24 E.16036
G1 X4.34442 Y175.26234 Z.24 E.16036
G1 X4.34442 Y171.22932 Z.24 E.16036
G1 X4.34442 Y167.1963 Z.24 E.16036
G1 X4.46113 Y167.07959 E0.00656
G1 X7.84949 Y167.07959 Z.24 E.13473
G1 X11.23786 Y167.07959 Z.24 E.13473
G1 X14.62622 Y167.07959 Z.24 E.13473
G1 X14.74293 Y167.19631 E0.00656
G1 X14.74293 Y169.57959 E.09476
G1 X19.68457 Y169.57959 Z.24 E.19649
G1 F1800
G1 X24.62621 Y169.57959 Z.24 E.19649
G1 F1798.60437
G1 X24.7005 Y169.65388 E.00418
M107
;WIPE_START
G1 F480000
G1 X24.62621 Y169.57959 E-0.00075
G1 X14.74293 Y169.57959 E-0.07042
G1 X14.74293 Y167.19631 E-0.01698
G1 X14.62622 Y167.07959 E-0.00118
G1 X4.46113 Y167.07959 E-0.07243
G1 X4.34442 Y167.19631 E-0.00118
G1 X4.34442 Y187.36139 E-0.14368
G1 X4.46113 Y187.47811 E-0.00118
G1 X14.59749 Y187.47811 E-0.07222
;WIPE_END
G1 E-0.02 F3600
G1 Z0.4 F600000
G1 X14.74473 Y118.87509
G1 Z0.24
G1 E0.4 F3600
M107
G1 F1799.92017
G1 X11.27736 Y118.87509 Z.24 E.13787
G1 X7.80999 Y118.87509 Z.24 E.13787
G1 X4.34262 Y118.87509 Z.24 E.13787
G1 X4.26563 Y118.85978 E.00312
G1 X4.04664 Y118.76907 E0.00942
G1 X3.98138 Y118.72546 E.00312
G1 X3.69706 Y118.44114 E.01599
G1 X3.65345 Y118.37587 E.00312
G1 X3.56274 Y118.15689 E0.00942
G1 X3.54743 Y118.0799 E.00312
G1 X3.54743 Y113.99948 Z.24 E.16225
G1 X3.54743 Y109.91906 Z.24 E.16224
G1 X3.54743 Y105.83863 Z.24 E.16225
G1 X3.54743 Y101.75821 Z.24 E.16224
G1 X3.54743 Y97.67779 Z.24 E.16225
G1 X3.56274 Y97.6008 E.00312
G1 X3.65345 Y97.38182 E0.00942
G1 X3.69706 Y97.31655 E.00312
G1 X3.98138 Y97.03223 E.01599
G1 X4.04665 Y96.98862 E.00312
G1 X4.26563 Y96.89791 E0.00942
G1 X4.34262 Y96.8826 E.00312
G1 X7.80999 Y96.8826 Z.24 E.13787
G1 X11.27736 Y96.8826 Z.24 E.13787
G1 X14.74473 Y96.8826 Z.24 E.13787
G1 X14.82172 Y96.89791 E.00312
G1 X15.0407 Y96.98862 E0.00942
G1 X15.10597 Y97.03223 E.00312
G1 X15.39029 Y97.31655 E.01599
G1 X15.4339 Y97.38181 E.00312
G1 X15.52461 Y97.6008 E0.00942
G1 X15.53992 Y97.67779 E.00312
G1 X15.53992 Y99.3826 E.06779
G1 X20.14232 Y99.3826 Z.24 E.183
G1 X24.74473 Y99.3826 Z.24 E.183
G1 X24.82172 Y99.39791 E.00312
G1 X25.0407 Y99.48862 E0.00942
G1 X25.10597 Y99.53223 E.00312
G1 X25.39029 Y99.81655 E.01599
G1 X25.4339 Y99.88181 E.00312
G1 X25.52461 Y100.1008 E0.00942
G1 X25.53992 Y100.17779 E.00312
G1 X25.53992 Y104.02832 Z.24 E.1531
G1 X25.53992 Y107.87885 Z.24 E.1531
G1 X25.53992 Y111.72937 Z.24 E.1531
G1 X25.53992 Y115.5799 Z.24 E.1531
