; generated by SuperSlicer 2.5.59.8 on 2024-05-04 at 01:58:29 UTC


;
;

;
;

;
;

;
;

;
;
; 

; external perimeters extrusion width = 0.40mm
; perimeters extrusion width = 0.40mm
; infill extrusion width = 0.40mm
; solid infill extrusion width = 0.40mm
; top infill extrusion width = 0.40mm

; external perimeters extrusion width = 0.40mm
; perimeters extrusion width = 0.40mm
; infill extrusion width = 0.40mm
; solid infill extrusion width = 0.40mm
; top infill extrusion width = 0.40mm

; external perimeters extrusion width = 0.40mm
; perimeters extrusion width = 0.40mm
; infill extrusion width = 0.40mm
; solid infill extrusion width = 0.40mm
; top infill extrusion width = 0.40mm

; external perimeters extrusion width = 0.40mm
; perimeters extrusion width = 0.40mm
; infill extrusion width = 0.40mm
; solid infill extrusion width = 0.40mm
; top infill extrusion width = 0.40mm

; external perimeters extrusion width = 0.40mm
; perimeters extrusion width = 0.40mm
; infill extrusion width = 0.40mm
; solid infill extrusion width = 0.40mm
; top infill extrusion width = 0.40mm

; object:{"name":"filament_flow_test","id":"filament_flow_test id:0 copy 0","object_center":[42.515951,45.040428,0.000000],"boundingbox_center":[42.515951,45.040428,0.720000],"boundingbox_size":[20.000000,20.000000,1.440000]}
EXCLUDE_OBJECT_DEFINE NAME=filament_flow_test_id_0_copy_0 CENTER=42.515951,45.040428 POLYGON=[[32.52,35.04],[42.52,35.04],[52.52,37.54],[52.52,52.54],[42.52,55.04],[32.52,55.04],[32.52,35.04]]
; object:{"name":"filament_flow_test","id":"filament_flow_test id:1 copy 0","object_center":[42.515951,114.440429,0.000000],"boundingbox_center":[42.515951,114.440429,0.720000],"boundingbox_size":[20.000000,20.000000,1.440000]}
EXCLUDE_OBJECT_DEFINE NAME=filament_flow_test_id_1_copy_0 CENTER=42.515951,114.440429 POLYGON=[[32.52,104.44],[42.52,104.44],[52.52,106.94],[52.52,121.94],[42.52,124.44],[32.52,124.44],[32.52,104.44]]
; object:{"name":"filament_flow_test","id":"filament_flow_test id:2 copy 0","object_center":[42.515951,183.840431,0.000000],"boundingbox_center":[42.515951,183.840431,0.720000],"boundingbox_size":[20.000000,20.000000,1.440000]}
EXCLUDE_OBJECT_DEFINE NAME=filament_flow_test_id_2_copy_0 CENTER=42.515951,183.840431 POLYGON=[[32.52,173.84],[42.52,173.84],[52.52,176.34],[52.52,191.34],[42.52,193.84],[32.52,193.84],[32.52,173.84]]
; object:{"name":"filament_flow_test","id":"filament_flow_test id:3 copy 0","object_center":[111.915952,45.040428,0.000000],"boundingbox_center":[111.915952,45.040428,0.720000],"boundingbox_size":[20.000000,20.000000,1.440000]}
EXCLUDE_OBJECT_DEFINE NAME=filament_flow_test_id_3_copy_0 CENTER=111.915952,45.040428 POLYGON=[[101.92,35.04],[111.92,35.04],[121.92,37.54],[121.92,52.54],[111.92,55.04],[101.92,55.04],[101.92,35.04]]
; object:{"name":"filament_flow_test","id":"filament_flow_test id:4 copy 0","object_center":[111.915952,183.840431,0.000000],"boundingbox_center":[111.915952,183.840431,0.720000],"boundingbox_size":[20.000000,20.000000,1.440000]}
EXCLUDE_OBJECT_DEFINE NAME=filament_flow_test_id_4_copy_0 CENTER=111.915952,183.840431 POLYGON=[[101.92,173.84],[111.92,173.84],[121.92,176.34],[121.92,191.34],[111.92,193.84],[101.92,193.84],[101.92,173.84]]
; plater:{"center":[77.215952,114.440429,0.000000],"boundingbox_center":[77.215952,114.440429,0.720000],"boundingbox_size":[89.400002,158.800003,1.440000]}

M73 P0 R22
M107
;TYPE:Custom
CALCULATE_PA MATERIAL=ASA BOWDEN_LENGTH=6 LAYER_HEIGHT=0.24 NOZZLE_SIZE=0.4 PRINT_SPEED=95


START_PRINT EXTRUDER=260 BED=105

G21 ; set units to millimeters
G90 ; use absolute coordinates
M83 ; use relative distances for extrusion
ACTIVATE_EXTRUDER EXTRUDER=extruder
; Filament gcode
M104 S260 T0 ; set temperature
M109 S260 T0 ; set temperature and wait for it to be reached
M190 S105 ; set bed temperature and wait for it to be reached
;LAYER_CHANGE
;Z:0.24
;HEIGHT:0.24
;BEFORE_LAYER_CHANGE
G92 E0.0

G1 E-1.5 F3000
M73 P1 R22
G1 Z0.4 F3600000
;AFTER_LAYER_CHANGE
;0.24




CALCULATE_PA MATERIAL=ASA BOWDEN_LENGTH=6.0 LAYER_HEIGHT=0.2 NOZZLE_SIZE=0.4 PRINT_SPEED=95


G92 E0
G1 X101.38129 Y172.9619
G1 Z0.24
G1 E1.5 F3000
;TYPE:Skirt
;WIDTH:0.4
M107
G1 X101.57279 Y172.88258 E0.00757
G1 X101.64012 Y172.86918 E0.00251
G1 X112.19178 Y172.86918 E0.38526
G1 X112.25911 Y172.88258 E0.00251
G1 X112.45062 Y172.9619 E0.00757
G1 X112.50769 Y173.00004 E0.00251
G1 X112.75634 Y173.24868 E0.01284
G1 X112.79448 Y173.30576 E0.00251
G1 X112.87381 Y173.49727 E0.00757
G1 X112.8872 Y173.5646 E0.00251
G1 X112.8872 Y175.36918 E0.06589
G1 X122.19178 Y175.36918 E0.33973
G1 X122.25911 Y175.38258 E0.00251
G1 X122.45062 Y175.4619 E0.00757
G1 X122.50769 Y175.50004 E0.00251
G1 X122.75634 Y175.74868 E0.01284
G1 X122.79448 Y175.80576 E0.00251
G1 X122.87381 Y175.99727 E0.00757
G1 X122.8872 Y176.0646 E0.00251
G1 X122.8872 Y191.61626 E0.56782
G1 X122.87381 Y191.68359 E0.00251
G1 X122.79448 Y191.8751 E0.00757
G1 X122.75634 Y191.93218 E0.00251
G1 X122.5077 Y192.18082 E0.01284
G1 X122.45062 Y192.21896 E0.00251
G1 X122.25911 Y192.29829 E0.00757
G1 X122.19178 Y192.31168 E0.00251
G1 X112.8872 Y192.31168 E0.33973
G1 X112.8872 Y194.11626 E0.06589
G1 X112.87381 Y194.18359 E0.00251
G1 X112.79448 Y194.3751 E0.00757
G1 X112.75634 Y194.43218 E0.00251
G1 X112.5077 Y194.68082 E0.01284
G1 X112.45062 Y194.71896 E0.00251
G1 X112.25911 Y194.79829 E0.00757
G1 X112.19178 Y194.81168 E0.00251
G1 X101.64012 Y194.81168 E0.38526
G1 X101.57279 Y194.79829 E0.00251
G1 X101.38128 Y194.71896 E0.00757
G1 X101.3242 Y194.68082 E0.00251
G1 X101.07556 Y194.43217 E0.01284
G1 X101.03742 Y194.3751 E0.00251
G1 X100.9581 Y194.18359 E0.00757
G1 X100.94471 Y194.11626 E0.00251
G1 X100.94471 Y173.5646 E0.75038
G1 X100.9581 Y173.49727 E0.00251
G1 X101.03742 Y173.30576 E0.00757
G1 X101.07556 Y173.24869 E0.00251
G1 X101.3314 Y172.99523 E0.01315
M107
G1 X101.54636 Y173.27073 F3600000
M107
G1 F3000
G1 X101.67445 Y173.21768 E0.00506
G1 X112.15746 Y173.21768 E0.38275
G1 X112.28554 Y173.27073 E0.00506
G1 X112.48565 Y173.47084 E0.01033
G1 X112.53871 Y173.59892 E0.00506
G1 X112.53871 Y175.71768 E0.07736
G1 X122.15746 Y175.71768 E0.3512
G1 X122.28554 Y175.77073 E0.00506
G1 X122.48565 Y175.97084 E0.01033
G1 X122.53871 Y176.09892 E0.00506
G1 X122.53871 Y191.58194 E0.56531
G1 X122.48565 Y191.71002 E0.00506
G1 X122.28555 Y191.91013 E0.01033
G1 X122.15746 Y191.96318 E0.00506
G1 X112.53871 Y191.96318 E0.3512
G1 X112.53871 Y194.08194 E0.07736
G1 X112.48565 Y194.21002 E0.00506
G1 X112.28555 Y194.41013 E0.01033
G1 X112.15746 Y194.46318 E0.00506
G1 X101.67445 Y194.46318 E0.38275
G1 X101.54636 Y194.41013 E0.00506
G1 X101.34626 Y194.21002 E0.01033
G1 X101.2932 Y194.08194 E0.00506
G1 X101.2932 Y173.59892 E0.74787
G1 X101.34626 Y173.47084 E0.00506
G1 X101.50393 Y173.31316 E0.00814
M107
G1 X101.74377 Y173.56617 F3600000
M107
G1 F3000
G1 X112.08814 Y173.56617 E0.37769
M73 P1 R21
G1 X112.19021 Y173.66824 E0.00527
G1 X112.19021 Y176.06617 E0.08755
G1 X122.08814 Y176.06617 E0.36139
G1 X122.19021 Y176.16824 E0.00527
G1 X122.19021 Y191.51262 E0.56025
G1 X122.08814 Y191.61469 E0.00527
G1 X112.19021 Y191.61469 E0.36139
G1 X112.19021 Y194.01262 E0.08755
G1 X112.08814 Y194.11469 E0.00527
G1 X101.74377 Y194.11469 E0.37769
G1 X101.6417 Y194.01262 E0.00527
G1 X101.6417 Y173.66824 E0.74281
G1 X101.70134 Y173.6086 E0.00308
M107
;WIPE_START
G1 F2880000
G1 X101.6417 Y173.66824 E-0.00008
G1 X101.6417 Y194.01262 E-0.02013
G1 X101.74377 Y194.11469 E-0.00014
G1 X112.08814 Y194.11469 E-0.01024
G1 X112.19021 Y194.01262 E-0.00014
G1 X112.19021 Y191.61469 E-0.00237
G1 X122.08814 Y191.61469 E-0.00979
M73 P2 R21
G1 X122.19021 Y191.51262 E-0.00014
G1 X122.19021 Y176.16824 E-0.01518
G1 X122.08814 Y176.06617 E-0.00014
G1 X112.19021 Y176.06617 E-0.00979
G1 X112.19021 Y173.66824 E-0.00237
G1 X112.08814 Y173.56617 E-0.00014
G1 X101.74377 Y173.56617 E-0.01024
;WIPE_END
G1 E-1.41908 F3000
G1 Z0.4 F3600000
G1 X53.4872 Y176.0646
G1 Z0.24
G1 E1.5 F3000
M107
G1 X53.4872 Y191.61626 E0.56782
G1 X53.47381 Y191.68359 E0.00251
G1 X53.39448 Y191.8751 E0.00757
G1 X53.35634 Y191.93218 E0.00251
G1 X53.1077 Y192.18082 E0.01284
G1 X53.05062 Y192.21896 E0.00251
G1 X52.85911 Y192.29829 E0.00757
G1 X52.79178 Y192.31168 E0.00251
G1 X43.4872 Y192.31168 E0.33973
G1 X43.4872 Y194.11626 E0.06589
G1 X43.47381 Y194.18359 E0.00251
G1 X43.39448 Y194.3751 E0.00757
G1 X43.35634 Y194.43218 E0.00251
G1 X43.1077 Y194.68082 E0.01284
G1 X43.05062 Y194.71896 E0.00251
G1 X42.85911 Y194.79829 E0.00757
G1 X42.79178 Y194.81168 E0.00251
G1 X32.24012 Y194.81168 E0.38526
G1 X32.17279 Y194.79829 E0.00251
G1 X31.98128 Y194.71896 E0.00757
G1 X31.9242 Y194.68082 E0.00251
G1 X31.67556 Y194.43217 E0.01284
G1 X31.63742 Y194.3751 E0.00251
G1 X31.5581 Y194.18359 E0.00757
G1 X31.5447 Y194.11626 E0.00251
G1 X31.5447 Y173.5646 E0.75038
G1 X31.5581 Y173.49727 E0.00251
G1 X31.63742 Y173.30576 E0.00757
G1 X31.67556 Y173.24869 E0.00251
G1 X31.92421 Y173.00004 E0.01284
G1 X31.98128 Y172.9619 E0.00251
G1 X32.17279 Y172.88258 E0.00757
G1 X32.24012 Y172.86918 E0.00251
G1 X42.79178 Y172.86918 E0.38526
G1 X42.85911 Y172.88258 E0.00251
G1 X43.05062 Y172.9619 E0.00757
G1 X43.10769 Y173.00004 E0.00251
G1 X43.35634 Y173.24868 E0.01284
G1 X43.39448 Y173.30576 E0.00251
G1 X43.47381 Y173.49727 E0.00757
G1 X43.4872 Y173.5646 E0.00251
G1 X43.4872 Y175.36918 E0.06589
G1 X52.79178 Y175.36918 E0.33973
G1 X52.85911 Y175.38258 E0.00251
G1 X53.05062 Y175.4619 E0.00757
G1 X53.10769 Y175.50004 E0.00251
G1 X53.35634 Y175.74868 E0.01284
G1 X53.39448 Y175.80576 E0.00251
G1 X53.47549 Y176.00575 E0.00788
M107
G1 X53.1387 Y176.09892 F3600000
M107
G1 F3000
G1 X53.1387 Y191.58194 E0.56531
G1 X53.08565 Y191.71002 E0.00506
G1 X52.88554 Y191.91013 E0.01033
G1 X52.75746 Y191.96318 E0.00506
G1 X43.1387 Y191.96318 E0.3512
G1 X43.1387 Y194.08194 E0.07736
G1 X43.08565 Y194.21002 E0.00506
G1 X42.88554 Y194.41013 E0.01033
G1 X42.75746 Y194.46318 E0.00506
G1 X32.27445 Y194.46318 E0.38275
G1 X32.14636 Y194.41013 E0.00506
G1 X31.94625 Y194.21002 E0.01033
G1 X31.8932 Y194.08194 E0.00506
G1 X31.8932 Y173.59892 E0.74787
G1 X31.94625 Y173.47084 E0.00506
G1 X32.14636 Y173.27073 E0.01033
G1 X32.27445 Y173.21768 E0.00506
G1 X42.75746 Y173.21768 E0.38275
G1 X42.88554 Y173.27073 E0.00506
G1 X43.08565 Y173.47084 E0.01033
G1 X43.1387 Y173.59892 E0.00506
G1 X43.1387 Y175.71768 E0.07736
G1 X52.75746 Y175.71768 E0.3512
G1 X52.88554 Y175.77073 E0.00506
G1 X53.08565 Y175.97084 E0.01033
G1 X53.11574 Y176.04349 E0.00287
M107
G1 X52.79021 Y176.16824 F3600000
M107
G1 F3000
G1 X52.79021 Y191.51262 E0.56025
G1 X52.68814 Y191.61469 E0.00527
G1 X42.79021 Y191.61469 E0.36139
G1 X42.79021 Y194.01262 E0.08755
G1 X42.68814 Y194.11469 E0.00527
G1 X32.34376 Y194.11469 E0.37769
G1 X32.24169 Y194.01262 E0.00527
G1 X32.24169 Y173.66824 E0.74281
G1 X32.34376 Y173.56617 E0.00527
G1 X42.68814 Y173.56617 E0.37769
G1 X42.79021 Y173.66824 E0.00527
G1 X42.79021 Y176.06617 E0.08755
G1 X52.68814 Y176.06617 E0.36139
G1 X52.74778 Y176.12582 E0.00308
M107
;WIPE_START
G1 F2880000
G1 X52.68814 Y176.06617 E-0.00008
G1 X42.79021 Y176.06617 E-0.00979
G1 X42.79021 Y173.66824 E-0.00237
G1 X42.68814 Y173.56617 E-0.00014
G1 X32.34376 Y173.56617 E-0.01024
G1 X32.24169 Y173.66824 E-0.00014
G1 X32.24169 Y194.01262 E-0.02013
G1 X32.34376 Y194.11469 E-0.00014
G1 X42.68814 Y194.11469 E-0.01024
G1 X42.79021 Y194.01262 E-0.00014
G1 X42.79021 Y191.61469 E-0.00237
G1 X52.68814 Y191.61469 E-0.00979
G1 X52.79021 Y191.51262 E-0.00014
G1 X52.79021 Y176.16824 E-0.01518
;WIPE_END
G1 E-1.41908 F3000
G1 Z0.4 F3600000
G1 X42.79178 Y125.41168
G1 Z0.24
G1 E1.5 F3000
M107
G1 X32.24012 Y125.41168 E0.38526
G1 X32.17279 Y125.39828 E0.00251
G1 X31.98128 Y125.31896 E0.00757
G1 X31.9242 Y125.28082 E0.00251
G1 X31.67556 Y125.03217 E0.01284
G1 X31.63742 Y124.97509 E0.00251
G1 X31.5581 Y124.78359 E0.00757
G1 X31.5447 Y124.71626 E0.00251
G1 X31.5447 Y104.1646 E0.75038
G1 X31.5581 Y104.09727 E0.00251
G1 X31.63742 Y103.90576 E0.00757
G1 X31.67556 Y103.84868 E0.00251
G1 X31.92421 Y103.60004 E0.01284
G1 X31.98128 Y103.5619 E0.00251
G1 X32.17279 Y103.48257 E0.00757
G1 X32.24012 Y103.46918 E0.00251
G1 X42.79178 Y103.46918 E0.38526
G1 X42.85911 Y103.48257 E0.00251
G1 X43.05062 Y103.5619 E0.00757
G1 X43.10769 Y103.60004 E0.00251
G1 X43.35634 Y103.84868 E0.01284
G1 X43.39448 Y103.90576 E0.00251
G1 X43.47381 Y104.09727 E0.00757
G1 X43.4872 Y104.1646 E0.00251
G1 X43.4872 Y105.96918 E0.06589
G1 X52.79178 Y105.96918 E0.33973
G1 X52.85911 Y105.98257 E0.00251
G1 X53.05062 Y106.0619 E0.00757
G1 X53.10769 Y106.10004 E0.00251
G1 X53.35634 Y106.34868 E0.01284
G1 X53.39448 Y106.40576 E0.00251
G1 X53.47381 Y106.59727 E0.00757
G1 X53.4872 Y106.6646 E0.00251
G1 X53.4872 Y122.21626 E0.56782
G1 X53.47381 Y122.28359 E0.00251
G1 X53.39448 Y122.4751 E0.00757
G1 X53.35634 Y122.53217 E0.00251
G1 X53.1077 Y122.78082 E0.01284
G1 X53.05062 Y122.81896 E0.00251
G1 X52.85911 Y122.89829 E0.00757
G1 X52.79178 Y122.91168 E0.00251
G1 X43.4872 Y122.91168 E0.33973
G1 X43.4872 Y124.71626 E0.06589
G1 X43.47381 Y124.78359 E0.00251
G1 X43.39448 Y124.9751 E0.00757
G1 X43.35634 Y125.03217 E0.00251
G1 X43.1077 Y125.28082 E0.01284
G1 X43.05062 Y125.31896 E0.00251
G1 X42.85063 Y125.39997 E0.00788
M107
G1 X42.75746 Y125.06318 F3600000
M107
G1 F3000
G1 X32.27445 Y125.06318 E0.38275
G1 X32.14636 Y125.01013 E0.00506
G1 X31.94625 Y124.81002 E0.01033
G1 X31.8932 Y124.68193 E0.00506
G1 X31.8932 Y104.19892 E0.74787
G1 X31.94625 Y104.07084 E0.00506
G1 X32.14636 Y103.87073 E0.01033
G1 X32.27445 Y103.81768 E0.00506
G1 X42.75746 Y103.81768 E0.38275
G1 X42.88554 Y103.87073 E0.00506
G1 X43.08565 Y104.07083 E0.01033
G1 X43.1387 Y104.19892 E0.00506
G1 X43.1387 Y106.31768 E0.07736
G1 X52.75746 Y106.31768 E0.3512
G1 X52.88554 Y106.37073 E0.00506
G1 X53.08565 Y106.57083 E0.01033
G1 X53.1387 Y106.69892 E0.00506
G1 X53.1387 Y122.18193 E0.56531
G1 X53.08565 Y122.31002 E0.00506
G1 X52.88554 Y122.51013 E0.01033
G1 X52.75746 Y122.56318 E0.00506
G1 X43.1387 Y122.56318 E0.3512
G1 X43.1387 Y124.68193 E0.07736
G1 X43.08565 Y124.81002 E0.00506
G1 X42.88554 Y125.01013 E0.01033
G1 X42.81289 Y125.04022 E0.00287
M107
G1 X42.68814 Y124.71469 F3600000
M107
G1 F3000
G1 X32.34376 Y124.71469 E0.37769
G1 X32.24169 Y124.61261 E0.00527
G1 X32.24169 Y104.26824 E0.74281
G1 X32.34376 Y104.16617 E0.00527
G1 X42.68814 Y104.16617 E0.37769
G1 X42.79021 Y104.26824 E0.00527
G1 X42.79021 Y106.66617 E0.08755
G1 X52.68814 Y106.66617 E0.36139
G1 X52.79021 Y106.76824 E0.00527
G1 X52.79021 Y122.11261 E0.56025
M73 P3 R21
G1 X52.68814 Y122.21469 E0.00527
G1 X42.79021 Y122.21469 E0.36139
G1 X42.79021 Y124.61261 E0.08755
G1 X42.73056 Y124.67226 E0.00308
M107
;WIPE_START
G1 F2880000
G1 X42.79021 Y124.61261 E-0.00008
G1 X42.79021 Y122.21469 E-0.00237
G1 X52.68814 Y122.21469 E-0.00979
G1 X52.79021 Y122.11261 E-0.00014
G1 X52.79021 Y106.76824 E-0.01518
G1 X52.68814 Y106.66617 E-0.00014
G1 X42.79021 Y106.66617 E-0.00979
G1 X42.79021 Y104.26824 E-0.00237
G1 X42.68814 Y104.16617 E-0.00014
G1 X32.34376 Y104.16617 E-0.01024
G1 X32.24169 Y104.26824 E-0.00014
G1 X32.24169 Y124.61261 E-0.02013
G1 X32.34376 Y124.71469 E-0.00014
G1 X42.68814 Y124.71469 E-0.01024
;WIPE_END
G1 E-1.41908 F3000
G1 Z0.4 F3600000
G1 X101.3242 Y55.88082
G1 Z0.24
G1 E1.5 F3000
M107
G1 X101.07556 Y55.63217 E0.01284
G1 X101.03742 Y55.57509 E0.00251
G1 X100.9581 Y55.38359 E0.00757
G1 X100.94471 Y55.31626 E0.00251
G1 X100.94471 Y34.7646 E0.75038
G1 X100.9581 Y34.69727 E0.00251
G1 X101.03742 Y34.50576 E0.00757
G1 X101.07556 Y34.44868 E0.00251
G1 X101.32421 Y34.20004 E0.01284
G1 X101.38129 Y34.1619 E0.00251
G1 X101.57279 Y34.08257 E0.00757
G1 X101.64012 Y34.06918 E0.00251
G1 X112.19178 Y34.06918 E0.38526
G1 X112.25911 Y34.08257 E0.00251
G1 X112.45062 Y34.1619 E0.00757
G1 X112.50769 Y34.20003 E0.00251
G1 X112.75634 Y34.44868 E0.01284
G1 X112.79448 Y34.50576 E0.00251
G1 X112.87381 Y34.69727 E0.00757
G1 X112.8872 Y34.7646 E0.00251
G1 X112.8872 Y36.56918 E0.06589
G1 X122.19178 Y36.56918 E0.33973
G1 X122.25911 Y36.58257 E0.00251
G1 X122.45062 Y36.6619 E0.00757
G1 X122.50769 Y36.70004 E0.00251
G1 X122.75634 Y36.94868 E0.01284
