; generated by SuperSlicer 2.5.59.10 on 2024-06-07 at 07:32:04 UTC


;
;

;
;
; 

; external perimeters extrusion width = 0.48mm
; perimeters extrusion width = 0.48mm
; infill extrusion width = 0.48mm
; solid infill extrusion width = 0.48mm
; top infill extrusion width = 0.48mm
; support material extrusion width = 0.42mm
; first layer extrusion width = 0.48mm

; external perimeters extrusion width = 0.48mm
; perimeters extrusion width = 0.48mm
; infill extrusion width = 0.48mm
; solid infill extrusion width = 0.48mm
; top infill extrusion width = 0.48mm
; support material extrusion width = 0.42mm
; first layer extrusion width = 0.48mm

; external perimeters extrusion width = 0.48mm
; perimeters extrusion width = 0.48mm
; infill extrusion width = 0.48mm
; solid infill extrusion width = 0.48mm
; top infill extrusion width = 0.48mm
; support material extrusion width = 0.42mm
; first layer extrusion width = 0.48mm

; external perimeters extrusion width = 0.48mm
; perimeters extrusion width = 0.48mm
; infill extrusion width = 0.48mm
; solid infill extrusion width = 0.48mm
; top infill extrusion width = 0.48mm
; support material extrusion width = 0.42mm
; first layer extrusion width = 0.48mm

; external perimeters extrusion width = 0.48mm
; perimeters extrusion width = 0.48mm
; infill extrusion width = 0.48mm
; solid infill extrusion width = 0.48mm
; top infill extrusion width = 0.48mm
; support material extrusion width = 0.42mm
; first layer extrusion width = 0.48mm

; object:{"name":"filament_flow_test","id":"filament_flow_test id:0 copy 0","object_center":[76.642761,28.576956,0.000000],"boundingbox_center":[76.642761,28.576956,0.720000],"boundingbox_size":[20.000000,20.000000,1.440000]}
EXCLUDE_OBJECT_DEFINE NAME=filament_flow_test_id_0_copy_0 CENTER=76.642761,28.576956 POLYGON=[[66.64,18.58],[76.64,18.58],[86.64,21.08],[86.64,36.08],[76.64,38.58],[66.64,38.58],[66.64,18.58]]
; object:{"name":"filament_flow_test","id":"filament_flow_test id:1 copy 0","object_center":[32.498478,87.219899,0.000000],"boundingbox_center":[32.498478,87.219899,0.720000],"boundingbox_size":[20.000000,20.000000,1.440000]}
EXCLUDE_OBJECT_DEFINE NAME=filament_flow_test_id_1_copy_0 CENTER=32.498478,87.219899 POLYGON=[[22.50,77.22],[32.50,77.22],[42.50,79.72],[42.50,94.72],[32.50,97.22],[22.50,97.22],[22.50,77.22]]
; object:{"name":"filament_flow_test","id":"filament_flow_test id:2 copy 0","object_center":[32.369181,156.238102,0.000000],"boundingbox_center":[32.369181,156.238102,0.720000],"boundingbox_size":[20.000000,20.000000,1.440000]}
EXCLUDE_OBJECT_DEFINE NAME=filament_flow_test_id_2_copy_0 CENTER=32.369181,156.238102 POLYGON=[[22.37,146.24],[32.37,146.24],[42.37,148.74],[42.37,163.74],[32.37,166.24],[22.37,166.24],[22.37,146.24]]
; object:{"name":"filament_flow_test","id":"filament_flow_test id:3 copy 0","object_center":[121.094656,86.455434,0.000000],"boundingbox_center":[121.094656,86.455434,0.720000],"boundingbox_size":[20.000000,20.000000,1.440000]}
EXCLUDE_OBJECT_DEFINE NAME=filament_flow_test_id_3_copy_0 CENTER=121.094656,86.455434 POLYGON=[[111.09,76.46],[121.09,76.46],[131.09,78.96],[131.09,93.96],[121.09,96.46],[111.09,96.46],[111.09,76.46]]
; object:{"name":"filament_flow_test","id":"filament_flow_test id:4 copy 0","object_center":[100.225693,154.199224,0.000000],"boundingbox_center":[100.225693,154.199224,0.720000],"boundingbox_size":[20.000000,20.000000,1.440000]}
EXCLUDE_OBJECT_DEFINE NAME=filament_flow_test_id_4_copy_0 CENTER=100.225693,154.199224 POLYGON=[[90.23,144.20],[100.23,144.20],[110.23,146.70],[110.23,161.70],[100.23,164.20],[90.23,164.20],[90.23,144.20]]
; plater:{"center":[76.731919,92.407529,0.000000],"boundingbox_center":[76.731919,92.407529,0.720000],"boundingbox_size":[108.725475,147.661146,1.440000]}

M107
;TYPE:Custom
START_PRINT EXTRUDER=230 BED=85
M107
G21 ; set units to millimeters
G90 ; use absolute coordinates
M83 ; use relative distances for extrusion
ACTIVATE_EXTRUDER EXTRUDER=extruder
; Filament gcode
FILAMENT_START MATERIAL=PET COLOR=#368900 VENDOR=123-3D
SET_PRESSURE_ADVANCE ADVANCE=0.062
M104 S230 T0 ; set temperature
M109 S230 T0 ; set temperature and wait for it to be reached
M190 S85 ; set bed temperature and wait for it to be reached
;LAYER_CHANGE
;Z:0.24
;HEIGHT:0.24
G1 E-1 F3600
G1 Z0.04 F60000
G1 Z0.24
G92 E0
M204 S750
G1 X22.158 Y145.172
G1 E1 F3600
;TYPE:Skirt
;WIDTH:0.48
M107
G1 F2399.363
G1 X25.632 Y145.172 Z.24 E.14854
G1 F2398.087
G1 X29.106 Y145.172 Z.24 E.14854
G1 F2396.174
G1 X32.58 Y145.172 Z.24 E.14854
G1 F2397.92
G1 X32.663 Y145.188 E.00361
G1 X32.899 Y145.286 E0.0109
G1 F2391.97
G1 X32.969 Y145.333 E.00361
G1 F2393.531
G1 X33.275 Y145.638 E.01849
G1 X33.321 Y145.709 E0.00361
G1 X33.419 Y145.944 E.0109
G1 X33.435 Y146.027 E0.00361
G1 F2398.81
G1 X33.435 Y147.672 E.07033
G1 X38.007 Y147.672 Z.24 E.1955
G1 F2396.233
G1 X42.58 Y147.672 Z.24 E.1955
G1 F2397.92
G1 X42.663 Y147.688 E.00361
G1 X42.899 Y147.786 E0.0109
G1 F2391.97
G1 X42.969 Y147.833 E.00361
G1 F2393.531
G1 X43.275 Y148.138 E.01849
G1 X43.321 Y148.209 E0.00361
G1 X43.419 Y148.444 E.0109
G1 X43.435 Y148.527 E0.00361
G1 F2397.227
G1 X43.435 Y152.382 Z.24 E.16485
G1 F2396.903
G1 X43.435 Y156.238 Z.24 E.16485
G1 X43.435 Y160.094 Z.24 E.16485
G1 X43.435 Y163.949 Z.24 E.16485
G1 F2397.779
G1 X43.419 Y164.032 E.00361
G1 X43.321 Y164.268 E0.0109
G1 F2375.985
G1 X43.275 Y164.338 E.00361
G1 F2393.885
G1 X42.969 Y164.643 E.01849
G1 F2392.049
G1 X42.899 Y164.69 E.00361
G1 X42.663 Y164.788 E0.0109
G1 F2398
G1 X42.58 Y164.804 E.00361
G1 F2397.147
G1 X38.007 Y164.804 Z.24 E.1955
G1 F2399.889
G1 X33.435 Y164.804 Z.24 E.1955
G1 F2398.125
G1 X33.435 Y166.449 E.07033
G1 F2397.779
G1 X33.419 Y166.532 E.00361
G1 X33.321 Y166.768 E0.0109
G1 F2375.985
G1 X33.275 Y166.838 E.00361
G1 F2393.885
G1 X32.969 Y167.143 E.01849
G1 F2392.049
G1 X32.899 Y167.19 E.00361
G1 X32.663 Y167.288 E0.0109
G1 F2398
G1 X32.58 Y167.304 E.00361
G1 F2396.335
G1 X29.106 Y167.304 Z.24 E.14854
G1 X25.632 Y167.304 Z.24 E.14854
G1 F2397.142
G1 X22.158 Y167.304 Z.24 E.14854
G1 X22.075 Y167.288 E0.00361
G1 F2396.924
G1 X21.84 Y167.19 E.0109
G1 F2399.169
G1 X21.77 Y167.143 E.00361
G1 F2396.925
G1 X21.464 Y166.838 E.01849
G1 F2391.746
G1 X21.417 Y166.768 E.00361
G1 X21.319 Y166.532 E0.0109
G1 F2397.769
G1 X21.303 Y166.449 E.00361
G1 F2395.221
G1 X21.303 Y162.365 Z.24 E.17463
G1 F2393.462
G1 X21.303 Y158.28 Z.24 E.17463
G1 F2391.703
G1 X21.303 Y154.196 Z.24 E.17463
G1 F2389.945
G1 X21.303 Y150.111 Z.24 E.17463
G1 F2387.307
G1 X21.303 Y146.027 Z.24 E.17463
G1 F2388.812
G1 X21.319 Y145.944 E.00361
G1 F2379.734
G1 X21.417 Y145.709 E.0109
G1 X21.464 Y145.638 E0.00361
G1 F2382.436
G1 X21.77 Y145.333 E.01849
G1 F2386.786
G1 X21.84 Y145.286 E.00361
G1 F2390.923
G1 X22.075 Y145.188 E.0109
G1 F2397.704
G1 X22.099 Y145.184 E.00104
M107
G1 X22.2 Y145.6 F60000
M107
G1 F2396.073
G1 X25.646 Y145.6 Z.24 E.14733
G1 F2393.577
G1 X29.092 Y145.6 Z.24 E.14733
G1 F2389.833
G1 X32.538 Y145.6 Z.24 E.14733
G1 X32.696 Y145.666 E0.00729
G1 F2392.7
G1 X32.942 Y145.912 E.01488
G1 F2390.708
G1 X33.007 Y146.069 E.00729
G1 F2399.835
G1 X33.007 Y148.1 E.08685
G1 F2397.439
G1 X37.772 Y148.1 Z.24 E.20375
G1 F2389.757
G1 X42.538 Y148.1 Z.24 E.20375
G1 X42.696 Y148.166 E0.00729
G1 F2392.7
G1 X42.942 Y148.412 E.01488
G1 F2390.515
G1 X43.007 Y148.569 E.00729
G1 F2399.387
G1 X43.007 Y152.404 Z.24 E.16395
G1 F2398.162
G1 X43.007 Y156.238 Z.24 E.16394
G1 F2396.936
G1 X43.007 Y160.072 Z.24 E.16394
G1 F2395.097
G1 X43.007 Y163.907 Z.24 E.16395
G1 X42.942 Y164.065 E0.00729
G1 F2394.203
G1 X42.696 Y164.311 E.01488
G1 X42.538 Y164.376 E0.00729
G1 F2396.302
G1 X37.772 Y164.376 Z.24 E.20375
G1 F2400
G1 X33.007 Y164.376 Z.24 E.20375
G1 F2397.172
G1 X33.007 Y166.407 E.08685
G1 X32.942 Y166.565 E0.00729
G1 F2394.203
G1 X32.696 Y166.811 E.01488
G1 X32.538 Y166.876 E0.00729
G1 F2395.955
G1 X29.092 Y166.876 Z.24 E.14733
G1 F2397.573
G1 X25.646 Y166.876 Z.24 E.14733
G1 F2400
G1 X22.2 Y166.876 Z.24 E.14733
G1 F2390.535
G1 X22.043 Y166.811 E.00729
G1 F2392.601
G1 X21.797 Y166.565 E.01488
G1 X21.731 Y166.407 E0.00729
G1 F2390.751
G1 X21.731 Y162.339 Z.24 E.17391
G1 F2392.806
G1 X21.731 Y158.272 Z.24 E.17391
G1 F2394.862
G1 X21.731 Y154.204 Z.24 E.17391
G1 F2396.917
G1 X21.731 Y150.137 Z.24 E.17391
G1 F2400
G1 X21.731 Y146.069 Z.24 E.17391
G1 F2397.706
G1 X21.797 Y145.912 E.00729
G1 F2396.236
G1 X22.043 Y145.666 E.01488
G1 X22.145 Y145.623 E0.00472
M107
G1 X22.285 Y146.029 F60000
M107
G1 F2394.568
G1 X25.674 Y146.029 Z.24 E.14491
G1 F2396.741
G1 X29.064 Y146.029 Z.24 E.14491
G1 F2400
G1 X32.453 Y146.029 Z.24 E.14491
G1 F2389.504
G1 X32.578 Y146.154 E.00759
G1 X32.578 Y148.529 E0.10152
G1 F2399.65
G1 X37.515 Y148.529 Z.24 E.21109
G1 F2400
G1 X42.453 Y148.529 Z.24 E.21109
G1 F2389.739
G1 X42.578 Y148.654 E.00759
G1 X42.578 Y163.822 E0.64849
G1 X42.453 Y163.947 E.00759
G1 F2399.884
G1 X37.515 Y163.947 Z.24 E.21109
G1 X32.578 Y163.947 Z.24 E.21109
G1 X32.578 Y166.322 E0.10152
G1 F2389.504
G1 X32.453 Y166.447 E.00759
G1 X22.285 Y166.447 E0.43472
G1 X22.16 Y166.322 E.00759
G1 X22.16 Y146.154 E0.86227
G1 F2399.508
G1 X22.243 Y146.071 E.00502
M107
;WIPE_START
G1 F48000
G1 X22.16 Y146.154 E-0.00837
G1 X22.16 Y159.37 E-0.94163
;WIPE_END
G1 E-0.05 F3600
G1 X89.159 Y146.071 F60000
G1 E1 F3600
M107
G1 F2395.515
G1 X89.159 Y143.988 E.08907
G1 X89.176 Y143.905 E0.00361
G1 F2387.567
G1 X89.273 Y143.67 E.0109
G1 F2394.237
G1 X89.32 Y143.6 E.00361
G1 F2398.877
G1 X89.626 Y143.294 E.01849
G1 F2392.254
G1 X89.696 Y143.247 E.00361
G1 X89.932 Y143.149 E0.0109
G1 F2398.16
G1 X90.015 Y143.133 E.00361
G1 F2396.221
G1 X93.489 Y143.133 Z.24 E.14854
G1 X96.963 Y143.133 Z.24 E.14854
G1 X100.437 Y143.133 Z.24 E.14854
G1 X100.52 Y143.149 E0.00361
G1 F2395.672
G1 X100.755 Y143.247 E.0109
G1 F2396.334
G1 X100.825 Y143.294 E.00361
G1 X101.131 Y143.6 E0.01849
G1 F2394.379
G1 X101.178 Y143.67 E.00361
G1 F2387.61
G1 X101.275 Y143.905 E.0109
G1 X101.292 Y143.988 E0.00361
G1 F2395.728
G1 X101.292 Y145.633 E.07033
G1 F2399.189
G1 X105.865 Y145.633 Z.24 E.1955
G1 F2397.043
G1 X110.437 Y145.633 Z.24 E.1955
G1 X110.52 Y145.649 E0.00361
G1 F2395.672
G1 X110.755 Y145.747 E.0109
G1 F2396.334
G1 X110.825 Y145.794 E.00361
G1 X111.131 Y146.1 E0.01849
G1 F2394.379
G1 X111.178 Y146.17 E.00361
G1 F2387.61
G1 X111.275 Y146.405 E.0109
G1 X111.292 Y146.488 E0.00361
G1 F2391.367
G1 X111.292 Y150.344 Z.24 E.16485
G1 X111.292 Y154.199 Z.24 E.16485
G1 X111.292 Y158.055 Z.24 E.16485
G1 X111.292 Y161.91 Z.24 E.16485
G1 X111.275 Y161.993 E0.00361
G1 F2396.799
G1 X111.178 Y162.229 E.0109
G1 F2394.611
G1 X111.131 Y162.299 E.00361
G1 X110.825 Y162.605 E0.01849
G1 F2380.484
G1 X110.755 Y162.651 E.00361
G1 F2395.66
G1 X110.52 Y162.749 E.0109
G1 X110.437 Y162.765 E0.00361
G1 F2397.753
G1 X105.865 Y162.765 Z.24 E.1955
G1 F2399.882
G1 X101.292 Y162.765 Z.24 E.1955
G1 F2395.95
G1 X101.292 Y164.41 E.07033
G1 X101.275 Y164.493 E0.00361
G1 F2396.799
G1 X101.178 Y164.729 E.0109
G1 F2394.611
G1 X101.131 Y164.799 E.00361
G1 X100.825 Y165.105 E0.01849
G1 F2380.484
G1 X100.755 Y165.151 E.00361
G1 F2395.66
G1 X100.52 Y165.249 E.0109
G1 X100.437 Y165.265 E0.00361
G1 F2396.83
G1 X96.963 Y165.265 Z.24 E.14854
G1 X93.489 Y165.265 Z.24 E.14854
G1 X90.015 Y165.265 Z.24 E.14854
G1 F2398.16
G1 X89.932 Y165.249 E.00361
G1 X89.696 Y165.151 E0.0109
G1 F2376.431
G1 X89.626 Y165.105 E.00361
G1 F2398.865
G1 X89.32 Y164.799 E.01849
G1 F2394.468
G1 X89.273 Y164.729 E.00361
G1 F2396.756
G1 X89.176 Y164.493 E.0109
G1 X89.159 Y164.41 E0.00361
G1 F2392.77
G1 X89.159 Y159.84 Z.24 E.19538
G1 F2394.836
G1 X89.159 Y155.271 Z.24 E.19538
G1 F2396.902
G1 X89.159 Y150.701 Z.24 E.19538
G1 F2400
G1 X89.159 Y146.131 Z.24 E.19538
M107
G1 X89.588 Y146.131 F60000
M107
G1 F2399.988
G1 X89.588 Y144.03 E.08983
G1 F2390.583
G1 X89.653 Y143.873 E.00729
G1 F2392.749
G1 X89.899 Y143.627 E.01488
G1 X90.057 Y143.561 E0.00729
G1 F2391.567
G1 X93.503 Y143.561 Z.24 E.14733
G1 F2394.94
G1 X96.949 Y143.561 Z.24 E.14733
G1 F2400
G1 X100.395 Y143.561 Z.24 E.14733
G1 F2397.769
G1 X100.552 Y143.627 E.00729
G1 X100.798 Y143.873 E0.01488
G1 F2392.482
G1 X100.863 Y144.03 E.00729
G1 F2399.725
G1 X100.863 Y146.061 E.08685
G1 X110.395 Y146.061 E0.40751
G1 F2397.606
G1 X110.552 Y146.127 E.00729
G1 X110.798 Y146.373 E0.01488
G1 F2392.227
G1 X110.863 Y146.53 E.00729
G1 F2399.384
G1 X110.863 Y150.365 Z.24 E.16394
G1 F2398.153
G1 X110.863 Y154.199 Z.24 E.16395
G1 F2396.921
G1 X110.863 Y158.033 Z.24 E.16395
G1 F2395.073
G1 X110.863 Y161.868 Z.24 E.16394
G1 X110.798 Y162.026 E0.00729
G1 F2397.142
G1 X110.552 Y162.272 E.01488
G1 F2392.231
G1 X110.395 Y162.337 E.00729
G1 X100.863 Y162.337 E0.40751
G1 F2397.065
G1 X100.863 Y164.368 E.08685
G1 X100.798 Y164.526 E0.00729
G1 X100.552 Y164.772 E.01488
G1 F2392.313
G1 X100.395 Y164.837 E.00729
G1 F2399.2
G1 X96.949 Y164.837 Z.24 E.14733
G1 F2397.599
G1 X93.503 Y164.837 Z.24 E.14733
G1 F2395.198
G1 X90.057 Y164.837 Z.24 E.14733
G1 X89.899 Y164.772 E0.00729
G1 F2394.371
G1 X89.653 Y164.526 E.01488
G1 X89.588 Y164.368 E0.00729
G1 F2395.668
G1 X89.588 Y159.824 Z.24 E.19429
G1 F2396.841
G1 X89.588 Y155.279 Z.24 E.19429
G1 F2398.014
G1 X89.588 Y150.735 Z.24 E.19429
G1 F2399.773
G1 X89.588 Y146.191 Z.24 E.19429
M107
G1 X90.016 Y146.191 F60000
M107
G1 F2400
G1 X90.016 Y144.115 E0.08875
G1 F2399.662
G1 X90.142 Y143.99 E.00759
G1 X100.309 Y143.99 E0.43472
G1 X100.435 Y144.115 E.00759
G1 X100.435 Y146.49 E0.10152
G1 X105.372 Y146.49 Z.24 E.21109
G1 F2400
G1 X110.309 Y146.49 Z.24 E.2111
G1 F2399.736
G1 X110.435 Y146.615 E.00759
G1 X110.435 Y161.783 E0.64849
G1 X110.309 Y161.908 E.00759
G1 X105.372 Y161.908 Z.24 E.2111
G1 X100.435 Y161.908 Z.24 E.21109
G1 X100.435 Y164.283 E0.10152
G1 X100.309 Y164.408 E.00759
G1 X90.142 Y164.408 E0.43472
G1 X90.016 Y164.283 E.00759
G1 X90.016 Y159.775 Z.24 E.19274
G1 F2398.635
G1 X90.016 Y155.267 Z.24 E.19274
G1 F2397.724
G1 X90.016 Y150.759 Z.24 E.19274
G1 F2396.359
G1 X90.016 Y146.251 Z.24 E.19274
M107
;WIPE_START
G1 F48000
G1 X90.016 Y159.585 E-0.95
;WIPE_END
G1 E-0.05 F3600
G1 X43.098 Y95.625 F60000
G1 E1 F3600
M107
G1 F2391.562
G1 X43.028 Y95.672 E.00361
G1 X42.792 Y95.77 E0.0109
G1 F2369.856
G1 X42.71 Y95.786 E.00361
G1 F2397.169
G1 X38.137 Y95.786 Z.24 E.1955
G1 F2399.888
G1 X33.565 Y95.786 Z.24 E.1955
G1 F2393.88
G1 X33.565 Y97.431 E.07033
G1 F2394.508
G1 X33.548 Y97.514 E.00361
G1 F2376.356
G1 X33.451 Y97.749 E.0109
G1 X33.404 Y97.82 E0.00361
G1 F2382.721
G1 X33.098 Y98.125 E.01849
G1 F2386.786
G1 X33.028 Y98.172 E.00361
G1 F2398.523
G1 X32.792 Y98.27 E.0109
G1 F2369.856
G1 X32.71 Y98.286 E.00361
G1 F2396.437
G1 X29.236 Y98.286 Z.24 E.14854
G1 X25.761 Y98.286 Z.24 E.14854
G1 X22.287 Y98.286 Z.24 E.14854
G1 F2369.856
G1 X22.205 Y98.27 E.00361
G1 F2398.523
G1 X21.969 Y98.172 E.0109
G1 F2386.786
G1 X21.899 Y98.125 E.00361
G1 F2382.721
G1 X21.593 Y97.82 E.01849
G1 X21.546 Y97.749 E0.00361
G1 F2376.356
G1 X21.449 Y97.514 E.0109
G1 F2394.519
G1 X21.432 Y97.431 E.00361
G1 F2388.063
G1 X21.432 Y93.347 Z.24 E.17463
G1 X21.432 Y89.262 Z.24 E.17463
G1 F2389.879
G1 X21.432 Y85.178 Z.24 E.17463
G1 F2390.787
G1 X21.432 Y81.093 Z.24 E.17463
G1 F2392.148
G1 X21.432 Y77.009 Z.24 E.17463
G1 X21.449 Y76.926 E0.00361
G1 F2396.933
G1 X21.546 Y76.69 E.0109
G1 F2394.923
G1 X21.593 Y76.62 E.00361
G1 F2395.674
G1 X21.899 Y76.315 E.01849
G1 F2391.683
G1 X21.969 Y76.268 E.00361
G1 X22.205 Y76.17 E0.0109
G1 F2369.815
G1 X22.287 Y76.154 E.00361
G1 F2396.437
G1 X25.761 Y76.154 Z.24 E.14854
G1 X29.236 Y76.154 Z.24 E.14854
G1 X32.71 Y76.154 Z.24 E.14854
G1 F2369.815
G1 X32.792 Y76.17 E.00361
G1 X33.028 Y76.268 E0.0109
G1 F2391.683
G1 X33.098 Y76.315 E.00361
G1 F2395.68
G1 X33.404 Y76.62 E.01849
G1 F2394.934
G1 X33.451 Y76.69 E.00361
G1 F2396.944
G1 X33.548 Y76.926 E.0109
G1 X33.565 Y77.009 E0.00361
G1 X33.565 Y78.654 E.07033
G1 F2398.982
G1 X38.137 Y78.654 Z.24 E.1955
G1 F2396.263
G1 X42.71 Y78.654 Z.24 E.1955
G1 F2369.815
G1 X42.792 Y78.67 E.00361
G1 X43.028 Y78.768 E0.0109
G1 F2391.683
G1 X43.098 Y78.815 E.00361
G1 F2395.68
G1 X43.404 Y79.12 E.01849
G1 F2394.934
G1 X43.451 Y79.19 E.00361
G1 F2396.944
