; generated by SuperSlicer 2.5.60.0 on 2024-07-05 at 21:27:27 UTC


;
;

;
;
; 

; external perimeters extrusion width = 0.48mm
; perimeters extrusion width = 0.48mm
; infill extrusion width = 0.48mm
; solid infill extrusion width = 0.48mm
; top infill extrusion width = 0.48mm
; support material extrusion width = 0.42mm
; first layer extrusion width = 0.48mm

; external perimeters extrusion width = 0.48mm
; perimeters extrusion width = 0.48mm
; infill extrusion width = 0.48mm
; solid infill extrusion width = 0.48mm
; top infill extrusion width = 0.48mm
; support material extrusion width = 0.42mm
; first layer extrusion width = 0.48mm

; external perimeters extrusion width = 0.48mm
; perimeters extrusion width = 0.48mm
; infill extrusion width = 0.48mm
; solid infill extrusion width = 0.48mm
; top infill extrusion width = 0.48mm
; support material extrusion width = 0.42mm
; first layer extrusion width = 0.48mm

; external perimeters extrusion width = 0.48mm
; perimeters extrusion width = 0.48mm
; infill extrusion width = 0.48mm
; solid infill extrusion width = 0.48mm
; top infill extrusion width = 0.48mm
; support material extrusion width = 0.42mm
; first layer extrusion width = 0.48mm

; external perimeters extrusion width = 0.48mm
; perimeters extrusion width = 0.48mm
; infill extrusion width = 0.48mm
; solid infill extrusion width = 0.48mm
; top infill extrusion width = 0.48mm
; support material extrusion width = 0.42mm
; first layer extrusion width = 0.48mm

; object:{"name":"filament_flow_test","id":"filament_flow_test id:0 copy 0","object_center":[59.299999,21.099998,0.000000],"boundingbox_center":[59.299999,21.099998,0.720000],"boundingbox_size":[20.000000,20.000000,1.440000]}
EXCLUDE_OBJECT_DEFINE NAME=filament_flow_test_id_0_copy_0 CENTER=59.299999,21.099998 POLYGON=[[49.30,11.10],[59.30,11.10],[69.30,13.60],[69.30,28.60],[59.30,31.10],[49.30,31.10],[49.30,11.10]]
; object:{"name":"filament_flow_test","id":"filament_flow_test id:1 copy 0","object_center":[59.299999,92.500000,0.000000],"boundingbox_center":[59.299999,92.500000,0.720000],"boundingbox_size":[20.000000,20.000000,1.440000]}
EXCLUDE_OBJECT_DEFINE NAME=filament_flow_test_id_1_copy_0 CENTER=59.299999,92.500000 POLYGON=[[49.30,82.50],[59.30,82.50],[69.30,85.00],[69.30,100.00],[59.30,102.50],[49.30,102.50],[49.30,82.50]]
; object:{"name":"filament_flow_test","id":"filament_flow_test id:2 copy 0","object_center":[59.299999,163.900002,0.000000],"boundingbox_center":[59.299999,163.900002,0.720000],"boundingbox_size":[20.000000,20.000000,1.440000]}
EXCLUDE_OBJECT_DEFINE NAME=filament_flow_test_id_2_copy_0 CENTER=59.299999,163.900002 POLYGON=[[49.30,153.90],[59.30,153.90],[69.30,156.40],[69.30,171.40],[59.30,173.90],[49.30,173.90],[49.30,153.90]]
; object:{"name":"filament_flow_test","id":"filament_flow_test id:3 copy 0","object_center":[130.700001,21.099998,0.000000],"boundingbox_center":[130.700001,21.099998,0.720000],"boundingbox_size":[20.000000,20.000000,1.440000]}
EXCLUDE_OBJECT_DEFINE NAME=filament_flow_test_id_3_copy_0 CENTER=130.700001,21.099998 POLYGON=[[120.70,11.10],[130.70,11.10],[140.70,13.60],[140.70,28.60],[130.70,31.10],[120.70,31.10],[120.70,11.10]]
; object:{"name":"filament_flow_test","id":"filament_flow_test id:4 copy 0","object_center":[130.700001,163.900002,0.000000],"boundingbox_center":[130.700001,163.900002,0.720000],"boundingbox_size":[20.000000,20.000000,1.440000]}
EXCLUDE_OBJECT_DEFINE NAME=filament_flow_test_id_4_copy_0 CENTER=130.700001,163.900002 POLYGON=[[120.70,153.90],[130.70,153.90],[140.70,156.40],[140.70,171.40],[130.70,173.90],[120.70,173.90],[120.70,153.90]]
; Total objects to print: 5
; plater:{"center":[95.000000,92.500000,0.000000],"boundingbox_center":[95.000000,92.500000,0.720000],"boundingbox_size":[91.400002,162.800003,1.440000]}

M107
;TYPE:Custom
START_PRINT EXTRUDER=250 BED=100
G21 ; set units to millimeters
G90 ; use absolute coordinates
M83 ; use relative distances for extrusion
; Filament gcode
FILAMENT_START MATERIAL=ASA COLOR=#E8FEF0 VENDOR=123-3D
SET_PRESSURE_ADVANCE ADVANCE=0.062
M104 S250 ; set temperature
M109 S250 ; set temperature and wait for it to be reached
M190 S100 ; set bed temperature and wait for it to be reached
;LAYER_CHANGE
;Z:0.24
;HEIGHT:0.24
G1 E-1 F3600
G1 Z0.12 F60000
G1 Z0.24
G92 E0
M204 S1000
G1 X120.075 Y152.97
G1 E1 F3600
;TYPE:Skirt
;WIDTH:0.48
G1 F2391.187
G1 X120.145 Y152.923 E.00325
G1 F2398.188
G1 X120.381 Y152.825 E.00981
G1 X120.464 Y152.809 E0.00324
G1 F2389.059
G1 X123.946 Y152.809 Z.24 E.13401
G1 F2385.996
G1 X127.429 Y152.809 Z.24 E.13401
G1 F2381.401
G1 X130.911 Y152.809 Z.24 E.13401
G1 F2382.598
G1 X130.994 Y152.825 E.00325
G1 F2373.449
G1 X131.229 Y152.923 E.00981
G1 X131.3 Y152.97 E0.00324
G1 F2372.452
G1 X131.605 Y153.275 E.01664
G1 F2380.778
G1 X131.652 Y153.345 E.00325
G1 F2393.68
G1 X131.75 Y153.581 E.00981
G1 X131.766 Y153.664 E0.00324
G1 F2394.844
G1 X131.766 Y155.315 E.06354
G1 F2399.08
G1 X136.351 Y155.315 Z.24 E.17643
G1 F2396.318
G1 X140.936 Y155.315 Z.24 E.17643
G1 X141.019 Y155.331 E.00325
G1 X141.255 Y155.429 E0.00981
G1 F2390.942
G1 X141.325 Y155.476 E.00325
G1 F2397.8
G1 X141.63 Y155.782 E.01663
G1 X141.677 Y155.852 E.00325
G1 X141.775 Y156.087 E.00981
G1 X141.791 Y156.17 E0.00325
G1 X141.791 Y160.035 Z.24 E.14872
G1 F2395.492
G1 X141.791 Y163.9 Z.24 E.14873
G1 F2393.667
G1 X141.791 Y167.765 Z.24 E.14873
G1 F2390.929
G1 X141.791 Y171.63 Z.24 E.14873
G1 X141.775 Y171.713 E0.00324
G1 X141.677 Y171.948 E.00981
G1 F2394.22
G1 X141.63 Y172.018 E.00325
G1 F2395.625
G1 X141.325 Y172.324 E.01664
G1 F2398.301
G1 X141.255 Y172.371 E.00324
G1 X141.019 Y172.469 E0.00981
G1 F2397.197
G1 X140.936 Y172.485 E.00325
G1 X136.351 Y172.485 Z.24 E.17643
G1 F2400
G1 X131.766 Y172.485 Z.24 E.17643
G1 F2396.569
G1 X131.766 Y174.136 E.06354
G1 F2394.695
G1 X131.75 Y174.219 E.00325
G1 X131.652 Y174.455 E0.0098
G1 F2387.165
G1 X131.605 Y174.525 E.00325
G1 F2379.757
G1 X131.3 Y174.83 E.01664
G1 X131.229 Y174.877 E0.00325
G1 F2383.134
G1 X130.994 Y174.975 E.0098
G1 F2389.968
G1 X130.911 Y174.991 E.00325
G1 X127.429 Y174.991 Z.24 E.13401
G1 F2391.246
G1 X123.946 Y174.991 Z.24 E.13401
G1 F2393.812
G1 X120.464 Y174.991 Z.24 E.13401
G1 F2394.891
G1 X120.381 Y174.975 E.00325
G1 X120.145 Y174.877 E0.0098
G1 F2388.834
G1 X120.075 Y174.83 E.00325
G1 F2389.084
G1 X119.77 Y174.525 E.01664
G1 F2391.056
G1 X119.723 Y174.455 E.00325
G1 F2398.337
G1 X119.625 Y174.219 E.00981
G1 X119.609 Y174.136 E0.00324
G1 F2391.463
G1 X119.609 Y170.042 Z.24 E.15756
G1 F2392.563
G1 X119.609 Y165.947 Z.24 E.15756
G1 F2393.664
G1 X119.609 Y161.853 Z.24 E.15756
G1 F2394.764
G1 X119.609 Y157.758 Z.24 E.15756
G1 F2396.415
G1 X119.609 Y153.664 Z.24 E.15756
G1 F2397.51
G1 X119.625 Y153.581 E.00325
G1 X119.723 Y153.345 E0.00981
G1 F2391.372
G1 X119.77 Y153.275 E.00325
G1 F2390.832
G1 X120.033 Y153.012 E.01433
G1 X120.348 Y153.302 F60000
G1 F2400
G1 X120.506 Y153.237 E0.00655
G1 F2392.558
G1 X123.96 Y153.237 Z.24 E.13292
G1 F2395.45
G1 X127.415 Y153.237 Z.24 E.13292
G1 F2399.788
G1 X130.869 Y153.237 Z.24 E.13292
G1 F2389.977
G1 X131.026 Y153.302 E.00656
G1 F2399.595
G1 X131.273 Y153.548 E.01339
G1 X131.338 Y153.706 E0.00656
G1 F2396.989
G1 X131.338 Y155.743 E.0784
G1 F2397.296
G1 X136.116 Y155.743 Z.24 E.18387
G1 F2389.184
G1 X140.894 Y155.743 Z.24 E.18387
G1 X141.052 Y155.809 E0.00656
G1 F2392.909
G1 X141.298 Y156.055 E.01339
G1 F2391.252
G1 X141.363 Y156.212 E.00656
G1 X141.363 Y171.588 E0.59165
G1 X141.298 Y171.745 E.00656
G1 F2392.983
G1 X141.052 Y171.991 E.01339
G1 X140.894 Y172.057 E0.00656
G1 F2391.937
G1 X136.116 Y172.057 Z.24 E.18386
G1 F2400
G1 X131.338 Y172.057 Z.24 E.18386
G1 F2394.707
G1 X131.338 Y174.094 E.07841
G1 X131.273 Y174.252 E0.00655
G1 F2397.665
G1 X131.026 Y174.498 E.01339
G1 F2389.977
G1 X130.869 Y174.563 E.00656
G1 F2398.951
G1 X127.415 Y174.563 Z.24 E.13292
G1 F2397.278
G1 X123.96 Y174.563 Z.24 E.13292
G1 F2394.767
G1 X120.506 Y174.563 Z.24 E.13292
G1 X120.348 Y174.498 E0.00656
G1 X120.102 Y174.252 E.01339
G1 X120.037 Y174.094 E0.00656
G1 X120.037 Y170.016 Z.24 E.15691
G1 X120.037 Y165.939 Z.24 E.15691
G1 X120.037 Y161.861 Z.24 E.15691
G1 X120.037 Y157.784 Z.24 E.15691
G1 X120.037 Y153.706 Z.24 E.15691
G1 X120.102 Y153.548 E0.00656
G1 F2396.249
G1 X120.306 Y153.345 E.01108
G1 X120.591 Y153.666 F60000
G1 F2400
G1 X130.784 Y153.666 E0.39221
G1 F2390.024
G1 X130.909 Y153.791 E.00683
G1 X130.909 Y156.172 E0.09161
G1 F2399.844
G1 X135.859 Y156.172 Z.24 E.19047
G1 F2400
G1 X140.809 Y156.172 Z.24 E.19047
G1 F2390.101
G1 X140.934 Y156.297 E.00683
G1 X140.934 Y171.503 E0.58509
G1 X140.809 Y171.628 E.00683
G1 F2399.965
G1 X135.859 Y171.628 Z.24 E.19046
G1 X130.909 Y171.628 Z.24 E.19046
G1 X130.909 Y174.009 E0.09161
G1 F2390.024
G1 X130.784 Y174.134 E.00683
G1 X120.591 Y174.134 E0.39221
G1 X120.466 Y174.009 E.00683
G1 X120.466 Y153.791 E0.77798
G1 F2398.165
G1 X120.549 Y153.708 E.00452
G1 E-1 F3600
G1 X70.391 Y156.17 F60000
G1 E1 F3600
G1 F2399.795
G1 X70.391 Y160.035 Z.24 E.14872
G1 X70.391 Y163.9 Z.24 E.14873
G1 F2398.974
G1 X70.391 Y167.765 Z.24 E.14873
G1 X70.391 Y171.63 Z.24 E.14872
G1 X70.375 Y171.713 E0.00325
G1 X70.277 Y171.948 E.0098
G1 F2397.274
G1 X70.23 Y172.018 E.00325
G1 F2395.929
G1 X69.925 Y172.324 E.01664
G1 F2388.713
G1 X69.855 Y172.371 E.00325
G1 X69.619 Y172.469 E0.0098
G1 F2394.853
G1 X69.536 Y172.485 E.00325
G1 F2395.494
G1 X64.951 Y172.485 Z.24 E.17643
G1 F2400
G1 X60.366 Y172.485 Z.24 E.17643
G1 F2397.846
G1 X60.366 Y174.136 E.06354
G1 X60.35 Y174.219 E.00325
G1 F2399.365
G1 X60.252 Y174.455 E.00981
G1 F2395.423
G1 X60.205 Y174.525 E.00324
G1 F2379.906
G1 X59.9 Y174.83 E.01664
G1 X59.829 Y174.877 E0.00325
G1 F2380.635
G1 X59.594 Y174.975 E.00981
G1 F2389.66
G1 X59.511 Y174.991 E.00325
G1 F2390.088
G1 X56.029 Y174.991 Z.24 E.134
G1 F2392.627
G1 X52.546 Y174.991 Z.24 E.134
G1 F2396.436
G1 X49.064 Y174.991 Z.24 E.134
G1 F2397.279
G1 X48.981 Y174.975 E.00325
G1 X48.745 Y174.877 E0.00981
G1 F2391.216
G1 X48.675 Y174.83 E.00325
G1 X48.37 Y174.525 E.01663
G1 F2390.983
G1 X48.323 Y174.455 E.00325
G1 X48.225 Y174.219 E0.00981
G1 F2397.055
G1 X48.209 Y174.136 E.00325
G1 F2395.761
G1 X48.209 Y170.042 Z.24 E.15756
G1 F2394.511
G1 X48.209 Y165.947 Z.24 E.15756
G1 F2393.262
G1 X48.209 Y161.853 Z.24 E.15756
G1 F2392.012
G1 X48.209 Y157.758 Z.24 E.15756
G1 F2390.138
G1 X48.209 Y153.664 Z.24 E.15756
G1 X48.225 Y153.581 E0.00324
G1 F2397.831
G1 X48.323 Y153.345 E.00981
G1 F2391.475
G1 X48.37 Y153.275 E.00325
G1 F2390.457
G1 X48.675 Y152.97 E.01664
G1 F2398.962
G1 X48.745 Y152.923 E.00324
G1 X48.981 Y152.825 E0.00981
G1 F2397.279
G1 X49.064 Y152.809 E.00325
G1 F2395.104
G1 X52.546 Y152.809 Z.24 E.13401
G1 F2392.568
G1 X56.029 Y152.809 Z.24 E.13401
G1 F2388.763
G1 X59.511 Y152.809 Z.24 E.13401
G1 F2397.401
G1 X59.594 Y152.825 E.00324
G1 F2380.635
G1 X59.829 Y152.923 E.00981
G1 X59.9 Y152.97 E0.00325
G1 F2379.847
G1 X60.205 Y153.275 E.01664
G1 F2387.471
G1 X60.252 Y153.345 E.00325
G1 X60.35 Y153.581 E0.0098
G1 F2395.083
G1 X60.366 Y153.664 E.00325
G1 F2396.632
G1 X60.366 Y155.315 E.06354
G1 F2399.125
G1 X64.951 Y155.315 Z.24 E.17643
G1 F2396.499
G1 X69.536 Y155.315 Z.24 E.17643
G1 F2397.279
G1 X69.619 Y155.331 E.00325
G1 X69.855 Y155.429 E0.00981
G1 F2398.962
G1 X69.925 Y155.476 E.00324
G1 F2397.042
G1 X70.23 Y155.782 E.01664
G1 F2396.74
G1 X70.277 Y155.852 E.00325
G1 F2393.568
G1 X70.375 Y156.087 E.00981
G1 X70.38 Y156.111 E0.00094
G1 X69.963 Y156.212 F60000
G1 F2394.479
G1 X69.963 Y160.056 Z.24 E.14791
G1 F2396.056
G1 X69.963 Y163.9 Z.24 E.14791
G1 F2397.634
G1 X69.963 Y167.744 Z.24 E.14791
G1 F2400
G1 X69.963 Y171.588 Z.24 E.14791
G1 F2390.979
G1 X69.898 Y171.745 E.00656
G1 F2395.05
G1 X69.652 Y171.991 E.01338
G1 X69.494 Y172.057 E0.00656
G1 F2392.092
G1 X64.716 Y172.057 Z.24 E.18387
G1 F2400
G1 X59.938 Y172.057 Z.24 E.18386
G1 F2396.983
G1 X59.938 Y174.094 E.0784
G1 X59.873 Y174.252 E0.00656
G1 F2399.655
G1 X59.626 Y174.498 E.01339
G1 F2389.681
G1 X59.469 Y174.563 E.00656
G1 F2398.875
G1 X56.015 Y174.563 Z.24 E.13292
G1 F2397.3
G1 X52.56 Y174.563 Z.24 E.13292
G1 F2394.938
G1 X49.106 Y174.563 Z.24 E.13292
G1 X48.948 Y174.498 E0.00656
G1 X48.702 Y174.252 E.01339
G1 X48.637 Y174.094 E0.00656
G1 X48.637 Y170.016 Z.24 E.15691
G1 X48.637 Y165.939 Z.24 E.15691
G1 X48.637 Y161.861 Z.24 E.15691
G1 X48.637 Y157.784 Z.24 E.15691
G1 X48.637 Y153.706 Z.24 E.15691
G1 X48.702 Y153.548 E0.00656
G1 X48.948 Y153.302 E.01339
G1 X49.106 Y153.237 E0.00656
G1 F2395.441
G1 X52.56 Y153.237 Z.24 E.13292
G1 F2397.132
G1 X56.015 Y153.237 Z.24 E.13292
G1 F2399.668
G1 X59.469 Y153.237 Z.24 E.13292
G1 F2390.029
G1 X59.626 Y153.302 E.00656
G1 F2399.579
G1 X59.873 Y153.548 E.01339
G1 X59.938 Y153.706 E0.00656
G1 F2396.892
G1 X59.938 Y155.743 E.0784
G1 F2397.294
G1 X64.716 Y155.743 Z.24 E.18386
G1 F2389.177
G1 X69.494 Y155.743 Z.24 E.18386
G1 X69.652 Y155.809 E0.00656
G1 F2392.918
G1 X69.898 Y156.055 E.01339
G1 F2396.08
G1 X69.94 Y156.157 E.00425
G1 X69.534 Y156.297 F60000
G1 F2400
G1 X69.534 Y171.503 E0.58509
G1 F2390.101
G1 X69.409 Y171.628 E.00683
G1 F2399.949
G1 X64.459 Y171.628 Z.24 E.19047
G1 X59.509 Y171.628 Z.24 E.19047
G1 X59.509 Y174.009 E0.09161
G1 F2390.024
G1 X59.384 Y174.134 E.00683
G1 X49.191 Y174.134 E0.39221
G1 X49.066 Y174.009 E.00683
G1 X49.066 Y153.791 E0.77797
G1 X49.191 Y153.666 E.00683
G1 X59.384 Y153.666 E0.39221
G1 X59.509 Y153.791 E.00683
G1 X59.509 Y156.172 E0.09161
G1 F2399.847
G1 X64.459 Y156.172 Z.24 E.19047
G1 F2400
G1 X69.409 Y156.172 Z.24 E.19047
G1 F2398.198
G1 X69.492 Y156.255 E.00452
G1 E-1 F3600
G1 X59.511 Y103.591 F60000
G1 E1 F3600
G1 F2398.492
G1 X56.029 Y103.591 Z.24 E.13401
G1 F2395.476
G1 X52.546 Y103.591 Z.24 E.13401
G1 F2390.952
G1 X49.064 Y103.591 Z.24 E.13401
G1 X48.981 Y103.575 E0.00324
G1 F2398.412
G1 X48.745 Y103.477 E.00981
G1 F2391.01
G1 X48.675 Y103.43 E.00325
G1 F2389.07
G1 X48.37 Y103.125 E.01664
G1 F2388.672
G1 X48.323 Y103.055 E.00325
G1 X48.225 Y102.819 E0.0098
G1 F2394.77
G1 X48.209 Y102.736 E.00325
G1 X48.209 Y98.642 Z.24 E.15756
G1 X48.209 Y94.547 Z.24 E.15756
G1 F2395.052
G1 X48.209 Y90.453 Z.24 E.15755
G1 X48.209 Y86.358 Z.24 E.15756
G1 F2396.216
G1 X48.209 Y82.264 Z.24 E.15756
G1 F2397.101
G1 X48.225 Y82.181 E.00325
G1 X48.323 Y81.945 E0.00981
G1 F2398.036
G1 X48.37 Y81.875 E.00324
G1 F2390.234
G1 X48.675 Y81.57 E.01664
G1 F2391.01
G1 X48.745 Y81.523 E.00325
G1 F2398.412
G1 X48.981 Y81.425 E.00981
G1 X49.064 Y81.409 E0.00324
G1 F2389.419
G1 X52.546 Y81.409 Z.24 E.13401
G1 F2386.353
G1 X56.029 Y81.409 Z.24 E.13401
G1 F2381.753
G1 X59.511 Y81.409 Z.24 E.13401
G1 F2382.73
G1 X59.594 Y81.425 E.00325
G1 F2373.853
G1 X59.829 Y81.523 E.00981
G1 X59.9 Y81.57 E0.00324
G1 F2372.893
G1 X60.205 Y81.875 E.01664
G1 F2380.861
G1 X60.252 Y81.945 E.00325
G1 F2394.958
G1 X60.35 Y82.181 E.00981
G1 F2395.202
G1 X60.366 Y82.264 E.00325
G1 F2397.187
G1 X60.366 Y83.915 E.06353
G1 F2399.07
G1 X64.951 Y83.915 Z.24 E.17643
G1 F2396.3
G1 X69.536 Y83.915 Z.24 E.17643
G1 F2397.115
G1 X69.619 Y83.931 E.00325
G1 X69.855 Y84.029 E0.00981
G1 F2391.01
G1 X69.925 Y84.076 E.00325
G1 F2397.78
G1 X70.23 Y84.382 E.01663
G1 X70.277 Y84.452 E.00325
G1 X70.375 Y84.687 E.00981
G1 X70.391 Y84.77 E0.00325
G1 X70.391 Y88.635 Z.24 E.14873
G1 F2395.507
G1 X70.391 Y92.5 Z.24 E.14873
G1 F2393.748
G1 X70.391 Y96.365 Z.24 E.14872
G1 F2391.109
G1 X70.391 Y100.23 Z.24 E.14873
G1 X70.375 Y100.313 E0.00324
G1 X70.277 Y100.548 E.00981
G1 F2394.046
G1 X70.23 Y100.618 E.00325
G1 X69.925 Y100.924 E.01664
G1 F2388.686
G1 X69.855 Y100.971 E.00325
G1 X69.619 Y101.069 E0.0098
G1 F2394.784
G1 X69.536 Y101.085 E.00325
G1 F2395.478
G1 X64.951 Y101.085 Z.24 E.17643
G1 F2400
G1 X60.366 Y101.085 Z.24 E.17643
G1 F2397.796
G1 X60.366 Y102.736 E.06354
G1 X60.35 Y102.819 E.00325
G1 F2399.448
G1 X60.252 Y103.055 E.00981
G1 F2394.898
G1 X60.205 Y103.125 E.00324
G1 F2379.877
G1 X59.9 Y103.43 E.01664
G1 X59.829 Y103.477 E0.00325
G1 F2380.839
G1 X59.594 Y103.575 E.00981
G1 F2395.103
G1 X59.57 Y103.58 E.00094
G1 X59.469 Y103.163 F60000
G1 F2388.67
G1 X56.015 Y103.163 Z.24 E.13292
G1 F2391.063
