; generated by SuperSlicer 2.5.59.9 on 2024-05-16 at 03:20:54 UTC


;
;

;
;

;
;

;
;

;
;
; 

; external perimeters extrusion width = 0.42mm
; perimeters extrusion width = 0.45mm
; infill extrusion width = 0.45mm
; solid infill extrusion width = 0.45mm
; top infill extrusion width = 0.42mm

; external perimeters extrusion width = 0.42mm
; perimeters extrusion width = 0.45mm
; infill extrusion width = 0.45mm
; solid infill extrusion width = 0.45mm
; top infill extrusion width = 0.42mm

; external perimeters extrusion width = 0.42mm
; perimeters extrusion width = 0.45mm
; infill extrusion width = 0.45mm
; solid infill extrusion width = 0.45mm
; top infill extrusion width = 0.42mm

; external perimeters extrusion width = 0.42mm
; perimeters extrusion width = 0.45mm
; infill extrusion width = 0.45mm
; solid infill extrusion width = 0.45mm
; top infill extrusion width = 0.42mm

; external perimeters extrusion width = 0.42mm
; perimeters extrusion width = 0.45mm
; infill extrusion width = 0.45mm
; solid infill extrusion width = 0.45mm
; top infill extrusion width = 0.42mm

; object:{"name":"filament_flow_test","id":"filament_flow_test id:0 copy 0","object_center":[65.759995,196.748537,0.000000],"boundingbox_center":[65.759995,196.748537,0.720000],"boundingbox_size":[20.000000,20.000000,1.440000]}
EXCLUDE_OBJECT_DEFINE NAME=filament_flow_test_id_0_copy_0 CENTER=65.759995,196.748537 POLYGON=[[55.76,186.75],[65.76,186.75],[75.76,189.25],[75.76,204.25],[65.76,206.75],[55.76,206.75],[55.76,186.75]]
; object:{"name":"filament_flow_test","id":"filament_flow_test id:1 copy 0","object_center":[14.217819,144.455148,0.000000],"boundingbox_center":[14.217819,144.455148,0.720000],"boundingbox_size":[20.000000,20.000000,1.440000]}
EXCLUDE_OBJECT_DEFINE NAME=filament_flow_test_id_1_copy_0 CENTER=14.217819,144.455148 POLYGON=[[4.22,134.46],[14.22,134.46],[24.22,136.96],[24.22,151.96],[14.22,154.46],[4.22,154.46],[4.22,134.46]]
; object:{"name":"filament_flow_test","id":"filament_flow_test id:2 copy 0","object_center":[71.113827,98.817056,0.000000],"boundingbox_center":[71.113827,98.817056,0.720000],"boundingbox_size":[20.000000,20.000000,1.440000]}
EXCLUDE_OBJECT_DEFINE NAME=filament_flow_test_id_2_copy_0 CENTER=71.113827,98.817056 POLYGON=[[61.11,88.82],[71.11,88.82],[81.11,91.32],[81.11,106.32],[71.11,108.82],[61.11,108.82],[61.11,88.82]]
; object:{"name":"filament_flow_test","id":"filament_flow_test id:3 copy 0","object_center":[14.482262,52.327164,0.000000],"boundingbox_center":[14.482262,52.327164,0.720000],"boundingbox_size":[20.000000,20.000000,1.440000]}
EXCLUDE_OBJECT_DEFINE NAME=filament_flow_test_id_3_copy_0 CENTER=14.482262,52.327164 POLYGON=[[4.48,42.33],[14.48,42.33],[24.48,44.83],[24.48,59.83],[14.48,62.33],[4.48,62.33],[4.48,42.33]]
; object:{"name":"filament_flow_test","id":"filament_flow_test id:4 copy 0","object_center":[85.556745,27.146527,0.000000],"boundingbox_center":[85.556745,27.146527,0.720000],"boundingbox_size":[20.000000,20.000000,1.440000]}
EXCLUDE_OBJECT_DEFINE NAME=filament_flow_test_id_4_copy_0 CENTER=85.556745,27.146527 POLYGON=[[75.56,17.15],[85.56,17.15],[95.56,19.65],[95.56,34.65],[85.56,37.15],[75.56,37.15],[75.56,17.15]]
; plater:{"center":[49.887282,111.947532,0.000000],"boundingbox_center":[49.887282,111.947532,0.720000],"boundingbox_size":[91.338926,189.602010,1.440000]}

M73 P0 R13
M107
;TYPE:Custom
CALCULATE_PA MATERIAL=PLA BOWDEN_LENGTH=6 LAYER_HEIGHT=0.24 NOZZLE_SIZE=0.4 PRINT_SPEED=60
START_PRINT EXTRUDER=210 BED=60
SET_VELOCITY_LIMIT ACCEL=500



M107
G21 ; set units to millimeters
G90 ; use absolute coordinates
M83 ; use relative distances for extrusion
ACTIVATE_EXTRUDER EXTRUDER=extruder
; Filament gcode
M104 S210 T0 ; set temperature
M109 S210 T0 ; set temperature and wait for it to be reached
M190 S60 ; set bed temperature and wait for it to be reached
;LAYER_CHANGE
;Z:0.24
;HEIGHT:0.24
;BEFORE_LAYER_CHANGE
G92 E0.0

G1 E-0.4 F3600
M73 P2 R12
G1 Z0.4 F600000
;AFTER_LAYER_CHANGE
;0.24
SET_VELOCITY_LIMIT ACCEL=5000


CALCULATE_PA MATERIAL=PLA BOWDEN_LENGTH=6.0 LAYER_HEIGHT=0.2 NOZZLE_SIZE=0.4 PRINT_SPEED=60


G92 E0
G1 X55.48195 Y185.7676
G1 Z0.24
G1 E0.4 F3600
;TYPE:Skirt
;WIDTH:0.45
M107
G1 F1799.72571
G1 X55.55894 Y185.75229 E.00281
G1 X65.96105 Y185.75229 E0.37225
G1 X66.03804 Y185.76759 E.00281
G1 X66.25702 Y185.85831 E0.00848
G1 X66.32229 Y185.90192 E.00281
G1 X66.60661 Y186.18624 E0.01439
G1 X66.65022 Y186.2515 E.00281
G1 X66.74093 Y186.47049 E0.00848
G1 X66.75624 Y186.54749 E.00281
G1 X66.75624 Y188.25229 E.06101
G1 X75.96105 Y188.25229 E0.3294
G1 X76.03804 Y188.26759 E.00281
G1 X76.25702 Y188.35831 E0.00848
G1 X76.32229 Y188.40192 E.00281
G1 X76.60661 Y188.68624 E0.01439
G1 X76.65022 Y188.75151 E.00281
G1 X76.74093 Y188.97049 E0.00848
G1 X76.75624 Y189.04749 E.00281
G1 X76.75624 Y204.44959 E0.55118
G1 X76.74093 Y204.52658 E.00281
G1 X76.65022 Y204.74556 E0.00848
G1 X76.60661 Y204.81084 E.00281
G1 X76.32229 Y205.09515 E0.01439
G1 X76.25702 Y205.13876 E.00281
G1 X76.03804 Y205.22947 E0.00848
G1 X75.96105 Y205.24478 E.00281
G1 X66.75624 Y205.24478 E0.3294
G1 X66.75624 Y206.94958 E.06101
G1 X66.74093 Y207.02658 E.00281
G1 X66.65022 Y207.24556 E0.00848
G1 X66.60661 Y207.31084 E.00281
G1 X66.32229 Y207.59515 E0.01439
G1 X66.25702 Y207.63876 E.00281
G1 X66.03804 Y207.72947 E0.00848
G1 X65.96105 Y207.74478 E.00281
G1 X55.55894 Y207.74478 E0.37225
G1 X55.48195 Y207.72948 E.00281
G1 X55.26296 Y207.63876 E0.00848
G1 X55.1977 Y207.59515 E.00281
G1 X54.91338 Y207.31083 E0.01439
G1 X54.86977 Y207.24556 E.00281
G1 X54.77906 Y207.02658 E0.00848
G1 X54.76375 Y206.94958 E.00281
G1 X54.76375 Y186.54748 E0.73011
G1 X54.77906 Y186.47049 E.00281
G1 X54.86977 Y186.25151 E0.00848
G1 X54.91338 Y186.18623 E.00281
G1 X55.1977 Y185.90192 E.01439
G1 F1797.7832
G1 X55.26297 Y185.85831 E.00281
G1 F1793.70313
G1 X55.42652 Y185.79056 E.00634
M107
G1 X55.57901 Y186.15873 F600000
M107
M73 P3 R12
G1 F1800
G1 X55.59819 Y186.15078 E0.00074
G1 F1793.86951
G1 X59.03939 Y186.15079 Z.24 E.12315
G1 F1795.93237
G1 X62.48059 Y186.15079 Z.24 E.12315
G1 F1799.02686
G1 X65.9218 Y186.15079 Z.24 E.12315
G1 X66.06826 Y186.21145 E0.00567
G1 F1798.98853
G1 X66.29708 Y186.44026 E.01158
G1 X66.35775 Y186.58673 E0.00567
G1 F1799.52576
G1 X66.35775 Y188.65079 E.07386
G1 X71.13977 Y188.65079 Z.24 E.17113
G1 X75.9218 Y188.65079 Z.24 E.17113
G1 X76.06826 Y188.71145 E0.00567
G1 X76.29708 Y188.94028 E.01158
G1 X76.35775 Y189.08673 E0.00567
G1 X76.35775 Y192.91763 Z.24 E.13709
G1 X76.35775 Y196.74854 Z.24 E.13709
G1 X76.35775 Y200.57944 Z.24 E.13709
G1 F1798.94678
G1 X76.35775 Y204.41034 Z.24 E.13709
G1 X76.29708 Y204.55681 E0.00567
G1 X76.06826 Y204.78561 E.01158
G1 X75.9218 Y204.84629 E0.00567
G1 F1799.23853
G1 X71.13977 Y204.84628 Z.24 E.17113
G1 X66.35775 Y204.84628 Z.24 E.17113
G1 X66.35775 Y206.91034 E.07386
G1 X66.29708 Y207.05681 E0.00567
G1 F1798.98853
G1 X66.06826 Y207.28561 E.01158
G1 X65.9218 Y207.34629 E0.00567
G1 F1799.01355
G1 X62.48059 Y207.34628 Z.24 E.12315
G1 F1798.98694
G1 X59.03939 Y207.34628 Z.24 E.12315
G1 X55.59819 Y207.34628 Z.24 E.12315
G1 X55.45172 Y207.28562 E0.00567
G1 F1799.03491
G1 X55.22291 Y207.05679 E.01158
G1 X55.16224 Y206.91034 E0.00567
G1 X55.16224 Y202.84561 Z.24 E.14546
G1 X55.16224 Y198.7809 Z.24 E.14546
G1 X55.16224 Y194.71617 Z.24 E.14546
G1 X55.16224 Y190.65146 Z.24 E.14546
G1 X55.16224 Y186.58673 Z.24 E.14546
G1 X55.22291 Y186.44027 E0.00567
G1 F1798.43848
G1 X55.45172 Y186.21146 E.01158
G1 X55.52358 Y186.18169 E0.00278
M107
G1 X55.67745 Y186.54928 F600000
M107
G1 F1798.11621
G1 X59.06581 Y186.54929 Z.24 E.12126
G1 X62.45417 Y186.54929 Z.24 E.12126
G1 F1800.00012
G1 X65.84253 Y186.54929 Z.24 E.12126
G1 F1799.01184
G1 X65.95925 Y186.66599 E.00591
G1 X65.95925 Y189.04929 E.08529
G1 X75.84253 Y189.04928 E0.35368
G1 X75.95925 Y189.166 E.00591
G1 X75.95925 Y204.33108 E0.5427
G1 F1798.98865
G1 X75.84253 Y204.44778 E.00591
G1 X65.95925 Y204.44779 E0.35368
G1 F1799.97937
G1 X65.95925 Y206.83109 E.08529
G1 X65.84253 Y206.94778 E.00591
G1 X55.67745 Y206.94779 E0.36377
G1 F1798.87244
G1 X55.56074 Y206.83109 E.00591
G1 X55.56074 Y186.66599 E0.72162
G1 F1799.56458
G1 X55.63503 Y186.59171 E.00376
M107
;WIPE_START
G1 F480000
G1 X55.56074 Y186.66599 E-0.00075
G1 X55.56074 Y206.83108 E-0.14368
G1 X55.67745 Y206.94779 E-0.00118
G1 X65.84253 Y206.94779 E-0.07243
G1 X65.95925 Y206.83108 E-0.00118
G1 X65.95925 Y204.44779 E-0.01698
G1 X75.84253 Y204.44779 E-0.07042
G1 X75.95925 Y204.33108 E-0.00118
G1 X75.95925 Y194.19472 E-0.07222
;WIPE_END
G1 E-0.02 F3600
G1 Z0.4 F600000
G1 X24.78012 Y152.80176
G1 Z0.24
G1 E0.4 F3600
M107
G1 F1799.74634
G1 X24.71485 Y152.84538 E.00281
G1 X24.49586 Y152.93608 E0.00848
G1 X24.41887 Y152.9514 E.00281
G1 X15.21407 Y152.9514 E0.3294
G1 X15.21407 Y154.6562 E.06101
G1 X15.19875 Y154.73318 E.00281
G1 X15.10805 Y154.95218 E0.00848
G1 X15.06444 Y155.01744 E.00281
G1 X14.78012 Y155.30176 E.01439
G1 X14.71485 Y155.34538 E.00281
G1 X14.49586 Y155.43608 E0.00848
G1 X14.41887 Y155.4514 E.00281
G1 X4.01676 Y155.4514 E0.37225
G1 X3.93978 Y155.43608 E.00281
G1 X3.72079 Y155.34537 E0.00848
G1 X3.65552 Y155.30176 E.00281
G1 X3.3712 Y155.01744 E.01439
G1 X3.32759 Y154.95216 E.00281
G1 X3.23689 Y154.73319 E0.00848
G1 X3.22157 Y154.6562 E.00281
G1 X3.22157 Y134.25409 E0.73011
M73 P4 R12
G1 X3.23689 Y134.17709 E.00281
G1 X3.32759 Y133.95812 E0.00848
G1 X3.3712 Y133.89285 E.00281
G1 X3.65552 Y133.60853 E0.01439
G1 X3.72079 Y133.56493 E.00281
G1 X3.93978 Y133.47421 E0.00848
G1 X4.01676 Y133.45889 E.00281
G1 X14.41887 Y133.4589 E0.37225
G1 X14.49586 Y133.47421 E.00281
G1 X14.71485 Y133.56492 E0.00848
G1 X14.78011 Y133.60854 E.00281
G1 X15.06443 Y133.89285 E0.01439
G1 X15.10805 Y133.95811 E.00281
G1 X15.19875 Y134.1771 E0.00848
G1 X15.21407 Y134.25409 E.00281
G1 X15.21407 Y135.95889 E.06101
G1 X24.41887 Y135.9589 E0.3294
G1 X24.49586 Y135.97421 E.00281
G1 X24.71485 Y136.06492 E0.00848
G1 X24.78011 Y136.10854 E.00281
G1 X25.06443 Y136.39285 E0.01439
G1 X25.10805 Y136.45811 E.00281
G1 X25.19875 Y136.6771 E0.00848
G1 X25.21407 Y136.75409 E.00281
G1 X25.21407 Y152.1562 E0.55118
G1 X25.19875 Y152.23318 E.00281
G1 X25.10805 Y152.45218 E0.00848
G1 X25.06444 Y152.51744 E.00281
G1 F1796.98987
G1 X24.82254 Y152.75934 E.01224
M107
G1 X24.54076 Y152.47756 F600000
M107
G1 F1800
G1 X24.52609 Y152.49223 E0.00074
G1 F1796.85693
G1 X24.37963 Y152.5529 E.00567
G1 F1798.28894
G1 X19.5976 Y152.5529 Z.24 E.17113
G1 F1799.90735
G1 X14.81557 Y152.5529 Z.24 E.17113
G1 X14.81557 Y154.61694 E.07386
G1 X14.75491 Y154.76342 E0.00567
G1 F1798.85339
G1 X14.52609 Y154.99223 E.01158
G1 X14.37963 Y155.0529 E0.00567
G1 X10.93842 Y155.0529 Z.24 E.12315
G1 X7.49722 Y155.0529 Z.24 E.12315
G1 X4.05601 Y155.0529 Z.24 E.12315
G1 X3.90955 Y154.99223 E0.00567
G1 X3.68073 Y154.76341 E.01158
G1 X3.62007 Y154.61695 E0.00567
G1 X3.62007 Y150.55222 Z.24 E.14546
G1 X3.62007 Y146.4875 Z.24 E.14546
G1 X3.62007 Y142.42278 Z.24 E.14546
G1 X3.62007 Y138.35806 Z.24 E.14546
G1 X3.62007 Y134.29333 Z.24 E.14546
G1 X3.68073 Y134.14688 E0.00567
G1 X3.90955 Y133.91806 E.01158
G1 X4.05601 Y133.8574 E0.00567
G1 X7.49722 Y133.85741 Z.24 E.12315
G1 X10.93842 Y133.85741 Z.24 E.12315
G1 X14.37963 Y133.85741 Z.24 E.12315
G1 X14.52609 Y133.91806 E0.00567
G1 X14.7549 Y134.14688 E.01158
G1 X14.81557 Y134.29334 E0.00567
G1 F1799.53162
G1 X14.81557 Y136.35741 E.07386
G1 X19.5976 Y136.35741 Z.24 E.17113
G1 F1798.93433
G1 X24.37963 Y136.35741 Z.24 E.17113
G1 X24.52609 Y136.41806 E0.00567
G1 X24.7549 Y136.64688 E.01158
G1 X24.81557 Y136.79334 E0.00567
G1 X24.81557 Y140.62424 Z.24 E.13709
G1 X24.81557 Y144.45514 Z.24 E.13709
G1 X24.81557 Y148.28604 Z.24 E.13709
G1 X24.81557 Y152.11694 Z.24 E.13709
G1 X24.75491 Y152.26342 E0.00567
G1 F1799.48853
G1 X24.58319 Y152.43513 E.00869
M107
G1 X24.30141 Y152.15336 F600000
M107
G1 F1799.88989
G1 X19.35925 Y152.15388 Z.24 E.17686
G1 F1800
G1 X14.41708 Y152.1544 Z.24 E.17686
G1 F1799.97961
G1 X14.41708 Y154.53769 E.08529
G1 X14.30036 Y154.6544 E.00591
G1 X4.13528 Y154.65441 E0.36377
G1 F1798.80493
G1 X4.01856 Y154.53769 E.00591
G1 X4.01856 Y134.37261 E0.72162
G1 X4.13528 Y134.25589 E.00591
G1 X14.30036 Y134.25589 E0.36377
G1 X14.41708 Y134.3726 E.00591
G1 F1799.96326
G1 X14.41708 Y136.75589 E.08529
G1 X24.30036 Y136.75589 E0.35368
G1 F1798.80115
G1 X24.41708 Y136.8726 E.00591
G1 X24.41708 Y152.03769 E0.5427
G1 X24.34384 Y152.11093 E.00371
M107
;WIPE_START
G1 F480000
G1 X24.41708 Y152.03769 E-0.00074
G1 X24.41708 Y136.87261 E-0.10805
G1 X24.30036 Y136.75589 E-0.00118
G1 X14.41708 Y136.75589 E-0.07042
G1 X14.41708 Y134.37261 E-0.01698
M73 P5 R12
G1 X14.30036 Y134.25589 E-0.00118
G1 X4.13528 Y134.25589 E-0.07243
G1 X4.01856 Y134.37261 E-0.00118
G1 X4.01856 Y149.51045 E-0.10786
;WIPE_END
G1 E-0.02 F3600
G1 Z0.4 F600000
G1 X60.55153 Y109.66367
G1 Z0.24
G1 E0.4 F3600
M107
G1 F1800
G1 X60.26721 Y109.37935 E0.01439
G1 F1799.6283
G1 X60.2236 Y109.31408 E.00281
G1 X60.13289 Y109.0951 E0.00848
G1 X60.11758 Y109.01811 E.00281
G1 X60.11758 Y88.616 E0.73011
G1 X60.13289 Y88.53901 E.00281
G1 X60.2236 Y88.32003 E0.00848
G1 X60.26721 Y88.25476 E.00281
G1 X60.55153 Y87.97044 E.01439
G1 X60.6168 Y87.92683 E.00281
G1 X60.83578 Y87.83612 E0.00848
G1 X60.91277 Y87.82081 E.00281
G1 X71.31488 Y87.82081 E0.37225
G1 X71.39187 Y87.83612 E.00281
G1 X71.61085 Y87.92683 E0.00848
G1 X71.67612 Y87.97044 E.00281
G1 X71.96044 Y88.25476 E.01439
G1 X72.00405 Y88.32003 E.00281
G1 X72.09476 Y88.53901 E0.00848
G1 X72.11007 Y88.616 E.00281
G1 X72.11007 Y90.32081 E.06101
G1 X81.31488 Y90.32081 E0.3294
G1 X81.39187 Y90.33612 E.00281
G1 X81.61085 Y90.42683 E0.00848
G1 X81.67612 Y90.47044 E.00281
G1 X81.96044 Y90.75476 E.01439
G1 X82.00405 Y90.82003 E.00281
G1 X82.09476 Y91.03901 E0.00848
G1 X82.11007 Y91.116 E.00281
G1 X82.11007 Y106.51811 E0.55118
G1 X82.09476 Y106.5951 E.00281
G1 X82.00405 Y106.81408 E0.00848
G1 X81.96044 Y106.87935 E.00281
G1 X81.67612 Y107.16367 E0.01439
G1 X81.61085 Y107.20728 E.00281
G1 X81.39187 Y107.29799 E0.00848
G1 X81.31488 Y107.3133 E.00281
G1 X72.11007 Y107.3133 E0.3294
G1 X72.11007 Y109.01811 E.06101
G1 X72.09476 Y109.0951 E.00281
G1 X72.00405 Y109.31408 E0.00848
G1 X71.96044 Y109.37935 E.00281
G1 X71.67612 Y109.66367 E0.01439
G1 X71.61085 Y109.70728 E.00281
G1 X71.39187 Y109.79799 E0.00848
G1 X71.31488 Y109.8133 E.00281
G1 X60.91277 Y109.8133 E0.37225
G1 X60.83578 Y109.79799 E.00281
G1 F1797.48523
G1 X60.61679 Y109.70728 E.00848
G1 X60.60141 Y109.69701 E0.00066
M107
G1 X60.80555 Y109.35414 F600000
M107
G1 F1796.84546
G1 X60.57674 Y109.12533 E.01158
G1 X60.51607 Y108.97886 E0.00567
G1 F1799.10352
G1 X60.51607 Y104.91414 Z.24 E.14546
G1 X60.51607 Y100.84942 Z.24 E.14546
G1 X60.51607 Y96.78469 Z.24 E.14546
G1 X60.51607 Y92.71997 Z.24 E.14546
G1 X60.51607 Y88.65525 Z.24 E.14546
G1 X60.57674 Y88.50879 E0.00567
G1 X60.80556 Y88.27997 E.01158
G1 X60.95202 Y88.2193 E0.00567
G1 X64.39322 Y88.2193 Z.24 E.12315
G1 X67.83443 Y88.2193 Z.24 E.12315
G1 X71.27563 Y88.2193 Z.24 E.12315
G1 X71.42209 Y88.27997 E0.00567
G1 X71.65091 Y88.50879 E.01158
G1 X71.71158 Y88.65525 E0.00567
G1 X71.71158 Y90.7193 E.07386
G1 X76.49361 Y90.7193 Z.24 E.17113
G1 X81.27563 Y90.7193 Z.24 E.17113
G1 X81.42209 Y90.77997 E0.00567
G1 X81.65091 Y91.00879 E.01158
G1 X81.71158 Y91.15525 E0.00567
G1 X81.71158 Y94.98615 Z.24 E.13709
G1 X81.71158 Y98.81705 Z.24 E.13709
G1 X81.71158 Y102.64796 Z.24 E.13709
G1 X81.71158 Y106.47886 Z.24 E.13709
G1 X81.65091 Y106.62533 E0.00567
G1 X81.4221 Y106.85414 E.01158
G1 X81.27563 Y106.91481 E0.00567
G1 X76.49361 Y106.91481 Z.24 E.17113
G1 X71.71158 Y106.91481 Z.24 E.17113
G1 X71.71158 Y108.97886 E.07386
G1 X71.65091 Y109.12533 E0.00567
G1 X71.4221 Y109.35414 E.01158
G1 X71.27563 Y109.41481 E0.00567
G1 X67.83443 Y109.41481 Z.24 E.12315
G1 X64.39322 Y109.41481 Z.24 E.12315
G1 F1800
G1 X60.95202 Y109.41481 Z.24 E.12315
G1 F1798.38208
G1 X60.86099 Y109.3771 E.00353
M107
G1 X61.03128 Y109.01631 F600000
M107
G1 F1799.35791
G1 X60.91457 Y108.8996 E.00591
G1 X60.91457 Y88.73452 E0.72162
G1 F1798.78662
G1 X61.03128 Y88.6178 E.00591
