; generated by SuperSlicer 2.5.59.9 on 2024-05-16 at 04:10:15 UTC


;
;

;
;

;
;

;
;

;
;
; 

; external perimeters extrusion width = 0.42mm
; perimeters extrusion width = 0.45mm
; infill extrusion width = 0.45mm
; solid infill extrusion width = 0.45mm
; top infill extrusion width = 0.42mm

; external perimeters extrusion width = 0.42mm
; perimeters extrusion width = 0.45mm
; infill extrusion width = 0.45mm
; solid infill extrusion width = 0.45mm
; top infill extrusion width = 0.42mm

; external perimeters extrusion width = 0.42mm
; perimeters extrusion width = 0.45mm
; infill extrusion width = 0.45mm
; solid infill extrusion width = 0.45mm
; top infill extrusion width = 0.42mm

; external perimeters extrusion width = 0.42mm
; perimeters extrusion width = 0.45mm
; infill extrusion width = 0.45mm
; solid infill extrusion width = 0.45mm
; top infill extrusion width = 0.42mm

; external perimeters extrusion width = 0.42mm
; perimeters extrusion width = 0.45mm
; infill extrusion width = 0.45mm
; solid infill extrusion width = 0.45mm
; top infill extrusion width = 0.42mm

; object:{"name":"filament_flow_test","id":"filament_flow_test id:0 copy 0","object_center":[15.704041,56.561086,0.000000],"boundingbox_center":[15.704041,56.561086,0.720000],"boundingbox_size":[20.000000,20.000000,1.440000]}
EXCLUDE_OBJECT_DEFINE NAME=filament_flow_test_id_0_copy_0 CENTER=15.704041,56.561086 POLYGON=[[5.70,46.56],[15.70,46.56],[25.70,49.06],[25.70,64.06],[15.70,66.56],[5.70,66.56],[5.70,46.56]]
; object:{"name":"filament_flow_test","id":"filament_flow_test id:1 copy 0","object_center":[15.704041,125.961087,0.000000],"boundingbox_center":[15.704041,125.961087,0.720000],"boundingbox_size":[20.000000,20.000000,1.440000]}
EXCLUDE_OBJECT_DEFINE NAME=filament_flow_test_id_1_copy_0 CENTER=15.704041,125.961087 POLYGON=[[5.70,115.96],[15.70,115.96],[25.70,118.46],[25.70,133.46],[15.70,135.96],[5.70,135.96],[5.70,115.96]]
; object:{"name":"filament_flow_test","id":"filament_flow_test id:2 copy 0","object_center":[15.704041,195.361089,0.000000],"boundingbox_center":[15.704041,195.361089,0.720000],"boundingbox_size":[20.000000,20.000000,1.440000]}
EXCLUDE_OBJECT_DEFINE NAME=filament_flow_test_id_2_copy_0 CENTER=15.704041,195.361089 POLYGON=[[5.70,185.36],[15.70,185.36],[25.70,187.86],[25.70,202.86],[15.70,205.36],[5.70,205.36],[5.70,185.36]]
; object:{"name":"filament_flow_test","id":"filament_flow_test id:3 copy 0","object_center":[79.595497,92.917376,0.000000],"boundingbox_center":[79.595497,92.917376,0.720000],"boundingbox_size":[20.000000,20.000000,1.440000]}
EXCLUDE_OBJECT_DEFINE NAME=filament_flow_test_id_3_copy_0 CENTER=79.595497,92.917376 POLYGON=[[69.60,82.92],[79.60,82.92],[89.60,85.42],[89.60,100.42],[79.60,102.92],[69.60,102.92],[69.60,82.92]]
; object:{"name":"filament_flow_test","id":"filament_flow_test id:4 copy 0","object_center":[79.299524,160.187115,0.000000],"boundingbox_center":[79.299524,160.187115,0.720000],"boundingbox_size":[20.000000,20.000000,1.440000]}
EXCLUDE_OBJECT_DEFINE NAME=filament_flow_test_id_4_copy_0 CENTER=79.299524,160.187115 POLYGON=[[69.30,150.19],[79.30,150.19],[89.30,152.69],[89.30,167.69],[79.30,170.19],[69.30,170.19],[69.30,150.19]]
; plater:{"center":[47.649769,125.961087,0.000000],"boundingbox_center":[47.649769,125.961087,0.720000],"boundingbox_size":[83.891456,158.800003,1.440000]}

M73 P0 R12
M107
;TYPE:Custom
CALCULATE_PA MATERIAL=PLA BOWDEN_LENGTH=6 LAYER_HEIGHT=0.24 NOZZLE_SIZE=0.4 PRINT_SPEED=100
START_PRINT EXTRUDER=210 BED=60
SET_VELOCITY_LIMIT ACCEL=500



M107
G21 ; set units to millimeters
G90 ; use absolute coordinates
M83 ; use relative distances for extrusion
ACTIVATE_EXTRUDER EXTRUDER=extruder
; Filament gcode
M104 S210 T0 ; set temperature
M109 S210 T0 ; set temperature and wait for it to be reached
M190 S60 ; set bed temperature and wait for it to be reached
;LAYER_CHANGE
;Z:0.24
;HEIGHT:0.24
;BEFORE_LAYER_CHANGE
G92 E0.0

G1 E-0.4 F3600
M73 P2 R12
G1 Z0.4 F360000
;AFTER_LAYER_CHANGE
;0.24
SET_VELOCITY_LIMIT ACCEL=5000


CALCULATE_PA MATERIAL=PLA BOWDEN_LENGTH=6.0 LAYER_HEIGHT=0.2 NOZZLE_SIZE=0.4 PRINT_SPEED=100


G92 E0
G1 X5.50299 Y184.36484
G1 Z0.24
G1 E0.4 F3600
;TYPE:Skirt
;WIDTH:0.45
M107
G1 F2400
G1 X15.90509 Y184.36484 E0.37225
G1 F2398.9751
G1 X15.98208 Y184.38016 E.00281
G1 X16.20107 Y184.47086 E0.00848
G1 X16.26633 Y184.51447 E.00281
G1 X16.55066 Y184.79879 E0.01439
G1 X16.59427 Y184.86406 E.00281
G1 X16.68497 Y185.08304 E0.00848
G1 F2399.23291
G1 X16.70029 Y185.16003 E.00281
G1 X16.70029 Y186.86484 E.06101
G1 X25.90509 Y186.86484 E0.3294
G1 F2398.95459
G1 X25.98208 Y186.88016 E.00281
G1 X26.20107 Y186.97086 E0.00848
G1 X26.26633 Y187.01447 E.00281
G1 X26.55066 Y187.29879 E0.01439
G1 X26.59427 Y187.36406 E.00281
G1 X26.68497 Y187.58304 E0.00848
G1 F2399.18774
G1 X26.70029 Y187.66003 E.00281
G1 X26.70029 Y203.06214 E0.55118
G1 X26.68497 Y203.13913 E.00281
G1 X26.59427 Y203.35812 E0.00848
G1 F2398.80664
G1 X26.55066 Y203.42339 E.00281
G1 X26.26634 Y203.70771 E0.01439
G1 F2399.24878
G1 X26.20107 Y203.75133 E.00281
G1 X25.98208 Y203.84202 E0.00848
G1 F2398.66699
G1 X25.9051 Y203.85735 E.00281
G1 X16.70029 Y203.85734 E0.3294
G1 F2399.94214
G1 X16.70029 Y205.56213 E.06101
G1 X16.68497 Y205.63913 E.00281
G1 X16.59427 Y205.85812 E0.00848
G1 F2398.823
G1 X16.55066 Y205.92339 E.00281
G1 X16.26634 Y206.20771 E0.01439
G1 F2399.26563
G1 X16.20107 Y206.25133 E.00281
G1 X15.98208 Y206.34202 E0.00848
G1 F2398.69556
G1 X15.9051 Y206.35735 E.00281
G1 X5.50298 Y206.35734 E0.37225
M73 P3 R12
G1 X5.426 Y206.34203 E.00281
G1 X5.20701 Y206.25131 E0.00848
G1 X5.14174 Y206.2077 E.00281
G1 X4.85742 Y205.92338 E0.01439
G1 X4.81381 Y205.85812 E.00281
G1 X4.72311 Y205.63913 E0.00848
G1 F2399.13647
G1 X4.70779 Y205.56213 E.00281
G1 X4.70779 Y185.16003 E0.73011
G1 X4.72311 Y185.08304 E.00281
G1 X4.81381 Y184.86406 E0.00848
G1 X4.85743 Y184.7988 E.00281
G1 X5.14174 Y184.51447 E.01439
G1 F2397.74146
G1 X5.20701 Y184.47086 E.00281
G1 F2396.09912
G1 X5.426 Y184.38016 E.00848
G1 X5.44414 Y184.37655 E0.00066
M107
G1 X5.54223 Y184.76334 F360000
M107
G1 F2394.12061
G1 X8.98344 Y184.76334 Z.24 E.12315
G1 F2395.96533
G1 X12.42464 Y184.76334 Z.24 E.12315
G1 F2398.73193
G1 X15.86585 Y184.76334 Z.24 E.12315
G1 X16.01231 Y184.824 E0.00567
G1 X16.24113 Y185.05283 E.01158
G1 X16.30179 Y185.19928 E0.00567
G1 F2399.50171
G1 X16.30179 Y187.26334 E.07386
G1 X21.08382 Y187.26334 Z.24 E.17113
G1 F2398.72095
G1 X25.86585 Y187.26334 Z.24 E.17113
G1 X26.01231 Y187.324 E0.00567
G1 X26.24113 Y187.55283 E.01158
G1 X26.30179 Y187.69928 E0.00567
G1 X26.30179 Y191.53018 Z.24 E.13709
G1 X26.30179 Y195.36108 Z.24 E.13709
G1 X26.30179 Y199.192 Z.24 E.13709
G1 X26.30179 Y203.0229 Z.24 E.13709
G1 X26.24113 Y203.16936 E0.00567
G1 X26.01231 Y203.39816 E.01158
G1 X25.86585 Y203.45884 E0.00567
G1 X21.08382 Y203.45885 Z.24 E.17113
G1 F2399.86206
G1 X16.30179 Y203.45885 Z.24 E.17113
G1 X16.30179 Y205.5229 E.07386
G1 X16.24113 Y205.66936 E0.00567
G1 F2398.75439
G1 X16.01231 Y205.89816 E.01158
G1 X15.86585 Y205.95884 E0.00567
G1 X12.42464 Y205.95885 Z.24 E.12315
G1 X8.98344 Y205.95885 Z.24 E.12315
G1 X5.54223 Y205.95885 Z.24 E.12315
G1 X5.39577 Y205.89817 E0.00567
G1 X5.16696 Y205.66936 E.01158
G1 X5.10629 Y205.52289 E0.00567
G1 X5.10629 Y201.45816 Z.24 E.14546
G1 X5.10629 Y197.39345 Z.24 E.14546
G1 X5.10629 Y193.32872 Z.24 E.14546
G1 X5.10629 Y189.26401 Z.24 E.14546
M73 P3 R11
G1 X5.10629 Y185.19928 Z.24 E.14546
G1 X5.16696 Y185.05282 E0.00567
G1 F2399.41528
G1 X5.39577 Y184.82401 E.01158
G1 F2397.24634
G1 X5.4868 Y184.7863 E.00353
M107
G1 X5.6215 Y185.16183 F360000
M107
G1 F2400
G1 X15.78658 Y185.16183 E0.36377
G1 F2398.8269
G1 X15.9033 Y185.27855 E.00591
G1 F2399.96631
G1 X15.9033 Y187.66183 E.08529
G1 X25.78658 Y187.66183 E0.35368
G1 F2398.79004
G1 X25.9033 Y187.77855 E.00591
G1 X25.9033 Y202.94363 E0.5427
G1 X25.78658 Y203.06035 E.00591
G1 X15.9033 Y203.06035 E0.35368
G1 F2399.9646
G1 X15.9033 Y205.44363 E.08529
G1 F2398.82886
G1 X15.78658 Y205.56035 E.00591
G1 X5.6215 Y205.56035 E0.36377
G1 X5.50478 Y205.44363 E.00591
G1 X5.50478 Y185.27855 E0.72162
G1 F2399.79956
G1 X5.57907 Y185.20425 E.00376
M107
;WIPE_START
G1 F288000
G1 X5.50478 Y185.27855 E-0.00125
G1 X5.50478 Y205.44363 E-0.23946
G1 X5.6215 Y205.56035 E-0.00196
G1 X15.78658 Y205.56035 E-0.12071
G1 X15.9033 Y205.44363 E-0.00196
G1 X15.9033 Y204.20898 E-0.01466
;WIPE_END
G1 E-0.02 F3600
G1 Z0.4 F360000
G1 X68.31859 Y170.46516
G1 Z0.24
G1 E0.4 F3600
M107
G1 F2399.89526
G1 X68.30328 Y170.38817 E.00281
G1 X68.30328 Y149.98606 E0.73011
G1 X68.31859 Y149.90907 E.00281
G1 X68.4093 Y149.69009 E0.00848
G1 X68.45291 Y149.62482 E.00281
G1 X68.73723 Y149.3405 E.01439
G1 X68.8025 Y149.29689 E.00281
G1 X69.02148 Y149.20618 E0.00848
G1 X69.09847 Y149.19087 E.00281
G1 X79.50058 Y149.19087 E0.37225
G1 X79.57757 Y149.20618 E.00281
G1 X79.79655 Y149.29689 E0.00848
G1 X79.86182 Y149.3405 E.00281
G1 X80.14614 Y149.62482 E0.01439
G1 X80.18975 Y149.69008 E.00281
G1 X80.28046 Y149.90907 E0.00848
G1 X80.29577 Y149.98605 E.00281
G1 X80.29577 Y151.69087 E.06101
G1 X89.50058 Y151.69087 E0.3294
G1 X89.57757 Y151.70618 E.00281
G1 X89.79655 Y151.79689 E0.00848
G1 X89.86182 Y151.8405 E.00281
G1 X90.14614 Y152.12482 E0.01439
G1 X90.18975 Y152.19008 E.00281
G1 X90.28046 Y152.40907 E0.00848
G1 X90.29577 Y152.48605 E.00281
G1 X90.29577 Y167.88817 E0.55118
M73 P4 R11
G1 X90.28046 Y167.96516 E.00281
G1 X90.18975 Y168.18414 E0.00848
G1 X90.14614 Y168.2494 E.00281
G1 X89.86182 Y168.53373 E0.01439
G1 X89.79655 Y168.57735 E.00281
G1 X89.57757 Y168.66805 E0.00848
G1 X89.50058 Y168.68336 E.00281
G1 X80.29577 Y168.68336 E0.3294
G1 X80.29577 Y170.38817 E.06101
G1 X80.28046 Y170.46516 E.00281
G1 X80.18975 Y170.68414 E0.00848
G1 X80.14614 Y170.7494 E.00281
G1 X79.86182 Y171.03373 E0.01439
G1 X79.79655 Y171.07735 E.00281
G1 X79.57757 Y171.16805 E0.00848
G1 X79.50058 Y171.18336 E.00281
G1 X69.09847 Y171.18336 E0.37225
G1 X69.02148 Y171.16805 E.00281
G1 X68.80249 Y171.07734 E0.00848
G1 X68.73723 Y171.03374 E.00281
G1 F2398.59692
G1 X68.45291 Y170.7494 E.01439
G1 F2396.00464
G1 X68.4093 Y170.68414 E.00281
G1 F2392.34521
G1 X68.34155 Y170.52058 E.00634
M107
G1 X68.70971 Y170.36809 F360000
M107
G1 F2400
G1 X68.70177 Y170.34892 E0.00074
G1 F2393.00488
G1 X68.70177 Y166.28419 Z.24 E.14546
G1 F2394.19263
G1 X68.70177 Y162.21948 Z.24 E.14546
G1 F2395.38037
G1 X68.70177 Y158.15475 Z.24 E.14546
G1 F2396.56812
G1 X68.70177 Y154.09004 Z.24 E.14546
G1 F2398.34961
G1 X68.70177 Y150.02531 Z.24 E.14546
G1 X68.76244 Y149.87885 E0.00567
G1 X68.99125 Y149.65002 E.01158
G1 X69.13772 Y149.58936 E0.00567
G1 X72.57892 Y149.58936 Z.24 E.12315
G1 X76.02013 Y149.58936 Z.24 E.12315
G1 X79.46133 Y149.58936 Z.24 E.12315
G1 X79.60779 Y149.65003 E0.00567
G1 X79.83661 Y149.87885 E.01158
G1 X79.89728 Y150.02531 E0.00567
G1 F2399.25391
G1 X79.89728 Y152.08936 E.07386
G1 X84.67931 Y152.08936 Z.24 E.17113
G1 F2398.48779
G1 X89.46133 Y152.08936 Z.24 E.17113
G1 X89.60779 Y152.15003 E0.00567
G1 X89.83661 Y152.37885 E.01158
G1 X89.89728 Y152.52531 E0.00567
G1 X89.89728 Y156.35622 Z.24 E.13709
G1 X89.89728 Y160.18712 Z.24 E.13709
G1 X89.89728 Y164.01802 Z.24 E.13709
G1 X89.89728 Y167.84892 Z.24 E.13709
G1 X89.83661 Y167.99539 E0.00567
G1 X89.60779 Y168.2242 E.01158
G1 X89.46133 Y168.28487 E0.00567
G1 X84.67931 Y168.28487 Z.24 E.17113
G1 F2399.85596
G1 X79.89728 Y168.28487 Z.24 E.17113
G1 X79.89728 Y170.34892 E.07386
G1 X79.83661 Y170.49539 E0.00567
G1 F2398.35059
G1 X79.60779 Y170.7242 E.01158
G1 X79.46133 Y170.78487 E0.00567
G1 X76.02013 Y170.78487 Z.24 E.12315
G1 X72.57892 Y170.78487 Z.24 E.12315
G1 X69.13772 Y170.78487 Z.24 E.12315
G1 X68.99125 Y170.7242 E0.00567
G1 F2397.65723
G1 X68.76244 Y170.49538 E.01158
G1 X68.73267 Y170.42352 E0.00278
M107
G1 X69.10027 Y170.26966 F360000
M107
G1 F2397.42383
G1 X69.10027 Y166.23663 Z.24 E.14432
G1 X69.10027 Y162.20361 Z.24 E.14432
G1 F2398.56885
G1 X69.10027 Y158.17061 Z.24 E.14432
G1 F2399.14136
G1 X69.10027 Y154.13759 Z.24 E.14432
G1 F2400
G1 X69.10027 Y150.10457 Z.24 E.14432
G1 F2398.2627
G1 X69.21698 Y149.98785 E.00591
G1 X79.38207 Y149.98786 E0.36377
G1 X79.49878 Y150.10457 E.00591
G1 F2399.94946
G1 X79.49878 Y152.48785 E.08529
G1 X89.38207 Y152.48786 E0.35368
G1 F2398.2627
G1 X89.49878 Y152.60457 E.00591
G1 X89.49878 Y167.76966 E0.5427
G1 X89.38207 Y167.88637 E.00591
G1 X79.49878 Y167.88637 E0.35368
G1 F2399.94946
G1 X79.49878 Y170.26965 E.08529
G1 F2398.31348
G1 X79.38207 Y170.38637 E.00591
G1 F2399.95313
G1 X75.99371 Y170.38637 Z.24 E.12126
G1 X72.60535 Y170.38637 Z.24 E.12126
G1 X69.21698 Y170.38637 Z.24 E.12126
G1 X69.14269 Y170.31208 E0.00376
M107
;WIPE_START
G1 F288000
G1 X69.21698 Y170.38637 E-0.00125
G1 X79.38207 Y170.38637 E-0.12071
G1 X79.49878 Y170.26966 E-0.00196
G1 X79.49878 Y167.88637 E-0.0283
G1 X89.38207 Y167.88637 E-0.11736
G1 X89.49878 Y167.76966 E-0.00196
G1 X89.49878 Y158.63649 E-0.10846
;WIPE_END
G1 E-0.02 F3600
G1 Z0.4 F360000
G1 X26.55066 Y134.02338
G1 Z0.24
G1 E0.4 F3600
M107
G1 F2399.70752
G1 X26.26634 Y134.30769 E.01439
G1 X26.20107 Y134.3513 E.00281
G1 X25.98208 Y134.44202 E0.00848
G1 X25.9051 Y134.45734 E.00281
G1 X16.70029 Y134.45734 E0.3294
G1 X16.70029 Y136.16214 E.06101
G1 X16.68497 Y136.23914 E.00281
G1 X16.59427 Y136.45811 E0.00848
G1 X16.55066 Y136.52338 E.00281
G1 X16.26634 Y136.8077 E0.01439
G1 X16.20107 Y136.8513 E.00281
G1 X15.98208 Y136.94202 E0.00848
G1 X15.9051 Y136.95734 E.00281
G1 X5.50298 Y136.95734 E0.37225
G1 X5.426 Y136.94202 E.00281
G1 X5.20701 Y136.85131 E0.00848
G1 X5.14174 Y136.80769 E.00281
G1 X4.85742 Y136.52338 E0.01439
G1 X4.81381 Y136.45811 E.00281
G1 X4.72311 Y136.23913 E0.00848
G1 X4.70779 Y136.16214 E.00281
G1 X4.70779 Y115.76003 E0.73011
G1 X4.72311 Y115.68304 E.00281
G1 X4.81381 Y115.46406 E0.00848
G1 X4.85743 Y115.39879 E.00281
G1 X5.14174 Y115.11447 E.01439
G1 X5.20701 Y115.07086 E.00281
G1 X5.426 Y114.98015 E0.00848
G1 X5.50299 Y114.96484 E.00281
G1 X15.90509 Y114.96484 E0.37225
M73 P5 R11
G1 X15.98208 Y114.98015 E.00281
G1 X16.20107 Y115.07086 E0.00848
G1 X16.26633 Y115.11447 E.00281
G1 X16.55066 Y115.39879 E0.01439
G1 X16.59427 Y115.46406 E.00281
G1 X16.68497 Y115.68304 E0.00848
G1 X16.70029 Y115.76003 E.00281
G1 X16.70029 Y117.46484 E.06101
G1 X25.90509 Y117.46484 E0.3294
G1 X25.98208 Y117.48015 E.00281
G1 X26.20107 Y117.57086 E0.00848
G1 X26.26633 Y117.61447 E.00281
G1 X26.55066 Y117.89879 E0.01439
G1 X26.59427 Y117.96406 E.00281
G1 X26.68497 Y118.18304 E0.00848
G1 X26.70029 Y118.26003 E.00281
G1 X26.70029 Y122.11056 Z.24 E.13779
G1 X26.70029 Y125.96109 Z.24 E.1378
G1 F2398.99316
G1 X26.70029 Y129.81161 Z.24 E.13779
G1 X26.70029 Y133.66214 Z.24 E.13779
G1 F2397.5188
G1 X26.68497 Y133.73914 E.00281
G1 F2395.15845
G1 X26.59427 Y133.95811 E.00848
G1 X26.58399 Y133.97349 E0.00066
M107
G1 X26.24113 Y133.76936 F360000
M107
G1 F2395.55176
G1 X26.01231 Y133.99817 E.01158
G1 F2399.80811
G1 X25.86585 Y134.05884 E.00567
G1 X21.08382 Y134.05884 Z.24 E.17113
G1 X16.30179 Y134.05884 Z.24 E.17113
G1 X16.30179 Y136.12289 E.07386
G1 X16.24113 Y136.26936 E0.00567
G1 F2398.99243
G1 X16.01231 Y136.49817 E.01158
G1 X15.86585 Y136.55884 E0.00567
G1 X12.42464 Y136.55884 Z.24 E.12315
G1 X8.98344 Y136.55884 Z.24 E.12315
G1 X5.54223 Y136.55884 Z.24 E.12315
G1 X5.39577 Y136.49817 E0.00567
G1 X5.16696 Y136.26936 E.01158
G1 X5.10629 Y136.12289 E0.00567
G1 X5.10629 Y132.05817 Z.24 E.14546
G1 X5.10629 Y127.99345 Z.24 E.14546
G1 X5.10629 Y123.92873 Z.24 E.14546
G1 X5.10629 Y119.864 Z.24 E.14546
G1 X5.10629 Y115.79928 Z.24 E.14546
G1 X5.16696 Y115.65282 E0.00567
G1 X5.39577 Y115.424 E.01158
G1 X5.54223 Y115.36333 E0.00567
G1 X8.98344 Y115.36333 Z.24 E.12315
G1 X12.42464 Y115.36333 Z.24 E.12315
G1 X15.86585 Y115.36333 Z.24 E.12315
G1 X16.01231 Y115.424 E0.00567
G1 F2399.06372
G1 X16.24113 Y115.65282 E.01158
G1 X16.30179 Y115.79928 E0.00567
G1 X16.30179 Y117.86333 E.07386
G1 X21.08382 Y117.86333 Z.24 E.17113
G1 F2398.87695
G1 X25.86585 Y117.86333 Z.24 E.17113
G1 X26.01231 Y117.924 E0.00567
G1 F2399.06372
G1 X26.24113 Y118.15282 E.01158
