; generated by SuperSlicer 2.5.59.9 on 2024-05-15 at 23:25:22 UTC


;
;

;
;

;
;

;
;

;
;
; 

; external perimeters extrusion width = 0.42mm
; perimeters extrusion width = 0.45mm
; infill extrusion width = 0.45mm
; solid infill extrusion width = 0.45mm
; top infill extrusion width = 0.42mm

; external perimeters extrusion width = 0.42mm
; perimeters extrusion width = 0.45mm
; infill extrusion width = 0.45mm
; solid infill extrusion width = 0.45mm
; top infill extrusion width = 0.42mm

; external perimeters extrusion width = 0.42mm
; perimeters extrusion width = 0.45mm
; infill extrusion width = 0.45mm
; solid infill extrusion width = 0.45mm
; top infill extrusion width = 0.42mm

; external perimeters extrusion width = 0.42mm
; perimeters extrusion width = 0.45mm
; infill extrusion width = 0.45mm
; solid infill extrusion width = 0.45mm
; top infill extrusion width = 0.42mm

; external perimeters extrusion width = 0.42mm
; perimeters extrusion width = 0.45mm
; infill extrusion width = 0.45mm
; solid infill extrusion width = 0.45mm
; top infill extrusion width = 0.42mm

; object:{"name":"filament_flow_test","id":"filament_flow_test id:0 copy 0","object_center":[13.900050,25.100121,0.000000],"boundingbox_center":[13.900050,25.100121,0.720000],"boundingbox_size":[20.000000,20.000000,1.440000]}
EXCLUDE_OBJECT_DEFINE NAME=filament_flow_test_id_0_copy_0 CENTER=13.900050,25.100121 POLYGON=[[3.90,15.10],[13.90,15.10],[23.90,17.60],[23.90,32.60],[13.90,35.10],[3.90,35.10],[3.90,15.10]]
; object:{"name":"filament_flow_test","id":"filament_flow_test id:1 copy 0","object_center":[13.900050,94.500123,0.000000],"boundingbox_center":[13.900050,94.500123,0.720000],"boundingbox_size":[20.000000,20.000000,1.440000]}
EXCLUDE_OBJECT_DEFINE NAME=filament_flow_test_id_1_copy_0 CENTER=13.900050,94.500123 POLYGON=[[3.90,84.50],[13.90,84.50],[23.90,87.00],[23.90,102.00],[13.90,104.50],[3.90,104.50],[3.90,84.50]]
; object:{"name":"filament_flow_test","id":"filament_flow_test id:2 copy 0","object_center":[13.900050,163.900124,0.000000],"boundingbox_center":[13.900050,163.900124,0.720000],"boundingbox_size":[20.000000,20.000000,1.440000]}
EXCLUDE_OBJECT_DEFINE NAME=filament_flow_test_id_2_copy_0 CENTER=13.900050,163.900124 POLYGON=[[3.90,153.90],[13.90,153.90],[23.90,156.40],[23.90,171.40],[13.90,173.90],[3.90,173.90],[3.90,153.90]]
; object:{"name":"filament_flow_test","id":"filament_flow_test id:3 copy 0","object_center":[76.394097,60.260616,0.000000],"boundingbox_center":[76.394097,60.260616,0.720000],"boundingbox_size":[20.000000,20.000000,1.440000]}
EXCLUDE_OBJECT_DEFINE NAME=filament_flow_test_id_3_copy_0 CENTER=76.394097,60.260616 POLYGON=[[66.39,50.26],[76.39,50.26],[86.39,52.76],[86.39,67.76],[76.39,70.26],[66.39,70.26],[66.39,50.26]]
; object:{"name":"filament_flow_test","id":"filament_flow_test id:4 copy 0","object_center":[76.181042,130.913984,0.000000],"boundingbox_center":[76.181042,130.913984,0.720000],"boundingbox_size":[20.000000,20.000000,1.440000]}
EXCLUDE_OBJECT_DEFINE NAME=filament_flow_test_id_4_copy_0 CENTER=76.181042,130.913984 POLYGON=[[66.18,120.91],[76.18,120.91],[86.18,123.41],[86.18,138.41],[76.18,140.91],[66.18,140.91],[66.18,120.91]]
; plater:{"center":[45.147073,94.500123,0.000000],"boundingbox_center":[45.147073,94.500123,0.720000],"boundingbox_size":[82.494047,158.800003,1.440000]}

M73 P0 R1233
M107
;TYPE:Custom
CALCULATE_PA MATERIAL=PLA BOWDEN_LENGTH=6 LAYER_HEIGHT=0.24 NOZZLE_SIZE=0.4 PRINT_SPEED=60
START_PRINT EXTRUDER=210 BED=60
SET_VELOCITY_LIMIT ACCEL=500



M107
G21 ; set units to millimeters
G90 ; use absolute coordinates
M83 ; use relative distances for extrusion
ACTIVATE_EXTRUDER EXTRUDER=extruder
; Filament gcode
M104 S210 T0 ; set temperature
M109 S210 T0 ; set temperature and wait for it to be reached
M190 S60 ; set bed temperature and wait for it to be reached
;LAYER_CHANGE
;Z:0.24
;HEIGHT:0.24
;BEFORE_LAYER_CHANGE
G92 E0.0

G1 E-0.4 F3600
G1 Z0.4 F600000
;AFTER_LAYER_CHANGE
;0.24
SET_VELOCITY_LIMIT ACCEL=5000


CALCULATE_PA MATERIAL=PLA BOWDEN_LENGTH=6.0 LAYER_HEIGHT=0.2 NOZZLE_SIZE=0.4 PRINT_SPEED=60


G92 E0
G1 X3.699 Y152.90388
G1 Z0.24
G1 E0.4 F3600
;TYPE:Skirt
;WIDTH:0.45
M107
G1 F1799.88586
G1 X7.16637 Y152.90388 Z.24 E.13787
G1 X10.63373 Y152.90388 Z.24 E.13787
G1 X14.1011 Y152.90388 Z.24 E.13787
G1 X14.17809 Y152.91919 E.00312
G1 X14.39708 Y153.0099 E0.00942
G1 X14.46234 Y153.05351 E.00312
G1 X14.74667 Y153.33783 E.01599
G1 X14.79028 Y153.40309 E.00312
G1 X14.88098 Y153.62208 E0.00942
G1 X14.8963 Y153.69907 E.00312
G1 X14.8963 Y155.40388 E.06779
G1 X19.4987 Y155.40388 Z.24 E.183
G1 X24.1011 Y155.40388 Z.24 E.183
G1 X24.17809 Y155.41919 E.00312
G1 X24.39708 Y155.5099 E0.00942
G1 X24.46234 Y155.55351 E.00312
G1 X24.74667 Y155.83783 E.01599
G1 X24.79028 Y155.90309 E.00312
G1 X24.88098 Y156.12208 E0.00942
G1 X24.8963 Y156.19907 E.00312
G1 X24.8963 Y160.04959 Z.24 E.15311
G1 X24.8963 Y163.90012 Z.24 E.15311
G1 X24.8963 Y167.75066 Z.24 E.15311
G1 X24.8963 Y171.60118 Z.24 E.15311
G1 X24.88098 Y171.67817 E0.00312
G1 X24.79028 Y171.89716 E.00942
G1 X24.74667 Y171.96242 E.00312
G1 X24.46235 Y172.24673 E.01599
G1 X24.39708 Y172.29034 E.00312
G1 X24.17809 Y172.38106 E0.00942
G1 X24.10111 Y172.39638 E.00312
G1 X19.4987 Y172.39638 Z.24 E.183
G1 F1800
G1 X14.8963 Y172.39638 Z.24 E.183
G1 F1799.44275
G1 X14.8963 Y174.10118 E.06779
G1 X14.88098 Y174.17817 E0.00312
G1 X14.79028 Y174.39716 E.00942
G1 X14.74667 Y174.46242 E.00312
G1 X14.46235 Y174.74673 E.01599
G1 X14.39708 Y174.79034 E.00312
G1 X14.17809 Y174.88106 E0.00942
G1 X14.1011 Y174.89638 E.00312
G1 X10.63373 Y174.89638 Z.24 E.13787
G1 X7.16636 Y174.89638 Z.24 E.13787
G1 X3.69899 Y174.89638 Z.24 E.13787
G1 X3.622 Y174.88106 E.00312
G1 X3.40302 Y174.79035 E0.00942
G1 X3.33775 Y174.74673 E.00312
G1 X3.05343 Y174.46242 E.01599
G1 X3.00982 Y174.39716 E.00312
G1 X2.91912 Y174.17818 E.00942
G1 X2.9038 Y174.10118 E0.00312
G1 X2.9038 Y170.02075 Z.24 E.16225
G1 X2.9038 Y165.94034 Z.24 E.16225
G1 X2.9038 Y161.85991 Z.24 E.16225
G1 X2.9038 Y157.7795 Z.24 E.16225
G1 X2.9038 Y153.69907 Z.24 E.16225
G1 X2.91912 Y153.62209 E.00312
G1 X3.00982 Y153.40311 E.00942
G1 X3.05343 Y153.33783 E0.00312
G1 F1798.92798
G1 X3.33775 Y153.05351 E.01599
G1 F1799.89063
G1 X3.40302 Y153.0099 E.00312
G1 X3.62201 Y152.91919 E0.00942
G1 F1788.20374
G1 X3.64015 Y152.91557 E.00074
M107
G1 X3.73824 Y153.30237 F600000
M107
G1 F1799.50122
G1 X7.17945 Y153.30237 Z.24 E.13683
G1 X10.62065 Y153.30237 Z.24 E.13683
G1 X14.06186 Y153.30237 Z.24 E.13683
G1 X14.20832 Y153.36304 E0.0063
G1 F1798.40027
G1 X14.43713 Y153.59184 E.01287
G1 X14.4978 Y153.73832 E0.0063
G1 F1799.38574
G1 X14.4978 Y155.80237 E.08207
G1 X19.27983 Y155.80237 Z.24 E.19015
G1 F1798.98547
G1 X24.06186 Y155.80237 Z.24 E.19015
G1 X24.20832 Y155.86304 E0.0063
G1 X24.43713 Y156.09184 E.01287
G1 X24.4978 Y156.23832 E0.0063
G1 X24.4978 Y160.06923 Z.24 E.15233
G1 X24.4978 Y163.90013 Z.24 E.15232
G1 X24.4978 Y167.73103 Z.24 E.15233
G1 F1799.10876
G1 X24.4978 Y171.56194 Z.24 E.15233
G1 X24.43714 Y171.70839 E0.0063
G1 F1798.6626
G1 X24.20832 Y171.93721 E.01287
G1 X24.06186 Y171.99788 E0.0063
G1 F1799.22827
G1 X19.27983 Y171.99788 Z.24 E.19015
G1 X14.4978 Y171.99788 Z.24 E.19015
G1 X14.4978 Y174.06194 E.08207
G1 X14.43714 Y174.20839 E0.0063
G1 F1798.68433
G1 X14.20832 Y174.43721 E.01287
G1 X14.06186 Y174.49788 E0.0063
G1 F1799.01306
G1 X10.62065 Y174.49788 Z.24 E.13683
G1 X7.17945 Y174.49788 Z.24 E.13683
G1 X3.73824 Y174.49788 Z.24 E.13683
G1 X3.59178 Y174.43721 E0.0063
G1 F1798.67639
G1 X3.36296 Y174.20839 E.01287
G1 X3.3023 Y174.06193 E0.0063
G1 F1799.08496
G1 X3.3023 Y169.99721 Z.24 E.16162
G1 X3.3023 Y165.9325 Z.24 E.16162
G1 F1798.95691
G1 X3.3023 Y161.86777 Z.24 E.16162
G1 X3.3023 Y157.80305 Z.24 E.16162
G1 X3.3023 Y153.73833 Z.24 E.16162
G1 X3.36296 Y153.59185 E0.0063
G1 F1799.17407
G1 X3.59178 Y153.36304 E.01287
G1 X3.68281 Y153.32533 E.00392
M107
G1 X3.81751 Y153.70087 F600000
M107
G1 F1799.84766
G1 X7.20587 Y153.70087 Z.24 E.13473
G1 X10.59423 Y153.70087 Z.24 E.13473
G1 X13.98259 Y153.70087 Z.24 E.13473
G1 X14.09931 Y153.81758 E0.00656
G1 X14.09931 Y156.20087 E.09476
G1 X19.04095 Y156.20087 Z.24 E.19649
G1 X23.98259 Y156.20087 Z.24 E.19649
G1 X24.09931 Y156.31758 E0.00656
G1 X24.09931 Y160.10886 Z.24 E.15075
G1 X24.09931 Y163.90012 Z.24 E.15075
G1 X24.09931 Y167.69139 Z.24 E.15075
G1 X24.09931 Y171.48267 Z.24 E.15075
G1 X23.98259 Y171.59938 E0.00656
G1 X19.04095 Y171.59938 Z.24 E.19649
G1 X14.09931 Y171.59938 Z.24 E.19649
G1 X14.09931 Y173.98267 E.09476
G1 X13.98259 Y174.09938 E0.00656
G1 X10.59423 Y174.09938 Z.24 E.13473
G1 X7.20587 Y174.09938 Z.24 E.13473
G1 X3.81751 Y174.09938 Z.24 E.13473
G1 X3.70079 Y173.98267 E0.00656
G1 X3.70079 Y169.94965 Z.24 E.16036
G1 X3.70079 Y165.91663 Z.24 E.16036
G1 X3.70079 Y161.88362 Z.24 E.16036
G1 X3.70079 Y157.8506 Z.24 E.16036
G1 F1800
G1 X3.70079 Y153.81758 Z.24 E.16036
G1 F1798.68799
G1 X3.77508 Y153.74329 E.00418
M107
;WIPE_START
G1 F480000
G1 X3.70079 Y153.81758 E-0.00075
G1 X3.70079 Y173.98267 E-0.14368
G1 X3.81751 Y174.09938 E-0.00118
G1 X13.98259 Y174.09938 E-0.07243
G1 X14.09931 Y173.98267 E-0.00118
G1 X14.09931 Y171.59938 E-0.01698
G1 X23.98259 Y171.59938 E-0.07042
G1 X24.09931 Y171.48267 E-0.00118
G1 X24.09931 Y161.34631 E-0.07222
;WIPE_END
G1 E-0.02 F3600
G1 Z0.4 F600000
G1 X65.20011 Y141.19203
G1 Z0.24
G1 E0.4 F3600
M107
G1 F1800
G1 X65.1848 Y141.11504 E0.00312
G1 F1799.41516
G1 X65.1848 Y137.03461 Z.24 E.16225
G1 X65.1848 Y132.95419 Z.24 E.16225
G1 X65.1848 Y128.87376 Z.24 E.16225
G1 X65.1848 Y124.79335 Z.24 E.16225
G1 X65.1848 Y120.71293 Z.24 E.16225
G1 X65.20011 Y120.63594 E.00312
G1 X65.29082 Y120.41696 E0.00942
G1 X65.33443 Y120.35169 E.00312
G1 X65.61875 Y120.06737 E.01599
G1 X65.68402 Y120.02376 E.00312
G1 X65.903 Y119.93305 E0.00942
G1 X65.97999 Y119.91774 E.00312
G1 X69.44736 Y119.91774 Z.24 E.13787
G1 X72.91473 Y119.91774 Z.24 E.13787
G1 X76.3821 Y119.91774 Z.24 E.13787
G1 X76.45909 Y119.93305 E.00312
G1 X76.67807 Y120.02376 E0.00942
G1 X76.74334 Y120.06737 E.00312
G1 X77.02766 Y120.35169 E.01599
G1 X77.07127 Y120.41695 E.00312
G1 X77.16198 Y120.63594 E0.00942
G1 X77.17729 Y120.71293 E.00312
G1 X77.17729 Y122.41774 E.06779
G1 X81.77969 Y122.41774 Z.24 E.183
G1 X86.3821 Y122.41774 Z.24 E.183
G1 X86.45909 Y122.43305 E.00312
G1 X86.67807 Y122.52376 E0.00942
G1 X86.74334 Y122.56737 E.00312
G1 X87.02766 Y122.85169 E.01599
G1 X87.07127 Y122.91695 E.00312
G1 X87.16198 Y123.13594 E0.00942
G1 X87.17729 Y123.21293 E.00312
G1 X87.17729 Y127.06345 Z.24 E.1531
G1 X87.17729 Y130.91399 Z.24 E.1531
G1 X87.17729 Y134.76451 Z.24 E.15311
G1 X87.17729 Y138.61504 Z.24 E.1531
G1 X87.16198 Y138.69203 E.00312
G1 X87.07127 Y138.91101 E0.00942
G1 X87.02766 Y138.97627 E.00312
G1 X86.74334 Y139.2606 E.01599
G1 X86.67807 Y139.30421 E.00312
G1 X86.45909 Y139.39492 E0.00942
G1 X86.3821 Y139.41023 E.00312
G1 X81.77969 Y139.41023 Z.24 E.183
G1 F1800
G1 X77.17729 Y139.41023 Z.24 E.183
G1 F1799.59998
G1 X77.17729 Y141.11504 E.06779
G1 X77.16198 Y141.19203 E.00312
G1 X77.07127 Y141.41101 E0.00942
G1 X77.02766 Y141.47627 E.00312
G1 X76.74334 Y141.7606 E.01599
G1 X76.67807 Y141.80421 E.00312
G1 X76.45909 Y141.89492 E0.00942
G1 X76.3821 Y141.91023 E.00312
G1 X72.91473 Y141.91023 Z.24 E.13787
G1 X69.44736 Y141.91023 Z.24 E.13787
G1 X65.97999 Y141.91023 Z.24 E.13787
G1 X65.903 Y141.89491 E.00312
G1 X65.68401 Y141.80421 E0.00942
G1 X65.61875 Y141.7606 E.00312
G1 X65.33443 Y141.47627 E.01599
G1 X65.29082 Y141.41101 E0.00312
G1 X65.22307 Y141.24747 E.00704
M107
G1 X65.59123 Y141.09496 F600000
M107
G1 F1789.72888
G1 X65.58329 Y141.07579 E.00083
G1 F1799.89172
G1 X65.58329 Y137.01106 Z.24 E.16162
G1 X65.58329 Y132.94635 Z.24 E.16162
G1 X65.58329 Y128.88162 Z.24 E.16162
G1 X65.58329 Y124.8169 Z.24 E.16162
G1 F1798.9176
G1 X65.58329 Y120.75218 Z.24 E.16162
G1 X65.64396 Y120.60571 E0.0063
G1 X65.87277 Y120.3769 E.01287
G1 X66.01924 Y120.31623 E0.0063
G1 X69.46044 Y120.31623 Z.24 E.13683
G1 X72.90165 Y120.31623 Z.24 E.13683
G1 X76.34285 Y120.31623 Z.24 E.13683
G1 X76.48931 Y120.3769 E0.0063
G1 X76.71813 Y120.60571 E.01287
G1 X76.7788 Y120.75218 E0.0063
G1 F1799.46606
G1 X76.7788 Y122.81623 E.08207
G1 X81.56082 Y122.81623 Z.24 E.19015
G1 F1798.98364
G1 X86.34285 Y122.81623 Z.24 E.19014
G1 X86.48931 Y122.8769 E0.0063
G1 X86.71813 Y123.10571 E.01287
G1 X86.7788 Y123.25218 E0.0063
G1 X86.7788 Y127.08308 Z.24 E.15232
G1 X86.7788 Y130.91399 Z.24 E.15233
G1 F1799.01428
G1 X86.7788 Y134.74489 Z.24 E.15233
G1 X86.7788 Y138.57579 Z.24 E.15232
G1 X86.71813 Y138.72225 E0.0063
G1 F1798.52051
G1 X86.48931 Y138.95107 E.01287
G1 X86.34285 Y139.01174 E0.0063
G1 F1799.22827
G1 X81.56082 Y139.01173 Z.24 E.19015
G1 X76.7788 Y139.01173 Z.24 E.19014
G1 X76.7788 Y141.07579 E.08207
G1 X76.71813 Y141.22225 E0.0063
G1 F1798.52051
G1 X76.48931 Y141.45107 E.01287
G1 X76.34285 Y141.51174 E0.0063
G1 X72.90165 Y141.51173 Z.24 E.13683
G1 X69.46044 Y141.51173 Z.24 E.13683
G1 X66.01924 Y141.51173 Z.24 E.13683
G1 X65.87277 Y141.45107 E0.0063
G1 X65.64396 Y141.22224 E.01287
G1 X65.61419 Y141.15039 E0.00309
M107
G1 X65.98179 Y140.99653 F600000
M107
G1 F1798.52246
G1 X65.98179 Y136.96352 Z.24 E.16036
G1 X65.98179 Y132.9305 Z.24 E.16036
G1 X65.98179 Y128.89748 Z.24 E.16036
G1 X65.98179 Y124.86446 Z.24 E.16036
G1 X65.98179 Y120.83144 Z.24 E.16036
G1 X66.0985 Y120.71473 E0.00656
G1 X69.48686 Y120.71473 Z.24 E.13473
G1 X72.87522 Y120.71473 Z.24 E.13473
G1 X76.26358 Y120.71473 Z.24 E.13473
G1 X76.3803 Y120.83144 E0.00656
G1 F1799.49292
G1 X76.3803 Y123.21473 E.09476
G1 X81.32195 Y123.21473 Z.24 E.19649
G1 F1798.91565
G1 X86.26358 Y123.21473 Z.24 E.19649
G1 X86.3803 Y123.33144 E0.00656
G1 X86.3803 Y127.12272 Z.24 E.15075
G1 X86.3803 Y130.91399 Z.24 E.15075
G1 F1799.01245
G1 X86.3803 Y134.70526 Z.24 E.15075
G1 X86.3803 Y138.49654 Z.24 E.15075
G1 X86.26358 Y138.61324 E0.00656
G1 X81.32195 Y138.61324 Z.24 E.19649
G1 X76.3803 Y138.61324 Z.24 E.19649
G1 X76.3803 Y140.99654 E.09476
G1 X76.26358 Y141.11324 E0.00656
G1 X72.87522 Y141.11324 Z.24 E.13473
G1 X69.48686 Y141.11324 Z.24 E.13473
G1 F1800
G1 X66.0985 Y141.11324 Z.24 E.13473
G1 F1798.53784
G1 X66.02421 Y141.03896 E.00418
M107
;WIPE_START
G1 F480000
G1 X66.0985 Y141.11324 E-0.00075
G1 X76.26358 Y141.11324 E-0.07243
G1 X76.3803 Y140.99653 E-0.00118
G1 X76.3803 Y138.61324 E-0.01698
G1 X86.26358 Y138.61324 E-0.07042
G1 X86.3803 Y138.49653 E-0.00118
G1 X86.3803 Y123.33144 E-0.10805
G1 X86.26358 Y123.21473 E-0.00118
G1 X76.3803 Y123.21473 E-0.07042
G1 X76.3803 Y120.83144 E-0.01698
G1 X76.26358 Y120.71473 E-0.00118
G1 X73.55886 Y120.71473 E-0.01927
;WIPE_END
G1 E-0.02 F3600
G1 Z0.4 F600000
G1 X24.74667 Y102.56242
G1 Z0.24
G1 E0.4 F3600
M107
G1 F1799.66223
G1 X24.46235 Y102.84674 E.01599
G1 X24.39708 Y102.89035 E.00312
G1 X24.17809 Y102.98106 E0.00942
G1 X24.10111 Y102.99637 E.00312
G1 X19.4987 Y102.99637 Z.24 E.183
G1 F1800
G1 X14.8963 Y102.99637 Z.24 E.183
G1 F1799.69751
G1 X14.8963 Y104.70118 E.06779
G1 X14.88098 Y104.77817 E.00312
G1 X14.79028 Y104.99715 E0.00942
G1 X14.74667 Y105.06242 E.00312
G1 X14.46235 Y105.34674 E.01599
G1 X14.39708 Y105.39035 E.00312
G1 X14.17809 Y105.48106 E0.00942
G1 X14.1011 Y105.49637 E.00312
G1 X10.63373 Y105.49637 Z.24 E.13787
G1 X7.16636 Y105.49637 Z.24 E.13787
G1 X3.69899 Y105.49637 Z.24 E.13787
G1 X3.622 Y105.48106 E.00312
G1 X3.40302 Y105.39035 E0.00942
G1 X3.33775 Y105.34674 E.00312
G1 X3.05343 Y105.06242 E.01599
G1 X3.00982 Y104.99715 E.00312
G1 X2.91912 Y104.77817 E0.00942
G1 X2.9038 Y104.70118 E.00312
G1 X2.9038 Y100.62076 Z.24 E.16225
G1 X2.9038 Y96.54034 Z.24 E.16224
G1 X2.9038 Y92.45992 Z.24 E.16225
G1 X2.9038 Y88.37949 Z.24 E.16224
G1 X2.9038 Y84.29907 Z.24 E.16225
G1 X2.91912 Y84.22208 E.00312
G1 X3.00982 Y84.0031 E0.00942
G1 X3.05343 Y83.93783 E.00312
G1 X3.33775 Y83.65351 E.01599
G1 X3.40302 Y83.6099 E.00312
G1 X3.62201 Y83.51919 E0.00942
G1 X3.699 Y83.50388 E.00312
G1 X7.16637 Y83.50388 Z.24 E.13787
G1 X10.63373 Y83.50388 Z.24 E.13787
G1 X14.1011 Y83.50388 Z.24 E.13787
G1 X14.17809 Y83.51919 E.00312
G1 X14.39708 Y83.6099 E0.00942
