; generated by SuperSlicer 2.5.59.9 on 2024-05-16 at 02:17:26 UTC


;
;

;
;

;
;

;
;

;
;
; 

; external perimeters extrusion width = 0.42mm
; perimeters extrusion width = 0.45mm
; infill extrusion width = 0.45mm
; solid infill extrusion width = 0.45mm
; top infill extrusion width = 0.42mm

; external perimeters extrusion width = 0.42mm
; perimeters extrusion width = 0.45mm
; infill extrusion width = 0.45mm
; solid infill extrusion width = 0.45mm
; top infill extrusion width = 0.42mm

; external perimeters extrusion width = 0.42mm
; perimeters extrusion width = 0.45mm
; infill extrusion width = 0.45mm
; solid infill extrusion width = 0.45mm
; top infill extrusion width = 0.42mm

; external perimeters extrusion width = 0.42mm
; perimeters extrusion width = 0.45mm
; infill extrusion width = 0.45mm
; solid infill extrusion width = 0.45mm
; top infill extrusion width = 0.42mm

; external perimeters extrusion width = 0.42mm
; perimeters extrusion width = 0.45mm
; infill extrusion width = 0.45mm
; solid infill extrusion width = 0.45mm
; top infill extrusion width = 0.42mm

; object:{"name":"filament_flow_test","id":"filament_flow_test id:0 copy 0","object_center":[12.962178,195.134713,0.000000],"boundingbox_center":[12.962178,195.134713,0.720000],"boundingbox_size":[20.000000,20.000000,1.440000]}
EXCLUDE_OBJECT_DEFINE NAME=filament_flow_test_id_0_copy_0 CENTER=12.962178,195.134713 POLYGON=[[2.96,185.13],[12.96,185.13],[22.96,187.63],[22.96,202.63],[12.96,205.13],[2.96,205.13],[2.96,185.13]]
; object:{"name":"filament_flow_test","id":"filament_flow_test id:1 copy 0","object_center":[76.368067,162.430728,0.000000],"boundingbox_center":[76.368067,162.430728,0.720000],"boundingbox_size":[20.000000,20.000000,1.440000]}
EXCLUDE_OBJECT_DEFINE NAME=filament_flow_test_id_1_copy_0 CENTER=76.368067,162.430728 POLYGON=[[66.37,152.43],[76.37,152.43],[86.37,154.93],[86.37,169.93],[76.37,172.43],[66.37,172.43],[66.37,152.43]]
; object:{"name":"filament_flow_test","id":"filament_flow_test id:2 copy 0","object_center":[15.752060,119.355045,0.000000],"boundingbox_center":[15.752060,119.355045,0.720000],"boundingbox_size":[20.000000,20.000000,1.440000]}
EXCLUDE_OBJECT_DEFINE NAME=filament_flow_test_id_2_copy_0 CENTER=15.752060,119.355045 POLYGON=[[5.75,109.36],[15.75,109.36],[25.75,111.86],[25.75,126.86],[15.75,129.36],[5.75,129.36],[5.75,109.36]]
; object:{"name":"filament_flow_test","id":"filament_flow_test id:3 copy 0","object_center":[75.996219,79.712316,0.000000],"boundingbox_center":[75.996219,79.712316,0.720000],"boundingbox_size":[20.000000,20.000000,1.440000]}
EXCLUDE_OBJECT_DEFINE NAME=filament_flow_test_id_3_copy_0 CENTER=75.996219,79.712316 POLYGON=[[66.00,69.71],[76.00,69.71],[86.00,72.21],[86.00,87.21],[76.00,89.71],[66.00,89.71],[66.00,69.71]]
; object:{"name":"filament_flow_test","id":"filament_flow_test id:4 copy 0","object_center":[15.149810,39.352310,0.000000],"boundingbox_center":[15.149810,39.352310,0.720000],"boundingbox_size":[20.000000,20.000000,1.440000]}
EXCLUDE_OBJECT_DEFINE NAME=filament_flow_test_id_4_copy_0 CENTER=15.149810,39.352310 POLYGON=[[5.15,29.35],[15.15,29.35],[25.15,31.85],[25.15,46.85],[15.15,49.35],[5.15,49.35],[5.15,29.35]]
; plater:{"center":[44.665123,117.243512,0.000000],"boundingbox_center":[44.665123,117.243512,0.720000],"boundingbox_size":[83.405889,175.782403,1.440000]}

M73 P0 R13
M107
;TYPE:Custom
CALCULATE_PA MATERIAL=PLA BOWDEN_LENGTH=6 LAYER_HEIGHT=0.24 NOZZLE_SIZE=0.4 PRINT_SPEED=60
START_PRINT EXTRUDER=210 BED=60
SET_VELOCITY_LIMIT ACCEL=500



M107
G21 ; set units to millimeters
G90 ; use absolute coordinates
M83 ; use relative distances for extrusion
ACTIVATE_EXTRUDER EXTRUDER=extruder
; Filament gcode
M104 S210 T0 ; set temperature
M109 S210 T0 ; set temperature and wait for it to be reached
M190 S60 ; set bed temperature and wait for it to be reached
;LAYER_CHANGE
;Z:0.24
;HEIGHT:0.24
;BEFORE_LAYER_CHANGE
G92 E0.0

G1 E-0.4 F3600
M73 P2 R13
G1 Z0.4 F600000
;AFTER_LAYER_CHANGE
;0.24
SET_VELOCITY_LIMIT ACCEL=5000


CALCULATE_PA MATERIAL=PLA BOWDEN_LENGTH=6.0 LAYER_HEIGHT=0.2 NOZZLE_SIZE=0.4 PRINT_SPEED=60


G92 E0
G1 X2.76112 Y184.13846
G1 Z0.24
G1 E0.4 F3600
;TYPE:Skirt
;WIDTH:0.45
M107
G1 F1799.87476
G1 X6.22849 Y184.13846 Z.24 E.13787
G1 X9.69586 Y184.13846 Z.24 E.13787
G1 X13.16323 Y184.13846 Z.24 E.13787
G1 X13.24022 Y184.15378 E.00312
G1 X13.4592 Y184.24448 E0.00942
G1 X13.52447 Y184.28809 E.00312
G1 F1798.96106
G1 X13.80879 Y184.5724 E.01599
G1 F1799.93726
G1 X13.8524 Y184.63768 E.00312
G1 X13.94311 Y184.85667 E0.00942
G1 X13.95843 Y184.93365 E.00312
G1 X13.95843 Y186.63847 E.06779
G1 X18.56083 Y186.63847 Z.24 E.183
G1 X23.16323 Y186.63847 Z.24 E.183
G1 X23.24022 Y186.65378 E.00312
G1 X23.4592 Y186.74449 E0.00942
G1 X23.52447 Y186.7881 E.00312
G1 F1798.89026
G1 X23.80879 Y187.0724 E.01599
G1 F1799.96143
G1 X23.8524 Y187.13768 E.00312
G1 X23.94311 Y187.35667 E0.00942
G1 X23.95843 Y187.43365 E.00312
G1 X23.95843 Y191.28418 Z.24 E.15311
G1 X23.95843 Y195.1347 Z.24 E.15311
G1 X23.95843 Y198.98524 Z.24 E.15311
G1 X23.95843 Y202.83577 Z.24 E.15311
G1 X23.94311 Y202.91276 E0.00312
G1 X23.85241 Y203.13174 E.00942
G1 X23.80879 Y203.19701 E.00312
G1 X23.52447 Y203.48132 E.01599
G1 X23.45921 Y203.52493 E.00312
G1 X23.24022 Y203.61565 E0.00942
G1 X23.16323 Y203.63097 E.00312
G1 X18.56083 Y203.63097 Z.24 E.183
G1 F1800
G1 X13.95843 Y203.63097 Z.24 E.183
G1 F1799.44568
G1 X13.95843 Y205.33577 E.06779
G1 X13.94311 Y205.41276 E0.00312
G1 X13.85241 Y205.63174 E.00942
G1 X13.80879 Y205.69701 E.00312
G1 X13.52447 Y205.98132 E.01599
G1 X13.45921 Y206.02493 E.00312
G1 X13.24022 Y206.11565 E0.00942
G1 X13.16323 Y206.13097 E.00312
G1 X9.69586 Y206.13097 Z.24 E.13787
G1 X6.22849 Y206.13097 Z.24 E.13787
G1 X2.76112 Y206.13097 Z.24 E.13787
G1 X2.68413 Y206.11565 E.00312
G1 X2.46515 Y206.02494 E0.00942
G1 X2.39988 Y205.98132 E.00312
G1 X2.11556 Y205.69701 E.01599
G1 X2.07195 Y205.63174 E.00312
G1 X1.98124 Y205.41276 E0.00942
G1 X1.96593 Y205.33577 E.00312
G1 X1.96593 Y201.25534 Z.24 E.16225
G1 X1.96593 Y197.17493 Z.24 E.16225
G1 X1.96593 Y193.0945 Z.24 E.16225
G1 X1.96593 Y189.01408 Z.24 E.16225
G1 X1.96593 Y184.93365 Z.24 E.16225
G1 X1.98124 Y184.85667 E.00312
G1 X2.07195 Y184.63768 E0.00942
G1 X2.11556 Y184.57242 E.00312
G1 F1798.97412
G1 X2.39988 Y184.2881 E.01599
G1 X2.46515 Y184.24448 E0.00312
G1 F1799.95178
G1 X2.68413 Y184.15378 E.00942
G1 F1787.95483
G1 X2.70227 Y184.15018 E.00074
M107
G1 X2.80037 Y184.53696 F600000
M107
G1 F1799.44958
G1 X6.24157 Y184.53696 Z.24 E.13683
G1 X9.68278 Y184.53696 Z.24 E.13683
G1 F1798.90234
G1 X13.12398 Y184.53696 Z.24 E.13683
G1 X13.27045 Y184.59763 E0.0063
G1 X13.49926 Y184.82645 E.01287
G1 X13.55993 Y184.9729 E0.0063
G1 F1799.55225
G1 X13.55993 Y187.03696 E.08207
G1 X18.34196 Y187.03696 Z.24 E.19015
G1 F1798.88379
G1 X23.12398 Y187.03696 Z.24 E.19015
G1 X23.27045 Y187.09763 E0.0063
G1 X23.49926 Y187.32645 E.01287
G1 X23.55993 Y187.47291 E0.0063
G1 X23.55993 Y191.30382 Z.24 E.15233
M73 P3 R13
G1 X23.55993 Y195.13472 Z.24 E.15232
G1 F1799.00732
G1 X23.55993 Y198.96562 Z.24 E.15233
G1 X23.55993 Y202.79652 Z.24 E.15233
G1 X23.49926 Y202.94298 E0.0063
G1 F1798.55444
G1 X23.27045 Y203.1718 E.01287
G1 X23.12398 Y203.23247 E0.0063
G1 F1799.15161
G1 X18.34196 Y203.23247 Z.24 E.19015
G1 X13.55993 Y203.23247 Z.24 E.19015
G1 X13.55993 Y205.29652 E.08207
G1 X13.49926 Y205.44298 E0.0063
G1 F1798.59839
G1 X13.27045 Y205.6718 E.01287
G1 X13.12398 Y205.73246 E0.0063
G1 X9.68278 Y205.73245 Z.24 E.13683
G1 F1799.021
G1 X6.24157 Y205.73245 Z.24 E.13683
G1 X2.80037 Y205.73245 Z.24 E.13683
G1 X2.65391 Y205.6718 E0.0063
G1 F1798.70947
G1 X2.42509 Y205.44298 E.01287
G1 X2.36443 Y205.29652 E0.0063
G1 F1799.11829
G1 X2.36443 Y201.2318 Z.24 E.16162
G1 X2.36443 Y197.16707 Z.24 E.16162
G1 X2.36443 Y193.10236 Z.24 E.16162
G1 X2.36443 Y189.03763 Z.24 E.16162
G1 X2.36443 Y184.9729 Z.24 E.16162
G1 X2.42509 Y184.82644 E0.0063
G1 X2.65391 Y184.59763 E.01287
G1 X2.74494 Y184.55992 E.00392
M107
G1 X2.87964 Y184.93545 F600000
M107
G1 F1799.84753
G1 X6.268 Y184.93546 Z.24 E.13473
G1 X9.65636 Y184.93546 Z.24 E.13473
G1 X13.04472 Y184.93546 Z.24 E.13473
G1 X13.16144 Y185.05217 E0.00656
G1 X13.16144 Y187.43546 E.09476
G1 X18.10308 Y187.43546 Z.24 E.19649
G1 X23.04472 Y187.43546 Z.24 E.19649
G1 X23.16144 Y187.55217 E0.00656
G1 X23.16144 Y191.34344 Z.24 E.15075
G1 X23.16144 Y195.1347 Z.24 E.15075
G1 X23.16144 Y198.92598 Z.24 E.15075
G1 X23.16144 Y202.71725 Z.24 E.15075
G1 X23.04472 Y202.83397 E0.00656
G1 X18.10308 Y202.83397 Z.24 E.19649
G1 X13.16144 Y202.83397 Z.24 E.19649
G1 X13.16144 Y205.21725 E.09476
G1 X13.04472 Y205.33397 E0.00656
G1 X9.65636 Y205.33397 Z.24 E.13473
G1 X6.268 Y205.33397 Z.24 E.13473
G1 X2.87964 Y205.33397 Z.24 E.13473
G1 X2.76292 Y205.21725 E0.00656
G1 X2.76292 Y201.18423 Z.24 E.16036
G1 X2.76292 Y197.15121 Z.24 E.16036
G1 X2.76292 Y193.11821 Z.24 E.16036
G1 X2.76292 Y189.08519 Z.24 E.16036
G1 F1800
G1 X2.76292 Y185.05217 Z.24 E.16036
G1 F1798.98926
G1 X2.83721 Y184.97787 E.00418
M107
;WIPE_START
G1 F480000
G1 X2.76292 Y185.05217 E-0.00075
G1 X2.76292 Y205.21725 E-0.14368
G1 X2.87964 Y205.33397 E-0.00118
G1 X13.04472 Y205.33397 E-0.07243
G1 X13.16144 Y205.21725 E-0.00118
G1 X13.16144 Y202.83397 E-0.01698
G1 X23.04472 Y202.83397 E-0.07042
G1 X23.16144 Y202.71725 E-0.00118
G1 X23.16144 Y192.5809 E-0.07222
;WIPE_END
G1 E-0.02 F3600
G1 Z0.4 F600000
G1 X65.37182 Y172.63178
G1 Z0.24
G1 E0.4 F3600
M107
G1 F1799.9397
G1 X65.37182 Y168.55136 Z.24 E.16225
G1 X65.37182 Y164.47093 Z.24 E.16225
G1 X65.37182 Y160.39052 Z.24 E.16225
G1 X65.37182 Y156.31009 Z.24 E.16225
G1 X65.37182 Y152.22968 Z.24 E.16225
G1 X65.38713 Y152.15268 E.00312
G1 X65.47784 Y151.9337 E0.00942
G1 X65.52145 Y151.86842 E.00312
G1 X65.80577 Y151.58411 E.01599
G1 X65.87104 Y151.5405 E.00312
G1 X66.09002 Y151.44979 E0.00942
G1 X66.16701 Y151.43448 E.00312
G1 X69.63438 Y151.43448 Z.24 E.13787
G1 X73.10175 Y151.43448 Z.24 E.13787
G1 X76.56912 Y151.43448 Z.24 E.13787
G1 X76.64611 Y151.44978 E.00312
G1 X76.86509 Y151.5405 E0.00942
G1 X76.93036 Y151.58411 E.00312
G1 X77.21468 Y151.86842 E.01599
G1 X77.25829 Y151.9337 E.00312
G1 X77.349 Y152.15268 E0.00942
G1 X77.36431 Y152.22968 E.00312
G1 X77.36431 Y153.93448 E.06779
G1 X81.96672 Y153.93448 Z.24 E.183
G1 X86.56912 Y153.93448 Z.24 E.183
G1 X86.64611 Y153.94978 E.00312
G1 X86.86509 Y154.0405 E0.00942
G1 X86.93036 Y154.08411 E.00312
G1 X87.21468 Y154.36842 E.01599
G1 X87.25829 Y154.4337 E.00312
G1 X87.349 Y154.65268 E0.00942
G1 X87.36431 Y154.72968 E.00312
G1 X87.36431 Y158.5802 Z.24 E.1531
G1 X87.36431 Y162.43073 Z.24 E.1531
G1 X87.36431 Y166.28125 Z.24 E.15311
G1 X87.36431 Y170.13177 Z.24 E.1531
G1 X87.349 Y170.20877 E.00312
G1 X87.25829 Y170.42776 E0.00942
G1 X87.21468 Y170.49303 E.00312
G1 X86.93036 Y170.77734 E.01599
G1 X86.86509 Y170.82095 E.00312
G1 X86.64611 Y170.91166 E0.00942
G1 X86.56912 Y170.92699 E.00312
G1 X81.96672 Y170.92699 Z.24 E.183
M73 P4 R13
G1 F1800
G1 X77.36431 Y170.92699 Z.24 E.183
G1 F1799.58398
G1 X77.36431 Y172.63177 E.06779
G1 X77.349 Y172.70877 E.00312
G1 X77.25829 Y172.92776 E0.00942
G1 X77.21468 Y172.99303 E.00312
G1 X76.93036 Y173.27734 E.01599
G1 X76.86509 Y173.32095 E.00312
G1 X76.64611 Y173.41166 E0.00942
G1 X76.56912 Y173.42699 E.00312
G1 X73.10175 Y173.42699 Z.24 E.13787
G1 X69.63438 Y173.42699 Z.24 E.13787
G1 X66.16701 Y173.42699 Z.24 E.13787
G1 X66.09002 Y173.41167 E.00312
G1 X65.87104 Y173.32095 E0.00942
G1 X65.80577 Y173.27734 E.00312
G1 X65.52145 Y172.99303 E.01599
G1 X65.47784 Y172.92775 E.00312
G1 X65.38713 Y172.70877 E0.00942
G1 F1788.42273
G1 X65.38352 Y172.69063 E.00074
M107
G1 X65.77031 Y172.59253 F600000
M107
G1 F1799.58398
G1 X65.77031 Y168.5278 Z.24 E.16162
G1 X65.77031 Y164.46309 Z.24 E.16162
G1 X65.77031 Y160.39836 Z.24 E.16162
G1 X65.77031 Y156.33365 Z.24 E.16162
G1 X65.77031 Y152.26892 Z.24 E.16162
G1 X65.83098 Y152.12246 E0.0063
G1 F1798.65369
G1 X66.0598 Y151.89365 E.01287
G1 X66.20626 Y151.83298 E0.0063
G1 X69.64746 Y151.83298 Z.24 E.13683
G1 X73.08867 Y151.83298 Z.24 E.13683
G1 X76.52987 Y151.83298 Z.24 E.13683
G1 X76.67634 Y151.89364 E0.0063
G1 X76.90515 Y152.12247 E.01287
G1 X76.96582 Y152.26892 E0.0063
G1 F1799.54932
G1 X76.96582 Y154.33298 E.08207
G1 X81.74785 Y154.33298 Z.24 E.19015
G1 F1798.90356
G1 X86.52987 Y154.33298 Z.24 E.19014
G1 X86.67634 Y154.39364 E0.0063
G1 X86.90515 Y154.62247 E.01287
G1 X86.96582 Y154.76892 E0.0063
G1 F1799.05432
G1 X86.96582 Y158.59982 Z.24 E.15232
G1 X86.96582 Y162.43073 Z.24 E.15233
G1 F1798.97437
G1 X86.96582 Y166.26163 Z.24 E.15233
G1 X86.96582 Y170.09253 Z.24 E.15232
G1 X86.90515 Y170.239 E0.0063
G1 X86.67634 Y170.4678 E.01287
G1 X86.52987 Y170.52848 E0.0063
G1 F1799.16821
G1 X81.74785 Y170.52847 Z.24 E.19014
G1 X76.96582 Y170.52847 Z.24 E.19015
G1 X76.96582 Y172.59253 E.08207
G1 X76.90515 Y172.739 E0.0063
G1 F1798.3103
G1 X76.67634 Y172.9678 E.01287
G1 X76.52987 Y173.02848 E0.0063
G1 X73.08867 Y173.02847 Z.24 E.13683
G1 X69.64746 Y173.02847 Z.24 E.13683
G1 X66.20626 Y173.02847 Z.24 E.13683
G1 X66.0598 Y172.96781 E0.0063
G1 F1799.21008
G1 X65.83098 Y172.739 E.01287
G1 X65.79328 Y172.64796 E.00392
M107
G1 X66.16881 Y172.51327 F600000
M107
G1 F1799.89331
G1 X66.16881 Y168.48026 Z.24 E.16036
G1 X66.16881 Y164.44724 Z.24 E.16036
G1 X66.16881 Y160.41423 Z.24 E.16036
G1 X66.16881 Y156.38121 Z.24 E.16036
G1 F1798.93298
G1 X66.16881 Y152.34819 Z.24 E.16036
G1 X66.28553 Y152.23147 E0.00656
G1 X69.67389 Y152.23148 Z.24 E.13473
G1 X73.06225 Y152.23148 Z.24 E.13473
G1 X76.45061 Y152.23148 Z.24 E.13473
G1 X76.56732 Y152.34819 E0.00656
G1 F1799.52234
G1 X76.56732 Y154.73148 E.09476
G1 X81.50896 Y154.73148 Z.24 E.19649
G1 F1798.97571
G1 X86.45061 Y154.73148 Z.24 E.19649
G1 X86.56732 Y154.84819 E0.00656
G1 X86.56732 Y158.63947 Z.24 E.15075
G1 X86.56732 Y162.43073 Z.24 E.15075
G1 X86.56732 Y166.222 Z.24 E.15075
M73 P4 R12
G1 X86.56732 Y170.01328 Z.24 E.15075
G1 X86.45061 Y170.12999 E0.00656
G1 F1799.21448
G1 X81.50896 Y170.12999 Z.24 E.19649
G1 X76.56732 Y170.12999 Z.24 E.19649
G1 X76.56732 Y172.51328 E.09476
G1 X76.45061 Y172.62999 E0.00656
G1 X73.06225 Y172.62999 Z.24 E.13473
G1 X69.67389 Y172.62999 Z.24 E.13473
G1 F1800
G1 X66.28553 Y172.62999 Z.24 E.13473
G1 F1798.31067
G1 X66.21124 Y172.55569 E.00418
M107
;WIPE_START
G1 F480000
G1 X66.28553 Y172.62999 E-0.00075
G1 X76.45061 Y172.62999 E-0.07243
G1 X76.56732 Y172.51327 E-0.00118
G1 X76.56732 Y170.12999 E-0.01698
G1 X86.45061 Y170.12999 E-0.07042
G1 X86.56732 Y170.01327 E-0.00118
G1 X86.56732 Y154.84819 E-0.10805
G1 X86.45061 Y154.73147 E-0.00118
G1 X76.56732 Y154.73147 E-0.07042
G1 X76.56732 Y152.34819 E-0.01698
G1 X76.45061 Y152.23147 E-0.00118
G1 X73.74588 Y152.23147 E-0.01927
;WIPE_END
G1 E-0.02 F3600
G1 Z0.4 F600000
G1 X26.31436 Y127.70166
G1 Z0.24
G1 E0.4 F3600
M107
G1 F1799.79309
G1 X26.24909 Y127.74527 E.00312
G1 X26.0301 Y127.83598 E0.00942
G1 X25.95312 Y127.85129 E.00312
G1 X21.35072 Y127.85129 Z.24 E.183
G1 F1800
G1 X16.74831 Y127.85129 Z.24 E.183
G1 F1799.7937
G1 X16.74831 Y129.55611 E.06779
G1 X16.73299 Y129.63309 E.00312
G1 X16.64229 Y129.85207 E0.00942
G1 X16.59868 Y129.91734 E.00312
G1 X16.31436 Y130.20166 E.01599
G1 X16.24909 Y130.24527 E.00312
G1 X16.0301 Y130.33598 E0.00942
G1 X15.95311 Y130.35129 E.00312
G1 X12.48574 Y130.35129 Z.24 E.13787
M73 P5 R12
G1 X9.01837 Y130.35129 Z.24 E.13787
G1 X5.551 Y130.35129 Z.24 E.13787
G1 X5.47401 Y130.33598 E.00312
G1 X5.25503 Y130.24527 E0.00942
G1 X5.18976 Y130.20166 E.00312
G1 X4.90544 Y129.91734 E.01599
G1 X4.86183 Y129.85207 E.00312
G1 X4.77113 Y129.63309 E0.00942
G1 X4.75581 Y129.55611 E.00312
G1 X4.75581 Y125.47569 Z.24 E.16225
G1 X4.75581 Y121.39526 Z.24 E.16224
G1 X4.75581 Y117.31483 Z.24 E.16225
G1 X4.75581 Y113.23441 Z.24 E.16224
G1 X4.75581 Y109.15399 Z.24 E.16225
G1 X4.77113 Y109.077 E.00312
G1 X4.86183 Y108.85802 E0.00942
G1 X4.90544 Y108.79275 E.00312
G1 X5.18976 Y108.50843 E.01599
G1 X5.25503 Y108.46482 E.00312
G1 X5.47402 Y108.37411 E0.00942
G1 X5.551 Y108.3588 E.00312
G1 X9.01837 Y108.3588 Z.24 E.13787
G1 X12.48574 Y108.3588 Z.24 E.13787
