; generated by SuperSlicer 2.5.59.10 on 2024-06-07 at 10:01:43 UTC


;
;

;
;
; 

; external perimeters extrusion width = 0.48mm
; perimeters extrusion width = 0.48mm
; infill extrusion width = 0.48mm
; solid infill extrusion width = 0.48mm
; top infill extrusion width = 0.48mm
; support material extrusion width = 0.42mm
; first layer extrusion width = 0.48mm

; external perimeters extrusion width = 0.48mm
; perimeters extrusion width = 0.48mm
; infill extrusion width = 0.48mm
; solid infill extrusion width = 0.48mm
; top infill extrusion width = 0.48mm
; support material extrusion width = 0.42mm
; first layer extrusion width = 0.48mm

; external perimeters extrusion width = 0.48mm
; perimeters extrusion width = 0.48mm
; infill extrusion width = 0.48mm
; solid infill extrusion width = 0.48mm
; top infill extrusion width = 0.48mm
; support material extrusion width = 0.42mm
; first layer extrusion width = 0.48mm

; external perimeters extrusion width = 0.48mm
; perimeters extrusion width = 0.48mm
; infill extrusion width = 0.48mm
; solid infill extrusion width = 0.48mm
; top infill extrusion width = 0.48mm
; support material extrusion width = 0.42mm
; first layer extrusion width = 0.48mm

; external perimeters extrusion width = 0.48mm
; perimeters extrusion width = 0.48mm
; infill extrusion width = 0.48mm
; solid infill extrusion width = 0.48mm
; top infill extrusion width = 0.48mm
; support material extrusion width = 0.42mm
; first layer extrusion width = 0.48mm

; object:{"name":"filament_flow_test","id":"filament_flow_test id:0 copy 0","object_center":[59.299999,21.099998,0.000000],"boundingbox_center":[59.299999,21.099998,0.720000],"boundingbox_size":[20.000000,20.000000,1.440000]}
EXCLUDE_OBJECT_DEFINE NAME=filament_flow_test_id_0_copy_0 CENTER=59.299999,21.099998 POLYGON=[[49.30,11.10],[59.30,11.10],[69.30,13.60],[69.30,28.60],[59.30,31.10],[49.30,31.10],[49.30,11.10]]
; object:{"name":"filament_flow_test","id":"filament_flow_test id:1 copy 0","object_center":[59.299999,92.500000,0.000000],"boundingbox_center":[59.299999,92.500000,0.720000],"boundingbox_size":[20.000000,20.000000,1.440000]}
EXCLUDE_OBJECT_DEFINE NAME=filament_flow_test_id_1_copy_0 CENTER=59.299999,92.500000 POLYGON=[[49.30,82.50],[59.30,82.50],[69.30,85.00],[69.30,100.00],[59.30,102.50],[49.30,102.50],[49.30,82.50]]
; object:{"name":"filament_flow_test","id":"filament_flow_test id:2 copy 0","object_center":[59.299999,163.900002,0.000000],"boundingbox_center":[59.299999,163.900002,0.720000],"boundingbox_size":[20.000000,20.000000,1.440000]}
EXCLUDE_OBJECT_DEFINE NAME=filament_flow_test_id_2_copy_0 CENTER=59.299999,163.900002 POLYGON=[[49.30,153.90],[59.30,153.90],[69.30,156.40],[69.30,171.40],[59.30,173.90],[49.30,173.90],[49.30,153.90]]
; object:{"name":"filament_flow_test","id":"filament_flow_test id:3 copy 0","object_center":[130.700001,21.099998,0.000000],"boundingbox_center":[130.700001,21.099998,0.720000],"boundingbox_size":[20.000000,20.000000,1.440000]}
EXCLUDE_OBJECT_DEFINE NAME=filament_flow_test_id_3_copy_0 CENTER=130.700001,21.099998 POLYGON=[[120.70,11.10],[130.70,11.10],[140.70,13.60],[140.70,28.60],[130.70,31.10],[120.70,31.10],[120.70,11.10]]
; object:{"name":"filament_flow_test","id":"filament_flow_test id:4 copy 0","object_center":[130.700001,163.900002,0.000000],"boundingbox_center":[130.700001,163.900002,0.720000],"boundingbox_size":[20.000000,20.000000,1.440000]}
EXCLUDE_OBJECT_DEFINE NAME=filament_flow_test_id_4_copy_0 CENTER=130.700001,163.900002 POLYGON=[[120.70,153.90],[130.70,153.90],[140.70,156.40],[140.70,171.40],[130.70,173.90],[120.70,173.90],[120.70,153.90]]
; plater:{"center":[95.000000,92.500000,0.000000],"boundingbox_center":[95.000000,92.500000,0.720000],"boundingbox_size":[91.400002,162.800003,1.440000]}

M107
;TYPE:Custom
START_PRINT EXTRUDER=230 BED=85
M107
G21 ; set units to millimeters
G90 ; use absolute coordinates
M83 ; use relative distances for extrusion
ACTIVATE_EXTRUDER EXTRUDER=extruder
; Filament gcode
FILAMENT_START MATERIAL=PET COLOR=#368900 VENDOR=123-3D
SET_PRESSURE_ADVANCE ADVANCE=0.062
M104 S230 T0 ; set temperature
M109 S230 T0 ; set temperature and wait for it to be reached
M190 S85 ; set bed temperature and wait for it to be reached
;LAYER_CHANGE
;Z:0.24
;HEIGHT:0.24
G1 E-1 F3600
G1 Z0.04 F60000
G1 Z0.24
G92 E0
M204 S750
G1 X120.1 Y152.995
G1 E1 F3600
;TYPE:Skirt
;WIDTH:0.48
M107
G1 F2400
G1 X120.171 Y152.948 E0.00397
G1 F2378.857
G1 X120.406 Y152.85 E.01199
G1 F2388.527
G1 X120.489 Y152.834 E.00397
G1 F2385.958
G1 X123.963 Y152.834 Z.24 E.16339
G1 X127.437 Y152.834 Z.24 E.16339
G1 X130.911 Y152.834 Z.24 E.16339
G1 F2388.738
G1 X130.994 Y152.85 E.00397
G1 F2378.857
G1 X131.229 Y152.948 E.01199
G1 X131.3 Y152.995 E0.00397
G1 F2374.25
G1 X131.605 Y153.3 E.02033
G1 X131.652 Y153.371 E0.00397
G1 F2378.912
G1 X131.75 Y153.606 E.01199
G1 F2388.314
G1 X131.766 Y153.689 E.00397
G1 F2393.13
G1 X131.766 Y155.334 E.07736
G1 F2396.345
G1 X136.339 Y155.334 Z.24 E.21505
G1 F2385.988
G1 X140.911 Y155.334 Z.24 E.21505
G1 F2388.739
G1 X140.994 Y155.35 E.00397
G1 F2378.762
G1 X141.229 Y155.448 E.01199
G1 X141.3 Y155.495 E0.00397
G1 F2374.179
G1 X141.605 Y155.8 E.02033
G1 X141.652 Y155.871 E0.00397
G1 F2378.817
G1 X141.75 Y156.106 E.01199
G1 F2388.315
G1 X141.766 Y156.189 E.00397
G1 F2385.939
G1 X141.766 Y160.044 Z.24 E.18133
G1 X141.766 Y163.9 Z.24 E.18133
G1 X141.766 Y167.755 Z.24 E.18133
G1 X141.766 Y171.611 Z.24 E.18133
G1 F2388.739
G1 X141.75 Y171.694 E.00397
G1 F2378.817
G1 X141.652 Y171.929 E.01199
G1 X141.605 Y172 E0.00397
G1 F2374.002
G1 X141.3 Y172.305 E.02033
G1 X141.229 Y172.352 E0.00397
G1 F2378.527
G1 X140.994 Y172.45 E.01199
G1 F2388.502
G1 X140.911 Y172.466 E.00397
G1 F2389.268
G1 X136.339 Y172.466 Z.24 E.21505
G1 F2399.816
G1 X131.766 Y172.466 Z.24 E.21505
G1 F2393.085
G1 X131.766 Y174.111 E.07736
G1 F2388.739
G1 X131.75 Y174.194 E.00397
G1 F2378.817
G1 X131.652 Y174.429 E.01199
G1 X131.605 Y174.5 E0.00397
G1 F2374.002
G1 X131.3 Y174.805 E.02033
G1 X131.229 Y174.852 E0.00397
G1 F2378.527
G1 X130.994 Y174.95 E.01199
G1 F2388.502
G1 X130.911 Y174.966 E.00397
G1 F2385.675
G1 X127.437 Y174.966 Z.24 E.16339
G1 X123.963 Y174.966 Z.24 E.16339
G1 X120.489 Y174.966 Z.24 E.16339
G1 F2388.433
G1 X120.406 Y174.95 E.00397
G1 F2378.669
G1 X120.171 Y174.852 E.01199
G1 X120.1 Y174.805 E0.00397
G1 F2374.174
G1 X119.795 Y174.5 E.02033
G1 X119.748 Y174.429 E0.00397
G1 F2378.932
G1 X119.65 Y174.194 E.01199
G1 F2388.697
G1 X119.634 Y174.111 E.00397
G1 F2382.214
G1 X119.634 Y170.027 Z.24 E.1921
G1 F2374.474
G1 X119.634 Y165.942 Z.24 E.1921
G1 F2366.734
G1 X119.634 Y161.858 Z.24 E.1921
G1 F2358.994
G1 X119.634 Y157.773 Z.24 E.1921
G1 F2347.384
G1 X119.634 Y153.689 Z.24 E.1921
G1 F2349.539
G1 X119.65 Y153.606 E.00397
G1 F2340.349
G1 X119.748 Y153.371 E.01199
G1 F2360.235
G1 X119.795 Y153.3 E.00397
G1 F2333.29
G1 X120.058 Y153.037 E.01751
M107
G1 X120.361 Y153.34 F60000
M107
G1 F2400
G1 X120.374 Y153.327 E0.00084
G1 F2325.399
G1 X120.531 Y153.262 E.00802
G1 F2344.932
G1 X123.977 Y153.262 Z.24 E.16207
G1 F2364.279
G1 X127.423 Y153.262 Z.24 E.16207
G1 F2393.299
G1 X130.869 Y153.262 Z.24 E.16207
G1 F2383.194
G1 X131.026 Y153.327 E.00802
G1 X131.273 Y153.574 E0.01636
G1 X131.338 Y153.731 E.00802
G1 F2396.412
G1 X131.338 Y155.762 E.09553
G1 F2398.319
G1 X136.104 Y155.762 Z.24 E.22413
G1 F2393.276
G1 X140.869 Y155.762 Z.24 E.22413
G1 F2383.194
G1 X141.026 Y155.827 E.00802
G1 X141.273 Y156.074 E0.01636
G1 X141.338 Y156.231 E.00802
G1 F2393.318
G1 X141.338 Y160.066 Z.24 E.18034
G1 X141.338 Y163.9 Z.24 E.18034
G1 X141.338 Y167.734 Z.24 E.18034
G1 X141.338 Y171.569 Z.24 E.18034
G1 F2383.194
G1 X141.273 Y171.726 E.00802
G1 X141.026 Y171.973 E0.01636
G1 X140.869 Y172.038 E.00802
G1 F2394.957
G1 X136.104 Y172.038 Z.24 E.22413
G1 F2400
G1 X131.338 Y172.038 Z.24 E.22413
G1 F2396.43
G1 X131.338 Y174.069 E.09553
G1 F2383.194
G1 X131.273 Y174.226 E.00802
G1 X131.026 Y174.473 E0.01636
G1 X130.869 Y174.538 E.00802
G1 F2393.292
G1 X127.423 Y174.538 Z.24 E.16207
G1 X123.977 Y174.538 Z.24 E.16207
G1 X120.531 Y174.538 Z.24 E.16207
G1 F2383.076
G1 X120.374 Y174.473 E.00802
G1 X120.127 Y174.226 E0.01636
G1 X120.062 Y174.069 E.00802
G1 F2393.134
G1 X120.062 Y170.001 Z.24 E.1913
G1 F2392.866
G1 X120.062 Y165.934 Z.24 E.1913
G1 X120.062 Y161.866 Z.24 E.1913
G1 X120.062 Y157.799 Z.24 E.1913
G1 F2391.927
G1 X120.062 Y153.731 Z.24 E.1913
G1 F2381.681
G1 X120.127 Y153.574 E.00802
G1 X120.319 Y153.382 E0.01271
M107
G1 X120.616 Y153.691 F60000
M107
G1 F2390.572
G1 X124.005 Y153.691 Z.24 E.1594
G1 F2394.343
G1 X127.395 Y153.691 Z.24 E.1594
G1 F2400
G1 X130.784 Y153.691 Z.24 E.1594
G1 F2389.179
G1 X130.909 Y153.816 E.00835
G1 X130.909 Y156.191 E0.11167
G1 F2399.614
G1 X135.846 Y156.191 Z.24 E.2322
G1 F2400
G1 X140.784 Y156.191 Z.24 E.23221
G1 F2389.443
G1 X140.909 Y156.316 E.00835
G1 X140.909 Y171.484 E0.71334
G1 X140.784 Y171.609 E.00835
G1 F2399.871
G1 X135.846 Y171.609 Z.24 E.2322
G1 X130.909 Y171.609 Z.24 E.23221
G1 X130.909 Y173.984 E0.11167
G1 F2389.179
G1 X130.784 Y174.109 E.00835
G1 X120.616 Y174.109 E0.47819
G1 X120.491 Y173.984 E.00835
G1 X120.491 Y153.816 E0.9485
G1 F2395.615
G1 X120.574 Y153.733 E.00553
M107
;WIPE_START
G1 F48000
G1 X120.491 Y153.816 E-0.00837
G1 X120.491 Y167.032 E-0.94163
;WIPE_END
G1 E-0.05 F3600
G1 X70.366 Y156.189 F60000
G1 E1 F3600
M107
G1 F2398.26
G1 X70.366 Y160.044 Z.24 E.18133
G1 F2394.781
G1 X70.366 Y163.9 Z.24 E.18133
G1 F2391.301
G1 X70.366 Y167.755 Z.24 E.18133
G1 F2386.082
G1 X70.366 Y171.611 Z.24 E.18133
G1 F2388.697
G1 X70.35 Y171.694 E.00397
G1 F2379.027
G1 X70.252 Y171.929 E.01199
G1 X70.205 Y172 E0.00397
G1 F2374.119
G1 X69.9 Y172.305 E.02033
G1 X69.829 Y172.352 E0.00397
G1 F2378.764
G1 X69.594 Y172.45 E.01199
G1 F2388.29
G1 X69.511 Y172.466 E.00397
G1 F2389.378
G1 X64.938 Y172.466 Z.24 E.21505
G1 F2399.824
G1 X60.366 Y172.466 Z.24 E.21505
G1 F2393.153
G1 X60.366 Y174.111 E.07736
G1 F2388.718
G1 X60.35 Y174.194 E.00397
G1 F2379.027
G1 X60.252 Y174.429 E.01199
G1 X60.205 Y174.5 E0.00397
G1 F2374.074
G1 X59.9 Y174.805 E.02033
G1 X59.829 Y174.852 E0.00397
G1 F2378.643
G1 X59.594 Y174.95 E.01199
G1 F2388.201
G1 X59.511 Y174.966 E.00397
G1 F2385.72
G1 X56.037 Y174.966 Z.24 E.16339
G1 X52.563 Y174.966 Z.24 E.16339
G1 X49.089 Y174.966 Z.24 E.16339
G1 F2388.29
G1 X49.006 Y174.95 E.00397
G1 F2378.764
G1 X48.771 Y174.852 E.01199
G1 X48.7 Y174.805 E0.00397
G1 F2374.09
G1 X48.395 Y174.5 E.02033
G1 X48.348 Y174.429 E0.00397
G1 F2378.968
G1 X48.25 Y174.194 E.01199
G1 F2388.639
G1 X48.234 Y174.111 E.00397
G1 F2386.025
G1 X48.234 Y170.027 Z.24 E.1921
G1 X48.234 Y165.942 Z.24 E.1921
G1 X48.234 Y161.858 Z.24 E.1921
G1 X48.234 Y157.773 Z.24 E.1921
G1 X48.234 Y153.689 Z.24 E.1921
G1 F2388.215
G1 X48.25 Y153.606 E.00397
G1 F2378.968
G1 X48.348 Y153.371 E.01199
G1 X48.395 Y153.3 E0.00397
G1 F2374.266
G1 X48.7 Y152.995 E.02033
G1 X48.771 Y152.948 E0.00397
G1 F2379
G1 X49.006 Y152.85 E.01199
G1 F2388.526
G1 X49.089 Y152.834 E.00397
G1 F2385.92
G1 X52.563 Y152.834 Z.24 E.16339
G1 X56.037 Y152.834 Z.24 E.16339
G1 X59.511 Y152.834 Z.24 E.16339
G1 F2388.438
G1 X59.594 Y152.85 E.00397
G1 F2378.306
G1 X59.829 Y152.948 E.01199
G1 X59.9 Y152.995 E0.00397
G1 F2373.681
G1 X60.205 Y153.3 E.02033
G1 X60.252 Y153.371 E0.00397
G1 F2378.456
G1 X60.35 Y153.606 E.01199
G1 F2388.295
G1 X60.366 Y153.689 E.00397
G1 F2392.878
G1 X60.366 Y155.334 E.07736
G1 F2396.247
G1 X64.938 Y155.334 Z.24 E.21505
G1 F2385.564
G1 X69.511 Y155.334 Z.24 E.21505
G1 F2388.527
G1 X69.594 Y155.35 E.00397
G1 F2378.428
G1 X69.829 Y155.448 E.01199
G1 X69.9 Y155.495 E0.00397
G1 F2373.726
G1 X70.205 Y155.8 E.02033
G1 X70.252 Y155.871 E0.00397
G1 F2378.456
G1 X70.35 Y156.106 E.01199
G1 F2390.338
G1 X70.355 Y156.13 E.00115
M107
G1 X69.938 Y156.231 F60000
M107
G1 F2385.492
G1 X69.938 Y160.066 Z.24 E.18034
G1 F2387.698
G1 X69.938 Y163.9 Z.24 E.18034
G1 F2389.905
G1 X69.938 Y167.734 Z.24 E.18034
G1 F2393.214
G1 X69.938 Y171.569 Z.24 E.18034
G1 F2382.947
G1 X69.873 Y171.726 E.00802
G1 X69.626 Y171.973 E0.01636
G1 X69.469 Y172.038 E.00802
G1 F2394.878
G1 X64.703 Y172.038 Z.24 E.22413
G1 F2400
G1 X59.938 Y172.038 Z.24 E.22413
G1 F2396.388
G1 X59.938 Y174.069 E.09553
G1 F2382.926
G1 X59.873 Y174.226 E.00802
G1 X59.626 Y174.473 E0.01636
G1 X59.469 Y174.538 E.00802
G1 F2393.194
G1 X56.023 Y174.538 Z.24 E.16207
G1 X52.577 Y174.538 Z.24 E.16207
G1 X49.131 Y174.538 Z.24 E.16207
G1 F2382.932
G1 X48.974 Y174.473 E.00802
G1 X48.727 Y174.226 E0.01636
G1 X48.662 Y174.069 E.00802
G1 F2393.217
G1 X48.662 Y170.001 Z.24 E.1913
G1 X48.662 Y165.934 Z.24 E.19131
G1 X48.662 Y161.866 Z.24 E.1913
G1 X48.662 Y157.799 Z.24 E.19131
G1 X48.662 Y153.731 Z.24 E.1913
G1 F2382.965
G1 X48.727 Y153.574 E.00802
G1 X48.974 Y153.327 E0.01636
G1 F2383.014
G1 X49.131 Y153.262 E.00802
G1 F2393.207
G1 X52.577 Y153.262 Z.24 E.16207
G1 X56.023 Y153.262 Z.24 E.16207
G1 X59.469 Y153.262 Z.24 E.16207
G1 F2382.947
G1 X59.626 Y153.327 E.00802
G1 X59.873 Y153.574 E0.01636
G1 X59.938 Y153.731 E.00802
G1 F2396.37
G1 X59.938 Y155.762 E.09553
G1 F2398.293
G1 X64.703 Y155.762 Z.24 E.22413
G1 F2393.171
G1 X69.469 Y155.762 Z.24 E.22413
G1 F2382.947
G1 X69.626 Y155.827 E.00802
G1 X69.873 Y156.074 E0.01636
G1 F2385.445
G1 X69.915 Y156.176 E.0052
M107
G1 X69.509 Y156.316 F60000
M107
G1 F2393.103
G1 X69.509 Y160.108 Z.24 E.17834
G1 F2395.073
G1 X69.509 Y163.9 Z.24 E.17834
G1 F2397.044
G1 X69.509 Y167.692 Z.24 E.17834
G1 F2400
G1 X69.509 Y171.484 Z.24 E.17834
G1 F2389.446
G1 X69.384 Y171.609 E.00835
G1 F2399.87
G1 X64.447 Y171.609 Z.24 E.2322
G1 X59.509 Y171.609 Z.24 E.23221
G1 X59.509 Y173.984 E0.11167
G1 F2389.177
G1 X59.384 Y174.109 E.00835
G1 X49.216 Y174.109 E0.47819
G1 X49.091 Y173.984 E.00835
G1 X49.091 Y153.816 E0.9485
G1 X49.216 Y153.691 E.00835
G1 X59.384 Y153.691 E0.47819
G1 X59.509 Y153.816 E.00835
G1 X59.509 Y156.191 E0.11167
G1 F2399.611
G1 X64.447 Y156.191 Z.24 E.2322
G1 F2400
G1 X69.384 Y156.191 Z.24 E.23221
G1 F2396.245
G1 X69.467 Y156.274 E.00553
M107
;WIPE_START
G1 F48000
G1 X69.384 Y156.191 E-0.00837
G1 X59.509 Y156.191 E-0.70356
G1 X59.509 Y153.816 E-0.16918
G1 X59.384 Y153.691 E-0.01265
G1 X58.594 Y153.691 E-0.05624
;WIPE_END
G1 E-0.05 F3600
G1 X59.511 Y103.566 F60000
G1 E1 F3600
M107
G1 F2397.557
G1 X56.037 Y103.566 Z.24 E.16339
G1 F2392.672
G1 X52.563 Y103.566 Z.24 E.16339
G1 F2385.344
G1 X49.089 Y103.566 Z.24 E.16339
G1 F2388.368
G1 X49.006 Y103.55 E.00397
G1 F2378.338
G1 X48.771 Y103.452 E.01199
G1 X48.7 Y103.405 E0.00397
G1 F2373.608
G1 X48.395 Y103.1 E.02033
G1 X48.348 Y103.029 E0.00397
G1 F2378.397
G1 X48.25 Y102.794 E.01199
G1 F2388.427
G1 X48.234 Y102.711 E.00397
G1 F2385.455
G1 X48.234 Y98.627 Z.24 E.1921
G1 X48.234 Y94.542 Z.24 E.1921
G1 X48.234 Y90.458 Z.24 E.1921
G1 X48.234 Y86.373 Z.24 E.1921
G1 X48.234 Y82.289 Z.24 E.1921
G1 F2388.427
G1 X48.25 Y82.206 E.00397
G1 F2378.397
G1 X48.348 Y81.971 E.01199
G1 X48.395 Y81.9 E0.00397
G1 F2373.608
G1 X48.7 Y81.595 E.02033
G1 X48.771 Y81.548 E0.00397
G1 F2378.338
G1 X49.006 Y81.45 E.01199
G1 F2388.368
G1 X49.089 Y81.434 E.00397
G1 F2385.33
G1 X52.563 Y81.434 Z.24 E.16339
G1 X56.037 Y81.434 Z.24 E.16339
G1 X59.511 Y81.434 Z.24 E.16339
G1 F2388.279
G1 X59.594 Y81.45 E.00397
G1 F2378.217
G1 X59.829 Y81.548 E.01199
G1 X59.9 Y81.595 E0.00397
G1 F2373.593
G1 X60.205 Y81.9 E.02033
G1 X60.252 Y81.971 E0.00397
G1 F2378.456
G1 X60.35 Y82.206 E.01199
G1 F2388.507
G1 X60.366 Y82.289 E.00397
G1 F2392.873
G1 X60.366 Y83.934 E.07736
G1 F2396.225
G1 X64.938 Y83.934 Z.24 E.21505
G1 F2385.446
G1 X69.511 Y83.934 Z.24 E.21505
G1 F2388.368
G1 X69.594 Y83.95 E.00397
G1 F2378.338
G1 X69.829 Y84.048 E.01199
G1 X69.9 Y84.095 E0.00397
G1 F2373.637
G1 X70.205 Y84.4 E.02033
G1 X70.252 Y84.471 E0.00397
G1 F2378.456
G1 X70.35 Y84.706 E.01199
G1 F2388.486
G1 X70.366 Y84.789 E.00397
G1 F2385.509
G1 X70.366 Y88.645 Z.24 E.18133
G1 X70.366 Y92.5 Z.24 E.18133
G1 X70.366 Y96.355 Z.24 E.18133
G1 X70.366 Y100.211 Z.24 E.18133
G1 F2388.486
G1 X70.35 Y100.294 E.00397
G1 F2378.456
G1 X70.252 Y100.529 E.01199
G1 X70.205 Y100.6 E0.00397
G1 F2373.637
G1 X69.9 Y100.905 E.02033
