; generated by SuperSlicer 2.5.59.8 on 2024-05-04 at 03:21:10 UTC


;
;

;
;

;
;

;
;

;
;
; 

; external perimeters extrusion width = 0.40mm
; perimeters extrusion width = 0.40mm
; infill extrusion width = 0.40mm
; solid infill extrusion width = 0.40mm
; top infill extrusion width = 0.40mm

; external perimeters extrusion width = 0.40mm
; perimeters extrusion width = 0.40mm
; infill extrusion width = 0.40mm
; solid infill extrusion width = 0.40mm
; top infill extrusion width = 0.40mm

; external perimeters extrusion width = 0.40mm
; perimeters extrusion width = 0.40mm
; infill extrusion width = 0.40mm
; solid infill extrusion width = 0.40mm
; top infill extrusion width = 0.40mm

; external perimeters extrusion width = 0.40mm
; perimeters extrusion width = 0.40mm
; infill extrusion width = 0.40mm
; solid infill extrusion width = 0.40mm
; top infill extrusion width = 0.40mm

; external perimeters extrusion width = 0.40mm
; perimeters extrusion width = 0.40mm
; infill extrusion width = 0.40mm
; solid infill extrusion width = 0.40mm
; top infill extrusion width = 0.40mm

; object:{"name":"filament_flow_test","id":"filament_flow_test id:0 copy 0","object_center":[39.008598,46.059409,0.000000],"boundingbox_center":[39.008598,46.059409,0.720000],"boundingbox_size":[20.000000,20.000000,1.440000]}
EXCLUDE_OBJECT_DEFINE NAME=filament_flow_test_id_0_copy_0 CENTER=39.008598,46.059409 POLYGON=[[29.01,36.06],[39.01,36.06],[49.01,38.56],[49.01,53.56],[39.01,56.06],[29.01,56.06],[29.01,36.06]]
; object:{"name":"filament_flow_test","id":"filament_flow_test id:1 copy 0","object_center":[39.008598,115.459411,0.000000],"boundingbox_center":[39.008598,115.459411,0.720000],"boundingbox_size":[20.000000,20.000000,1.440000]}
EXCLUDE_OBJECT_DEFINE NAME=filament_flow_test_id_1_copy_0 CENTER=39.008598,115.459411 POLYGON=[[29.01,105.46],[39.01,105.46],[49.01,107.96],[49.01,122.96],[39.01,125.46],[29.01,125.46],[29.01,105.46]]
; object:{"name":"filament_flow_test","id":"filament_flow_test id:2 copy 0","object_center":[39.008598,184.859412,0.000000],"boundingbox_center":[39.008598,184.859412,0.720000],"boundingbox_size":[20.000000,20.000000,1.440000]}
EXCLUDE_OBJECT_DEFINE NAME=filament_flow_test_id_2_copy_0 CENTER=39.008598,184.859412 POLYGON=[[29.01,174.86],[39.01,174.86],[49.01,177.36],[49.01,192.36],[39.01,194.86],[29.01,194.86],[29.01,174.86]]
; object:{"name":"filament_flow_test","id":"filament_flow_test id:3 copy 0","object_center":[108.408599,46.059409,0.000000],"boundingbox_center":[108.408599,46.059409,0.720000],"boundingbox_size":[20.000000,20.000000,1.440000]}
EXCLUDE_OBJECT_DEFINE NAME=filament_flow_test_id_3_copy_0 CENTER=108.408599,46.059409 POLYGON=[[98.41,36.06],[108.41,36.06],[118.41,38.56],[118.41,53.56],[108.41,56.06],[98.41,56.06],[98.41,36.06]]
; object:{"name":"filament_flow_test","id":"filament_flow_test id:4 copy 0","object_center":[108.408599,184.859412,0.000000],"boundingbox_center":[108.408599,184.859412,0.720000],"boundingbox_size":[20.000000,20.000000,1.440000]}
EXCLUDE_OBJECT_DEFINE NAME=filament_flow_test_id_4_copy_0 CENTER=108.408599,184.859412 POLYGON=[[98.41,174.86],[108.41,174.86],[118.41,177.36],[118.41,192.36],[108.41,194.86],[98.41,194.86],[98.41,174.86]]
; plater:{"center":[73.708598,115.459411,0.000000],"boundingbox_center":[73.708598,115.459411,0.720000],"boundingbox_size":[89.400002,158.800003,1.440000]}

M73 P0 R18
M107
;TYPE:Custom
CALCULATE_PA MATERIAL=ASA BOWDEN_LENGTH=6 LAYER_HEIGHT=0.24 NOZZLE_SIZE=0.4 PRINT_SPEED=95%


START_PRINT EXTRUDER=260 BED=105

M107
G21 ; set units to millimeters
G90 ; use absolute coordinates
M83 ; use relative distances for extrusion
ACTIVATE_EXTRUDER EXTRUDER=extruder
; Filament gcode
M104 S260 T0 ; set temperature
M109 S260 T0 ; set temperature and wait for it to be reached
M190 S105 ; set bed temperature and wait for it to be reached
;LAYER_CHANGE
;Z:0.24
;HEIGHT:0.24
;BEFORE_LAYER_CHANGE
G92 E0.0

G1 E-1.5 F3000
M73 P1 R17
G1 Z0.4 F3600000
;AFTER_LAYER_CHANGE
;0.24




CALCULATE_PA MATERIAL=ASA BOWDEN_LENGTH=6.0 LAYER_HEIGHT=0.2 NOZZLE_SIZE=0.4 PRINT_SPEED=0.9025


G92 E0
G1 X97.87393 Y173.98088
G1 Z0.24
G1 E1.5 F3000
;TYPE:Skirt
;WIDTH:0.4
M107
G1 X98.06544 Y173.90156 E0.00793
G1 X98.13277 Y173.88816 E0.00263
G1 X108.68443 Y173.88816 E0.4036
G1 X108.75176 Y173.90156 E0.00263
G1 X108.94326 Y173.98088 E0.00793
G1 X109.00034 Y174.01902 E0.00263
G1 X109.24899 Y174.26766 E0.01345
G1 X109.28713 Y174.32474 E0.00263
G1 X109.36646 Y174.51625 E0.00793
G1 X109.37985 Y174.58358 E0.00263
G1 X109.37985 Y176.38816 E0.06903
G1 X118.68443 Y176.38816 E0.3559
G1 X118.75176 Y176.40156 E0.00263
G1 X118.94326 Y176.48088 E0.00793
G1 X119.00034 Y176.51902 E0.00263
G1 X119.24899 Y176.76766 E0.01345
G1 X119.28713 Y176.82474 E0.00263
G1 X119.36645 Y177.01625 E0.00793
G1 X119.37985 Y177.08358 E0.00263
G1 X119.37985 Y192.63524 E0.59486
G1 X119.36646 Y192.70257 E0.00263
G1 X119.28713 Y192.89408 E0.00793
G1 X119.24899 Y192.95116 E0.00263
G1 X119.00034 Y193.1998 E0.01345
G1 X118.94327 Y193.23794 E0.00263
G1 X118.75176 Y193.31727 E0.00793
G1 X118.68443 Y193.33066 E0.00263
G1 X109.37985 Y193.33066 E0.3559
M73 P2 R17
G1 X109.37985 Y195.13524 E0.06903
G1 X109.36646 Y195.20257 E0.00263
G1 X109.28713 Y195.39408 E0.00793
G1 X109.24899 Y195.45116 E0.00263
G1 X109.00034 Y195.6998 E0.01345
G1 X108.94327 Y195.73794 E0.00263
G1 X108.75176 Y195.81727 E0.00793
G1 X108.68443 Y195.83066 E0.00263
G1 X98.13277 Y195.83066 E0.4036
G1 X98.06544 Y195.81727 E0.00263
G1 X97.87393 Y195.73794 E0.00793
G1 X97.81685 Y195.6998 E0.00263
G1 X97.56821 Y195.45115 E0.01345
G1 X97.53007 Y195.39408 E0.00263
G1 X97.45075 Y195.20257 E0.00793
G1 X97.43735 Y195.13524 E0.00263
G1 X97.43735 Y174.58358 E0.78611
G1 X97.45074 Y174.51625 E0.00263
G1 X97.53007 Y174.32474 E0.00793
G1 X97.56821 Y174.26767 E0.00263
G1 X97.82404 Y174.01422 E0.01377
M107
G1 X98.03901 Y174.28972 F3600000
M107
G1 F3000
G1 X98.16709 Y174.23666 E0.0053
G1 X108.65011 Y174.23666 E0.40098
G1 X108.77819 Y174.28972 E0.0053
G1 X108.9783 Y174.48982 E0.01082
G1 X109.03135 Y174.61791 E0.0053
G1 X109.03135 Y176.73666 E0.08104
G1 X118.65011 Y176.73666 E0.36792
G1 X118.77819 Y176.78972 E0.0053
G1 X118.9783 Y176.98982 E0.01082
G1 X119.03135 Y177.11791 E0.0053
G1 X119.03135 Y192.60092 E0.59223
G1 X118.9783 Y192.72901 E0.0053
G1 X118.77819 Y192.92911 E0.01082
G1 X118.65011 Y192.98216 E0.0053
G1 X109.03135 Y192.98216 E0.36792
G1 X109.03135 Y195.10092 E0.08104
G1 X108.9783 Y195.22901 E0.0053
G1 X108.77819 Y195.42911 E0.01082
G1 X108.65011 Y195.48216 E0.0053
G1 X98.16709 Y195.48216 E0.40098
G1 X98.03901 Y195.42911 E0.0053
G1 X97.8389 Y195.229 E0.01082
G1 X97.78585 Y195.10092 E0.0053
G1 X97.78585 Y174.61791 E0.78348
G1 X97.8389 Y174.48982 E0.0053
G1 X97.99658 Y174.33214 E0.00853
M107
G1 X98.23641 Y174.58515 F3600000
M107
G1 F3000
G1 X108.58079 Y174.58515 E0.39568
G1 X108.68286 Y174.68723 E0.00552
G1 X108.68286 Y177.08515 E0.09172
G1 X118.58079 Y177.08515 E0.3786
G1 X118.68286 Y177.18723 E0.00552
G1 X118.68286 Y192.5316 E0.58693
G1 X118.58079 Y192.63367 E0.00552
G1 X108.68286 Y192.63367 E0.3786
G1 X108.68286 Y195.0316 E0.09172
G1 X108.58079 Y195.13367 E0.00552
G1 X98.23641 Y195.13367 E0.39568
G1 X98.13434 Y195.0316 E0.00552
G1 X98.13434 Y174.68723 E0.77818
G1 X98.19399 Y174.62758 E0.00323
M107
;WIPE_START
G1 F2880000
G1 X98.13434 Y174.68723 E-0.00008
G1 X98.13434 Y195.0316 E-0.02013
G1 X98.23641 Y195.13367 E-0.00014
G1 X108.58079 Y195.13367 E-0.01024
G1 X108.68286 Y195.0316 E-0.00014
G1 X108.68286 Y192.63367 E-0.00237
G1 X118.58079 Y192.63367 E-0.00979
G1 X118.68286 Y192.5316 E-0.00014
G1 X118.68286 Y177.18723 E-0.01518
G1 X118.58079 Y177.08515 E-0.00014
G1 X108.68286 Y177.08515 E-0.00979
G1 X108.68286 Y174.68723 E-0.00237
G1 X108.58079 Y174.58515 E-0.00014
G1 X98.23641 Y174.58515 E-0.01024
;WIPE_END
G1 E-1.41908 F3000
G1 Z0.4 F3600000
G1 X49.97985 Y177.08358
G1 Z0.24
G1 E1.5 F3000
M107
G1 X49.97985 Y192.63524 E0.59486
G1 X49.96645 Y192.70257 E0.00263
G1 X49.88713 Y192.89408 E0.00793
G1 X49.84899 Y192.95116 E0.00263
G1 X49.60034 Y193.1998 E0.01345
G1 X49.54326 Y193.23794 E0.00263
G1 X49.35176 Y193.31727 E0.00793
G1 X49.28443 Y193.33066 E0.00263
G1 X39.97985 Y193.33066 E0.3559
G1 X39.97985 Y195.13524 E0.06903
G1 X39.96645 Y195.20257 E0.00263
G1 X39.88713 Y195.39408 E0.00793
G1 X39.84899 Y195.45116 E0.00263
G1 X39.60034 Y195.6998 E0.01345
G1 X39.54326 Y195.73794 E0.00263
G1 X39.35176 Y195.81727 E0.00793
G1 X39.28443 Y195.83066 E0.00263
G1 X28.73277 Y195.83066 E0.4036
G1 X28.66544 Y195.81727 E0.00263
G1 X28.47393 Y195.73794 E0.00793
G1 X28.41685 Y195.6998 E0.00263
G1 X28.16821 Y195.45115 E0.01345
G1 X28.13007 Y195.39408 E0.00263
G1 X28.05074 Y195.20257 E0.00793
G1 X28.03735 Y195.13524 E0.00263
G1 X28.03735 Y174.58358 E0.78611
G1 X28.05074 Y174.51625 E0.00263
G1 X28.13007 Y174.32474 E0.00793
G1 X28.16821 Y174.26767 E0.00263
G1 X28.41685 Y174.01902 E0.01345
G1 X28.47393 Y173.98088 E0.00263
G1 X28.66544 Y173.90156 E0.00793
G1 X28.73277 Y173.88816 E0.00263
G1 X39.28443 Y173.88816 E0.4036
G1 X39.35176 Y173.90156 E0.00263
G1 X39.54326 Y173.98088 E0.00793
G1 X39.60034 Y174.01902 E0.00263
G1 X39.84899 Y174.26766 E0.01345
G1 X39.88713 Y174.32474 E0.00263
G1 X39.96645 Y174.51625 E0.00793
G1 X39.97985 Y174.58358 E0.00263
G1 X39.97985 Y176.38816 E0.06903
G1 X49.28443 Y176.38816 E0.3559
G1 X49.35176 Y176.40156 E0.00263
G1 X49.54326 Y176.48088 E0.00793
G1 X49.60034 Y176.51902 E0.00263
G1 X49.84899 Y176.76766 E0.01345
G1 X49.88713 Y176.82474 E0.00263
G1 X49.96814 Y177.02473 E0.00825
M107
G1 X49.63135 Y177.11791 F3600000
M107
G1 F3000
G1 X49.63135 Y192.60092 E0.59223
G1 X49.5783 Y192.72901 E0.0053
G1 X49.37819 Y192.92911 E0.01082
G1 X49.2501 Y192.98216 E0.0053
G1 X39.63135 Y192.98216 E0.36792
G1 X39.63135 Y195.10092 E0.08104
G1 X39.5783 Y195.22901 E0.0053
G1 X39.37819 Y195.42911 E0.01082
G1 X39.2501 Y195.48216 E0.0053
G1 X28.76709 Y195.48216 E0.40098
G1 X28.639 Y195.42911 E0.0053
G1 X28.4389 Y195.229 E0.01082
G1 X28.38585 Y195.10092 E0.0053
G1 X28.38585 Y174.61791 E0.78348
G1 X28.4389 Y174.48982 E0.0053
G1 X28.639 Y174.28972 E0.01082
G1 X28.76709 Y174.23666 E0.0053
G1 X39.2501 Y174.23666 E0.40098
G1 X39.37819 Y174.28972 E0.0053
G1 X39.57829 Y174.48982 E0.01082
G1 X39.63135 Y174.61791 E0.0053
G1 X39.63135 Y176.73666 E0.08104
G1 X49.2501 Y176.73666 E0.36792
G1 X49.37819 Y176.78972 E0.0053
G1 X49.57829 Y176.98982 E0.01082
G1 X49.60839 Y177.06247 E0.00301
M107
G1 X49.28286 Y177.18723 F3600000
M107
G1 F3000
G1 X49.28286 Y192.5316 E0.58693
G1 X49.18078 Y192.63367 E0.00552
G1 X39.28286 Y192.63367 E0.3786
G1 X39.28286 Y195.0316 E0.09172
G1 X39.18078 Y195.13367 E0.00552
G1 X28.83641 Y195.13367 E0.39568
G1 X28.73434 Y195.0316 E0.00552
G1 X28.73434 Y174.68723 E0.77818
M73 P3 R17
G1 X28.83641 Y174.58515 E0.00552
G1 X39.18078 Y174.58515 E0.39568
G1 X39.28286 Y174.68723 E0.00552
G1 X39.28286 Y177.08515 E0.09172
G1 X49.18078 Y177.08515 E0.3786
G1 X49.24043 Y177.1448 E0.00323
M107
;WIPE_START
G1 F2880000
G1 X49.18078 Y177.08515 E-0.00008
G1 X39.28286 Y177.08515 E-0.00979
G1 X39.28286 Y174.68723 E-0.00237
G1 X39.18078 Y174.58515 E-0.00014
G1 X28.83641 Y174.58515 E-0.01024
G1 X28.73434 Y174.68723 E-0.00014
G1 X28.73434 Y195.0316 E-0.02013
G1 X28.83641 Y195.13367 E-0.00014
G1 X39.18078 Y195.13367 E-0.01024
G1 X39.28286 Y195.0316 E-0.00014
G1 X39.28286 Y192.63367 E-0.00237
G1 X49.18078 Y192.63367 E-0.00979
G1 X49.28286 Y192.5316 E-0.00014
G1 X49.28286 Y177.18723 E-0.01518
;WIPE_END
G1 E-1.41908 F3000
G1 Z0.4 F3600000
G1 X39.28443 Y126.43066
G1 Z0.24
G1 E1.5 F3000
M107
G1 X28.73277 Y126.43066 E0.4036
G1 X28.66544 Y126.41727 E0.00263
G1 X28.47393 Y126.33794 E0.00793
G1 X28.41685 Y126.2998 E0.00263
G1 X28.16821 Y126.05115 E0.01345
G1 X28.13007 Y125.99407 E0.00263
G1 X28.05074 Y125.80257 E0.00793
G1 X28.03735 Y125.73524 E0.00263
G1 X28.03735 Y105.18358 E0.78611
G1 X28.05074 Y105.11625 E0.00263
G1 X28.13007 Y104.92474 E0.00793
G1 X28.16821 Y104.86767 E0.00263
G1 X28.41685 Y104.61902 E0.01345
G1 X28.47393 Y104.58088 E0.00263
G1 X28.66544 Y104.50155 E0.00793
G1 X28.73277 Y104.48816 E0.00263
G1 X39.28443 Y104.48816 E0.4036
G1 X39.35176 Y104.50156 E0.00263
G1 X39.54326 Y104.58088 E0.00793
G1 X39.60034 Y104.61902 E0.00263
G1 X39.84899 Y104.86766 E0.01345
G1 X39.88713 Y104.92474 E0.00263
G1 X39.96645 Y105.11625 E0.00793
G1 X39.97985 Y105.18358 E0.00263
G1 X39.97985 Y106.98816 E0.06903
G1 X49.28443 Y106.98816 E0.3559
G1 X49.35176 Y107.00156 E0.00263
G1 X49.54326 Y107.08088 E0.00793
G1 X49.60034 Y107.11902 E0.00263
G1 X49.84899 Y107.36766 E0.01345
G1 X49.88713 Y107.42474 E0.00263
G1 X49.96645 Y107.61625 E0.00793
G1 X49.97985 Y107.68358 E0.00263
G1 X49.97985 Y123.23524 E0.59486
G1 X49.96645 Y123.30257 E0.00263
G1 X49.88713 Y123.49408 E0.00793
G1 X49.84899 Y123.55115 E0.00263
G1 X49.60034 Y123.7998 E0.01345
G1 X49.54326 Y123.83794 E0.00263
G1 X49.35176 Y123.91727 E0.00793
G1 X49.28443 Y123.93066 E0.00263
G1 X39.97985 Y123.93066 E0.3559
G1 X39.97985 Y125.73524 E0.06903
G1 X39.96645 Y125.80257 E0.00263
G1 X39.88713 Y125.99408 E0.00793
G1 X39.84899 Y126.05115 E0.00263
G1 X39.60034 Y126.2998 E0.01345
G1 X39.54326 Y126.33794 E0.00263
G1 X39.34327 Y126.41895 E0.00825
M107
G1 X39.2501 Y126.08216 F3600000
M107
G1 F3000
G1 X28.76709 Y126.08216 E0.40098
G1 X28.639 Y126.02911 E0.0053
G1 X28.4389 Y125.829 E0.01082
G1 X28.38585 Y125.70092 E0.0053
G1 X28.38585 Y105.2179 E0.78348
G1 X28.4389 Y105.08982 E0.0053
G1 X28.639 Y104.88971 E0.01082
G1 X28.76709 Y104.83666 E0.0053
G1 X39.2501 Y104.83666 E0.40098
G1 X39.37819 Y104.88971 E0.0053
G1 X39.57829 Y105.08982 E0.01082
G1 X39.63135 Y105.2179 E0.0053
G1 X39.63135 Y107.33666 E0.08104
G1 X49.2501 Y107.33666 E0.36792
G1 X49.37819 Y107.38971 E0.0053
G1 X49.57829 Y107.58982 E0.01082
G1 X49.63135 Y107.7179 E0.0053
G1 X49.63135 Y123.20092 E0.59223
G1 X49.5783 Y123.329 E0.0053
G1 X49.37819 Y123.52911 E0.01082
G1 X49.2501 Y123.58216 E0.0053
G1 X39.63135 Y123.58216 E0.36792
G1 X39.63135 Y125.70092 E0.08104
G1 X39.5783 Y125.829 E0.0053
G1 X39.37819 Y126.02911 E0.01082
G1 X39.30554 Y126.0592 E0.00301
M107
G1 X39.18078 Y125.73367 F3600000
M107
G1 F3000
G1 X28.83641 Y125.73367 E0.39568
G1 X28.73434 Y125.6316 E0.00552
G1 X28.73434 Y105.28722 E0.77818
G1 X28.83641 Y105.18515 E0.00552
G1 X39.18078 Y105.18515 E0.39568
G1 X39.28286 Y105.28722 E0.00552
G1 X39.28286 Y107.68515 E0.09172
G1 X49.18078 Y107.68515 E0.3786
G1 X49.28286 Y107.78722 E0.00552
G1 X49.28286 Y123.1316 E0.58693
G1 X49.18078 Y123.23367 E0.00552
G1 X39.28286 Y123.23367 E0.3786
G1 X39.28286 Y125.6316 E0.09172
G1 X39.22321 Y125.69124 E0.00323
M107
;WIPE_START
G1 F2880000
G1 X39.28286 Y125.6316 E-0.00008
G1 X39.28286 Y123.23367 E-0.00237
G1 X49.18078 Y123.23367 E-0.00979
G1 X49.28286 Y123.1316 E-0.00014
G1 X49.28286 Y107.78722 E-0.01518
G1 X49.18078 Y107.68515 E-0.00014
G1 X39.28286 Y107.68515 E-0.00979
G1 X39.28286 Y105.28722 E-0.00237
G1 X39.18078 Y105.18515 E-0.00014
G1 X28.83641 Y105.18515 E-0.01024
G1 X28.73434 Y105.28722 E-0.00014
G1 X28.73434 Y125.6316 E-0.02013
G1 X28.83641 Y125.73367 E-0.00014
G1 X39.18078 Y125.73367 E-0.01024
;WIPE_END
G1 E-1.41908 F3000
G1 Z0.4 F3600000
G1 X97.81685 Y56.8998
G1 Z0.24
G1 E1.5 F3000
M107
G1 X97.56821 Y56.65115 E0.01345
G1 X97.53007 Y56.59407 E0.00263
G1 X97.45075 Y56.40257 E0.00793
G1 X97.43735 Y56.33524 E0.00263
G1 X97.43735 Y35.78358 E0.78611
G1 X97.45074 Y35.71625 E0.00263
G1 X97.53007 Y35.52474 E0.00793
G1 X97.56821 Y35.46766 E0.00263
G1 X97.81685 Y35.21902 E0.01345
G1 X97.87393 Y35.18088 E0.00263
G1 X98.06544 Y35.10155 E0.00793
G1 X98.13277 Y35.08816 E0.00263
G1 X108.68443 Y35.08816 E0.4036
G1 X108.75176 Y35.10155 E0.00263
G1 X108.94326 Y35.18088 E0.00793
G1 X109.00034 Y35.21902 E0.00263
G1 X109.24899 Y35.46766 E0.01345
G1 X109.28713 Y35.52474 E0.00263
G1 X109.36646 Y35.71625 E0.00793
G1 X109.37985 Y35.78358 E0.00263
G1 X109.37985 Y37.58816 E0.06903
G1 X118.68443 Y37.58816 E0.3559
G1 X118.75176 Y37.60155 E0.00263
G1 X118.94326 Y37.68088 E0.00793
G1 X119.00034 Y37.71902 E0.00263
G1 X119.24899 Y37.96766 E0.01345
G1 X119.28713 Y38.02474 E0.00263
G1 X119.36645 Y38.21625 E0.00793
