; generated by SuperSlicer 2.5.59.10 on 2024-06-12 at 10:38:42 UTC


;
;

;
;
; 

; external perimeters extrusion width = 0.48mm
; perimeters extrusion width = 0.48mm
; infill extrusion width = 0.48mm
; solid infill extrusion width = 0.48mm
; top infill extrusion width = 0.48mm
; support material extrusion width = 0.42mm
; first layer extrusion width = 0.48mm

; external perimeters extrusion width = 0.48mm
; perimeters extrusion width = 0.48mm
; infill extrusion width = 0.48mm
; solid infill extrusion width = 0.48mm
; top infill extrusion width = 0.48mm
; support material extrusion width = 0.42mm
; first layer extrusion width = 0.48mm

; object:{"name":"Glock Mag Spring Base","id":"Glock Mag Spring Base.STL id:0 copy 0","object_center":[99.751227,90.042270,0.000000],"boundingbox_center":[99.751227,90.042270,2.500000],"boundingbox_size":[29.708496,17.400000,5.000000]}
EXCLUDE_OBJECT_DEFINE NAME=Glock_Mag_Spring_Base_STL_id_0_copy_0 CENTER=99.751227,90.042270 POLYGON=[[84.90,82.34],[84.90,82.24],[84.91,82.21],[84.92,82.15],[84.93,82.08],[84.94,82.05],[84.97,81.96],[85.02,81.87],[85.03,81.84],[85.07,81.79],[85.10,81.73],[85.12,81.71],[85.19,81.64],[85.26,81.57],[85.29,81.55],[85.34,81.51],[85.40,81.48],[85.43,81.46],[85.51,81.42],[85.61,81.39],[85.64,81.38],[85.70,81.36],[85.77,81.35],[85.80,81.35],[85.90,81.34],[110.30,81.34],[110.46,81.35],[110.53,81.35],[110.63,81.36],[110.77,81.38],[110.80,81.38],[110.96,81.42],[111.01,81.43],[111.12,81.46],[111.24,81.49],[111.28,81.51],[111.44,81.57],[111.46,81.58],[111.59,81.64],[111.68,81.68],[111.74,81.71],[111.89,81.80],[112.03,81.89],[112.09,81.93],[112.16,81.99],[112.27,82.09],[112.29,82.10],[112.41,82.22],[112.45,82.25],[112.53,82.34],[112.61,82.43],[112.64,82.47],[112.74,82.60],[112.75,82.62],[112.83,82.74],[112.88,82.82],[112.92,82.88],[112.99,83.03],[113.16,83.39],[113.23,83.54],[113.32,83.75],[113.45,84.05],[113.47,84.11],[113.61,84.47],[113.65,84.57],[113.74,84.84],[113.83,85.10],[113.86,85.22],[113.98,85.59],[113.99,85.64],[114.08,85.97],[114.13,86.17],[114.18,86.35],[114.26,86.72],[114.26,86.73],[114.34,87.12],[114.36,87.27],[114.40,87.50],[114.45,87.82],[114.46,87.89],[114.51,88.28],[114.52,88.37],[114.55,88.67],[114.57,88.93],[114.58,89.06],[114.59,89.45],[114.60,89.48],[114.60,89.85],[114.61,90.04],[114.60,90.24],[114.60,90.60],[114.59,90.63],[114.58,91.02],[114.57,91.16],[114.55,91.41],[114.52,91.71],[114.51,91.80],[114.46,92.19],[114.45,92.27],[114.40,92.58],[114.36,92.82],[114.34,92.97],[114.26,93.35],[114.26,93.37],[114.18,93.73],[114.13,93.91],[114.08,94.11],[113.99,94.45],[113.98,94.49],[113.86,94.87],[113.83,94.98],[113.74,95.24],[113.65,95.51],[113.61,95.61],[113.47,95.98],[113.45,96.03],[113.32,96.34],[113.23,96.55],[113.16,96.70],[112.99,97.05],[112.92,97.20],[112.88,97.26],[112.83,97.35],[112.75,97.47],[112.74,97.48],[112.64,97.62],[112.61,97.66],[112.53,97.75],[112.45,97.83],[112.41,97.87],[112.29,97.98],[112.27,98.00],[112.16,98.09],[112.09,98.15],[112.03,98.19],[111.89,98.28],[111.74,98.37],[111.68,98.40],[111.59,98.45],[111.46,98.51],[111.44,98.52],[111.28,98.57],[111.24,98.59],[111.12,98.63],[111.01,98.66],[110.96,98.67],[110.80,98.70],[110.77,98.70],[110.63,98.72],[110.53,98.73],[110.46,98.74],[110.30,98.74],[85.90,98.74],[85.80,98.74],[85.77,98.73],[85.70,98.72],[85.64,98.71],[85.61,98.70],[85.51,98.67],[85.43,98.62],[85.40,98.61],[85.34,98.57],[85.29,98.54],[85.26,98.52],[85.19,98.45],[85.12,98.38],[85.10,98.35],[85.07,98.30],[85.03,98.24],[85.02,98.21],[84.97,98.12],[84.94,98.03],[84.93,98.00],[84.92,97.94],[84.91,97.87],[84.90,97.84],[84.90,97.74],[84.90,82.34]]
; object:{"name":"Glock Mag Follower","id":"Glock Mag Follower.STL id:1 copy 0","object_center":[72.975256,92.500637,0.000000],"boundingbox_center":[72.975256,92.500637,14.732013],"boundingbox_size":[15.161461,27.346474,29.464026]}
EXCLUDE_OBJECT_DEFINE NAME=Glock_Mag_Follower_STL_id_1_copy_0 CENTER=72.975256,92.500637 POLYGON=[[65.39,88.87],[65.39,82.32],[65.40,82.29],[65.40,82.26],[65.41,82.23],[65.42,82.20],[65.43,82.18],[65.44,82.16],[65.46,82.14],[65.47,82.12],[65.48,82.11],[65.50,82.09],[65.52,82.08],[67.69,80.41],[69.73,78.88],[69.75,78.86],[69.78,78.85],[69.81,78.84],[69.84,78.83],[69.87,78.83],[69.90,78.83],[69.93,78.83],[69.96,78.84],[72.23,79.65],[72.26,79.67],[72.27,79.67],[72.30,79.68],[72.31,79.69],[77.73,83.51],[77.83,83.59],[77.94,83.68],[78.02,83.76],[78.04,83.78],[78.11,83.86],[78.12,83.88],[78.18,83.96],[78.19,83.98],[78.24,84.07],[78.25,84.09],[78.29,84.17],[78.30,84.20],[78.33,84.28],[78.33,84.30],[78.35,84.39],[78.35,84.41],[79.61,94.86],[79.61,94.87],[80.55,105.18],[80.56,105.21],[80.56,105.92],[80.56,105.93],[80.55,105.94],[80.55,105.96],[80.55,105.97],[80.54,105.99],[80.54,106.01],[80.53,106.02],[80.53,106.04],[80.52,106.05],[80.51,106.07],[80.50,106.08],[80.48,106.10],[80.47,106.11],[80.46,106.12],[80.44,106.13],[80.43,106.14],[80.41,106.15],[80.40,106.16],[80.37,106.16],[80.36,106.17],[80.34,106.17],[80.31,106.17],[75.87,106.17],[70.08,106.17],[65.64,106.17],[65.63,106.17],[65.60,106.17],[65.59,106.17],[65.56,106.16],[65.55,106.15],[65.53,106.14],[65.51,106.13],[65.50,106.13],[65.49,106.12],[65.47,106.10],[65.46,106.09],[65.45,106.08],[65.44,106.06],[65.43,106.05],[65.42,106.03],[65.41,106.02],[65.41,106.00],[65.40,105.98],[65.40,105.96],[65.40,105.95],[65.40,105.95],[65.39,105.93],[65.39,105.22],[65.39,88.87]]
; plater:{"center":[90.000000,92.500637,0.000000],"boundingbox_center":[90.000000,92.500637,14.732013],"boundingbox_size":[49.210949,27.346474,29.464026]}

M107
;TYPE:Custom
START_PRINT EXTRUDER=250 BED=100
M107
G21 ; set units to millimeters
G90 ; use absolute coordinates
M83 ; use relative distances for extrusion
ACTIVATE_EXTRUDER EXTRUDER=extruder
; Filament gcode
FILAMENT_START MATERIAL=ASA COLOR=#E8FEF0 VENDOR=123-3D
SET_PRESSURE_ADVANCE ADVANCE=0.062
M104 S250 T0 ; set temperature
M109 S250 T0 ; set temperature and wait for it to be reached
M190 S100 ; set bed temperature and wait for it to be reached
;LAYER_CHANGE
;Z:0.24
;HEIGHT:0.24
G1 E-1 F3600
G1 Z0.24 F60000
G92 E0
M204 S750
G1 X61.181 Y83.195
G1 E1 F3600
;TYPE:Skirt
;WIDTH:0.48
M107
G1 F2400
G1 X62.846 Y81.978 E0.08112
G1 F2399.71
G1 X64.758 Y81.129 E.0823
G1 X66.899 Y80.689 E.08598
G1 X70.08 Y80.658 E0.12512
G1 X71.853 Y80.935 E.07061
G1 X73.222 Y81.376 E.05657
G1 X74.481 Y81.984 E0.05499
G1 F2398.968
G1 X75.233 Y82.523 E.0364
G1 X75.238 Y81.773 E0.02949
G1 F2399.559
G1 X75.584 Y79.575 E.08752
G1 X76.421 Y77.416 E.09109
G1 X77.679 Y75.526 E0.0893
G1 X79.442 Y73.84 E.09597
G1 X81.406 Y72.662 E0.09006
G1 X83.512 Y71.946 E.08749
G1 X85.524 Y71.685 E.07982
G1 X110.516 Y71.685 E0.98306
G1 F2398.664
G1 X111.896 Y71.783 E.05445
G1 F2399.719
G1 X113.262 Y72.028 E.05459
G1 X115.364 Y72.733 E0.08719
G1 X116.729 Y73.429 E.06027
G1 X117.94 Y74.237 E0.05726
G1 F2398.83
G1 X119.199 Y75.326 E.0655
G1 X120.217 Y76.459 E0.0599
G1 F2399.371
G1 X121.268 Y78.002 E.07344
G1 X121.998 Y79.453 E0.06388
G1 X122.479 Y80.59 E.04857
G1 X122.986 Y81.992 E.05865
G1 X123.297 Y83.002 E0.04155
G1 F2398.252
G1 X123.561 Y84.012 E.04108
G1 X123.893 Y85.602 E0.06388
G1 X124.118 Y87.177 E.0626
G1 X124.231 Y88.48 E0.05144
G1 F2399.608
G1 X124.279 Y90.126 E.06478
G1 X124.221 Y91.767 E0.06459
G1 X124.119 Y92.903 E.04487
G1 X123.881 Y94.546 E0.06529
G1 X123.537 Y96.176 E.06552
G1 X123.091 Y97.766 E.06496
G1 X122.687 Y98.95 E.04923
G1 X122.077 Y100.455 E.06388
G1 X121.525 Y101.614 E0.05048
G1 X120.847 Y102.76 E.05237
G1 X119.903 Y104.006 E0.06148
G1 X118.817 Y105.122 E.06127
G1 X117.412 Y106.224 E.07024
G1 X115.876 Y107.114 E0.06981
G1 X114.204 Y107.789 E.07092
G1 X112.492 Y108.213 E0.06937
G1 X110.821 Y108.387 E.0661
G1 X106.619 Y108.389 Z.24 E.16527
G1 X102.418 Y108.391 Z.24 E.16527
G1 X98.216 Y108.394 Z.24 E.16527
G1 F2398.762
G1 X94.015 Y108.396 Z.24 E.16527
G1 X89.813 Y108.398 Z.24 E.16527
G1 X89.585 Y109.3 E0.03657
G1 X88.664 Y111.202 E.08313
G1 X87.631 Y112.554 E0.06691
G1 X86.4 Y113.707 E.06637
G1 X84.572 Y114.83 E0.08437
G1 X82.95 Y115.451 E.06834
G1 X81.21 Y115.764 E0.06953
G1 F2399.775
G1 X78.029 Y115.76 Z.24 E.12512
G1 F2400
G1 X74.848 Y115.756 Z.24 E.12512
G1 F2397.649
G1 X73.03 Y115.312 E.07364
G1 X72.303 Y115.548 E0.03003
G1 X71.053 Y115.747 E.0498
G1 X64.743 Y115.764 E0.2482
G1 F2399.076
G1 X63.255 Y115.518 E.05935
G1 X61.714 Y114.994 E.06403
G1 X60.054 Y114.086 E0.07442
G1 X58.319 Y112.543 E.09134
G1 X57.36 Y111.322 E0.06105
G1 F2398.999
G1 X56.08 Y108.411 E.1251
G1 X55.829 Y106.904 E0.06008
G1 F2399.506
G1 X55.795 Y105.37 E.06036
G1 X58.125 Y88.59 E0.66638
G1 X58.738 Y86.632 E.08071
G1 X59.737 Y84.834 E.08092
G1 X61.141 Y83.24 E0.08354
M107
G1 X61.453 Y83.528 F60000
M107
G1 F2399.994
G1 X63.08 Y82.337 E.0793
G1 X64.91 Y81.53 E.07868
G1 X66.924 Y81.117 E0.08087
G1 X70.066 Y81.087 E.12361
G1 X71.77 Y81.355 E.06786
G1 X73.049 Y81.768 E.05286
G1 X74.278 Y82.362 E0.05367
G1 F2398.999
G1 X75.659 Y83.358 E.067
G1 F2399.632
G1 X75.664 Y81.823 E.0604
G1 X75.992 Y79.708 E.08419
G1 X76.791 Y77.634 E.08742
G1 X78.023 Y75.783 E0.08745
G1 X79.684 Y74.194 E.09041
G1 X81.566 Y73.06 E.08645
G1 X83.588 Y72.368 E.08407
G1 X85.538 Y72.113 E0.07733
G1 X90.532 Y72.113 Z.24 E.19644
G1 X95.526 Y72.113 Z.24 E.19644
G1 X100.52 Y72.113 Z.24 E.19644
G1 X105.514 Y72.113 Z.24 E.19644
G1 X110.508 Y72.113 Z.24 E.19644
G1 X111.832 Y72.207 E0.0522
G1 X113.171 Y72.447 E.05352
G1 X115.212 Y73.134 E.08471
G1 X116.523 Y73.805 E0.05791
G1 F2398.232
G1 X117.69 Y74.586 E.05526
G1 X118.89 Y75.623 E0.06237
G1 X119.871 Y76.712 E.05767
G1 X120.906 Y78.232 E0.07231
G1 X121.606 Y79.626 E.06138
G1 F2399.971
G1 X122.078 Y80.741 E.04762
G1 X122.578 Y82.123 E0.0578
G1 X122.886 Y83.123 E.04116
G1 X123.146 Y84.115 E0.04033
G1 F2398.767
G1 X123.472 Y85.682 E.06297
G1 X123.693 Y87.232 E0.06156
G1 F2399.518
G1 X123.802 Y88.499 E.05002
G1 F2398.811
G1 X123.85 Y90.118 E.06373
G1 X123.794 Y91.735 E0.06362
G1 F2399.132
G1 X123.694 Y92.848 E.04397
G1 X123.461 Y94.464 E.06424
G1 X123.122 Y96.067 E0.06443
G1 X122.684 Y97.633 E.06398
G1 X122.288 Y98.795 E.04829
G1 X121.688 Y100.277 E0.06289
G1 X121.151 Y101.404 E.04912
G1 X120.498 Y102.511 E0.05055
G1 X119.586 Y103.716 E.05944
G1 F2398.792
G1 X118.52 Y104.813 E.06018
G1 X117.159 Y105.878 E0.06794
G1 F2397.72
G1 X115.675 Y106.735 E.06744
G1 X114.058 Y107.386 E0.06854
G1 F2399.545
G1 X112.404 Y107.793 E.067
G1 X110.788 Y107.96 E.06392
G1 X106.526 Y107.962 Z.24 E.16765
G1 X102.264 Y107.964 Z.24 E.16765
G1 X98.001 Y107.966 Z.24 E.16765
G1 X93.739 Y107.968 Z.24 E.16765
G1 X89.477 Y107.97 Z.24 E.16765
G1 X89.189 Y109.134 E0.04716
G1 X88.31 Y110.959 E.07969
G1 F2398.823
G1 X87.302 Y112.279 E.06535
G1 X86.123 Y113.38 E0.06342
G1 X84.4 Y114.437 E.07953
G1 F2399.98
G1 X82.853 Y115.033 E.06521
G1 X81.191 Y115.336 E0.06645
G1 X78.033 Y115.331 Z.24 E.12423
G1 X74.875 Y115.327 Z.24 E.12423
G1 X73.013 Y114.866 E.07544
G1 X72.218 Y115.127 E0.0329
G1 F2398.766
G1 X71.035 Y115.318 E.04715
G1 X64.76 Y115.336 E0.24682
G1 X63.343 Y115.098 E.05654
G1 X61.902 Y114.609 E0.05985
G1 F2399.594
G1 X60.32 Y113.75 E.07081
G1 X58.618 Y112.235 E0.08961
G1 X57.714 Y111.079 E.05773
G1 X56.498 Y108.314 E.11883
G1 X56.257 Y106.879 E.05725
G1 X56.222 Y105.412 E.05772
G1 X58.54 Y88.7 E0.66363
G1 F2398.817
G1 X59.123 Y86.821 E.07742
G1 X60.1 Y85.062 E0.07914
G1 F2399.862
G1 X61.413 Y83.573 E.07809
M107
G1 X61.725 Y83.859 F60000
M107
G1 F2399.326
G1 X63.274 Y82.72 E.07564
G1 X65.062 Y81.931 E0.07685
G1 F2398.788
G1 X66.948 Y81.545 E.07575
G1 F2399.668
G1 X70.052 Y81.516 E.1221
G1 X71.655 Y81.768 E0.06381
G1 F2397.957
G1 X72.903 Y82.171 E.05161
G1 X74.074 Y82.739 E0.05117
G1 F2399.486
G1 X76.002 Y84.136 E.09365
G1 F2386.851
G1 X76.086 Y84.225 E.00484
G1 F2399.311
G1 X76.09 Y81.872 E.09258
G1 X76.4 Y79.84 E0.08083
G1 X77.182 Y77.81 E.08557
G1 X78.366 Y76.041 E.08373
G1 X79.926 Y74.549 E.08491
G1 X81.727 Y73.458 E.08284
G1 X83.666 Y72.79 E0.08065
G1 X85.552 Y72.542 E.07483
G1 X90.542 Y72.542 Z.24 E.19627
G1 X95.531 Y72.542 Z.24 E.19627
G1 X100.521 Y72.542 Z.24 E.19627
G1 X105.51 Y72.542 Z.24 E.19627
G1 F2398.928
G1 X110.5 Y72.542 Z.24 E.19627
G1 X111.79 Y72.634 E0.05085
G1 F2399.87
G1 X113.08 Y72.866 E.05154
G1 X115.06 Y73.535 E.08222
G1 X116.316 Y74.18 E.05554
G1 X117.441 Y74.935 E0.05328
G1 X118.581 Y75.92 E.05927
G1 X119.525 Y76.966 E0.05542
G1 X120.544 Y78.461 E.07117
G1 X121.214 Y79.8 E.0589
G1 X121.677 Y80.893 E0.04668
G1 X122.17 Y82.254 E.05695
G1 X122.475 Y83.245 E0.04078
G1 F2398.758
G1 X122.73 Y84.218 E.03958
G1 X123.051 Y85.763 E0.06206
G1 F2399.071
G1 X123.268 Y87.286 E.06053
G1 X123.374 Y88.517 E.0486
G1 X123.422 Y90.11 E0.06268
G1 X123.366 Y91.702 E.06266
G1 X123.269 Y92.793 E0.04306
G1 X123.04 Y94.383 E.06319
G1 F2398.914
G1 X122.708 Y95.958 E.06333
G1 X122.276 Y97.501 E0.063
G1 X121.888 Y98.64 E.04735
G1 X121.298 Y100.099 E0.0619
G1 F2397.761
G1 X120.777 Y101.195 E.04776
G1 X120.149 Y102.263 E0.0487
G1 F2398.299
G1 X119.253 Y103.447 E.05842
G1 F2399.834
G1 X118.223 Y104.504 E.05804
G1 X116.907 Y105.531 E0.06564
G1 F2398.546
G1 X115.474 Y106.356 E.06507
G1 X113.913 Y106.983 E0.06617
G1 F2399.474
G1 X112.317 Y107.373 E.06463
G1 X110.755 Y107.532 E0.06174
G1 X106.432 Y107.534 Z.24 E.17005
G1 X102.109 Y107.536 Z.24 E.17005
G1 X97.786 Y107.538 Z.24 E.17005
G1 X93.463 Y107.54 Z.24 E.17005
G1 F2400
G1 X89.14 Y107.542 Z.24 E.17005
G1 F2399.745
G1 X88.793 Y108.969 E.05778
G1 X87.956 Y110.716 E.07622
G1 X86.972 Y112.005 E0.06377
G1 F2398.313
G1 X85.847 Y113.051 E.06045
G1 X84.227 Y114.045 E0.07474
G1 X82.756 Y114.615 E.06208
G1 X81.172 Y114.907 E0.06334
G1 F2399.057
G1 X78.037 Y114.903 Z.24 E.12333
G1 F2398.771
G1 X74.902 Y114.899 Z.24 E.12333
G1 X72.996 Y114.42 E0.07727
G1 F2399.513
G1 X72.132 Y114.707 E.03581
G1 F2398.554
G1 X71.017 Y114.89 E.04447
G1 X64.777 Y114.907 E0.24543
G1 F2399.632
G1 X63.431 Y114.679 E.05371
G1 X62.09 Y114.223 E.05573
G1 X60.586 Y113.413 E0.06717
G1 F2398.893
G1 X58.918 Y111.928 E.08786
G1 X58.068 Y110.837 E0.05439
G1 F2399.804
G1 X56.916 Y108.216 E.11261
G1 X56.685 Y106.852 E.05443
G1 X56.648 Y105.453 E.05505
G1 X57.224 Y101.293 Z.24 E.16522
G1 X57.801 Y97.132 Z.24 E.16522
G1 X58.377 Y92.971 Z.24 E.16522
G1 X58.954 Y88.811 Z.24 E.16522
G1 X59.526 Y86.969 E0.07585
G1 F2398.878
G1 X60.463 Y85.291 E.07561
G1 F2386.377
G1 X61.686 Y83.904 E.07271
M107
G1 X62.006 Y84.188 F60000
M107
G1 F2400
G1 X62.031 Y84.16 E0.00146
G1 F2384.354
G1 X63.508 Y83.08 E.07201
G1 X65.213 Y82.333 E0.0732
G1 F2399.146
G1 X67.013 Y81.969 E.07225
G1 X70.003 Y81.942 E0.11761
G1 F2398.687
G1 X71.571 Y82.189 E.06245
G1 X72.731 Y82.563 E0.04791
G1 F2399.118
G1 X73.838 Y83.097 E.04835
G1 X75.729 Y84.468 E.09189
G1 X76.512 Y85.389 E0.04755
G1 X76.519 Y81.889 E.13769
G1 X76.82 Y79.928 E0.07802
G1 F2398.883
G1 X77.551 Y78.029 E.08006
G1 X78.709 Y76.299 E0.08187
G1 F2399.798
G1 X80.204 Y74.875 E.08121
G1 X81.929 Y73.837 E.07919
G1 X83.743 Y73.212 E.07548
G1 X85.566 Y72.97 E0.07232
G1 X90.551 Y72.97 Z.24 E.1961
G1 X95.537 Y72.97 Z.24 E.1961
G1 X100.522 Y72.97 Z.24 E.1961
G1 X105.508 Y72.97 Z.24 E.1961
G1 X110.493 Y72.97 Z.24 E.1961
G1 X111.748 Y73.06 E.04949
G1 X112.988 Y73.285 E0.04956
G1 X114.907 Y73.936 E.07973
G1 F2398.828
G1 X116.108 Y74.555 E.05317
G1 X117.191 Y75.283 E0.05131
G1 F2399.222
G1 X118.272 Y76.217 E.0562
G1 X119.179 Y77.219 E0.05316
G1 X120.181 Y78.69 E.07002
G1 X120.822 Y79.973 E.05641
G1 X121.276 Y81.044 E0.04574
G1 X121.762 Y82.385 E.0561
G1 F2398.95
G1 X122.064 Y83.366 E.04039
G1 X122.314 Y84.321 E0.03883
G1 F2399.244
G1 X122.63 Y85.843 E.06115
G1 X122.843 Y87.341 E0.05949
G1 F2398.363
G1 X122.946 Y88.536 E.0472
G1 F2399.852
G1 X122.993 Y90.102 E.06162
G1 X122.939 Y91.67 E0.0617
G1 F2398.904
G1 X122.844 Y92.737 E.04215
G1 F2399.586
G1 X122.619 Y94.301 E.06215
G1 X122.293 Y95.85 E0.06224
G1 F2398.611
G1 X121.869 Y97.368 E.06202
G1 F2399.776
G1 X121.489 Y98.485 E.04641
G1 X120.908 Y99.921 E0.06092
G1 X120.402 Y100.987 E.04641
G1 X119.8 Y102.015 E.04687
G1 X118.937 Y103.158 E.05634
G1 X117.926 Y104.194 E0.05693
G1 X116.656 Y105.183 E.06333
G1 X115.274 Y105.977 E.06271
G1 X113.768 Y106.579 E0.06379
G1 X112.23 Y106.953 E.06226
