; generated by SuperSlicer 2.5.59.8 on 2024-04-23 at 14:35:09 UTC


;
;

;
;

;
;

;
;

;
;
; 

; external perimeters extrusion width = 0.40mm
; perimeters extrusion width = 0.40mm
; infill extrusion width = 0.40mm
; solid infill extrusion width = 0.40mm
; top infill extrusion width = 0.40mm

; object:{"name":"Grease Gun Brace","id":"Grease Gun Brace.stl id:0 copy 0","object_center":[49.820998,108.933328,0.000000],"boundingbox_center":[49.820998,108.933328,2.500000],"boundingbox_size":[62.793911,25.905672,5.000000]}
EXCLUDE_OBJECT_DEFINE NAME=Grease_Gun_Brace_stl_id_0_copy_0 CENTER=49.820998,108.933328 POLYGON=[[18.42,95.98],[81.22,95.98],[81.22,121.89],[18.42,121.89],[18.42,95.98]]
; plater:{"center":[49.820998,108.933328,0.000000],"boundingbox_center":[49.820998,108.933328,2.500000],"boundingbox_size":[62.793911,25.905672,5.000000]}

M73 P0 R27
M107
;TYPE:Custom
CALCULATE_PA MATERIAL=ABS BOWDEN_LENGTH=6 LAYER_HEIGHT=0.24 NOZZLE_SIZE=0.4 PRINT_SPEED=95


START_PRINT EXTRUDER=275 BED=100

G21 ; set units to millimeters
G90 ; use absolute coordinates
M83 ; use relative distances for extrusion
ACTIVATE_EXTRUDER EXTRUDER=extruder
; Filament gcode
M104 S275 T0 ; set temperature
M109 S275 T0 ; set temperature and wait for it to be reached
M190 S100 ; set bed temperature and wait for it to be reached
;LAYER_CHANGE
;Z:0.24
;HEIGHT:0.24
;BEFORE_LAYER_CHANGE
G92 E0.0

G1 E-1.5 F3000
M73 P1 R26
G1 Z0.2 F3600000
G1 Z0.24
;AFTER_LAYER_CHANGE
;0.24




CALCULATE_PA MATERIAL=ABS BOWDEN_LENGTH=6.0 LAYER_HEIGHT=0.2 NOZZLE_SIZE=0.4 PRINT_SPEED=95


G92 E0
G1 Z0.44
G1 X14.325 Y81.96
G1 Z0.24
G1 E1.5 F3000
;TYPE:Skirt
;WIDTH:0.4
M107
G1 F2400
G1 X17.592 Y81.418 E0.11862
G1 X82.111 Y81.421 E2.31084
G1 X84.816 Y81.827 E0.09795
G1 X87.422 Y82.745 E0.09896
G1 X89.797 Y84.147 E0.09878
G1 X91.918 Y86.001 E0.10093
G1 X94.64 Y90.153 E0.1778
G1 X95.364 Y92.351 E0.08287
G1 X95.742 Y94.656 E0.08367
G1 X95.671 Y123.875 E1.0465
G1 X94.92 Y126.997 E0.11501
G1 X94.267 Y128.473 E0.05783
G1 X93.478 Y129.876 E0.05764
G1 X91.22 Y132.546 E0.12523
G1 X88.355 Y134.641 E0.12713
G1 X85.318 Y135.906 E0.11784
G1 X82.051 Y136.449 E0.11861
G1 X17.472 Y136.449 E2.31298
G1 X13.357 Y135.607 E0.15044
G1 X11.857 Y134.945 E0.05874
G1 X10.437 Y134.148 E0.05831
G1 X7.766 Y131.89 E0.12529
G1 X5.67 Y129.024 E0.12715
G1 X4.404 Y125.986 E0.11788
G1 X3.861 Y122.714 E0.11878
G1 X3.927 Y94.393 E1.01436
G1 X4.709 Y90.9 E0.12821
G1 X5.366 Y89.412 E0.05825
G1 X6.162 Y87.993 E0.0583
G1 X8.421 Y85.322 E0.12528
G1 X11.286 Y83.226 E0.12716
G1 X14.269 Y81.984 E0.11573
M107
G1 X14.403 Y82.305 F3600000
M107
G1 F2400
G1 X14.44 Y82.29 E0.00143
G1 X17.606 Y81.766 E0.11494
G1 X82.098 Y81.77 E2.30986
G1 X84.747 Y82.169 E0.09596
G1 X87.289 Y83.068 E0.09658
G1 X89.605 Y84.439 E0.09638
G1 X91.671 Y86.248 E0.09835
G1 X94.316 Y90.284 E0.17283
G1 X95.029 Y92.447 E0.08156
G1 X95.395 Y94.698 E0.0817
G1 X95.327 Y123.813 E1.0428
G1 X94.595 Y126.87 E0.11259
G1 X93.959 Y128.31 E0.05637
G1 X93.183 Y129.691 E0.05675
G1 X90.968 Y132.304 E0.1227
G1 X88.167 Y134.347 E0.12417
G1 X85.203 Y135.576 E0.11492
G1 X82.037 Y136.1 E0.11494
G1 X17.49 Y136.1 E2.31183
G1 X13.481 Y135.281 E0.14656
G1 X12.02 Y134.637 E0.05717
G1 X10.622 Y133.853 E0.05742
G1 X8.007 Y131.637 E0.12276
M73 P2 R26
G1 X5.964 Y128.835 E0.12419
G1 X4.734 Y125.871 E0.11495
G1 X4.21 Y122.701 E0.11509
G1 X4.271 Y94.451 E1.01181
G1 X5.035 Y91.025 E0.12569
G1 X5.681 Y89.561 E0.05733
G1 X6.458 Y88.178 E0.05681
G1 X8.673 Y85.563 E0.12275
G1 X11.475 Y83.52 E0.1242
G1 X14.347 Y82.328 E0.11138
M107
G1 X14.479 Y82.646 F3600000
M107
G1 F2400
G1 X14.516 Y82.631 E0.00145
G1 X17.62 Y82.115 E0.11269
G1 X82.085 Y82.118 E2.30888
G1 X84.679 Y82.511 E0.09396
G1 X87.157 Y83.391 E0.09419
G1 X89.413 Y84.73 E0.09399
G1 X91.423 Y86.494 E0.09578
G1 X93.992 Y90.415 E0.16787
G1 X94.693 Y92.543 E0.08025
G1 X95.049 Y94.74 E0.07971
G1 X94.983 Y123.752 E1.03911
G1 X94.27 Y126.744 E0.11016
G1 X93.644 Y128.161 E0.0555
G1 X92.887 Y129.506 E0.05525
G1 X90.716 Y132.063 E0.12016
G1 X87.978 Y134.053 E0.12121
G1 X85.126 Y135.236 E0.11059
G1 X82.022 Y135.752 E0.11269
G1 X17.507 Y135.752 E2.31069
G1 X13.604 Y134.954 E0.14269
G1 X12.168 Y134.321 E0.05621
G1 X10.807 Y133.557 E0.05591
G1 X8.248 Y131.385 E0.12022
G1 X6.258 Y128.647 E0.12123
G1 X5.063 Y125.756 E0.11203
G1 X4.558 Y122.687 E0.11141
G1 X4.616 Y94.508 E1.00928
G1 X5.36 Y91.15 E0.12318
G1 X5.989 Y89.724 E0.05582
G1 X6.753 Y88.363 E0.05591
G1 X8.925 Y85.804 E0.12021
G1 X11.663 Y83.814 E0.12124
G1 X14.424 Y82.669 E0.10703
M107
G1 X14.557 Y82.991 F3600000
M107
G1 F2400
G1 X14.631 Y82.96 E0.00289
G1 X17.635 Y82.463 E0.10903
G1 X82.072 Y82.467 E2.3079
G1 X84.61 Y82.853 E0.09195
G1 X87.024 Y83.713 E0.09179
G1 X89.221 Y85.022 E0.0916
G1 X91.176 Y86.741 E0.09322
G1 X93.669 Y90.546 E0.16293
G1 X94.352 Y92.612 E0.07795
G1 X94.703 Y94.781 E0.07871
G1 X94.64 Y123.691 E1.03544
G1 X93.945 Y126.618 E0.10774
G1 X93.336 Y127.998 E0.05402
G1 X92.592 Y129.32 E0.05434
G1 X90.464 Y131.821 E0.11762
G1 X87.79 Y133.759 E0.11825
G1 X85.012 Y134.906 E0.10768
G1 X82.008 Y135.403 E0.10903
G1 X17.525 Y135.403 E2.30955
G1 X13.727 Y134.628 E0.13881
G1 X12.331 Y134.013 E0.05463
G1 X10.992 Y133.261 E0.05501
G1 X8.49 Y131.133 E0.11767
G1 X6.552 Y128.459 E0.11826
G1 X5.404 Y125.68 E0.1077
G1 X4.907 Y122.673 E0.10915
G1 X4.96 Y94.564 E1.00675
G1 X5.686 Y91.275 E0.12065
G1 X6.305 Y89.872 E0.0549
G1 X7.049 Y88.549 E0.0544
G1 X9.177 Y86.046 E0.11766
G1 X11.851 Y84.108 E0.11828
G1 X14.501 Y83.014 E0.10269
M107
G1 X14.634 Y83.336 F3600000
M107
G1 F2400
G1 X14.745 Y83.29 E0.00433
G1 X17.649 Y82.812 E0.10539
G1 X82.059 Y82.815 E2.30692
G1 X84.509 Y83.187 E0.08875
M73 P3 R26
G1 X86.891 Y84.036 E0.09058
G1 X89.029 Y85.313 E0.08919
G1 X90.928 Y86.986 E0.09066
G1 X93.345 Y90.677 E0.158
G1 X94.016 Y92.708 E0.07664
G1 X94.356 Y94.823 E0.07671
G1 X94.296 Y123.63 E1.03178
G1 X93.619 Y126.492 E0.1053
G1 X93.02 Y127.849 E0.05314
G1 X92.296 Y129.134 E0.05283
G1 X90.212 Y131.579 E0.11507
G1 X87.603 Y133.464 E0.11528
G1 X84.897 Y134.576 E0.10478
G1 X81.994 Y135.055 E0.10539
G1 X17.542 Y135.055 E2.30841
G1 X13.851 Y134.302 E0.13494
G1 X12.48 Y133.698 E0.05366
G1 X11.178 Y132.966 E0.05349
G1 X8.732 Y130.881 E0.11511
G1 X6.847 Y128.272 E0.1153
G1 X5.734 Y125.566 E0.1048
G1 X5.255 Y122.659 E0.10549
G1 X5.305 Y94.621 E1.00424
G1 X6.012 Y91.399 E0.11813
G1 X6.613 Y90.036 E0.05337
G1 X7.344 Y88.734 E0.05349
G1 X9.429 Y86.288 E0.1151
G1 X12.039 Y84.403 E0.11531
G1 X14.578 Y83.359 E0.09834
M107
G1 X14.71 Y83.681 F3600000
M107
G1 F2400
G1 X14.859 Y83.62 E0.00577
G1 X17.663 Y83.16 E0.10176
G1 X82.045 Y83.164 E2.30594
G1 X84.439 Y83.529 E0.08673
G1 X86.757 Y84.358 E0.08817
G1 X88.836 Y85.603 E0.08679
G1 X90.679 Y87.232 E0.0881
G1 X93.021 Y90.807 E0.15308
G1 X93.681 Y92.804 E0.07532
G1 X94.01 Y94.864 E0.07471
G1 X93.952 Y123.57 E1.02814
G1 X93.294 Y126.366 E0.10287
G1 X92.712 Y127.686 E0.05165
G1 X92.001 Y128.949 E0.05192
G1 X89.961 Y131.337 E0.11251
G1 X87.416 Y133.169 E0.11231
G1 X84.784 Y134.246 E0.10187
G1 X81.98 Y134.706 E0.10176
G1 X17.56 Y134.706 E2.30728
G1 X13.974 Y133.975 E0.13107
G1 X12.643 Y133.39 E0.05208
G1 X11.363 Y132.67 E0.05258
G1 X8.974 Y130.63 E0.11254
G1 X7.141 Y128.085 E0.11232
G1 X6.064 Y125.452 E0.10189
G1 X5.604 Y122.646 E0.10185
G1 X5.649 Y94.677 E1.00173
G1 X6.338 Y91.524 E0.1156
G1 X6.928 Y90.184 E0.05244
G1 X7.64 Y88.92 E0.05197
G1 X9.68 Y86.53 E0.11254
G1 X12.226 Y84.698 E0.11233
G1 X14.654 Y83.704 E0.09399
M107
G1 X14.785 Y84.022 F3600000
M107
G1 F2400
G1 X14.935 Y83.961 E0.00582
G1 X17.677 Y83.509 E0.09953
G1 X82.032 Y83.512 E2.30495
G1 X84.37 Y83.871 E0.08471
G1 X86.623 Y84.68 E0.08576
G1 X88.643 Y85.894 E0.08438
G1 X90.431 Y87.478 E0.08555
G1 X92.698 Y90.939 E0.14818
G1 X93.339 Y92.873 E0.073
G1 X93.664 Y94.905 E0.07371
G1 X93.608 Y123.51 E1.02452
G1 X92.969 Y126.24 E0.10043
G1 X92.397 Y127.537 E0.05077
G1 X91.706 Y128.763 E0.0504
G1 X89.74 Y131.067 E0.10846
G1 X87.229 Y132.874 E0.11082
G1 X84.708 Y133.906 E0.09757
G1 X81.966 Y134.358 E0.09953
G1 X17.577 Y134.358 E2.30614
G1 X14.097 Y133.649 E0.12721
G1 X12.791 Y133.074 E0.05111
G1 X11.549 Y132.375 E0.05105
G1 X9.244 Y130.409 E0.10849
M73 P4 R26
G1 X7.436 Y127.898 E0.11083
G1 X6.404 Y125.376 E0.0976
G1 X5.952 Y122.632 E0.0996
G1 X5.993 Y94.733 E0.99923
G1 X6.664 Y91.648 E0.11306
G1 X7.236 Y90.348 E0.05089
G1 X7.935 Y89.105 E0.05106
G1 X9.901 Y86.801 E0.10849
G1 X12.413 Y84.992 E0.11085
G1 X14.729 Y84.045 E0.08964
M107
G1 X14.86 Y84.367 F3600000
M107
G1 F2400
G1 X15.048 Y84.291 E0.00727
G1 X17.691 Y83.857 E0.09592
G1 X82.019 Y83.861 E2.30397
G1 X84.3 Y84.213 E0.08268
G1 X86.489 Y85.002 E0.08334
G1 X88.449 Y86.184 E0.08197
G1 X90.182 Y87.723 E0.08301
G1 X92.374 Y91.07 E0.14329
G1 X93.004 Y92.969 E0.07168
G1 X93.317 Y94.946 E0.07169
G1 X93.264 Y123.45 E1.02091
G1 X92.643 Y126.115 E0.09799
G1 X92.089 Y127.374 E0.04926
G1 X91.411 Y128.577 E0.04948
G1 X89.489 Y130.824 E0.1059
G1 X87.043 Y132.579 E0.10783
G1 X84.594 Y133.576 E0.09467
G1 X81.951 Y134.009 E0.09592
G1 X17.595 Y134.009 E2.305
G1 X14.221 Y133.322 E0.12334
G1 X12.939 Y132.759 E0.05013
G1 X11.735 Y132.08 E0.04952
G1 X9.487 Y130.158 E0.10593
G1 X7.731 Y127.711 E0.10785
G1 X6.735 Y125.263 E0.09469
G1 X6.301 Y122.618 E0.09598
G1 X6.338 Y94.789 E0.99674
G1 X6.99 Y91.772 E0.11052
G1 X7.551 Y90.496 E0.04995
G1 X8.231 Y89.291 E0.04952
G1 X10.152 Y87.043 E0.10593
G1 X12.599 Y85.288 E0.10786
G1 X14.805 Y84.39 E0.08529
M107
G1 X14.935 Y84.713 F3600000
M107
G1 F2400
G1 X15.161 Y84.621 E0.00872
G1 X17.705 Y84.206 E0.09233
G1 X82.005 Y84.209 E2.30298
G1 X84.23 Y84.554 E0.08063
G1 X86.354 Y85.324 E0.08091
G1 X88.255 Y86.474 E0.07957
G1 X89.933 Y87.968 E0.08047
G1 X92.05 Y91.201 E0.13842
G1 X92.669 Y93.065 E0.07035
G1 X92.971 Y94.987 E0.06966
G1 X92.92 Y123.391 E1.01732
G1 X92.318 Y125.989 E0.09554
G1 X91.774 Y127.225 E0.04837
G1 X91.115 Y128.391 E0.04794
G1 X89.238 Y130.581 E0.10333
G1 X86.857 Y132.284 E0.10484
G1 X84.482 Y133.245 E0.09178
G1 X81.937 Y133.661 E0.09233
G1 X17.612 Y133.661 E2.30387
G1 X14.344 Y132.995 E0.11948
G1 X13.103 Y132.451 E0.04853
G1 X11.921 Y131.784 E0.0486
G1 X9.73 Y129.907 E0.10335
G1 X8.027 Y127.525 E0.10486
G1 X7.065 Y125.15 E0.0918
G1 X6.649 Y122.604 E0.09238
G1 X6.683 Y94.844 E0.99427
M73 P4 R25
G1 X7.316 Y91.896 E0.10798
G1 X7.859 Y90.659 E0.04839
G1 X8.526 Y89.477 E0.0486
G1 X10.403 Y87.286 E0.10335
G1 X12.785 Y85.583 E0.10487
G1 X14.88 Y84.735 E0.08094
M107
G1 X15.01 Y85.058 F3600000
M107
G1 F2400
G1 X15.273 Y84.952 E0.01018
G1 X17.719 Y84.554 E0.08876
G1 X81.992 Y84.558 E2.302
G1 X84.16 Y84.896 E0.07858
G1 X86.219 Y85.646 E0.07849
G1 X88.061 Y86.763 E0.07716
G1 X89.684 Y88.213 E0.07794
G1 X91.727 Y91.332 E0.13356
G1 X92.326 Y93.134 E0.068
G1 X92.625 Y95.027 E0.06865
G1 X92.576 Y123.331 E1.01375
M73 P5 R25
G1 X91.992 Y125.864 E0.09309
G1 X91.466 Y127.061 E0.04685
G1 X90.82 Y128.204 E0.04702
G1 X88.987 Y130.338 E0.10075
G1 X86.671 Y131.988 E0.10185
G1 X84.369 Y132.915 E0.08888
G1 X81.923 Y133.312 E0.08876
G1 X17.63 Y133.312 E2.30274
G1 X14.467 Y132.669 E0.11561
G1 X13.251 Y132.135 E0.04755
G1 X12.107 Y131.489 E0.04705
G1 X9.973 Y129.656 E0.10077
G1 X8.323 Y127.34 E0.10186
G1 X7.395 Y125.038 E0.0889
G1 X6.998 Y122.59 E0.08879
G1 X7.027 Y94.899 E0.99181
G1 X7.643 Y92.02 E0.10543
G1 X8.175 Y90.807 E0.04744
G1 X8.821 Y89.663 E0.04705
G1 X10.654 Y87.529 E0.10077
G1 X12.97 Y85.879 E0.10187
G1 X14.954 Y85.08 E0.07659
M107
G1 X15.083 Y85.4 F3600000
M107
G1 F2400
G1 X15.349 Y85.293 E0.01027
G1 X17.734 Y84.903 E0.08655
G1 X81.978 Y84.906 E2.30101
G1 X84.089 Y85.238 E0.07652
G1 X86.083 Y85.967 E0.07605
G1 X87.866 Y87.053 E0.07476
G1 X89.435 Y88.457 E0.07541
G1 X91.403 Y91.464 E0.12872
G1 X91.991 Y93.23 E0.06667
G1 X92.278 Y95.068 E0.06661
G1 X92.232 Y123.272 E1.01019
G1 X91.666 Y125.739 E0.09063
G1 X91.15 Y126.913 E0.04594
G1 X90.525 Y128.018 E0.04546
G1 X88.737 Y130.095 E0.09816
G1 X86.486 Y131.692 E0.09885
G1 X84.294 Y132.574 E0.08463
G1 X81.909 Y132.964 E0.08656
G1 X17.647 Y132.964 E2.30161
G1 X14.59 Y132.342 E0.11176
G1 X13.415 Y131.827 E0.04595
G1 X12.293 Y131.194 E0.04612
G1 X10.216 Y129.406 E0.09817
G1 X8.619 Y127.155 E0.09886
G1 X7.736 Y124.962 E0.08465
G1 X7.346 Y122.577 E0.08658
G1 X7.372 Y94.954 E0.98935
G1 X7.969 Y92.144 E0.10288
G1 X8.483 Y90.971 E0.04586
G1 X9.116 Y89.85 E0.04612
G1 X10.904 Y87.773 E0.09817
G1 X13.155 Y86.175 E0.09887
G1 X15.027 Y85.422 E0.07225
M107
G1 X15.156 Y85.745 F3600000
M107
G1 F2400
G1 X15.46 Y85.623 E0.01173
G1 X17.748 Y85.251 E0.083
G1 X81.965 Y85.255 E2.30002
G1 X83.985 Y85.571 E0.07324
G1 X85.947 Y86.289 E0.07482
G1 X87.67 Y87.342 E0.07234
G1 X89.185 Y88.701 E0.07289
G1 X91.08 Y91.595 E0.12389
G1 X91.656 Y93.326 E0.06534
G1 X91.932 Y95.108 E0.06455
G1 X91.888 Y123.214 E1.00666
G1 X91.34 Y125.614 E0.08817
G1 X90.843 Y126.749 E0.0444
G1 X90.231 Y127.831 E0.04453
G1 X88.487 Y129.851 E0.09555
G1 X86.302 Y131.396 E0.09585
G1 X84.182 Y132.243 E0.08176
G1 X81.895 Y132.615 E0.083
G1 X17.665 Y132.615 E2.30048
G1 X14.712 Y132.016 E0.1079
G1 X13.563 Y131.512 E0.04496
G1 X12.48 Y130.899 E0.04455
G1 X10.46 Y129.156 E0.09557
G1 X8.915 Y126.971 E0.09586
G1 X8.067 Y124.851 E0.08178
G1 X7.695 Y122.563 E0.08302
G1 X7.717 Y95.008 E0.98691
G1 X8.295 Y92.267 E0.10032
G1 X8.798 Y91.119 E0.0449
G1 X9.411 Y90.036 E0.04455
G1 X11.154 Y88.016 E0.09557
G1 X13.34 Y86.471 E0.09587
G1 X15.1 Y85.767 E0.06791
M107
G1 X15.229 Y86.09 F3600000
M107
G1 F2400
G1 X15.571 Y85.954 E0.0132
G1 X17.762 Y85.6 E0.07947
G1 X81.951 Y85.603 E2.29903
M73 P6 R25
G1 X83.914 Y85.912 E0.07117
G1 X85.811 Y86.61 E0.07237
G1 X87.475 Y87.631 E0.06992
G1 X88.935 Y88.945 E0.07038
G1 X90.756 Y91.727 E0.11909
G1 X91.314 Y93.394 E0.06296
G1 X91.585 Y95.147 E0.06354
G1 X91.544 Y123.156 E1.00315
G1 X91.015 Y125.489 E0.0857
G1 X90.527 Y126.601 E0.04349
G1 X89.936 Y127.645 E0.04295
G1 X88.238 Y129.607 E0.09294
G1 X86.118 Y131.099 E0.09284
G1 X84.071 Y131.912 E0.07888
G1 X81.881 Y132.267 E0.07947
G1 X17.682 Y132.267 E2.29935
G1 X14.835 Y131.689 E0.10406
G1 X13.726 Y131.204 E0.04334
G1 X12.666 Y130.605 E0.04361
G1 X10.704 Y128.906 E0.09295
G1 X9.212 Y126.787 E0.09285
G1 X8.398 Y124.74 E0.0789
G1 X8.043 Y122.549 E0.07948
G1 X8.061 Y95.062 E0.98448
G1 X8.622 Y92.391 E0.09776
G1 X9.106 Y91.283 E0.0433
G1 X9.706 Y90.223 E0.04361
G1 X11.404 Y88.26 E0.09295
G1 X13.524 Y86.768 E0.09286
G1 X15.173 Y86.112 E0.06357
M107
G1 X15.301 Y86.436 F3600000
M107
G1 F2400
G1 X15.682 Y86.285 E0.01467
G1 X17.775 Y85.948 E0.07595
G1 X81.937 Y85.952 E2.29804
G1 X83.843 Y86.254 E0.06909
G1 X85.674 Y86.931 E0.06992
G1 X87.278 Y87.919 E0.0675
G1 X88.685 Y89.189 E0.06787
G1 X90.433 Y91.859 E0.1143
G1 X90.979 Y93.491 E0.06162
G1 X91.239 Y95.187 E0.06147
G1 X91.2 Y123.098 E0.99966
G1 X90.689 Y125.365 E0.08324
G1 X90.219 Y126.437 E0.04193
G1 X89.641 Y127.458 E0.04201
G1 X87.988 Y129.362 E0.09032
G1 X85.935 Y130.802 E0.08982
G1 X83.961 Y131.581 E0.07601
G1 X81.867 Y131.918 E0.07595
G1 X17.7 Y131.918 E2.29823
G1 X14.958 Y131.362 E0.10021
G1 X13.874 Y130.888 E0.04236
G1 X12.853 Y130.31 E0.04203
G1 X10.977 Y128.688 E0.08883
G1 X9.509 Y126.603 E0.09134
G1 X8.729 Y124.629 E0.07601
G1 X8.392 Y122.535 E0.07596
G1 X8.406 Y95.115 E0.98207
G1 X8.948 Y92.514 E0.09519
G1 X9.422 Y91.431 E0.04233
G1 X10 Y90.41 E0.04203
G1 X11.622 Y88.533 E0.08882
G1 X13.707 Y87.065 E0.09135
G1 X15.245 Y86.458 E0.05921
M107
G1 X15.371 Y86.778 F3600000
M107
G1 F2400
G1 X15.756 Y86.626 E0.01481
G1 X17.789 Y86.297 E0.07378
G1 X81.924 Y86.3 E2.29705
G1 X83.771 Y86.595 E0.06699
G1 X85.536 Y87.251 E0.06746
G1 X87.082 Y88.207 E0.06508
G1 X88.435 Y89.432 E0.06538
G1 X90.109 Y91.991 E0.10953
G1 X90.643 Y93.587 E0.06028
G1 X90.892 Y95.226 E0.05938
G1 X90.856 Y123.04 E0.99619
G1 X90.363 Y125.24 E0.08076
G1 X89.904 Y126.289 E0.04101
G1 X89.347 Y127.271 E0.04041
G1 X87.771 Y129.089 E0.08618
G1 X85.752 Y130.504 E0.08832
G1 X83.887 Y131.24 E0.07181
G1 X81.853 Y131.57 E0.07378
G1 X17.717 Y131.57 E2.29711
M73 P7 R25
G1 X15.08 Y131.035 E0.09637
G1 X14.038 Y130.581 E0.04073
G1 X13.04 Y130.015 E0.04109
G1 X11.221 Y128.439 E0.0862
G1 X9.806 Y126.42 E0.08832
G1 X9.07 Y124.555 E0.07181
G1 X8.74 Y122.521 E0.07379
G1 X8.751 Y95.169 E0.97967
