; generated by SuperSlicer 2.5.59.8 on 2024-04-11 at 05:55:11 UTC


;
;

;
;

;
;

;
;

;
;
; 

; external perimeters extrusion width = 0.40mm
; perimeters extrusion width = 0.40mm
; infill extrusion width = 0.40mm
; solid infill extrusion width = 0.40mm
; top infill extrusion width = 0.40mm

; object:{"name":"HGX_drive - HGX_lite_drive_mount","id":"HGX_drive - HGX_lite_drive_mount.stl id:0 copy 0","object_center":[87.500000,110.000000,0.000000],"boundingbox_center":[87.500000,110.000000,3.500000],"boundingbox_size":[52.000000,56.000000,7.000000]}
EXCLUDE_OBJECT_DEFINE NAME=HGX_drive_HGX_lite_drive_mount_stl_id_0_copy_0 CENTER=87.500000,110.000000 POLYGON=[[61.50,93.00],[62.21,91.29],[68.95,82.83],[70.50,82.00],[104.50,82.00],[106.05,82.83],[112.79,91.29],[113.50,93.00],[113.50,99.00],[106.50,134.00],[102.50,138.00],[72.50,138.00],[68.50,134.00],[61.50,99.00],[61.50,93.00]]
; plater:{"center":[87.500000,110.000000,0.000000],"boundingbox_center":[87.500000,110.000000,3.500000],"boundingbox_size":[52.000000,56.000000,7.000000]}

M73 P0 R55
M107
;TYPE:Custom
CALCULATE_PA MATERIAL=ABS BOWDEN_LENGTH=6 LAYER_HEIGHT=0.24 NOZZLE_SIZE=0.4 PRINT_SPEED=95


START_PRINT EXTRUDER=270 BED=100

M107
G21 ; set units to millimeters
G90 ; use absolute coordinates
M83 ; use relative distances for extrusion
ACTIVATE_EXTRUDER EXTRUDER=extruder
; Filament gcode
M104 S270 T0 ; set temperature
M109 S270 T0 ; set temperature and wait for it to be reached
M190 S100 ; set bed temperature and wait for it to be reached
;LAYER_CHANGE
;Z:0.24
;HEIGHT:0.24
;BEFORE_LAYER_CHANGE
G92 E0.0

G1 E-1.5 F3000
G1 Z0.2 F3600000
G1 Z0.24
;AFTER_LAYER_CHANGE
;0.24




CALCULATE_PA MATERIAL=ABS BOWDEN_LENGTH=6.0 LAYER_HEIGHT=0.2 NOZZLE_SIZE=0.4 PRINT_SPEED=95


G92 E0
G1 Z0.44
G1 X61.295 Y75.293
G1 Z0.24
G1 E1.5 F3000
;TYPE:Skirt
;WIDTH:0.4
M107
G1 F2400
G1 X63.2 Y73.758 E0.08505
G1 X65.869 Y72.307 E0.10566
G1 X68.183 Y71.506 E0.08514
G1 X77.168 Y71.274 E0.31254
G1 X80.142 Y71.911 E0.10577
G1 X83.489 Y73.571 E0.12994
G1 X85.314 Y74.899 E0.07846
G1 X87.085 Y77.271 E0.10293
G1 X87.916 Y77.271 E0.0289
G1 X89.76 Y74.827 E0.10646
G1 X91.501 Y73.576 E0.07454
G1 X94.427 Y72.069 E0.11444
G1 X97.819 Y71.271 E0.12119
G1 X105.157 Y71.274 E0.25516
G1 X108.695 Y72.107 E0.12638
G1 X111.595 Y73.622 E0.11379
G1 X114.03 Y75.65 E0.11018
G1 X117.849 Y81.19 E0.234
G1 X121.548 Y85.075 E0.18653
G1 X122.533 Y86.771 E0.06819
G1 X123.614 Y89.381 E0.09825
G1 X124.164 Y91.811 E0.08661
G1 X124.195 Y99.944 E0.28281
G1 X123.491 Y102.946 E0.10725
G1 X122.249 Y105.654 E0.10358
G1 X120.74 Y107.802 E0.09128
G1 X117.229 Y110.908 E0.163
G1 X117.229 Y134.574 E0.82296
G1 X116.797 Y137.056 E0.0876
G1 X115.799 Y139.379 E0.0879
G1 X115.248 Y140.195 E0.03424
G1 X109.204 Y146.388 E0.30091
G1 X106.835 Y147.827 E0.09638
G1 X104.204 Y148.605 E0.09542
G1 X71.751 Y148.718 E1.12851
G1 X69.22 Y148.227 E0.08963
G1 X66.826 Y147.137 E0.09148
G1 X60.271 Y140.9 E0.31461
G1 X58.84 Y138.697 E0.09135
G1 X57.99 Y136.255 E0.08992
G1 X57.884 Y135.423 E0.02918
G1 X57.784 Y110.907 E0.85248
G1 X54.266 Y107.811 E0.16294
G1 X52.82 Y105.768 E0.08706
G1 X51.304 Y102.347 E0.1301
G1 X50.799 Y99.854 E0.08846
G1 X50.822 Y91.915 E0.27605
G1 X51.41 Y89.321 E0.09251
G1 X52.642 Y86.418 E0.10965
G1 X54.121 Y84.231 E0.0918
G1 X57.193 Y81.138 E0.15158
G1 X61.261 Y75.342 E0.24622
M107
G1 X61.533 Y75.549 F3600000
M107
G1 F2400
G1 X63.38 Y74.057 E0.08256
G1 X66.023 Y72.62 E0.1046
G1 X68.271 Y71.844 E0.0827
G1 X77.156 Y71.622 E0.30904
G1 X80.047 Y72.247 E0.10286
G1 X83.297 Y73.862 E0.1262
G1 X85.05 Y75.129 E0.07522
G1 X86.91 Y77.619 E0.10809
G1 X88.09 Y77.619 E0.04103
M73 P0 R54
G1 X89.985 Y75.094 E0.10977
G1 X91.672 Y73.88 E0.07229
G1 X94.528 Y72.404 E0.11178
G1 X97.839 Y71.619 E0.11834
G1 X105.137 Y71.622 E0.25376
G1 X108.552 Y72.426 E0.12202
G1 X111.417 Y73.923 E0.11238
G1 X113.788 Y75.902 E0.10742
G1 X117.578 Y81.411 E0.2325
G1 X121.257 Y85.268 E0.18537
G1 X122.215 Y86.915 E0.06625
G1 X123.287 Y89.501 E0.09733
G1 X123.82 Y91.869 E0.0844
G1 X123.847 Y99.924 E0.28012
G1 X123.167 Y102.817 E0.10332
G1 X121.939 Y105.494 E0.10242
G1 X120.467 Y107.584 E0.0889
G1 X116.881 Y110.75 E0.16634
G1 X116.881 Y134.559 E0.8279
G1 X116.457 Y136.976 E0.08532
G1 X115.486 Y139.226 E0.08521
G1 X114.988 Y139.963 E0.03093
G1 X109.004 Y146.102 E0.29811
G1 X106.715 Y147.499 E0.09326
G1 X104.129 Y148.263 E0.09376
G1 X71.767 Y148.37 E1.12535
G1 X69.307 Y147.889 E0.08713
G1 X66.997 Y146.832 E0.08834
G1 X60.552 Y140.693 E0.30952
G1 X59.162 Y138.563 E0.08844
G1 X58.325 Y136.158 E0.08854
G1 X58.233 Y135.411 E0.02618
G1 X58.131 Y110.749 E0.85756
G1 X54.512 Y107.563 E0.16767
G1 X53.114 Y105.581 E0.08433
G1 X51.631 Y102.224 E0.12765
G1 X51.144 Y99.802 E0.08588
G1 X51.167 Y91.973 E0.27224
M73 P1 R54
G1 X51.737 Y89.442 E0.09022
G1 X52.956 Y86.569 E0.10852
G1 X54.38 Y84.465 E0.08835
G1 X57.461 Y81.362 E0.15205
G1 X61.499 Y75.598 E0.24473
M107
G1 X61.772 Y75.804 F3600000
M107
G1 F2400
G1 X63.561 Y74.355 E0.08005
G1 X66.176 Y72.933 E0.10354
G1 X68.359 Y72.182 E0.08025
G1 X77.143 Y71.971 E0.30554
G1 X79.952 Y72.583 E0.09995
G1 X83.128 Y74.168 E0.12345
G1 X84.824 Y75.395 E0.0728
G1 X86.735 Y77.968 E0.11142
G1 X88.265 Y77.968 E0.0532
G1 X90.21 Y75.361 E0.1131
G1 X91.844 Y74.183 E0.07003
G1 X94.629 Y72.738 E0.10913
G1 X97.859 Y71.968 E0.11547
G1 X105.116 Y71.971 E0.25235
G1 X108.41 Y72.745 E0.11766
G1 X111.239 Y74.223 E0.11097
G1 X113.546 Y76.154 E0.10464
G1 X117.306 Y81.631 E0.23102
G1 X120.967 Y85.461 E0.18421
G1 X121.898 Y87.059 E0.06432
G1 X122.959 Y89.62 E0.0964
G1 X123.475 Y91.926 E0.08217
G1 X123.498 Y99.905 E0.27744
G1 X122.843 Y102.687 E0.0994
G1 X121.629 Y105.334 E0.10126
G1 X120.194 Y107.367 E0.08652
G1 X116.532 Y110.593 E0.1697
G1 X116.532 Y134.544 E0.83285
G1 X116.129 Y136.857 E0.08162
G1 X115.172 Y139.072 E0.08393
G1 X114.727 Y139.731 E0.02763
G1 X108.804 Y145.816 E0.2953
G1 X106.553 Y147.19 E0.0917
G1 X104.055 Y147.922 E0.09053
G1 X71.783 Y148.021 E1.1222
G1 X69.395 Y147.551 E0.08462
G1 X67.169 Y146.527 E0.08519
G1 X60.833 Y140.485 E0.30444
G1 X59.466 Y138.39 E0.087
G1 X58.669 Y136.097 E0.08443
G1 X58.581 Y135.399 E0.02445
G1 X58.479 Y110.591 E0.86265
G1 X54.758 Y107.315 E0.1724
G1 X53.41 Y105.395 E0.08159
G1 X51.957 Y102.1 E0.1252
G1 X51.489 Y99.751 E0.08329
G1 X51.511 Y92.031 E0.26846
G1 X52.064 Y89.564 E0.08792
G1 X53.271 Y86.721 E0.10738
G1 X54.638 Y84.699 E0.08489
G1 X57.729 Y81.586 E0.15253
G1 X61.737 Y75.853 E0.24324
M107
G1 X62.023 Y76.053 F3600000
M107
G1 F2400
G1 X62.043 Y76.024 E0.00123
G1 X63.767 Y74.637 E0.07695
G1 X66.33 Y73.246 E0.10141
G1 X68.394 Y72.53 E0.07598
G1 X77.09 Y72.316 E0.30246
G1 X79.816 Y72.904 E0.09697
G1 X82.937 Y74.459 E0.12124
G1 X84.561 Y75.625 E0.06952
G1 X86.56 Y78.316 E0.11658
G1 X88.44 Y78.316 E0.0654
G1 X90.436 Y75.628 E0.11642
G1 X92.016 Y74.487 E0.06779
G1 X94.731 Y73.072 E0.10647
G1 X97.88 Y72.316 E0.11259
G1 X105.096 Y72.319 E0.25094
G1 X108.268 Y73.064 E0.1133
G1 X111.061 Y74.523 E0.10956
G1 X113.272 Y76.371 E0.10022
G1 X117.035 Y81.852 E0.23117
G1 X120.676 Y85.655 E0.18307
G1 X121.581 Y87.204 E0.06237
G1 X122.631 Y89.74 E0.09547
G1 X123.127 Y91.946 E0.07864
G1 X123.15 Y99.885 E0.27606
G1 X122.508 Y102.59 E0.09666
G1 X121.319 Y105.174 E0.0989
G1 X119.921 Y107.149 E0.08413
G1 X116.184 Y110.435 E0.17307
G1 X116.184 Y134.529 E0.8378
G1 X115.79 Y136.776 E0.07933
G1 X114.859 Y138.919 E0.08123
G1 X114.467 Y139.499 E0.02434
G1 X108.569 Y145.557 E0.294
G1 X106.432 Y146.862 E0.08707
G1 X104.029 Y147.574 E0.08716
G1 X71.833 Y147.676 E1.11956
G1 X69.521 Y147.225 E0.0819
G1 X67.389 Y146.255 E0.08146
G1 X61.088 Y140.247 E0.30273
G1 X59.788 Y138.255 E0.0827
G1 X59.004 Y136 E0.08304
G1 X58.93 Y135.387 E0.02145
G1 X58.827 Y110.433 E0.86775
G1 X55.031 Y107.098 E0.17572
G1 X53.721 Y105.238 E0.07908
G1 X52.295 Y102.013 E0.12263
G1 X51.838 Y99.735 E0.08081
G1 X51.859 Y92.051 E0.26718
G1 X52.401 Y89.656 E0.08539
G1 X53.585 Y86.873 E0.10517
G1 X54.918 Y84.908 E0.08257
G1 X57.998 Y81.811 E0.15189
G1 X61.988 Y76.102 E0.2422
M107
G1 X62.269 Y76.298 F3600000
M107
G1 F2400
G1 X62.281 Y76.28 E0.00076
G1 X63.947 Y74.936 E0.07444
G1 X66.484 Y73.559 E0.10036
G1 X68.483 Y72.868 E0.07355
G1 X77.077 Y72.665 E0.29894
G1 X79.72 Y73.24 E0.09406
G1 X82.768 Y74.764 E0.11849
G1 X84.335 Y75.892 E0.06713
G1 X86.384 Y78.665 E0.11989
G1 X88.616 Y78.665 E0.07762
G1 X90.662 Y75.895 E0.11975
G1 X92.189 Y74.789 E0.06554
G1 X94.834 Y73.405 E0.10381
G1 X97.9 Y72.665 E0.1097
G1 X105.076 Y72.668 E0.24952
G1 X108.126 Y73.383 E0.10895
G1 X110.883 Y74.823 E0.10814
G1 X113.03 Y76.623 E0.09744
G1 X116.764 Y82.073 E0.2297
G1 X120.386 Y85.848 E0.18193
G1 X121.263 Y87.348 E0.06042
G1 X122.303 Y89.859 E0.09453
G1 X122.783 Y92.004 E0.07641
G1 X122.801 Y99.866 E0.27338
G1 X122.184 Y102.46 E0.09273
G1 X121.009 Y105.014 E0.09774
G1 X119.649 Y106.93 E0.08174
G1 X115.835 Y110.278 E0.17644
G1 X115.835 Y134.514 E0.84276
G1 X115.45 Y136.695 E0.07703
G1 X114.546 Y138.765 E0.07853
G1 X114.206 Y139.267 E0.02108
G1 X108.368 Y145.271 E0.29121
G1 X106.311 Y146.534 E0.08394
G1 X103.954 Y147.232 E0.0855
G1 X71.849 Y147.327 E1.1164
G1 X69.646 Y146.9 E0.07801
G1 X67.56 Y145.95 E0.07973
G1 X61.369 Y140.039 E0.29764
G1 X60.11 Y138.12 E0.0798
G1 X59.347 Y135.939 E0.08036
G1 X59.278 Y135.376 E0.01973
G1 X59.175 Y110.275 E0.87285
G1 X55.276 Y106.85 E0.18045
G1 X54.017 Y105.052 E0.07633
G1 X52.622 Y101.89 E0.12019
G1 X52.183 Y99.684 E0.07822
G1 X52.203 Y92.109 E0.26339
G1 X52.728 Y89.778 E0.08308
G1 X53.899 Y87.025 E0.10403
G1 X55.176 Y85.142 E0.07912
G1 X58.266 Y82.035 E0.15237
G1 X62.234 Y76.347 E0.24117
M107
G1 X62.515 Y76.542 F3600000
M107
G1 F2400
G1 X64.127 Y75.234 E0.0722
G1 X66.637 Y73.872 E0.0993
G1 X68.571 Y73.206 E0.07111
G1 X77.064 Y73.014 E0.29543
G1 X79.624 Y73.576 E0.09114
G1 X82.599 Y75.069 E0.11575
G1 X84.109 Y76.159 E0.06473
G1 X86.207 Y79.013 E0.1232
G1 X88.792 Y79.013 E0.08989
G1 X90.889 Y76.161 E0.12309
G1 X92.362 Y75.092 E0.0633
G1 X94.937 Y73.739 E0.10115
G1 X97.921 Y73.013 E0.10679
G1 X105.056 Y73.016 E0.2481
G1 X107.985 Y73.702 E0.10459
G1 X110.704 Y75.123 E0.10672
G1 X112.788 Y76.875 E0.09464
G1 X116.493 Y82.293 E0.22825
G1 X120.095 Y86.042 E0.18081
G1 X120.946 Y87.492 E0.05845
G1 X121.976 Y89.979 E0.09358
G1 X122.438 Y92.061 E0.07417
G1 X122.452 Y99.846 E0.27069
G1 X121.86 Y102.33 E0.08881
G1 X120.699 Y104.853 E0.09657
G1 X119.377 Y106.712 E0.07933
G1 X115.487 Y110.12 E0.17983
G1 X115.487 Y134.498 E0.84772
G1 X115.111 Y136.614 E0.07471
G1 X114.233 Y138.61 E0.07582
G1 X113.946 Y139.035 E0.01785
G1 X108.168 Y144.986 E0.28842
G1 X106.149 Y146.225 E0.08238
G1 X103.879 Y146.891 E0.08224
G1 X71.865 Y146.979 E1.11325
G1 X69.733 Y146.562 E0.07551
G1 X67.731 Y145.645 E0.07657
G1 X61.649 Y139.832 E0.29257
G1 X60.413 Y137.947 E0.07836
G1 X59.683 Y135.842 E0.07747
G1 X59.627 Y135.364 E0.01674
G1 X59.523 Y110.116 E0.87796
G1 X55.522 Y106.602 E0.18517
G1 X54.312 Y104.867 E0.07356
G1 X52.948 Y101.767 E0.11775
G1 X52.528 Y99.633 E0.07563
G1 X52.548 Y92.167 E0.25964
G1 X53.055 Y89.9 E0.08077
G1 X54.213 Y87.177 E0.10289
G1 X55.435 Y85.376 E0.07567
G1 X58.535 Y82.259 E0.15287
G1 X62.48 Y76.591 E0.24014
M107
G1 X62.758 Y76.79 F3600000
M107
G1 F2400
G1 X64.308 Y75.533 E0.06939
G1 X66.791 Y74.185 E0.09824
G1 X68.658 Y73.545 E0.06865
G1 X77.051 Y73.363 E0.29191
G1 X79.528 Y73.911 E0.08821
G1 X82.43 Y75.374 E0.11301
G1 X83.883 Y76.425 E0.06233
G1 X86.031 Y79.362 E0.12652
G1 X88.969 Y79.362 E0.10219
G1 X91.115 Y76.427 E0.12643
G1 X92.536 Y75.395 E0.06106
G1 X95.041 Y74.072 E0.0985
G1 X97.942 Y73.362 E0.10387
G1 X105.036 Y73.365 E0.24667
G1 X107.843 Y74.021 E0.10023
G1 X110.526 Y75.423 E0.10529
G1 X112.545 Y77.126 E0.09184
G1 X116.221 Y82.514 E0.22681
G1 X119.805 Y86.237 E0.1797
G1 X120.628 Y87.637 E0.05648
G1 X121.648 Y90.098 E0.09263
G1 X122.094 Y92.118 E0.07193
G1 X122.104 Y99.825 E0.26802
G1 X121.536 Y102.2 E0.08489
G1 X120.39 Y104.693 E0.09541
G1 X119.105 Y106.493 E0.07691
G1 X115.138 Y109.961 E0.18322
G1 X115.138 Y134.483 E0.85269
G1 X114.771 Y136.532 E0.07238
G1 X113.921 Y138.455 E0.07311
G1 X113.685 Y138.803 E0.01464
G1 X107.966 Y144.701 E0.28565
G1 X106.028 Y145.898 E0.0792
G1 X103.805 Y146.55 E0.08057
G1 X71.881 Y146.63 E1.11009
G1 X69.821 Y146.224 E0.07301
G1 X67.903 Y145.341 E0.07342
G1 X61.929 Y139.623 E0.28754
G1 X60.735 Y137.812 E0.07544
G1 X60.027 Y135.782 E0.07476
G1 X59.975 Y135.353 E0.01504
G1 X59.871 Y109.958 E0.88306
G1 X55.768 Y106.354 E0.18989
G1 X54.608 Y104.682 E0.07077
G1 X53.275 Y101.645 E0.11533
G1 X52.873 Y99.583 E0.07304
G1 X52.892 Y92.224 E0.25591
G1 X53.381 Y90.021 E0.07845
G1 X54.527 Y87.329 E0.10174
G1 X55.693 Y85.611 E0.07222
G1 X58.803 Y82.483 E0.15337
G1 X62.724 Y76.84 E0.23895
M107
G1 X62.997 Y77.045 F3600000
M107
G1 F2400
G1 X64.488 Y75.831 E0.06685
G1 X66.944 Y74.499 E0.09717
G1 X68.745 Y73.883 E0.06619
G1 X77.037 Y73.712 E0.28839
G1 X79.431 Y74.247 E0.08528
M73 P2 R54
G1 X82.26 Y75.679 E0.11028
G1 X83.656 Y76.691 E0.05994
G1 X85.853 Y79.71 E0.12985
G1 X89.147 Y79.71 E0.11453
G1 X91.343 Y76.692 E0.12978
G1 X92.71 Y75.697 E0.05882
G1 X95.145 Y74.405 E0.09584
G1 X97.963 Y73.71 E0.10093
G1 X105.016 Y73.713 E0.24524
G1 X107.701 Y74.34 E0.09587
G1 X110.348 Y75.723 E0.10385
G1 X112.302 Y77.377 E0.08902
G1 X115.95 Y82.734 E0.22539
G1 X119.515 Y86.431 E0.1786
G1 X120.311 Y87.782 E0.0545
G1 X121.32 Y90.217 E0.09167
G1 X121.75 Y92.174 E0.06967
G1 X121.755 Y99.805 E0.26535
G1 X121.212 Y102.07 E0.08098
G1 X120.08 Y104.532 E0.09424
G1 X118.833 Y106.274 E0.07448
G1 X114.79 Y109.803 E0.18663
G1 X114.79 Y134.467 E0.85766
G1 X114.432 Y136.449 E0.07003
G1 X113.609 Y138.299 E0.0704
G1 X113.424 Y138.572 E0.01146
G1 X107.765 Y144.416 E0.28288
G1 X105.865 Y145.589 E0.07763
G1 X103.731 Y146.208 E0.07727
G1 X71.897 Y146.282 E1.10696
G1 X69.909 Y145.886 E0.07048
G1 X68.076 Y145.037 E0.07027
G1 X62.209 Y139.415 E0.28255
G1 X61.057 Y137.676 E0.07253
G1 X60.37 Y135.721 E0.07206
G1 X60.324 Y135.341 E0.01331
G1 X60.219 Y109.8 E0.88816
G1 X56.014 Y106.106 E0.19459
G1 X54.904 Y104.498 E0.06796
G1 X53.602 Y101.523 E0.11292
G1 X53.219 Y99.534 E0.07044
G1 X53.236 Y92.281 E0.25221
G1 X53.708 Y90.143 E0.07613
G1 X54.841 Y87.481 E0.10059
G1 X55.952 Y85.845 E0.06877
G1 X59.072 Y82.707 E0.15388
G1 X62.963 Y77.094 E0.23748
M107
G1 X63.237 Y77.3 F3600000
M107
G1 F2400
G1 X64.669 Y76.13 E0.06429
G1 X67.097 Y74.812 E0.09608
G1 X68.832 Y74.222 E0.06372
G1 X77.023 Y74.061 E0.28488
G1 X79.333 Y74.582 E0.08234
G1 X82.09 Y75.983 E0.10755
G1 X83.429 Y76.957 E0.05754
G1 X85.675 Y80.059 E0.13319
G1 X89.325 Y80.059 E0.1269
G1 X91.57 Y76.958 E0.13313
G1 X92.885 Y75.998 E0.05659
G1 X95.25 Y74.738 E0.09319
G1 X97.984 Y74.059 E0.09797
G1 X104.996 Y74.062 E0.24381
G1 X107.559 Y74.659 E0.09152
G1 X110.169 Y76.023 E0.10241
G1 X112.058 Y77.627 E0.08618
G1 X115.678 Y82.955 E0.22399
G1 X119.226 Y86.626 E0.17752
G1 X119.994 Y87.926 E0.05251
G1 X120.992 Y90.336 E0.09071
G1 X121.405 Y92.23 E0.06741
G1 X121.407 Y99.785 E0.26269
G1 X120.889 Y101.94 E0.07707
G1 X119.77 Y104.371 E0.09306
G1 X118.562 Y106.054 E0.07204
G1 X114.441 Y109.644 E0.19005
G1 X114.441 Y134.452 E0.86262
G1 X114.093 Y136.366 E0.06767
G1 X113.297 Y138.143 E0.06769
G1 X113.163 Y138.34 E0.00831
G1 X107.562 Y144.131 E0.28013
G1 X105.745 Y145.261 E0.07441
G1 X103.657 Y145.867 E0.07559
G1 X71.914 Y145.933 E1.10382
G1 X70.037 Y145.561 E0.06653
G1 X68.249 Y144.733 E0.06854
G1 X62.488 Y139.206 E0.27759
G1 X61.378 Y137.54 E0.06962
G1 X60.714 Y135.659 E0.06936
G1 X60.672 Y135.329 E0.01156
G1 X60.566 Y109.641 E0.89324
G1 X56.261 Y105.859 E0.19929
G1 X55.201 Y104.314 E0.06513
G1 X53.93 Y101.401 E0.11053
G1 X53.564 Y99.485 E0.06784
G1 X53.581 Y92.337 E0.24854
G1 X54.036 Y90.264 E0.07379
G1 X55.155 Y87.633 E0.09944
G1 X56.21 Y86.079 E0.06532
G1 X59.341 Y82.931 E0.15439
G1 X63.202 Y77.349 E0.23601
M107
G1 X63.476 Y77.554 F3600000
M107
G1 F2400
G1 X64.849 Y76.428 E0.06173
G1 X67.25 Y75.125 E0.09499
G1 X68.919 Y74.561 E0.06124
G1 X77.008 Y74.41 E0.28136
G1 X79.234 Y74.917 E0.07939
G1 X81.919 Y76.288 E0.10483
G1 X83.201 Y77.222 E0.05515
G1 X85.497 Y80.407 E0.13654
G1 X89.503 Y80.407 E0.13931
G1 X91.798 Y77.223 E0.13649
G1 X93.06 Y76.3 E0.05436
