; generated by SuperSlicer 2.5.59.8 on 2024-04-23 at 18:27:03 UTC


;
;

;
;

;
;

;
;

;
;
; 

; external perimeters extrusion width = 0.40mm
; perimeters extrusion width = 0.40mm
; infill extrusion width = 0.40mm
; solid infill extrusion width = 0.40mm
; top infill extrusion width = 0.40mm

; object:{"name":"hotend_rapido_uhf","id":"hotend_rapido_uhf.stl id:0 copy 0","object_center":[87.500000,110.000000,0.000000],"boundingbox_center":[87.500000,110.000000,13.575000],"boundingbox_size":[45.000000,40.000000,27.150000]}
EXCLUDE_OBJECT_DEFINE NAME=hotend_rapido_uhf_stl_id_0_copy_0 CENTER=87.500000,110.000000 POLYGON=[[65.00,92.00],[67.00,90.00],[110.00,90.00],[110.00,99.00],[105.00,128.00],[103.00,130.00],[67.00,130.00],[65.00,128.00],[65.00,92.00]]
; plater:{"center":[87.500000,110.000000,0.000000],"boundingbox_center":[87.500000,110.000000,13.575000],"boundingbox_size":[45.000000,40.000000,27.150000]}

M73 P0 R86
M107
;TYPE:Custom
CALCULATE_PA MATERIAL=ABS BOWDEN_LENGTH=6 LAYER_HEIGHT=0.24 NOZZLE_SIZE=0.4 PRINT_SPEED=95


START_PRINT EXTRUDER=275 BED=100

G21 ; set units to millimeters
G90 ; use absolute coordinates
M83 ; use relative distances for extrusion
ACTIVATE_EXTRUDER EXTRUDER=extruder
; Filament gcode
M104 S275 T0 ; set temperature
M109 S275 T0 ; set temperature and wait for it to be reached
M190 S100 ; set bed temperature and wait for it to be reached
;LAYER_CHANGE
;Z:0.24
;HEIGHT:0.24
;BEFORE_LAYER_CHANGE
G92 E0.0

G1 E-1.5 F3000
G1 Z0.2 F3600000
G1 Z0.24
;AFTER_LAYER_CHANGE
;0.24




CALCULATE_PA MATERIAL=ABS BOWDEN_LENGTH=6.0 LAYER_HEIGHT=0.2 NOZZLE_SIZE=0.4 PRINT_SPEED=95


G92 E0
G1 Z0.44
G1 X58.041 Y78.514
G1 Z0.24
G1 E1.5 F3000
;TYPE:Skirt
;WIDTH:0.4
M107
G1 F2400
G1 X61.568 Y76.475 E0.14589
G1 X65.554 Y75.495 E0.14704
G1 X111.139 Y75.462 E1.63268
G1 X113.499 Y75.822 E0.08549
G1 X115.787 Y76.565 E0.08617
G1 X119.537 Y78.916 E0.15851
G1 X121.543 Y81.031 E0.1044
G1 X123.083 Y83.482 E0.10368
G1 X124.099 Y86.183 E0.10338
G1 X124.549 Y89.011 E0.10256
G1 X124.555 Y93.406 E0.15741
G1 X124.41 Y94.5 E0.03952
G1 X124.551 Y95.51 E0.03653
G1 X124.533 Y100.166 E0.16676
G1 X123.887 Y103.457 E0.1201
G1 X122.055 Y107.217 E0.14983
G1 X119.902 Y109.704 E0.11781
G1 X119.552 Y109.97 E0.01574
G1 X119.508 Y129.395 E0.69572
G1 X118.554 Y133.357 E0.14597
G1 X116.518 Y136.929 E0.14726
G1 X111.89 Y141.544 E0.2341
G1 X108.109 Y143.65 E0.15502
G1 X103.894 Y144.563 E0.15447
G1 X66.158 Y144.563 E1.35157
G1 X61.927 Y143.663 E0.15492
G1 X58.129 Y141.564 E0.15541
G1 X53.51 Y136.953 E0.23376
G1 X51.368 Y133.16 E0.15605
G1 X50.437 Y128.948 E0.15447
G1 X50.437 Y91.103 E1.35547
G1 X51.362 Y86.856 E0.15569
G1 X53.502 Y83.048 E0.15645
G1 X57.999 Y78.556 E0.22764
M107
G1 X58.235 Y78.804 F3600000
M107
G1 F2400
G1 X61.721 Y76.789 E0.14418
G1 X65.617 Y75.838 E0.14364
G1 X111.1 Y75.808 E1.62903
G1 X113.432 Y76.165 E0.08451
G1 X115.659 Y76.89 E0.08388
G1 X119.299 Y79.172 E0.15389
G1 X121.257 Y81.231 E0.10176
G1 X122.779 Y83.652 E0.10242
G1 X123.767 Y86.289 E0.10086
G1 X124.203 Y89.052 E0.10019
G1 X124.207 Y93.395 E0.15554
G1 X124.058 Y94.501 E0.03998
G1 X124.202 Y95.522 E0.03691
G1 X124.188 Y100.116 E0.16455
G1 X123.563 Y103.325 E0.11708
G1 X121.751 Y107.044 E0.14819
G1 X119.651 Y109.462 E0.11469
G1 X119.204 Y109.794 E0.01998
G1 X119.16 Y129.373 E0.70125
G1 X118.221 Y133.251 E0.14289
G1 X116.256 Y136.699 E0.14215
G1 X111.699 Y141.252 E0.23071
G1 X108.01 Y143.315 E0.1514
G1 X103.875 Y144.214 E0.15154
G1 X66.176 Y144.214 E1.35025
G1 X62.025 Y143.328 E0.15204
G1 X58.358 Y141.3 E0.15007
G1 X53.802 Y136.761 E0.23036
G1 X51.702 Y133.059 E0.15243
G1 X50.786 Y128.929 E0.1515
G1 X50.786 Y91.122 E1.35411
G1 X51.697 Y86.956 E0.15275
G1 X53.765 Y83.277 E0.15114
G1 X58.193 Y78.846 E0.22435
M107
G1 X58.43 Y79.094 F3600000
M107
G1 F2400
G1 X61.828 Y77.122 E0.1407
G1 X65.679 Y76.182 E0.142
G1 X111.06 Y76.155 E1.62538
G1 X113.338 Y76.5 E0.0825
G1 X115.531 Y77.214 E0.0826
G1 X119.062 Y79.428 E0.14928
G1 X120.971 Y81.432 E0.09912
G1 X122.459 Y83.791 E0.09991
G1 X123.425 Y86.361 E0.09833
G1 X123.857 Y89.093 E0.09907
G1 X123.858 Y93.383 E0.15365
G1 X123.706 Y94.503 E0.04046
G1 X123.853 Y95.534 E0.0373
G1 X123.843 Y100.066 E0.16234
G1 X123.24 Y103.193 E0.11404
G1 X121.448 Y106.871 E0.14655
G1 X119.402 Y109.218 E0.11153
G1 X118.856 Y109.617 E0.02422
G1 X118.811 Y129.352 E0.70683
G1 X117.906 Y133.1 E0.1381
G1 X115.992 Y136.469 E0.13877
G1 X111.507 Y140.959 E0.22731
G1 X107.91 Y142.98 E0.14778
G1 X103.857 Y143.866 E0.14861
G1 X66.194 Y143.866 E1.34892
G1 X62.17 Y143.01 E0.14734
G1 X58.586 Y141.036 E0.14655
G1 X54.093 Y136.568 E0.22696
G1 X52.037 Y132.957 E0.14881
G1 X51.134 Y128.91 E0.14852
G1 X51.134 Y91.141 E1.35276
G1 X52.014 Y87.103 E0.14799
G1 X54.029 Y83.506 E0.14767
G1 X58.388 Y79.136 E0.22106
M107
G1 X58.625 Y79.384 F3600000
M107
G1 F2400
G1 X61.981 Y77.436 E0.13898
G1 X65.741 Y76.525 E0.13858
G1 X111.021 Y76.501 E1.62177
G1 X113.244 Y76.836 E0.08049
G1 X115.402 Y77.539 E0.08132
G1 X118.825 Y79.685 E0.14466
G1 X120.707 Y81.659 E0.09771
G1 X122.154 Y83.962 E0.09741
G1 X123.093 Y86.467 E0.0958
G1 X123.51 Y89.134 E0.09669
G1 X123.51 Y93.371 E0.15177
G1 X123.354 Y94.504 E0.04095
G1 X123.505 Y95.546 E0.0377
G1 X123.497 Y100.017 E0.16014
G1 X122.917 Y103.061 E0.11099
G1 X121.145 Y106.697 E0.14489
G1 X119.152 Y108.973 E0.10834
G1 X118.507 Y109.438 E0.02848
G1 X118.463 Y129.331 E0.71247
G1 X117.573 Y132.994 E0.13503
G1 X115.729 Y136.239 E0.13369
G1 X111.316 Y140.667 E0.22391
G1 X107.762 Y142.664 E0.14599
G1 X103.838 Y143.517 E0.14384
G1 X66.212 Y143.517 E1.3476
G1 X62.315 Y142.692 E0.14267
G1 X58.815 Y140.771 E0.14303
G1 X54.384 Y136.375 E0.22357
G1 X52.371 Y132.856 E0.14518
G1 X51.483 Y128.891 E0.14553
G1 X51.483 Y91.159 E1.3514
M73 P0 R85
G1 X52.331 Y87.251 E0.14325
G1 X54.293 Y83.735 E0.14419
G1 X58.582 Y79.426 E0.21776
M107
G1 X58.82 Y79.674 F3600000
M107
G1 F2400
G1 X62.087 Y77.769 E0.13547
G1 X65.803 Y76.869 E0.13693
G1 X110.982 Y76.848 E1.61815
G1 X113.177 Y77.179 E0.07951
G1 X115.274 Y77.864 E0.079
G1 X118.588 Y79.941 E0.14007
G1 X120.421 Y81.86 E0.09507
G1 X121.834 Y84.101 E0.09487
G1 X122.76 Y86.572 E0.09453
G1 X123.164 Y89.174 E0.0943
G1 X123.161 Y93.359 E0.1499
G1 X123.002 Y94.505 E0.04144
G1 X123.156 Y95.558 E0.03811
G1 X123.152 Y99.968 E0.15795
G1 X122.593 Y102.929 E0.10792
G1 X120.842 Y106.524 E0.14322
G1 X118.904 Y108.728 E0.10513
G1 X118.159 Y109.258 E0.03274
G1 X118.114 Y129.309 E0.71815
G1 X117.258 Y132.844 E0.13025
G1 X115.466 Y136.01 E0.13033
G1 X111.124 Y140.376 E0.22052
G1 X107.662 Y142.329 E0.14235
G1 X103.819 Y143.169 E0.1409
G1 X66.231 Y143.169 E1.34628
G1 X62.413 Y142.357 E0.1398
G1 X59.042 Y140.507 E0.13771
G1 X54.674 Y136.181 E0.22018
G1 X52.687 Y132.705 E0.1434
G1 X51.831 Y128.872 E0.14069
G1 X51.831 Y91.178 E1.35005
G1 X52.666 Y87.35 E0.14032
G1 X54.557 Y83.964 E0.1389
M73 P1 R85
G1 X58.777 Y79.716 E0.21448
M107
G1 X59.015 Y79.963 F3600000
M107
G1 F2400
G1 X62.241 Y78.083 E0.13373
G1 X65.864 Y77.212 E0.13347
G1 X110.944 Y77.194 E1.61457
G1 X113.083 Y77.515 E0.07748
G1 X115.146 Y78.188 E0.07772
G1 X118.351 Y80.198 E0.13548
G1 X120.157 Y82.088 E0.09367
G1 X121.514 Y84.24 E0.09111
G1 X122.418 Y86.644 E0.09198
G1 X122.815 Y89.187 E0.0922
G1 X122.813 Y93.347 E0.14898
G1 X122.65 Y94.507 E0.04195
G1 X122.808 Y95.571 E0.03853
G1 X122.806 Y99.92 E0.15577
G1 X122.27 Y102.798 E0.10484
G1 X120.539 Y106.35 E0.14153
G1 X118.656 Y108.482 E0.10188
G1 X117.811 Y109.077 E0.03701
G1 X117.766 Y129.288 E0.72387
G1 X116.925 Y132.738 E0.12717
G1 X115.202 Y135.781 E0.12527
G1 X110.931 Y140.084 E0.21714
G1 X107.562 Y141.994 E0.13871
G1 X103.8 Y142.82 E0.13794
G1 X66.249 Y142.82 E1.34495
G1 X62.558 Y142.039 E0.13513
G1 X59.27 Y140.242 E0.13419
G1 X54.965 Y135.987 E0.21679
G1 X53.021 Y132.604 E0.13976
G1 X52.18 Y128.853 E0.13769
G1 X52.18 Y91.197 E1.34869
G1 X52.983 Y87.497 E0.13559
G1 X54.821 Y84.193 E0.13544
G1 X58.973 Y80.006 E0.21118
M107
G1 X59.211 Y80.252 F3600000
M107
G1 F2400
G1 X62.347 Y78.416 E0.13018
G1 X65.926 Y77.556 E0.13182
G1 X110.905 Y77.541 E1.61099
G1 X112.989 Y77.85 E0.07544
G1 X115.017 Y78.513 E0.07643
G1 X118.114 Y80.454 E0.13089
G1 X119.893 Y82.316 E0.09227
G1 X121.194 Y84.38 E0.08736
G1 X122.077 Y86.715 E0.08943
G1 X122.467 Y89.201 E0.0901
G1 X122.464 Y93.334 E0.14805
G1 X122.298 Y94.508 E0.04246
G1 X122.459 Y95.584 E0.03896
G1 X122.458 Y99.904 E0.15472
G1 X121.931 Y102.71 E0.10227
G1 X120.262 Y106.137 E0.13652
G1 X118.409 Y108.236 E0.10029
G1 X117.463 Y108.895 E0.04128
G1 X117.418 Y129.266 E0.72963
G1 X116.61 Y132.587 E0.12241
G1 X114.938 Y135.553 E0.12192
G1 X110.738 Y139.793 E0.21377
G1 X107.461 Y141.66 E0.13506
G1 X103.781 Y142.472 E0.13497
G1 X66.267 Y142.472 E1.34362
G1 X62.702 Y141.721 E0.13049
G1 X59.497 Y139.976 E0.13068
G1 X55.255 Y135.792 E0.21341
G1 X53.355 Y132.501 E0.13611
G1 X52.528 Y128.833 E0.13467
G1 X52.528 Y91.215 E1.34733
G1 X53.3 Y87.644 E0.13087
G1 X55.086 Y84.421 E0.13196
G1 X59.169 Y80.295 E0.20789
M107
G1 X59.407 Y80.541 F3600000
M107
G1 F2400
G1 X62.501 Y78.729 E0.12844
G1 X65.987 Y77.9 E0.12833
G1 X110.867 Y77.888 E1.60743
G1 X112.923 Y78.193 E0.07445
G1 X114.888 Y78.838 E0.07408
G1 X117.877 Y80.71 E0.12631
G1 X119.629 Y82.545 E0.09087
G1 X120.875 Y84.52 E0.08363
G1 X121.735 Y86.788 E0.08688
G1 X122.118 Y89.214 E0.08799
G1 X122.116 Y93.322 E0.14712
G1 X121.945 Y94.51 E0.04298
G1 X122.111 Y95.597 E0.03939
G1 X122.109 Y99.887 E0.15367
G1 X121.593 Y102.623 E0.0997
G1 X119.985 Y105.924 E0.13151
G1 X118.162 Y107.989 E0.09869
G1 X117.115 Y108.712 E0.04555
G1 X117.069 Y129.245 E0.73542
G1 X116.294 Y132.438 E0.11766
G1 X114.674 Y135.324 E0.11857
G1 X110.544 Y139.503 E0.2104
G1 X107.36 Y141.325 E0.1314
G1 X103.762 Y142.123 E0.13199
G1 X66.285 Y142.123 E1.34229
G1 X62.799 Y141.385 E0.12763
G1 X59.725 Y139.711 E0.12538
G1 X55.545 Y135.597 E0.21004
G1 X53.689 Y132.398 E0.13245
G1 X52.877 Y128.814 E0.13165
G1 X52.877 Y91.234 E1.34597
G1 X53.635 Y87.743 E0.12796
G1 X55.35 Y84.649 E0.1267
G1 X59.364 Y80.584 E0.2046
M107
G1 X59.603 Y80.831 F3600000
M107
G1 F2400
G1 X62.655 Y79.043 E0.12668
G1 X66.047 Y78.244 E0.12483
G1 X110.829 Y78.234 E1.60391
G1 X112.828 Y78.529 E0.0724
G1 X114.76 Y79.162 E0.07279
G1 X117.64 Y80.967 E0.12173
G1 X119.365 Y82.773 E0.08946
G1 X120.555 Y84.66 E0.07991
G1 X121.394 Y86.86 E0.08433
G1 X121.77 Y89.228 E0.08586
G1 X121.767 Y93.309 E0.14618
G1 X121.593 Y94.511 E0.04351
G1 X121.762 Y95.61 E0.03982
G1 X121.761 Y99.871 E0.15261
G1 X121.255 Y102.535 E0.09713
G1 X119.709 Y105.711 E0.12652
G1 X117.915 Y107.743 E0.09707
G1 X116.767 Y108.528 E0.04981
G1 X116.721 Y129.224 E0.74125
G1 X115.961 Y132.332 E0.1146
G1 X114.409 Y135.096 E0.11355
G1 X110.351 Y139.212 E0.20703
G1 X107.21 Y141.009 E0.1296
G1 X103.743 Y141.775 E0.12715
G1 X66.303 Y141.775 E1.34096
G1 X62.943 Y141.067 E0.123
G1 X59.951 Y139.445 E0.12187
G1 X55.834 Y135.402 E0.20668
G1 X54.023 Y132.295 E0.12879
G1 X53.225 Y128.794 E0.12861
G1 X53.225 Y91.252 E1.3446
G1 X53.953 Y87.889 E0.12326
G1 X55.615 Y84.876 E0.12324
G1 X59.56 Y80.873 E0.20129
M107
G1 X59.799 Y81.119 F3600000
M107
G1 F2400
G1 X62.76 Y79.376 E0.12307
G1 X66.107 Y78.587 E0.12317
G1 X110.79 Y78.581 E1.60038
G1 X112.763 Y78.871 E0.0714
G1 X114.631 Y79.487 E0.07043
G1 X117.403 Y81.223 E0.11716
G1 X119.101 Y83.001 E0.08806
G1 X120.251 Y84.831 E0.0774
G1 X121.062 Y86.967 E0.08184
G1 X121.421 Y89.241 E0.08247
G1 X121.419 Y93.296 E0.14523
G1 X121.24 Y94.513 E0.04405
G1 X121.414 Y95.623 E0.04026
G1 X121.412 Y99.854 E0.15153
G1 X120.917 Y102.447 E0.09454
G1 X119.432 Y105.498 E0.12154
G1 X117.668 Y107.495 E0.09544
G1 X116.419 Y108.343 E0.05406
G1 X116.372 Y129.202 E0.7471
G1 X115.646 Y132.182 E0.10986
G1 X114.144 Y134.868 E0.11021
G1 X110.156 Y138.922 E0.20366
G1 X107.109 Y140.675 E0.12593
G1 X103.724 Y141.426 E0.12416
G1 X66.321 Y141.426 E1.33963
G1 X63.086 Y140.748 E0.11839
G1 X60.178 Y139.179 E0.11835
G1 X56.123 Y135.206 E0.20333
G1 X54.357 Y132.191 E0.12513
G1 X53.574 Y128.775 E0.12555
G1 X53.574 Y91.271 E1.34323
G1 X54.288 Y87.987 E0.12036
G1 X55.88 Y85.104 E0.11799
G1 X59.757 Y81.162 E0.198
M107
G1 X59.995 Y81.408 F3600000
M107
G1 F2400
G1 X62.914 Y79.69 E0.1213
G1 X66.167 Y78.931 E0.11964
G1 X110.753 Y78.928 E1.59689
G1 X112.668 Y79.207 E0.06933
G1 X114.501 Y79.811 E0.06913
G1 X117.166 Y81.48 E0.1126
G1 X118.837 Y83.229 E0.08665
G1 X119.946 Y85.001 E0.07489
G1 X120.73 Y87.073 E0.07935
G1 X121.073 Y89.255 E0.07908
G1 X121.07 Y93.283 E0.14429
G1 X120.888 Y94.515 E0.04459
G1 X121.065 Y95.637 E0.0407
G1 X121.064 Y99.838 E0.15045
G1 X120.579 Y102.359 E0.09195
G1 X119.155 Y105.285 E0.11657
G1 X117.421 Y107.248 E0.0938
G1 X116.071 Y108.157 E0.05831
G1 X116.024 Y129.181 E0.75299
G1 X115.313 Y132.077 E0.1068
G1 X113.879 Y134.641 E0.10522
G1 X109.961 Y138.632 E0.20031
G1 X107.007 Y140.341 E0.12225
G1 X103.705 Y141.078 E0.12116
G1 X66.339 Y141.078 E1.3383
G1 X63.183 Y140.412 E0.11555
G1 X60.404 Y138.913 E0.11308
G1 X56.412 Y135.009 E0.19997
G1 X54.671 Y132.038 E0.12334
G1 X53.922 Y128.755 E0.12061
G1 X53.922 Y91.29 E1.34187
G1 X54.605 Y88.133 E0.11567
G1 X56.146 Y85.331 E0.11454
G1 X59.953 Y81.451 E0.1947
M107
G1 X60.193 Y81.696 F3600000
M107
G1 F2400
G1 X63.019 Y80.023 E0.11764
G1 X66.227 Y79.275 E0.11797
G1 X110.715 Y79.274 E1.59341
G1 X112.574 Y79.543 E0.06725
G1 X114.372 Y80.135 E0.06784
G1 X116.929 Y81.736 E0.10803
G1 X118.573 Y83.456 E0.08523
G1 X119.642 Y85.171 E0.07236
G1 X120.388 Y87.145 E0.07561
G1 X120.724 Y89.268 E0.07697
G1 X120.722 Y93.27 E0.14333
G1 X120.535 Y94.516 E0.04514
G1 X120.717 Y95.651 E0.04114
G1 X120.715 Y99.821 E0.14936
G1 X120.241 Y102.27 E0.08935
G1 X118.878 Y105.072 E0.11161
G1 X117.175 Y107.001 E0.09214
G1 X115.723 Y107.97 E0.06255
G1 X115.675 Y129.159 E0.7589
G1 X114.997 Y131.927 E0.10209
G1 X113.614 Y134.414 E0.10189
G1 X109.766 Y138.342 E0.19697
G1 X106.904 Y140.006 E0.11856
G1 X103.686 Y140.729 E0.11814
G1 X66.357 Y140.729 E1.33696
G1 X63.325 Y140.093 E0.11096
G1 X60.63 Y138.646 E0.10957
G1 X56.701 Y134.813 E0.19662
G1 X55.005 Y131.934 E0.11965
G1 X54.271 Y128.735 E0.11755
G1 X54.271 Y91.308 E1.3405
G1 X54.923 Y88.278 E0.11101
G1 X56.412 Y85.557 E0.11108
G1 X60.151 Y81.739 E0.1914
M107
G1 X60.39 Y81.985 F3600000
M107
G1 F2400
G1 X63.174 Y80.337 E0.11586
G1 X66.286 Y79.619 E0.11439
G1 X110.703 Y79.623 E1.59084
G1 X112.508 Y79.885 E0.06535
G1 X114.243 Y80.46 E0.06545
G1 X116.692 Y81.993 E0.10347
G1 X118.308 Y83.684 E0.0838
G1 X119.337 Y85.34 E0.06981
G1 X120.056 Y87.252 E0.07315
G1 X120.376 Y89.282 E0.0736
G1 X120.373 Y93.257 E0.14238
G1 X120.182 Y94.518 E0.0457
G1 X120.368 Y95.665 E0.04159
G1 X120.367 Y99.804 E0.14826
G1 X119.904 Y102.181 E0.08674
G1 X118.601 Y104.859 E0.10666
G1 X116.929 Y106.753 E0.09048
G1 X115.375 Y107.783 E0.06679
G1 X115.327 Y129.138 E0.76484
G1 X114.681 Y131.779 E0.0974
G1 X113.348 Y134.187 E0.09856
G1 X109.57 Y138.053 E0.19363
G1 X106.801 Y139.672 E0.11487
G1 X103.667 Y140.381 E0.11511
G1 X66.375 Y140.381 E1.33563
G1 X63.468 Y139.774 E0.10639
G1 X60.855 Y138.38 E0.10606
G1 X56.989 Y134.615 E0.19328
G1 X55.338 Y131.83 E0.11596
G1 X54.619 Y128.716 E0.11447
G1 X54.619 Y91.327 E1.33912
G1 X55.259 Y88.377 E0.10812
G1 X56.678 Y85.784 E0.10586
G1 X60.348 Y82.028 E0.1881
M107
G1 X60.588 Y82.272 F3600000
M107
G1 F2400
G1 X63.279 Y80.67 E0.11217
G1 X66.306 Y79.968 E0.1113
G1 X110.69 Y79.971 E1.58968
G1 X112.413 Y80.221 E0.06237
G1 X114.114 Y80.784 E0.06415
G1 X116.455 Y82.249 E0.09892
G1 X118.044 Y83.912 E0.08237
G1 X119.031 Y85.509 E0.06725
G1 X119.723 Y87.357 E0.07069
G1 X120.027 Y89.295 E0.07025
G1 X120.025 Y93.243 E0.14142
G1 X119.83 Y94.52 E0.04627
G1 X120.02 Y95.679 E0.04205
G1 X120.018 Y99.787 E0.14714
G1 X119.566 Y102.092 E0.08413
G1 X118.324 Y104.646 E0.10172
G1 X116.683 Y106.505 E0.0888
G1 X115.027 Y107.595 E0.07103
G1 X114.978 Y129.116 E0.7708
G1 X114.348 Y131.673 E0.09434
G1 X113.083 Y133.96 E0.09361
G1 X109.373 Y137.765 E0.19032
G1 X106.698 Y139.339 E0.11116
G1 X103.647 Y140.032 E0.11206
G1 X66.393 Y140.032 E1.33429
G1 X63.609 Y139.455 E0.10184
G1 X61.08 Y138.112 E0.10253
G1 X57.276 Y134.417 E0.18995
M73 P2 R85
G1 X55.672 Y131.724 E0.11226
G1 X54.968 Y128.696 E0.11137
G1 X54.968 Y91.345 E1.33775
