; generated by PrusaSlicer 2.7.1+MacOS-arm64 on 2024-02-11 at 16:27:17 UTC


;
;

;
;

;
;

;
;

;
;
; 

; external perimeters extrusion width = 0.45mm
; perimeters extrusion width = 0.45mm
; infill extrusion width = 0.45mm
; solid infill extrusion width = 0.45mm
; top infill extrusion width = 0.40mm

; external perimeters extrusion width = 0.45mm
; perimeters extrusion width = 0.45mm
; infill extrusion width = 0.45mm
; solid infill extrusion width = 0.45mm
; top infill extrusion width = 0.40mm

M73 P0 R54

EXCLUDE_OBJECT_DEFINE NAME=Right_stl CENTER=122.619,109.601 POLYGON=[[122.178,56.874],[124.178,56.951],[126.154,57.146],[127.810,57.410],[129.474,57.787],[131.184,58.300],[132.863,58.932],[136.252,60.529],[136.967,61.012],[137.333,61.656],[138.066,63.804],[138.284,64.703],[138.375,65.474],[138.324,66.022],[138.157,66.460],[136.763,68.413],[135.897,70.187],[134.423,72.890],[133.611,74.915],[132.977,77.189],[132.453,79.651],[132.158,82.297],[132.011,85.827],[132.057,89.540],[132.324,93.542],[132.738,97.099],[133.603,103.034],[134.062,107.987],[134.228,110.747],[134.257,114.088],[133.996,127.754],[134.048,132.651],[133.801,138.578],[133.855,141.363],[134.214,145.300],[134.567,147.880],[135.003,149.828],[135.944,153.252],[136.553,154.755],[136.635,155.362],[136.596,156.075],[136.094,159.208],[135.710,159.876],[135.149,160.441],[133.318,161.571],[129.789,163.322],[126.878,164.188],[125.037,164.370],[122.644,164.313],[120.815,164.058],[119.135,163.597],[115.925,162.455],[114.960,161.809],[114.660,161.472],[114.038,160.373],[113.518,159.062],[113.342,158.243],[112.654,150.954],[112.065,146.296],[111.824,142.145],[111.279,136.292],[110.812,128.456],[110.181,115.077],[110.008,101.290],[110.060,90.068],[110.333,79.851],[110.957,65.162],[110.983,60.296],[111.043,59.704],[111.207,59.315],[111.903,58.499],[112.296,58.273],[112.858,58.100],[116.126,57.427],[117.906,57.141],[120.190,56.924]]
EXCLUDE_OBJECT_DEFINE NAME=Left_stl CENTER=52.380,108.354 POLYGON=[[53.724,55.630],[55.787,55.745],[57.721,55.978],[62.417,56.922],[62.857,57.092],[63.190,57.333],[63.802,58.077],[63.988,58.614],[64.043,63.911],[64.713,79.881],[64.959,90.153],[64.975,102.876],[64.772,115.310],[64.086,129.155],[63.721,135.040],[63.176,140.895],[62.935,145.045],[62.346,149.703],[61.658,156.991],[61.482,157.811],[60.962,159.122],[60.340,160.221],[60.040,160.558],[59.075,161.204],[55.865,162.346],[54.185,162.806],[52.319,163.064],[49.833,163.115],[48.122,162.937],[45.211,162.071],[41.682,160.320],[39.851,159.190],[39.290,158.625],[38.906,157.957],[38.404,154.824],[38.365,154.110],[38.447,153.503],[39.057,152.001],[39.997,148.577],[40.433,146.629],[40.786,144.049],[41.145,140.112],[41.199,137.326],[40.952,131.400],[41.004,126.503],[40.743,112.836],[40.772,109.495],[40.938,106.736],[41.397,101.782],[42.261,95.850],[42.676,92.290],[42.943,88.288],[42.989,84.576],[42.842,81.045],[42.547,78.400],[42.023,75.937],[41.389,73.664],[40.578,71.639],[39.103,68.936],[38.237,67.162],[36.843,65.209],[36.676,64.770],[36.626,64.184],[36.946,62.511],[37.450,60.967],[37.848,60.019],[38.238,59.582],[39.409,58.938],[41.192,58.088],[42.966,57.353],[44.672,56.775],[46.367,56.330],[47.991,56.019],[49.832,55.782],[51.819,55.646]]

;TYPE:Custom
CALCULATE_PA MATERIAL=PLA BOWDEN_LENGTH=5.5 LAYER_HEIGHT=0.2 NOZZLE_SIZE=0.4 PRINT_SPEED=90


START_PRINT EXTRUDER=210 BED=65
G21 ; set units to millimeters
G90 ; use absolute coordinates
M83 ; use relative distances for extrusion
; Filament gcode
M107
;LAYER_CHANGE
;Z:0.2
;HEIGHT:0.2
;BEFORE_LAYER_CHANGE
G92 E0.0
;0.2
;M201 X4000 Y4000
;M74 W0

G1 Z.2 F60000
;AFTER_LAYER_CHANGE
;0.2
CALCULATE_PA MATERIAL=PLA BOWDEN_LENGTH=6.0 LAYER_HEIGHT=0.24 NOZZLE_SIZE=0.4 PRINT_SPEED=90
G1 E-2 F3000
G1 X106.778 Y57.476 F60000
G1 Z.2
G1 E2 F3000
;TYPE:Skirt/Brim
;WIDTH:0.45
G1 F1800
G1 X107.251 Y56.629 E.03284
G1 X108.458 Y55.176 E.06394
G1 X109.251 Y54.516 E.03492
G1 X110.059 Y54.04 E.03174
G1 X110.913 Y53.689 E.03125
G1 X111.816 Y53.433 E.03177
G1 X114.684 Y52.838 E.09915
G1 X117.315 Y52.396 E.0903
G1 X118.845 Y52.229 E.0521
G1 X120.405 Y52.126 E.05292
G1 X121.946 Y52.092 E.05217
G1 X123.481 Y52.124 E.05197
G1 X125.953 Y52.308 E.08391
G1 X127.736 Y52.544 E.06088
G1 X129.723 Y52.926 E.06849
G1 X131.65 Y53.431 E.06743
G1 X133.685 Y54.117 E.07269
G1 X135.173 Y54.717 E.05431
G1 X137.461 Y55.779 E.08538
G1 X139.039 Y56.616 E.06046
G1 X139.853 Y57.183 E.03358
G1 X140.579 Y57.879 E.03404
G1 X141.184 Y58.7 E.03452
G1 X141.65 Y59.594 E.03413
G1 X142.398 Y61.618 E.07304
G1 X142.767 Y62.871 E.04421
G1 X143.002 Y63.922 E.03645
G1 X143.112 Y64.69 E.02626
G1 X143.157 Y65.476 E.02665
G1 X143.132 Y66.146 E.02269
G1 X143.03 Y66.871 E.02478
G1 X142.823 Y67.667 E.02784
G1 X142.516 Y68.43 E.02784
G1 X141.865 Y69.551 E.04388
G1 X140.973 Y70.691 E.049
G1 X140.288 Y72.109 E.0533
G1 X138.7 Y75.027 E.11245
G1 X138.135 Y76.474 E.05258
G1 X137.515 Y78.763 E.08027
G1 X137.111 Y80.82 E.07096
G1 X136.925 Y82.664 E.06273
G1 X136.794 Y85.799 E.10621
G1 X136.827 Y89.147 E.11333
G1 X137.031 Y92.485 E.1132
G1 X137.381 Y95.758 E.11142
G1 X138.189 Y101.153 E.18465
G1 X138.388 Y102.817 E.05673
G1 X138.839 Y107.733 E.1671
G1 X139.007 Y110.583 E.09664
G1 X139.033 Y114.454 E.13103
G1 X138.783 Y126.76 E.41663
G1 X138.829 Y132.699 E.20103
G1 X138.576 Y139.072 E.21589
G1 X138.628 Y141.071 E.06769
G1 X139.069 Y145.665 E.15622
G1 X139.371 Y147.538 E.06422
G1 X140.511 Y151.829 E.15028
G1 X140.933 Y152.775 E.03506
G1 X141.185 Y153.57 E.02823
G1 X141.339 Y154.364 E.02738
G1 X141.413 Y155.181 E.02777
G1 X141.411 Y155.888 E.02393
G1 X141.357 Y156.542 E.02221
G1 X140.934 Y159.398 E.09773
G1 X140.781 Y160.192 E.02737
G1 X140.411 Y161.287 E.03912
G1 X140.058 Y161.972 E.02608
G1 X139.605 Y162.653 E.02769
G1 X138.715 Y163.672 E.0458
G1 X137.999 Y164.281 E.03182
G1 X136.522 Y165.245 E.0597
G1 X135.565 Y165.791 E.03729
G1 X132.713 Y167.251 E.10845
G1 X131.525 Y167.777 E.04398
G1 X130.821 Y168.025 E.02526
G1 X128.584 Y168.692 E.07901
G1 X127.759 Y168.888 E.0287
G1 X126.051 Y169.108 E.05829
G1 X124.745 Y169.159 E.04424
G1 X122.259 Y169.078 E.08419
G1 X120.722 Y168.898 E.05238
G1 X119.804 Y168.731 E.03158
G1 X117.639 Y168.139 E.07597
G1 X114.8 Y167.156 E.10169
G1 X113.738 Y166.706 E.03904
G1 X112.946 Y166.241 E.03109
G1 X111.937 Y165.513 E.04212
G1 X111.348 Y164.963 E.02728
G1 X110.821 Y164.322 E.02809
G1 X110.04 Y163.059 E.05026
G1 X109.586 Y162.135 E.03485
G1 X109.085 Y160.887 E.04552
G1 X108.833 Y160.063 E.02917
G1 X108.574 Y158.621 E.04959
G1 X108.442 Y156.79 E.06214
G1 X107.903 Y151.495 E.18016
G1 X107.307 Y146.767 E.1613
G1 X107.068 Y142.658 E.13932
G1 X106.503 Y136.54 E.20797
G1 X106.142 Y130.722 E.19731
G1 X105.525 Y118.564 E.41206
G1 X105.415 Y115.663 E.09827
G1 X105.274 Y107.572 E.27391
G1 X105.23 Y94.325 E.4484
G1 X105.36 Y86.132 E.27736
G1 X105.647 Y84.924 E.04203
G1 X106.015 Y84.171 E.02837
G1 X106.554 Y83.446 E.03058
G1 X107.827 Y82.431 E.05511
G1 X108.497 Y82.133 E.02482
G1 X109.193 Y81.936 E.02448
G1 X110.367 Y81.858 E.03983
G1 X111.063 Y81.948 E.02375
G1 X112.505 Y82.004 E.04885
G1 X113.654 Y82.23 E.03964
G1 X114.225 Y82.413 E.0203
G1 X115.401 Y82.9 E.04308
G1 X116.685 Y83.55 E.04871
G1 X117.559 Y84.083 E.03465
G1 X119.762 Y85.718 E.09286
G1 X120.768 Y86.233 E.03825
G1 X121.451 Y86.658 E.02723
G1 X122.514 Y87.63 E.04876
G1 X123.149 Y88.545 E.0377
G1 X123.564 Y89.47 E.03432
G1 X123.768 Y90.224 E.02644
G1 X124.063 Y90.239 E.01
G1 X124.511 Y89.298 E.03528
G1 X124.94 Y88.663 E.02594
G1 X125.488 Y88.021 E.02857
G1 X126.282 Y87.262 E.03718
G1 X126.36 Y81.793 E.18514
G1 X126.318 Y78.006 E.12819
G1 X126.341 Y77.164 E.02851
G1 X126.466 Y75.94 E.04165
G1 X126.578 Y75.331 E.02096
G1 X126.893 Y74.153 E.04127
G1 X128.007 Y71.3 E.10367
G1 X128.418 Y70.103 E.04284
G1 X128.623 Y69.267 E.02914
G1 X128.81 Y67.869 E.04774
G1 X128.78 Y67.016 E.02889
G1 X128.564 Y66.277 E.02606
G1 X127.85 Y64.951 E.05098
G1 X127.281 Y64.143 E.03345
G1 X126.707 Y63.501 E.02915
G1 X126.232 Y63.108 E.02087
G1 X125.529 Y62.749 E.02672
G1 X124.505 Y62.484 E.0358
G1 X123.461 Y62.356 E.0356
G1 X122.608 Y62.32 E.0289
G1 X121.382 Y62.345 E.04151
G1 X119.998 Y62.477 E.04706
G1 X118.163 Y62.806 E.0631
G1 X115.731 Y63.407 E.0848
G1 X114.139 Y63.7 E.05479
G1 X113.631 Y64.104 E.02197
G1 X112.815 Y64.534 E.03122
G1 X111.791 Y64.817 E.03596
G1 X110.828 Y64.887 E.03268
G1 X109.582 Y64.663 E.04285
G1 X108.62 Y64.242 E.03554
G1 X107.784 Y63.666 E.03436
G1 X107.121 Y62.942 E.03323
G1 X106.605 Y62.073 E.03421
G1 X106.189 Y60.497 E.05517
G1 X106.198 Y59.897 E.02031
G1 X106.295 Y59.102 E.02711
G1 X106.444 Y58.399 E.02432
G1 X106.758 Y57.533 E.03118
G1 X107.139 Y57.67 F60000
G1 F1800
G1 X107.142 Y57.66 E.00035
G1 X107.597 Y56.844 E.03162
G1 X108.759 Y55.451 E.0614
G1 X109.472 Y54.858 E.03139
G1 X110.228 Y54.411 E.02973
G1 X111.056 Y54.07 E.03031
G1 X111.906 Y53.83 E.0299
G1 X116.01 Y53.003 E.14171
G1 X118.876 Y52.635 E.09781
G1 X120.418 Y52.533 E.05231
G1 X121.942 Y52.499 E.0516
G1 X123.468 Y52.531 E.05166
G1 X125.074 Y52.633 E.05447
G1 X126.793 Y52.818 E.05852
G1 X128.655 Y53.118 E.06384
G1 X130.589 Y53.557 E.06713
G1 X132.544 Y54.142 E.06907
G1 X135.009 Y55.09 E.0894
G1 X137.283 Y56.145 E.08485
G1 X138.816 Y56.957 E.05872
G1 X139.583 Y57.488 E.03158
G1 X140.285 Y58.16 E.03289
G1 X140.846 Y58.927 E.03217
G1 X141.283 Y59.772 E.0322
G1 X142.012 Y61.745 E.0712
G1 X142.371 Y62.967 E.04311
G1 X142.6 Y63.988 E.03542
G1 X142.75 Y65.471 E.05045
G1 X142.727 Y66.1 E.02131
G1 X142.633 Y66.781 E.02327
G1 X142.44 Y67.527 E.02608
G1 X142.142 Y68.268 E.02703
G1 X141.526 Y69.325 E.04141
G1 X140.61 Y70.507 E.05062
G1 X139.927 Y71.921 E.05315
G1 X138.333 Y74.852 E.11293
G1 X137.747 Y76.349 E.05442
G1 X137.119 Y78.669 E.08136
G1 X136.708 Y80.764 E.07226
G1 X136.519 Y82.635 E.06365
G1 X136.387 Y85.792 E.10695
G1 X136.42 Y89.161 E.11404
G1 X136.625 Y92.519 E.11388
G1 X136.977 Y95.811 E.11207
G1 X137.786 Y101.209 E.18476
G1 X137.984 Y102.863 E.05639
G1 X138.433 Y107.766 E.16666
G1 X138.6 Y110.599 E.09606
G1 X138.626 Y114.448 E.13029
G1 X138.376 Y126.757 E.41673
G1 X138.422 Y132.695 E.201
G1 X138.169 Y139.068 E.21589
G1 X138.222 Y141.096 E.06867
G1 X138.665 Y145.715 E.15707
G1 X138.972 Y147.621 E.06535
G1 X140.127 Y151.968 E.15225
G1 X140.549 Y152.91 E.03494
G1 X140.788 Y153.66 E.02664
G1 X140.935 Y154.411 E.0259
G1 X141.006 Y155.208 E.02708
G1 X141.005 Y155.863 E.02217
G1 X140.953 Y156.489 E.02126
G1 X140.533 Y159.326 E.09708
G1 X140.387 Y160.089 E.0263
G1 X140.036 Y161.129 E.03715
G1 X139.713 Y161.756 E.02387
G1 X139.282 Y162.404 E.02634
G1 X138.428 Y163.383 E.04397
G1 X137.745 Y163.962 E.03031
G1 X136.315 Y164.894 E.05778
G1 X135.376 Y165.431 E.03661
G1 X132.536 Y166.884 E.10798
G1 X131.374 Y167.398 E.04301
G1 X130.695 Y167.638 E.02438
G1 X128.475 Y168.3 E.07841
G1 X127.685 Y168.488 E.02749
G1 X126.017 Y168.703 E.05693
G1 X124.742 Y168.751 E.04319
G1 X122.295 Y168.673 E.08287
G1 X120.782 Y168.496 E.05156
G1 X119.891 Y168.333 E.03066
G1 X117.77 Y167.753 E.07443
G1 X114.939 Y166.773 E.10141
G1 X113.932 Y166.348 E.037
G1 X113.176 Y165.905 E.02966
G1 X112.186 Y165.191 E.04132
G1 X111.637 Y164.675 E.0255
G1 X111.143 Y164.072 E.02639
G1 X110.402 Y162.874 E.04768
G1 X109.958 Y161.972 E.03403
G1 X109.472 Y160.762 E.04414
G1 X109.229 Y159.967 E.02814
G1 X108.978 Y158.572 E.04798
G1 X108.847 Y156.753 E.06173
G1 X108.307 Y151.451 E.18039
G1 X107.712 Y146.726 E.1612
G1 X107.474 Y142.63 E.13888
G1 X107.083 Y138.606 E.13685
G1 X106.743 Y134.085 E.15346
G1 X105.932 Y118.548 E.52662
G1 X105.822 Y115.652 E.0981
G1 X105.681 Y107.567 E.27371
G1 X105.625 Y97.634 E.33623
G1 X105.675 Y90.705 E.23454
G1 X105.767 Y86.163 E.15377
G1 X106.037 Y85.043 E.039
G1 X106.372 Y84.368 E.02551
G1 X106.829 Y83.747 E.0261
G1 X108.059 Y82.767 E.05323
G1 X108.645 Y82.512 E.02163
G1 X109.282 Y82.334 E.02239
G1 X110.371 Y82.265 E.03694
G1 X111.031 Y82.354 E.02254
G1 X111.968 Y82.374 E.03172
G1 X112.945 Y82.48 E.03326
G1 X114.092 Y82.798 E.04029
G1 X115.229 Y83.269 E.04166
G1 X116.478 Y83.901 E.04738
G1 X117.33 Y84.42 E.03377
G1 X118.141 Y84.991 E.03357
G1 X119.544 Y86.062 E.05975
G1 X120.563 Y86.585 E.03877
G1 X121.191 Y86.972 E.02497
G1 X122.222 Y87.915 E.04729
G1 X122.803 Y88.76 E.03471
G1 X123.186 Y89.62 E.03187
G1 X123.409 Y90.461 E.02945
G1 X123.513 Y91.241 E.02664
G1 X123.591 Y96.004 E.16124
G1 X123.989 Y96.007 E.01347
G1 X124.132 Y93.779 E.07557
G1 X124.054 Y92.736 E.0354
G1 X124.099 Y91.701 E.03507
G1 X124.296 Y90.783 E.03178
G1 X124.546 Y90.112 E.02424
G1 X124.867 Y89.497 E.02348
G1 X125.27 Y88.9 E.02438
G1 X125.777 Y88.308 E.02638
G1 X126.677 Y87.449 E.04211
G1 X126.767 Y81.795 E.19141
G1 X126.725 Y78.012 E.12806
G1 X126.747 Y77.191 E.0278
G1 X126.869 Y75.998 E.04059
G1 X127.278 Y74.284 E.05965
G1 X128.387 Y71.447 E.10311
G1 X128.81 Y70.213 E.04416
G1 X129.126 Y68.75 E.05066
G1 X129.217 Y67.891 E.02924
G1 X129.184 Y66.958 E.0316
G1 X128.943 Y66.125 E.02935
G1 X128.543 Y65.315 E.03058
G1 X127.795 Y64.148 E.04692
G1 X127.396 Y63.642 E.02181
G1 X126.621 Y62.888 E.0366
G1 X126.09 Y62.55 E.02131
G1 X125.676 Y62.369 E.01529
G1 X124.851 Y62.135 E.02903
G1 X123.823 Y61.98 E.03519
G1 X122.615 Y61.912 E.04095
G1 X121.766 Y61.92 E.02874
G1 X120.448 Y62.013 E.04472
G1 X119.117 Y62.201 E.0455
G1 X115.04 Y63.142 E.14163
G1 X113.976 Y63.308 E.03645
G1 X113.424 Y63.754 E.02402
G1 X112.646 Y64.163 E.02975
G1 X111.703 Y64.419 E.03307
G1 X110.872 Y64.481 E.02821
G1 X109.722 Y64.279 E.03952
G1 X108.833 Y63.894 E.03279
G1 X108.068 Y63.374 E.03131
G1 X107.436 Y62.683 E.0317
G1 X106.97 Y61.891 E.0311
G1 X106.597 Y60.474 E.0496
G1 X106.604 Y59.935 E.01825
G1 X106.832 Y58.523 E.04841
G1 X107.118 Y57.726 E.02866
G1 X107.5 Y57.862 F60000
G1 F1800
G1 X107.506 Y57.843 E.00067
G1 X107.943 Y57.059 E.03038
G1 X109.059 Y55.727 E.05882
G1 X109.693 Y55.2 E.02791
G1 X110.422 Y54.769 E.02867
G1 X111.199 Y54.451 E.02842
G1 X111.995 Y54.227 E.02799
G1 X114.845 Y53.636 E.09852
G1 X117.412 Y53.204 E.08811
G1 X118.907 Y53.041 E.0509
G1 X120.432 Y52.94 E.05173
G1 X121.947 Y52.906 E.05129
G1 X123.455 Y52.938 E.05106
G1 X125.871 Y53.118 E.08201
G1 X127.613 Y53.349 E.05948
G1 X129.543 Y53.72 E.06652
G1 X131.423 Y54.213 E.06579
G1 X133.404 Y54.881 E.07076
G1 X134.846 Y55.463 E.05264
G1 X137.105 Y56.511 E.08429
G1 X138.593 Y57.298 E.05698
G1 X139.314 Y57.794 E.02962
G1 X139.967 Y58.416 E.03053
G1 X140.507 Y59.154 E.03095
G1 X140.917 Y59.949 E.03028
G1 X141.625 Y61.873 E.06939
G1 X141.975 Y63.063 E.04199
G1 X142.198 Y64.054 E.03438
G1 X142.343 Y65.485 E.04869
G1 X142.235 Y66.691 E.04099
G1 X142.049 Y67.412 E.0252
G1 X141.769 Y68.105 E.0253
G1 X141.187 Y69.099 E.03899
G1 X140.252 Y70.311 E.05181
G1 X139.566 Y71.733 E.05344
G1 X137.966 Y74.676 E.11339
G1 X137.359 Y76.225 E.05631
G1 X136.723 Y78.575 E.08241
G1 X136.305 Y80.708 E.07357
G1 X136.113 Y82.607 E.06461
G1 X135.98 Y85.785 E.10767
G1 X136.014 Y89.176 E.11479
G1 X136.22 Y92.552 E.11449
G1 X136.574 Y95.863 E.11271
G1 X137.383 Y101.265 E.18489
G1 X137.579 Y102.909 E.05604
G1 X138.027 Y107.8 E.16625
G1 X138.193 Y110.615 E.09545
G1 X138.219 Y114.441 E.12951
G1 X137.969 Y126.753 E.41683
G1 X138.015 Y132.691 E.201
G1 X137.762 Y139.064 E.21589
G1 X137.815 Y141.12 E.06962
G1 X138.261 Y145.764 E.15792
G1 X138.574 Y147.705 E.06655
G1 X139.736 Y152.082 E.15329
G1 X140.166 Y153.047 E.03576
G1 X140.391 Y153.751 E.02502
G1 X140.53 Y154.458 E.02439
G1 X140.6 Y155.235 E.02641
G1 X140.549 Y156.436 E.04069
G1 X140.132 Y159.254 E.09642
G1 X139.993 Y159.986 E.02522
G1 X139.66 Y160.972 E.03523
G1 X139.367 Y161.541 E.02166
G1 X138.959 Y162.156 E.02498
G1 X138.142 Y163.093 E.04208
G1 X137.492 Y163.643 E.02882
G1 X136.108 Y164.544 E.0559
G1 X135.186 Y165.071 E.03595
G1 X132.358 Y166.518 E.10753
G1 X131.224 Y167.02 E.04198
G1 X130.57 Y167.251 E.02348
G1 X128.365 Y167.907 E.07787
G1 X127.61 Y168.088 E.02628
G1 X125.984 Y168.297 E.05549
G1 X124.738 Y168.344 E.04221
G1 X122.331 Y168.267 E.08152
G1 X120.841 Y168.093 E.05078
G1 X119.979 Y167.936 E.02966
G1 X117.9 Y167.368 E.07295
G1 X115.079 Y166.391 E.10105
G1 X114.126 Y165.989 E.03501
G1 X113.411 Y165.572 E.02802
G1 X112.453 Y164.883 E.03994
