; generated by PrusaSlicer 2.7.1+MacOS-arm64 on 2024-02-11 at 19:34:22 UTC


;
;

;
;

;
;

;
;

;
;
; 

; external perimeters extrusion width = 0.45mm
; perimeters extrusion width = 0.45mm
; infill extrusion width = 0.45mm
; solid infill extrusion width = 0.45mm
; top infill extrusion width = 0.40mm

M73 P0 R27

EXCLUDE_OBJECT_DEFINE NAME=Left_stl CENTER=89.067,111.023 POLYGON=[[87.656,56.249],[89.653,56.373],[91.450,56.700],[95.851,58.215],[96.728,58.817],[97.033,59.161],[97.650,60.252],[98.215,61.719],[98.360,62.520],[99.034,69.672],[99.623,74.329],[99.864,78.480],[100.416,84.431],[100.876,92.170],[101.506,105.548],[101.676,118.465],[101.638,129.914],[101.355,140.774],[100.731,155.464],[100.676,160.760],[100.490,161.297],[99.878,162.041],[99.545,162.283],[99.105,162.452],[94.409,163.396],[92.475,163.629],[90.509,163.742],[88.507,163.728],[86.520,163.592],[84.679,163.356],[83.055,163.044],[81.360,162.599],[79.654,162.021],[77.880,161.286],[76.097,160.437],[74.926,159.792],[74.536,159.355],[74.138,158.407],[73.634,156.863],[73.404,155.922],[73.312,155.152],[73.364,154.604],[73.531,154.166],[74.925,152.212],[75.791,150.438],[77.265,147.735],[78.077,145.710],[78.711,143.437],[79.235,140.975],[79.530,138.329],[79.676,134.798],[79.631,131.086],[79.364,127.083],[78.950,123.527],[78.085,117.592],[77.625,112.639],[77.460,109.879],[77.431,106.538],[77.692,92.871],[77.640,87.975],[77.887,82.048],[77.833,79.263],[77.473,75.325],[77.121,72.745],[76.685,70.797],[75.744,67.373],[75.135,65.871],[75.053,65.264],[75.092,64.551],[75.594,61.418],[76.033,60.681],[76.755,60.036],[78.488,58.993],[81.114,57.650],[82.119,57.224],[85.025,56.396],[86.017,56.284]]

;TYPE:Custom
CALCULATE_PA MATERIAL=PLA BOWDEN_LENGTH=5.5 LAYER_HEIGHT=0.2 NOZZLE_SIZE=0.4 PRINT_SPEED=90


START_PRINT EXTRUDER=210 BED=65
G21 ; set units to millimeters
G90 ; use absolute coordinates
M83 ; use relative distances for extrusion
; Filament gcode
M107
;LAYER_CHANGE
;Z:0.2
;HEIGHT:0.2
;BEFORE_LAYER_CHANGE
G92 E0.0
;0.2
;M201 X4000 Y4000
;M74 W0

G1 Z.2 F60000
;AFTER_LAYER_CHANGE
;0.2
CALCULATE_PA MATERIAL=PLA BOWDEN_LENGTH=6.0 LAYER_HEIGHT=0.24 NOZZLE_SIZE=0.4 PRINT_SPEED=90
G1 E-2 F3000
G1 X72.7 Y58.088 F60000
G1 Z.2
G1 E2 F3000
;TYPE:Skirt/Brim
;WIDTH:0.45
G1 F1800
G1 X73.33 Y57.363 E.03251
G1 X74.058 Y56.732 E.03261
G1 X75.132 Y55.958 E.04481
G1 X75.882 Y55.469 E.03031
G1 X78.671 Y53.874 E.10875
G1 X79.588 Y53.396 E.035
G1 X80.738 Y52.92 E.04213
G1 X82.726 Y52.276 E.07073
G1 X83.938 Y51.961 E.04239
G1 X85.316 Y51.761 E.04713
G1 X86.371 Y51.704 E.03576
G1 X87.969 Y51.713 E.05409
G1 X89.864 Y51.861 E.06434
G1 X90.941 Y52.026 E.03688
G1 X92.713 Y52.447 E.06165
G1 X93.86 Y52.829 E.04092
G1 X97.462 Y54.293 E.13161
G1 X98.304 Y54.769 E.03274
G1 X99.728 Y55.903 E.06162
G1 X100.578 Y56.963 E.04599
G1 X101.22 Y58.161 E.04601
G1 X101.885 Y59.862 E.06182
G1 X102.148 Y60.795 E.03281
G1 X102.327 Y61.831 E.03559
G1 X102.423 Y64.312 E.08404
G1 X102.789 Y68.978 E.15842
G1 X103.498 Y73.886 E.16785
G1 X103.871 Y77.739 E.13103
G1 X104.527 Y82.696 E.16925
G1 X104.86 Y86.607 E.13286
G1 X104.968 Y89.441 E.096
G1 X104.981 Y91.573 E.07217
G1 X104.893 Y95.523 E.13374
G1 X104.554 Y101.954 E.21798
G1 X103.828 Y111.615 E.32794
G1 X103.708 Y114.338 E.09226
G1 X103.684 Y117.056 E.092
G1 X103.754 Y119.809 E.09322
G1 X103.898 Y122.563 E.09335
G1 X104.107 Y125.352 E.09467
G1 X105.02 Y134.43 E.30883
G1 X105.311 Y137.762 E.11321
G1 X105.565 Y142.443 E.15868
G1 X105.607 Y145.978 E.11966
G1 X105.572 Y148.292 E.07834
G1 X105.283 Y156.561 E.28007
G1 X105.286 Y160.367 E.12883
G1 X105.189 Y161.536 E.03971
G1 X104.889 Y162.681 E.04007
G1 X104.506 Y163.502 E.03067
G1 X104.011 Y164.24 E.03008
G1 X103.38 Y165 E.03344
G1 X102.709 Y165.65 E.03162
G1 X102.024 Y166.139 E.02849
G1 X101.285 Y166.524 E.02821
G1 X100.593 Y166.786 E.02505
G1 X99.871 Y166.986 E.02536
G1 X95.286 Y167.895 E.15822
G1 X92.514 Y168.222 E.09448
G1 X90.794 Y168.317 E.05831
G1 X89.005 Y168.325 E.06056
G1 X86.458 Y168.187 E.08634
G1 X83.559 Y167.812 E.09895
G1 X81.719 Y167.436 E.06357
G1 X79.944 Y166.956 E.06224
G1 X77.734 Y166.184 E.07924
G1 X75.461 Y165.145 E.0846
G1 X74.22 Y164.46 E.04798
G1 X72.533 Y163.377 E.06786
G1 X71.636 Y162.595 E.04028
G1 X70.906 Y161.633 E.04088
G1 X70.518 Y160.847 E.02967
G1 X70.055 Y159.305 E.0545
G1 X69.723 Y157.553 E.06036
G1 X69.56 Y155.854 E.05777
G1 X69.567 Y154.921 E.03158
G1 X69.702 Y153.921 E.03416
G1 X69.968 Y153.028 E.03154
G1 X70.452 Y152.083 E.03594
G1 X70.868 Y151.51 E.02397
G1 X71.347 Y150.975 E.02431
G1 X72.576 Y149.861 E.05615
G1 X73.656 Y148.407 E.06131
G1 X75.397 Y146.269 E.09333
G1 X75.815 Y145.64 E.02556
G1 X76.301 Y144.661 E.037
G1 X76.787 Y143.169 E.05311
G1 X77.179 Y141.312 E.06424
G1 X77.358 Y139.772 E.05248
G1 X77.464 Y137.261 E.08507
G1 X77.472 Y135.126 E.07227
G1 X77.411 Y132.799 E.07879
G1 X77.297 Y130.888 E.0648
G1 X77.086 Y128.553 E.07936
G1 X76.582 Y124.789 E.12854
G1 X75.718 Y120.082 E.16199
G1 X75.377 Y117.954 E.07295
G1 X74.758 Y112.898 E.17242
G1 X74.502 Y109.767 E.10633
G1 X74.407 Y105.506 E.14427
G1 X74.449 Y93.26 E.41451
G1 X74.333 Y88.334 E.16679
G1 X74.481 Y81.891 E.21815
G1 X74.359 Y79.325 E.08695
G1 X73.885 Y75.447 E.13224
G1 X73.462 Y73.151 E.07902
G1 X73.115 Y71.901 E.04391
G1 X72.104 Y68.78 E.11105
G1 X71.483 Y67.48 E.04877
G1 X71.28 Y66.845 E.02257
G1 X71.145 Y66.209 E.02201
G1 X71.057 Y65.378 E.02829
G1 X71.06 Y64.523 E.02894
G1 X71.41 Y60.916 E.12267
G1 X71.709 Y59.828 E.03819
G1 X72.15 Y58.91 E.03447
G1 X72.667 Y58.138 E.03145
G1 X73.004 Y58.363 F60000
G1 F1800
G1 X73.017 Y58.344 E.00078
G1 X73.608 Y57.661 E.03057
G1 X74.318 Y57.046 E.03179
G1 X76.091 Y55.818 E.073
G1 X79.77 Y53.76 E.14269
G1 X81.563 Y53.067 E.06507
G1 X84.014 Y52.361 E.08634
G1 X85.357 Y52.167 E.04593
G1 X87.043 Y52.102 E.05711
G1 X88.864 Y52.171 E.06168
G1 X89.819 Y52.266 E.03249
G1 X90.861 Y52.425 E.03568
G1 X91.903 Y52.65 E.03608
G1 X93.721 Y53.211 E.0644
G1 X97.289 Y54.662 E.13038
G1 X98.065 Y55.098 E.03013
G1 X99.425 Y56.176 E.05874
G1 X100.233 Y57.178 E.04357
G1 X100.853 Y58.338 E.04452
G1 X101.495 Y59.979 E.05965
G1 X101.75 Y60.883 E.03179
G1 X101.923 Y61.881 E.03428
G1 X102.017 Y64.338 E.08323
G1 X102.384 Y69.018 E.1589
G1 X103.094 Y73.938 E.16826
G1 X103.466 Y77.785 E.13082
G1 X104.123 Y82.744 E.16932
G1 X104.38 Y85.516 E.09423
G1 X104.51 Y87.783 E.07686
G1 X104.574 Y91.573 E.12831
G1 X104.486 Y95.506 E.13316
G1 X104.148 Y101.927 E.21764
G1 X103.421 Y111.592 E.32807
G1 X103.301 Y114.328 E.0927
G1 X103.277 Y117.06 E.09248
G1 X103.348 Y119.825 E.09362
G1 X103.491 Y122.59 E.09372
G1 X103.702 Y125.386 E.09491
G1 X104.615 Y134.47 E.30903
G1 X104.905 Y137.795 E.11297
G1 X105.158 Y142.458 E.15807
G1 X105.2 Y145.978 E.11916
G1 X105.165 Y148.285 E.0781
G1 X104.876 Y156.551 E.27997
G1 X104.879 Y160.362 E.129
G1 X104.79 Y161.451 E.03698
G1 X104.511 Y162.527 E.03763
G1 X104.158 Y163.289 E.02843
G1 X103.69 Y163.989 E.0285
G1 X103.087 Y164.716 E.03197
G1 X102.459 Y165.329 E.02971
G1 X101.823 Y165.785 E.02649
G1 X101.107 Y166.157 E.02731
G1 X99.781 Y166.589 E.04721
G1 X95.218 Y167.494 E.15746
G1 X92.478 Y167.817 E.09339
G1 X90.779 Y167.91 E.0576
G1 X89.015 Y167.918 E.05971
G1 X86.499 Y167.782 E.08529
G1 X83.624 Y167.41 E.09813
G1 X81.811 Y167.04 E.06263
G1 X80.066 Y166.568 E.06119
G1 X77.887 Y165.806 E.07814
G1 X75.644 Y164.781 E.08347
G1 X74.427 Y164.11 E.04704
G1 X72.789 Y163.06 E.06586
G1 X71.947 Y162.331 E.0377
G1 X71.262 Y161.435 E.03818
G1 X70.898 Y160.7 E.02776
G1 X70.453 Y159.217 E.05241
G1 X70.127 Y157.498 E.05922
G1 X69.967 Y155.834 E.05658
G1 X69.972 Y154.961 E.02955
G1 X70.097 Y154.021 E.0321
G1 X70.344 Y153.182 E.0296
G1 X70.799 Y152.295 E.03374
G1 X71.19 Y151.759 E.02246
G1 X71.641 Y151.256 E.02287
G1 X72.887 Y150.125 E.05696
G1 X73.973 Y148.662 E.06167
G1 X75.465 Y146.853 E.07937
G1 X76.164 Y145.848 E.04144
G1 X76.678 Y144.816 E.03902
G1 X77.181 Y143.272 E.05497
G1 X77.581 Y141.378 E.06552
G1 X77.764 Y139.805 E.0536
G1 X77.871 Y137.268 E.08595
M73 P1 R27
G1 X77.88 Y135.123 E.07261
G1 X77.818 Y132.78 E.07934
G1 X77.703 Y130.859 E.06514
G1 X77.491 Y128.509 E.07987
G1 X76.984 Y124.725 E.12923
G1 X76.119 Y120.012 E.16219
G1 X75.781 Y117.899 E.07243
G1 X75.163 Y112.857 E.17194
G1 X74.909 Y109.743 E.10576
G1 X74.815 Y105.505 E.14349
G1 X74.856 Y93.256 E.41462
G1 X74.74 Y88.336 E.16658
G1 X74.888 Y81.888 E.21831
G1 X74.764 Y79.289 E.08807
G1 X74.287 Y75.387 E.13306
G1 X73.858 Y73.058 E.08016
G1 X73.504 Y71.781 E.04486
G1 X72.486 Y68.638 E.11183
G1 X71.867 Y67.346 E.04849
G1 X71.549 Y66.155 E.04173
G1 X71.464 Y65.368 E.02679
G1 X71.466 Y64.552 E.02762
G1 X71.812 Y60.982 E.12141
G1 X72.084 Y59.987 E.03492
G1 X72.497 Y59.124 E.03238
G1 X72.971 Y58.413 E.02892
G1 X73.309 Y58.638 F60000
G1 F1800
G1 X73.333 Y58.601 E.00149
G1 X73.886 Y57.959 E.02868
G1 X74.578 Y57.359 E.031
G1 X76.301 Y56.167 E.07092
G1 X79.065 Y54.586 E.10778
G1 X79.952 Y54.124 E.03385
G1 X81.009 Y53.687 E.03872
G1 X82.954 Y53.057 E.0692
G1 X84.091 Y52.76 E.03978
G1 X85.397 Y52.572 E.04466
G1 X86.407 Y52.517 E.03424
G1 X87.93 Y52.526 E.05155
G1 X89.773 Y52.67 E.06257
G1 X90.793 Y52.827 E.03493
G1 X92.478 Y53.226 E.05861
G1 X93.582 Y53.594 E.03939
G1 X97.116 Y55.03 E.12912
G1 X97.826 Y55.428 E.02755
G1 X99.123 Y56.451 E.05591
G1 X99.887 Y57.394 E.04108
G1 X100.486 Y58.513 E.04296
G1 X101.105 Y60.097 E.05757
G1 X101.353 Y60.971 E.03075
G1 X101.519 Y61.93 E.03294
G1 X101.61 Y64.363 E.08241
G1 X101.978 Y69.059 E.15944
G1 X102.69 Y73.99 E.16864
G1 X103.062 Y77.83 E.13059
G1 X103.719 Y82.791 E.16939
G1 X104.047 Y86.654 E.13123
G1 X104.153 Y89.451 E.09474
G1 X104.167 Y91.574 E.07186
G1 X104.079 Y95.488 E.13252
G1 X103.742 Y101.9 E.21734
G1 X103.015 Y111.568 E.32817
G1 X102.894 Y114.318 E.09317
G1 X102.87 Y117.064 E.09295
G1 X102.941 Y119.84 E.094
G1 X103.085 Y122.616 E.09409
G1 X103.296 Y125.421 E.09521
G1 X104.21 Y134.51 E.3092
G1 X104.499 Y137.828 E.11274
G1 X104.751 Y142.473 E.15746
G1 X104.793 Y145.979 E.11868
G1 X104.758 Y148.277 E.07779
G1 X104.469 Y156.542 E.27993
G1 X104.471 Y160.357 E.12913
G1 X104.392 Y161.367 E.03429
G1 X104.134 Y162.374 E.03519
G1 X103.811 Y163.077 E.02619
G1 X103.37 Y163.737 E.02687
G1 X102.781 Y164.448 E.03125
G1 X102.209 Y165.007 E.02707
G1 X101.598 Y165.445 E.02545
G1 X100.932 Y165.79 E.02539
G1 X99.692 Y166.192 E.04412
G1 X95.151 Y167.092 E.1567
G1 X92.442 Y167.411 E.09233
G1 X90.765 Y167.503 E.05685
G1 X89.026 Y167.511 E.05886
G1 X86.54 Y167.377 E.08427
G1 X83.688 Y167.009 E.09734
G1 X81.904 Y166.643 E.06164
G1 X80.189 Y166.179 E.06014
G1 X78.039 Y165.429 E.07708
G1 X75.828 Y164.418 E.08229
G1 X74.635 Y163.759 E.04613
G1 X73.045 Y162.743 E.06387
G1 X72.256 Y162.065 E.03521
G1 X71.617 Y161.235 E.03546
G1 X71.277 Y160.552 E.02582
G1 X70.851 Y159.13 E.05025
G1 X70.53 Y157.444 E.05809
G1 X70.374 Y155.828 E.05495
G1 X70.378 Y155.001 E.02799
G1 X70.492 Y154.12 E.03007
G1 X70.721 Y153.337 E.02761
G1 X71.147 Y152.508 E.03155
G1 X71.936 Y151.537 E.04235
G1 X73.198 Y150.389 E.05775
G1 X74.291 Y148.917 E.06206
G1 X75.784 Y147.106 E.07945
G1 X76.514 Y146.057 E.04326
G1 X77.055 Y144.971 E.04107
G1 X77.575 Y143.375 E.05682
G1 X77.983 Y141.444 E.06681
G1 X78.17 Y139.837 E.05476
G1 X78.278 Y137.274 E.08683
G1 X78.287 Y135.12 E.07291
G1 X78.225 Y132.76 E.07991
G1 X78.109 Y130.831 E.06541
G1 X77.895 Y128.465 E.08041
G1 X77.386 Y124.66 E.12994
G1 X76.52 Y119.942 E.16237
G1 X76.184 Y117.844 E.07192
G1 X75.568 Y112.815 E.1715
G1 X75.315 Y109.718 E.10518
G1 X75.222 Y105.505 E.14264
G1 X75.263 Y93.253 E.41472
G1 X75.147 Y88.338 E.16641
G1 X75.295 Y81.885 E.21848
G1 X75.17 Y79.253 E.08919
G1 X74.69 Y75.327 E.13388
G1 X74.255 Y72.964 E.08133
G1 X73.893 Y71.661 E.04578
G1 X72.868 Y68.496 E.11261
G1 X72.252 Y67.212 E.0482
G1 X71.949 Y66.082 E.0396
G1 X71.87 Y65.336 E.02539
G1 X71.872 Y64.581 E.02556
G1 X72.214 Y61.047 E.12018
G1 X72.459 Y60.146 E.03161
G1 X72.858 Y59.313 E.03126
G1 X73.275 Y58.688 E.02543
G1 X73.613 Y58.914 F60000
G1 F1800
G1 X73.664 Y58.838 E.0031
G1 X74.184 Y58.237 E.0269
G1 X74.822 Y57.685 E.02856
G1 X75.834 Y56.958 E.04218
G1 X77.679 Y55.836 E.07309
G1 X80.123 Y54.494 E.09438
G1 X81.145 Y54.071 E.03744
G1 X83.074 Y53.446 E.06864
G1 X84.179 Y53.158 E.03865
G1 X84.797 Y53.05 E.02124
G1 X85.425 Y52.978 E.0214
G1 X87.033 Y52.916 E.05447
G1 X88.809 Y52.984 E.06016
G1 X89.727 Y53.075 E.03123
G1 X91.701 Y53.438 E.06794
G1 X93.443 Y53.976 E.06171
G1 X96.944 Y55.399 E.12792
G1 X97.587 Y55.758 E.02493
G1 X98.822 Y56.725 E.05309
G1 X99.541 Y57.61 E.0386
G1 X100.119 Y58.689 E.04143
G1 X100.716 Y60.215 E.05547
G1 X100.955 Y61.06 E.02972
G1 X101.114 Y61.978 E.03154
G1 X101.204 Y64.389 E.08167
G1 X101.573 Y69.1 E.15995
G1 X102.287 Y74.042 E.16902
G1 X102.657 Y77.875 E.13035
G1 X103.314 Y82.839 E.16949
G1 X103.569 Y85.579 E.09315
G1 X103.697 Y87.811 E.07567
G1 X103.76 Y91.574 E.12739
G1 X103.673 Y95.471 E.13194
G1 X103.336 Y101.873 E.217
G1 X102.608 Y111.544 E.32828
G1 X102.487 Y114.307 E.09361
G1 X102.463 Y117.068 E.09346
G1 X102.534 Y119.856 E.0944
G1 X102.679 Y122.643 E.09446
G1 X102.891 Y125.455 E.09545
G1 X103.805 Y134.551 E.30944
G1 X104.093 Y137.861 E.11246
G1 X104.344 Y142.488 E.15685
G1 X104.386 Y145.979 E.11817
G1 X104.351 Y148.269 E.07752
G1 X104.062 Y156.533 E.2799
G1 X104.064 Y160.352 E.12927
G1 X103.993 Y161.285 E.03167
G1 X103.756 Y162.222 E.03272
G1 X103.448 Y162.892 E.02496
G1 X103.05 Y163.485 E.02417
G1 X102.474 Y164.18 E.03055
G1 X101.958 Y164.686 E.02446
G1 X101.397 Y165.091 E.02342
G1 X100.755 Y165.423 E.02446
M73 P2 R27
G1 X99.602 Y165.795 E.04101
G1 X95.083 Y166.691 E.15594
G1 X92.406 Y167.006 E.09124
G1 X90.75 Y167.096 E.05614
G1 X89.036 Y167.104 E.05802
G1 X86.58 Y166.972 E.08325
G1 X83.753 Y166.607 E.09648
G1 X81.996 Y166.247 E.06071
G1 X80.311 Y165.791 E.05909
G1 X78.191 Y165.051 E.07601
G1 X76.011 Y164.054 E.08114
G1 X74.835 Y163.405 E.04547
G1 X73.299 Y162.425 E.06167
G1 X72.564 Y161.799 E.03268
G1 X71.972 Y161.035 E.03272
G1 X71.657 Y160.404 E.02387
G1 X71.248 Y159.043 E.0481
G1 X70.934 Y157.389 E.05699
G1 X70.781 Y155.822 E.05329
G1 X70.783 Y155.039 E.0265
G1 X70.888 Y154.217 E.02805
G1 X71.098 Y153.492 E.02555
G1 X71.493 Y152.721 E.02932
G1 X72.23 Y151.819 E.03943
G1 X73.501 Y150.661 E.0582
G1 X74.609 Y149.171 E.06285
G1 X76.103 Y147.358 E.07952
G1 X76.864 Y146.265 E.04508
G1 X77.431 Y145.126 E.04307
G1 X77.968 Y143.478 E.05867
G1 X78.384 Y141.511 E.06805
G1 X78.575 Y139.87 E.05592
G1 X78.685 Y137.281 E.08771
G1 X78.694 Y135.116 E.07328
G1 X78.631 Y132.74 E.08045
G1 X78.515 Y130.802 E.06572
G1 X78.3 Y128.421 E.08092
G1 X77.788 Y124.596 E.13063
G1 X76.921 Y119.871 E.16261
G1 X76.587 Y117.789 E.07137
G1 X75.973 Y112.774 E.17102
G1 X75.722 Y109.694 E.1046
G1 X75.629 Y105.504 E.14186
G1 X75.67 Y93.249 E.41482
G1 X75.554 Y88.34 E.16621
G1 X75.702 Y81.883 E.21862
G1 X75.575 Y79.217 E.09034
G1 X75.093 Y75.267 E.13469
G1 X74.651 Y72.871 E.08247
G1 X74.283 Y71.541 E.04671
G1 X73.25 Y68.354 E.1134
G1 X72.629 Y67.058 E.04864
G1 X72.35 Y66.009 E.03674
G1 X72.276 Y65.305 E.02396
G1 X72.278 Y64.611 E.02349
G1 X72.616 Y61.112 E.11899
G1 X72.834 Y60.305 E.0283
G1 X73.219 Y59.502 E.03014
G1 X73.58 Y58.964 E.02193
G1 X73.917 Y59.192 F60000
G1 F1800
G1 X73.995 Y59.076 E.00473
G1 X74.482 Y58.515 E.02515
G1 X75.067 Y58.01 E.02616
G1 X76.72 Y56.865 E.06806
G1 X79.459 Y55.299 E.1068
G1 X80.294 Y54.863 E.03188
G1 X81.28 Y54.455 E.03612
G1 X83.193 Y53.836 E.06806
G1 X84.267 Y53.555 E.03758
G1 X85.453 Y53.384 E.04056
G1 X86.443 Y53.33 E.03356
G1 X87.899 Y53.34 E.04929
G1 X89.682 Y53.479 E.06054
G1 X90.646 Y53.627 E.03301
G1 X92.242 Y54.006 E.05553
G1 X93.304 Y54.359 E.03788
G1 X96.771 Y55.768 E.12667
G1 X97.35 Y56.09 E.02243
G1 X98.522 Y57.001 E.05025
G1 X99.196 Y57.826 E.03606
G1 X99.751 Y58.865 E.03987
G1 X100.326 Y60.333 E.05337
G1 X100.558 Y61.148 E.02868
G1 X100.71 Y62.026 E.03016
G1 X100.798 Y64.415 E.08092
G1 X101.168 Y69.141 E.16046
G1 X101.883 Y74.094 E.16939
G1 X102.253 Y77.92 E.13011
G1 X102.91 Y82.887 E.16959
G1 X103.234 Y86.7 E.12953
G1 X103.339 Y89.461 E.09352
G1 X103.353 Y91.575 E.07156
G1 X103.266 Y95.454 E.13133
G1 X102.93 Y101.845 E.21663
G1 X102.202 Y111.52 E.32841
