; generated by PrusaSlicer 2.7.1+MacOS-arm64 on 2024-02-11 at 21:32:57 UTC


;
;

;
;

;
;

;
;

;
;
; 

; external perimeters extrusion width = 0.45mm
; perimeters extrusion width = 0.45mm
; infill extrusion width = 0.45mm
; solid infill extrusion width = 0.45mm
; top infill extrusion width = 0.40mm

M73 P0 R37

EXCLUDE_OBJECT_DEFINE NAME=Left_Edited_stl CENTER=89.476,111.030 POLYGON=[[88.862,56.239],[90.980,56.400],[92.771,56.758],[97.146,58.346],[98.013,58.962],[98.312,59.311],[98.910,60.413],[99.451,61.889],[99.583,62.692],[100.136,69.855],[100.646,74.522],[100.818,78.676],[101.270,84.635],[101.600,92.380],[102.005,105.768],[101.957,118.685],[101.727,130.133],[101.262,140.986],[100.390,155.663],[100.246,160.958],[100.052,161.491],[99.427,162.225],[99.090,162.461],[98.647,162.623],[93.936,163.488],[91.998,163.688],[90.031,163.769],[88.029,163.721],[86.044,163.551],[84.208,163.284],[82.589,162.945],[80.902,162.472],[79.271,161.891],[75.907,160.341],[74.588,159.609],[74.134,159.113],[73.752,158.159],[73.273,156.607],[72.981,154.929],[73.041,154.343],[73.216,153.908],[74.643,151.978],[75.538,150.219],[77.058,147.541],[77.903,145.530],[78.576,143.269],[79.141,140.814],[79.480,138.174],[79.686,134.647],[79.703,130.934],[79.503,126.928],[79.149,123.361],[78.385,117.416],[78.008,112.455],[77.889,109.693],[77.917,106.353],[78.407,92.692],[78.437,87.795],[78.784,81.874],[78.777,79.088],[78.484,75.145],[78.174,72.559],[77.771,70.604],[76.889,67.165],[76.304,65.653],[76.233,65.044],[76.283,64.332],[76.839,61.207],[77.233,60.546],[77.892,59.929],[79.773,58.832],[82.421,57.533],[83.433,57.124],[86.353,56.345],[87.346,56.249]]

;TYPE:Custom
CALCULATE_PA MATERIAL=PLA BOWDEN_LENGTH=5.5 LAYER_HEIGHT=0.2 NOZZLE_SIZE=0.4 PRINT_SPEED=90


START_PRINT EXTRUDER=210 BED=65
G21 ; set units to millimeters
G90 ; use absolute coordinates
M83 ; use relative distances for extrusion
; Filament gcode
M107
;LAYER_CHANGE
;Z:0.2
;HEIGHT:0.2
;BEFORE_LAYER_CHANGE
G92 E0.0
;0.2
;M201 X4000 Y4000
;M74 W0

G1 Z.2 F60000
;AFTER_LAYER_CHANGE
;0.2
CALCULATE_PA MATERIAL=PLA BOWDEN_LENGTH=6.0 LAYER_HEIGHT=0.24 NOZZLE_SIZE=0.4 PRINT_SPEED=90
G1 E-2 F3000
G1 X74.035 Y57.803 F60000
G1 Z.2
G1 E2 F3000
;TYPE:Skirt/Brim
;WIDTH:0.45
G1 F1800
G1 X74.244 Y57.536 E.01148
G1 X74.751 Y57.014 E.02463
G1 X75.307 Y56.551 E.02449
G1 X77.21 Y55.273 E.07759
G1 X80.058 Y53.708 E.11
G1 X81.007 Y53.236 E.03588
G1 X82.108 Y52.803 E.04005
G1 X83.399 Y52.397 E.04581
G1 X85.367 Y51.887 E.06881
G1 X86.724 Y51.716 E.0463
G1 X88.371 Y51.677 E.05576
G1 X89.429 Y51.715 E.03584
G1 X90.904 Y51.845 E.05012
G1 X91.892 Y51.991 E.03381
G1 X93.401 Y52.322 E.05229
G1 X95.247 Y52.927 E.06576
G1 X98.64 Y54.362 E.1247
G1 X99.262 Y54.69 E.0238
G1 X99.853 Y55.082 E.02401
G1 X100.892 Y55.938 E.04557
G1 X101.582 Y56.708 E.035
G1 X102.017 Y57.391 E.02741
G1 X102.528 Y58.411 E.03862
G1 X102.856 Y59.221 E.02958
G1 X103.249 Y60.425 E.04287
G1 X103.431 Y61.186 E.02649
G1 X103.551 Y61.978 E.02711
G1 X103.615 Y64.555 E.08726
G1 X103.934 Y69.595 E.17094
G1 X104.529 Y74.143 E.15526
G1 X104.837 Y78.002 E.13104
G1 X105.461 Y83.524 E.1881
G1 X105.651 Y86.323 E.09496
G1 X105.733 Y89.098 E.09397
G1 X105.713 Y91.921 E.09556
G1 X105.56 Y95.8 E.1314
G1 X105.113 Y102.225 E.218
G1 X104.183 Y112.427 E.34676
G1 X104.036 Y115.144 E.0921
G1 X103.989 Y117.303 E.0731
G1 X104.027 Y120.613 E.11205
G1 X104.167 Y123.94 E.11271
G1 X104.394 Y127.245 E.11213
G1 X105.202 Y137.027 E.33224
G1 X105.356 Y139.843 E.09546
G1 X105.443 Y142.743 E.09821
G1 X105.444 Y145.124 E.08059
G1 X105.374 Y148.022 E.09812
G1 X104.939 Y156.47 E.28633
G1 X104.862 Y160.631 E.14087
G1 X104.762 Y161.712 E.03675
G1 X104.592 Y162.462 E.02603
G1 X104.317 Y163.206 E.02685
G1 X103.96 Y163.879 E.02579
G1 X103.51 Y164.508 E.02618
G1 X102.746 Y165.382 E.03929
G1 X102.167 Y165.906 E.02643
G1 X101.491 Y166.366 E.02768
G1 X100.767 Y166.727 E.02738
G1 X100.019 Y166.994 E.02688
G1 X99.038 Y167.233 E.03418
G1 X95.58 Y167.873 E.11904
G1 X93.159 Y168.187 E.08263
G1 X90.232 Y168.347 E.09922
G1 X88.054 Y168.309 E.07373
G1 X85.467 Y168.095 E.08787
G1 X83 Y167.719 E.08447
G1 X81.231 Y167.327 E.06133
G1 X79.445 Y166.814 E.0629
G1 X77.238 Y166.004 E.07958
G1 X74.965 Y164.92 E.08524
G1 X73.731 Y164.212 E.04816
G1 X72.739 Y163.579 E.03983
G1 X71.729 Y162.833 E.0425
G1 X71.153 Y162.274 E.02717
G1 X70.475 Y161.347 E.03887
G1 X70.163 Y160.712 E.02395
G1 X69.916 Y160.026 E.02468
G1 X69.655 Y158.991 E.03613
G1 X69.353 Y157.24 E.06014
G1 X69.218 Y155.564 E.05691
G1 X69.226 Y154.819 E.02522
G1 X69.35 Y153.796 E.03488
G1 X69.638 Y152.803 E.035
G1 X70.123 Y151.846 E.03632
G1 X70.595 Y151.211 E.02678
G1 X71.122 Y150.647 E.02613
G1 X72.307 Y149.614 E.05321
G1 X73.441 Y148.148 E.06274
G1 X74.958 Y146.371 E.07909
G1 X75.643 Y145.421 E.03964
G1 X76.146 Y144.451 E.03699
G1 X76.437 Y143.685 E.02774
G1 X76.734 Y142.683 E.03538
G1 X77.127 Y140.834 E.06398
G1 X77.339 Y138.918 E.06525
G1 X77.419 Y137.446 E.0499
G1 X77.478 Y134.003 E.11656
G1 X77.439 Y132.123 E.06365
G1 X77.157 Y127.878 E.144
G1 X76.76 Y124.587 E.1122
G1 X75.976 Y119.866 E.16199
G1 X75.671 Y117.732 E.07297
G1 X75.137 Y112.666 E.17243
G1 X74.934 Y109.532 E.1063
G1 X74.904 Y105.729 E.12873
G1 X75.158 Y93.025 E.4301
G1 X75.125 Y88.105 E.16654
G1 X75.381 Y81.65 E.21867
G1 X75.324 Y79.406 E.07598
G1 X74.893 Y75.206 E.14291
G1 X74.509 Y72.904 E.079
G1 X74.184 Y71.647 E.04395
G1 X73.224 Y68.505 E.11121
G1 X72.658 Y67.296 E.04519
G1 X72.448 Y66.62 E.02396
G1 X72.311 Y65.934 E.02368
G1 X72.235 Y65.093 E.02858
G1 X72.254 Y64.227 E.02932
G1 X72.633 Y60.816 E.11617
G1 X72.87 Y59.854 E.03354
G1 X73.26 Y58.954 E.0332
G1 X73.719 Y58.209 E.02962
G1 X73.999 Y57.851 E.01538
G1 X74.319 Y58.101 F60000
G1 F1800
G1 X74.558 Y57.796 E.01312
G1 X75.035 Y57.306 E.02315
G1 X75.56 Y56.87 E.0231
G1 X77.415 Y55.625 E.07562
G1 X80.243 Y54.071 E.10922
G1 X81.17 Y53.608 E.03507
G1 X82.234 Y53.19 E.03869
G1 X83.512 Y52.788 E.04535
G1 X85.436 Y52.288 E.06729
G1 X86.757 Y52.122 E.04507
G1 X87.789 Y52.083 E.03496
G1 X90.243 Y52.184 E.08314
G1 X91.817 Y52.391 E.05374
G1 X92.669 Y52.562 E.02941
G1 X94.552 Y53.103 E.06632
G1 X97.946 Y54.497 E.1242
G1 X99.062 Y55.045 E.04208
G1 X99.619 Y55.415 E.02263
G1 X100.6 Y56.222 E.043
G1 X101.248 Y56.942 E.03279
G1 X101.92 Y58.077 E.04465
G1 X102.473 Y59.359 E.04726
G1 X102.704 Y60.026 E.02389
G1 X103.033 Y61.272 E.04362
G1 X103.147 Y62.029 E.02591
G1 X103.208 Y64.573 E.08614
G1 X103.529 Y69.634 E.17165
G1 X104.124 Y74.188 E.15546
G1 X104.432 Y78.041 E.13084
G1 X105.055 Y83.562 E.18807
G1 X105.245 Y86.345 E.09442
G1 X105.326 Y89.104 E.09343
G1 X105.306 Y91.909 E.09495
G1 X105.153 Y95.775 E.13096
G1 X104.707 Y102.191 E.2177
G1 X103.777 Y112.398 E.34693
G1 X103.63 Y115.129 E.09257
G1 X103.582 Y117.301 E.07354
G1 X103.62 Y120.624 E.11249
G1 X103.761 Y123.962 E.11309
G1 X103.988 Y127.277 E.11247
G1 X104.796 Y137.056 E.33214
G1 X104.949 Y139.861 E.09509
G1 X105.036 Y142.749 E.0978
G1 X105.037 Y145.118 E.08019
G1 X104.967 Y148.007 E.09782
G1 X104.532 Y156.452 E.28623
G1 X104.455 Y160.62 E.14111
G1 X104.362 Y161.636 E.03453
G1 X104.205 Y162.335 E.02425
G1 X103.951 Y163.028 E.02498
G1 X103.621 Y163.654 E.02395
G1 X103.197 Y164.248 E.0247
G1 X102.447 Y165.105 E.03855
G1 X101.906 Y165.594 E.02468
G1 X101.274 Y166.021 E.02582
G1 X100.597 Y166.357 E.02558
G1 X99.913 Y166.601 E.02458
G1 X98.947 Y166.836 E.03365
G1 X94.67 Y167.6 E.14706
G1 X91.925 Y167.876 E.09338
G1 X90.225 Y167.94 E.05758
G1 X88.076 Y167.902 E.07275
G1 X85.512 Y167.691 E.08708
G1 X83.073 Y167.318 E.08352
G1 X81.332 Y166.933 E.06035
G1 X79.573 Y166.428 E.06195
G1 X77.391 Y165.627 E.07868
G1 X75.154 Y164.559 E.08391
G1 X73.946 Y163.866 E.04714
G1 X72.967 Y163.242 E.0393
G1 X72.003 Y162.532 E.04053
G1 X71.47 Y162.019 E.02504
G1 X70.833 Y161.151 E.03644
G1 X70.533 Y160.543 E.02295
G1 X70.303 Y159.899 E.02315
G1 X70.054 Y158.91 E.03452
G1 X69.757 Y157.192 E.05901
G1 X69.625 Y155.561 E.05539
G1 X69.632 Y154.856 E.02386
G1 X69.745 Y153.893 E.03282
G1 X70.024 Y152.936 E.03374
G1 X70.478 Y152.048 E.03376
G1 X70.914 Y151.464 E.02467
G1 X71.411 Y150.934 E.02459
G1 X72.613 Y149.884 E.05402
G1 X73.754 Y148.408 E.06315
G1 X75.273 Y146.629 E.07918
G1 X75.989 Y145.636 E.04144
G1 X76.52 Y144.613 E.03901
G1 X76.823 Y143.815 E.02889
G1 X77.128 Y142.785 E.03636
G1 X77.529 Y140.898 E.0653
G1 X77.745 Y138.947 E.06644
G1 X77.825 Y137.463 E.0503
G1 X77.885 Y134 E.11724
G1 X77.846 Y132.109 E.06402
G1 X77.562 Y127.839 E.14485
G1 X77.163 Y124.529 E.11285
G1 X76.378 Y119.803 E.16216
G1 X76.075 Y117.684 E.07246
G1 X75.542 Y112.632 E.17195
G1 X75.341 Y109.514 E.10576
G1 X75.311 Y105.734 E.12795
G1 X75.565 Y93.029 E.43014
G1 X75.532 Y88.108 E.16657
G1 X75.789 Y81.656 E.21857
G1 X75.73 Y79.382 E.077
G1 X75.297 Y75.153 E.14389
G1 X74.907 Y72.817 E.08017
G1 X74.575 Y71.534 E.04486
G1 X73.608 Y68.369 E.11202
G1 X73.042 Y67.16 E.04519
G1 X72.845 Y66.529 E.02238
G1 X72.716 Y65.886 E.0222
G1 X72.642 Y65.068 E.0278
G1 X72.661 Y64.246 E.02783
G1 X73.032 Y60.899 E.11399
G1 X73.251 Y60 E.03132
G1 X73.628 Y59.13 E.03209
G1 X74.059 Y58.433 E.02774
G1 X74.282 Y58.149 E.01222
G1 X74.601 Y58.4 F60000
G1 F1800
G1 X74.871 Y58.056 E.0148
G1 X75.318 Y57.598 E.02166
G1 X75.813 Y57.189 E.02173
G1 X77.62 Y55.977 E.07365
G1 X80.428 Y54.433 E.10847
G1 X81.334 Y53.981 E.03427
G1 X82.361 Y53.577 E.03736
G1 X83.625 Y53.179 E.04486
G1 X85.505 Y52.689 E.06576
G1 X86.79 Y52.528 E.04384
G1 X88.363 Y52.491 E.05326
G1 X90.794 Y52.652 E.08247
G1 X91.742 Y52.791 E.03243
G1 X93.199 Y53.111 E.05049
G1 X94.955 Y53.687 E.06255
G1 X98.295 Y55.1 E.12276
G1 X98.846 Y55.39 E.02108
G1 X99.382 Y55.747 E.0218
G1 X100.31 Y56.509 E.04064
G1 X100.915 Y57.176 E.03048
G1 X101.306 Y57.787 E.02455
G1 X101.787 Y58.748 E.03638
G1 X102.09 Y59.497 E.02735
G1 X102.465 Y60.647 E.04094
G1 X102.743 Y62.08 E.04941
G1 X102.802 Y64.592 E.08505
G1 X103.124 Y69.673 E.17233
G1 X103.719 Y74.234 E.15569
G1 X104.026 Y78.079 E.13056
G1 X104.65 Y83.6 E.18807
G1 X104.838 Y86.366 E.09384
G1 X104.919 Y89.111 E.09296
G1 X104.899 Y91.897 E.09431
G1 X104.747 Y95.75 E.13052
G1 X104.302 Y102.157 E.21739
G1 X103.371 Y112.369 E.3471
G1 X103.223 Y115.114 E.09305
G1 X103.175 Y117.299 E.07398
G1 X103.213 Y120.635 E.11293
G1 X103.355 Y123.985 E.1135
G1 X103.582 Y127.31 E.11281
G1 X104.39 Y137.083 E.33193
M73 P1 R37
G1 X104.543 Y139.88 E.09482
G1 X104.629 Y142.756 E.09739
G1 X104.56 Y147.993 E.17728
G1 X104.125 Y156.434 E.2861
G1 X104.048 Y160.609 E.14134
G1 X103.962 Y161.56 E.03232
G1 X103.818 Y162.208 E.02247
G1 X103.584 Y162.852 E.02319
G1 X103.281 Y163.43 E.02209
G1 X102.884 Y163.988 E.02318
G1 X102.149 Y164.827 E.03776
G1 X101.644 Y165.282 E.02301
G1 X101.059 Y165.676 E.02387
G1 X100.428 Y165.986 E.0238
G1 X99.806 Y166.208 E.02235
G1 X98.856 Y166.439 E.03309
G1 X94.619 Y167.196 E.14569
G1 X91.901 Y167.47 E.09247
G1 X90.218 Y167.533 E.05701
G1 X88.098 Y167.496 E.07177
G1 X85.558 Y167.286 E.08627
G1 X83.145 Y166.918 E.08262
G1 X81.434 Y166.538 E.05933
G1 X79.701 Y166.042 E.06102
G1 X77.544 Y165.249 E.07779
G1 X75.343 Y164.199 E.08254
G1 X74.153 Y163.515 E.04646
G1 X73.196 Y162.905 E.03841
G1 X72.276 Y162.23 E.03862
G1 X71.787 Y161.762 E.02291
G1 X71.19 Y160.954 E.03401
G1 X70.904 Y160.374 E.02189
G1 X70.69 Y159.772 E.02163
G1 X70.453 Y158.829 E.03291
G1 X70.162 Y157.143 E.05791
G1 X70.032 Y155.558 E.05383
G1 X70.038 Y154.891 E.02258
G1 X70.141 Y153.989 E.03073
G1 X70.396 Y153.102 E.03124
G1 X70.815 Y152.276 E.03135
G1 X71.219 Y151.734 E.02288
G1 X71.699 Y151.221 E.02378
G1 X72.919 Y150.154 E.05486
G1 X74.067 Y148.669 E.06353
G1 X75.588 Y146.887 E.0793
G1 X76.335 Y145.85 E.04326
G1 X76.894 Y144.774 E.04104
G1 X77.209 Y143.945 E.03002
G1 X77.522 Y142.886 E.03738
G1 X77.931 Y140.963 E.06655
G1 X78.151 Y138.976 E.06767
G1 X78.232 Y137.48 E.05071
G1 X78.292 Y133.997 E.11791
G1 X78.253 Y132.095 E.06439
G1 X77.967 Y127.8 E.1457
G1 X77.566 Y124.472 E.11346
G1 X76.78 Y119.739 E.1624
G1 X76.479 Y117.636 E.07191
G1 X75.948 Y112.597 E.17151
G1 X75.747 Y109.497 E.10515
G1 X75.718 Y105.74 E.12717
G1 X75.972 Y93.032 E.43024
G1 X75.939 Y88.117 E.16637
G1 X76.196 Y81.661 E.2187
G1 X76.137 Y79.357 E.07801
G1 X75.701 Y75.1 E.14485
G1 X75.305 Y72.73 E.08133
G1 X74.966 Y71.42 E.0458
G1 X73.992 Y68.233 E.1128
G1 X73.426 Y67.023 E.04522
G1 X73.241 Y66.437 E.0208
G1 X73.12 Y65.838 E.02068
G1 X73.048 Y65.043 E.02702
G1 X73.068 Y64.264 E.02638
G1 X73.431 Y60.983 E.11174
G1 X73.642 Y60.114 E.03027
G1 X73.994 Y59.307 E.0298
G1 X74.398 Y58.658 E.02588
G1 X74.564 Y58.447 E.00909
G1 X74.883 Y58.698 F60000
G1 F1800
G1 X75.184 Y58.317 E.01644
G1 X76.052 Y57.519 E.03991
G1 X77.826 Y56.329 E.07231
G1 X80.613 Y54.796 E.10767
G1 X81.499 Y54.354 E.03351
G1 X82.488 Y53.964 E.03599
G1 X83.738 Y53.57 E.04436
G1 X85.575 Y53.091 E.06426
G1 X86.823 Y52.933 E.04258
G1 X87.811 Y52.897 E.03346
G1 X90.176 Y52.995 E.08012
G1 X91.667 Y53.191 E.0509
G1 X92.501 Y53.358 E.02879
G1 X94.276 Y53.869 E.06252
G1 X97.627 Y55.247 E.12264
G1 X98.646 Y55.745 E.03839
G1 X99.146 Y56.078 E.02033
G1 X100.021 Y56.796 E.03831
G1 X100.581 Y57.41 E.02813
G1 X100.95 Y57.986 E.02315
G1 X101.416 Y58.916 E.03521
G1 X101.707 Y59.635 E.02626
G1 X102.074 Y60.758 E.03999
G1 X102.339 Y62.13 E.0473
G1 X102.395 Y64.611 E.084
G1 X102.719 Y69.712 E.17301
G1 X103.315 Y74.279 E.1559
G1 X103.621 Y78.117 E.13032
G1 X104.245 Y83.638 E.18807
G1 X104.432 Y86.387 E.09327
G1 X104.512 Y89.118 E.09248
G1 X104.492 Y91.885 E.09366
G1 X104.341 Y95.726 E.13011
G1 X103.896 Y102.123 E.21705
G1 X102.965 Y112.34 E.34727
G1 X102.816 Y115.099 E.09352
G1 X102.768 Y117.296 E.07438
G1 X102.806 Y120.646 E.1134
G1 X102.948 Y124.008 E.1139
G1 X103.177 Y127.342 E.11312
G1 X103.984 Y137.109 E.33173
G1 X104.136 Y139.898 E.09454
G1 X104.222 Y142.763 E.09702
G1 X104.153 Y147.979 E.17657
G1 X103.718 Y156.416 E.28596
G1 X103.641 Y160.598 E.14158
G1 X103.562 Y161.485 E.03014
G1 X103.424 Y162.106 E.02153
G1 X103.206 Y162.698 E.02135
G1 X102.927 Y163.227 E.02024
G1 X102.571 Y163.727 E.02078
G1 X101.851 Y164.55 E.03701
G1 X101.384 Y164.968 E.02121
G1 X100.844 Y165.329 E.02199
G1 X100.26 Y165.616 E.02203
G1 X99.7 Y165.815 E.02012
G1 X98.777 Y166.04 E.03216
G1 X94.561 Y166.793 E.14496
G1 X91.872 Y167.064 E.09148
G1 X90.211 Y167.126 E.05626
G1 X88.119 Y167.089 E.07082
G1 X85.604 Y166.882 E.08542
G1 X83.217 Y166.517 E.08174
G1 X81.535 Y166.144 E.05832
G1 X79.829 Y165.655 E.06007
G1 X77.697 Y164.872 E.07688
G1 X75.532 Y163.838 E.08121
G1 X74.36 Y163.165 E.04575
G1 X73.424 Y162.568 E.03758
G1 X72.548 Y161.927 E.03674
G1 X72.103 Y161.505 E.02076
G1 X71.546 Y160.757 E.03157
G1 X71.283 Y160.226 E.02006
G1 X71.077 Y159.645 E.02087
G1 X70.852 Y158.748 E.0313
G1 X70.566 Y157.095 E.05678
G1 X70.439 Y155.555 E.0523
G1 X70.443 Y154.925 E.02133
G1 X70.538 Y154.083 E.02868
G1 X70.768 Y153.267 E.0287
G1 X71.152 Y152.505 E.02888
G1 X71.538 Y151.986 E.02189
G1 X71.988 Y151.509 E.0222
G1 X73.225 Y150.423 E.05572
G1 X74.38 Y148.929 E.06392
G1 X75.903 Y147.145 E.0794
G1 X76.682 Y146.064 E.0451
G1 X77.268 Y144.935 E.04306
G1 X77.595 Y144.075 E.03114
G1 X77.916 Y142.988 E.03836
G1 X78.333 Y141.027 E.06786
G1 X78.558 Y139.005 E.06886
G1 X78.639 Y137.497 E.05112
G1 X78.699 Y133.995 E.11856
G1 X78.66 Y132.08 E.06483
G1 X78.372 Y127.761 E.14652
G1 X77.969 Y124.414 E.11411
G1 X77.182 Y119.675 E.16261
G1 X76.884 Y117.588 E.07136
G1 X76.354 Y112.563 E.17103
G1 X76.154 Y109.479 E.10461
G1 X76.125 Y105.746 E.12636
G1 X76.379 Y93.036 E.4303
G1 X76.346 Y88.126 E.1662
G1 X76.603 Y81.666 E.21884
G1 X76.543 Y79.333 E.079
G1 X76.104 Y75.047 E.14584
G1 X75.703 Y72.643 E.0825
G1 X75.357 Y71.307 E.04671
G1 X74.376 Y68.097 E.11362
G1 X73.809 Y66.885 E.04529
G1 X73.525 Y65.789 E.03832
G1 X73.456 Y65.041 E.02543
G1 X73.474 Y64.283 E.02566
G1 X73.83 Y61.065 E.10959
G1 X74.022 Y60.26 E.02801
G1 X74.361 Y59.484 E.02866
G1 X74.737 Y58.884 E.02397
G1 X74.846 Y58.745 E.00598
G1 X75.165 Y58.997 F60000
G1 F1800
G1 X75.482 Y58.594 E.01736
G1 X76.292 Y57.848 E.03727
G1 X77.383 Y57.088 E.04501
G1 X78.752 Y56.27 E.05398
G1 X81.663 Y54.726 E.11154
G1 X82.624 Y54.347 E.03497
G1 X83.858 Y53.959 E.04379
G1 X85.078 Y53.617 E.04289
