; generated by SuperSlicer 2.5.59.8 on 2024-05-03 at 17:36:41 UTC


;
;

;
;

;
;

;
;

;
;
; 

; external perimeters extrusion width = 0.40mm
; perimeters extrusion width = 0.40mm
; infill extrusion width = 0.40mm
; solid infill extrusion width = 0.40mm
; top infill extrusion width = 0.40mm

; object:{"name":"Lexan 2020 Flush Mount - Part 1","id":"Lexan 2020 Flush Mount - Part 1.stl id:0 copy 0","object_center":[32.483283,56.329306,0.000000],"boundingbox_center":[32.483283,56.329306,10.000000],"boundingbox_size":[20.000000,15.000000,20.000000]}
EXCLUDE_OBJECT_DEFINE NAME=Lexan_2020_Flush_Mount_Part_1_stl_id_0_copy_0 CENTER=32.483283,56.329306 POLYGON=[[22.48,48.83],[42.48,48.83],[42.48,63.83],[22.48,63.83],[22.48,48.83]]
; plater:{"center":[32.483283,56.329306,0.000000],"boundingbox_center":[32.483283,56.329306,10.000000],"boundingbox_size":[20.000000,15.000000,20.000000]}

M73 P0 R30
M107
;TYPE:Custom
CALCULATE_PA MATERIAL=ABS BOWDEN_LENGTH=6 LAYER_HEIGHT=0.24 NOZZLE_SIZE=0.4 PRINT_SPEED=95


START_PRINT EXTRUDER=270 BED=100

G21 ; set units to millimeters
G90 ; use absolute coordinates
M83 ; use relative distances for extrusion
ACTIVATE_EXTRUDER EXTRUDER=extruder
; Filament gcode
M104 S270 T0 ; set temperature
M109 S270 T0 ; set temperature and wait for it to be reached
M190 S100 ; set bed temperature and wait for it to be reached
;LAYER_CHANGE
;Z:0.24
;HEIGHT:0.24
;BEFORE_LAYER_CHANGE
G92 E0.0

G1 E-1.5 F3000
M73 P1 R30
G1 Z0.2 F3600000
G1 Z0.24
;AFTER_LAYER_CHANGE
;0.24




CALCULATE_PA MATERIAL=ABS BOWDEN_LENGTH=6.0 LAYER_HEIGHT=0.2 NOZZLE_SIZE=0.4 PRINT_SPEED=95


G92 E0
G1 Z0.44
G1 X20.026 Y43.683
G1 Z0.24
G1 E1.5 F3000
;TYPE:Skirt
;WIDTH:0.52
M107
G1 X18.311 Y44.941 E0.10637
G1 X17.177 Y46.74 E0.10637
G1 X16.781 Y48.829 E0.10637
G1 X16.781 Y63.829 E0.75028
G1 X17.337 Y66.287 E0.12603
G1 X18.595 Y68.001 E0.10637
G1 X20.394 Y69.136 E0.10637
G1 X22.483 Y69.532 E0.10637
G1 X42.483 Y69.532 E1.00038
G1 X44.941 Y68.975 E0.12603
G1 X46.655 Y67.717 E0.10637
G1 X47.79 Y65.919 E0.10637
G1 X48.186 Y63.829 E0.10637
G1 X48.186 Y48.829 E0.75028
G1 X47.629 Y46.372 E0.12603
G1 X46.371 Y44.657 E0.10637
G1 X44.573 Y43.523 E0.10637
G1 X42.483 Y43.127 E0.10637
G1 X22.483 Y43.127 E1.00038
G1 X20.084 Y43.67 E0.12303
M107
G1 X20.355 Y44.073 F3600000
M107
G1 F3000
G1 X18.774 Y45.136 E0.09533
G1 X17.645 Y46.832 E0.10186
G1 X17.249 Y48.829 E0.10186
G1 X17.249 Y63.829 E0.75028
G1 X17.654 Y65.849 E0.10302
G1 X18.79 Y67.539 E0.10186
G1 X20.486 Y68.667 E0.10186
G1 X22.483 Y69.064 E0.10186
G1 X42.483 Y69.064 E1.00038
G1 X44.503 Y68.658 E0.10302
G1 X46.193 Y67.522 E0.10186
G1 X47.321 Y65.827 E0.10186
G1 X47.718 Y63.829 E0.10186
G1 X47.718 Y48.829 E0.75028
G1 X47.312 Y46.81 E0.10302
G1 X46.176 Y45.12 E0.10186
G1 X44.481 Y43.991 E0.10186
G1 X42.483 Y43.595 E0.10186
G1 X22.483 Y43.595 E1.00038
G1 X20.464 Y44 E0.10302
G1 X20.405 Y44.04 E0.00353
M107
;WIPE_START
G1 F2880000
G1 X20.464 Y44 E-0.00007
G1 X22.483 Y43.595 E-0.00204
G1 X42.483 Y43.595 E-0.01979
G1 X44.481 Y43.991 E-0.00202
G1 X46.176 Y45.12 E-0.00202
G1 X47.312 Y46.81 E-0.00202
G1 X47.718 Y48.829 E-0.00204
G1 X47.718 Y63.829 E-0.01484
G1 X47.321 Y65.827 E-0.00202
G1 X46.193 Y67.522 E-0.00202
G1 X44.503 Y68.658 E-0.00202
G1 X42.483 Y69.064 E-0.00204
G1 X22.483 Y69.064 E-0.01979
G1 X20.486 Y68.667 E-0.00202
G1 X18.79 Y67.539 E-0.00202
G1 X17.654 Y65.849 E-0.00202
G1 X17.249 Y63.829 E-0.00204
G1 X17.249 Y48.829 E-0.01484
G1 X17.645 Y46.832 E-0.00202
G1 X18.774 Y45.136 E-0.00202
G1 X20.355 Y44.073 E-0.00189
;WIPE_END
G1 E-1.39845 F3000
G1 Z0.44 F3600000
G1 X18.568 Y39.964
G1 Z0.24
G1 E1.5 F3000
;WIDTH:0.4
M107
G1 X19.318 Y39.626 E0.03061
G1 X21.481 Y39.175 E0.08221
G1 X43.41 Y39.168 E0.81591
G1 X45.306 Y39.519 E0.07174
G1 X47.052 Y40.227 E0.07008
G1 X48.582 Y41.238 E0.06824
G1 X49.926 Y42.55 E0.06989
G1 X51.199 Y44.482 E0.08607
G1 X51.876 Y46.305 E0.07237
G1 X52.14 Y47.857 E0.05857
G1 X52.151 Y64.676 E0.62578
G1 X51.856 Y66.43 E0.06619
G1 X51.214 Y68.148 E0.06825
G1 X50.031 Y69.982 E0.08118
G1 X48.779 Y71.258 E0.06651
G1 X47.358 Y72.262 E0.06476
G1 X45.636 Y73.036 E0.07023
G1 X43.196 Y73.513 E0.0925
G1 X21.811 Y73.511 E0.79568
G1 X19.993 Y73.231 E0.06846
G1 X18.276 Y72.614 E0.06786
G1 X16.371 Y71.41 E0.08386
G1 X15.081 Y70.155 E0.06696
G1 X14.051 Y68.705 E0.06617
G1 X13.277 Y66.982 E0.07029
G1 X12.8 Y64.542 E0.09252
G1 X12.813 Y48.015 E0.61492
G1 X13.101 Y46.265 E0.06599
G1 X13.7 Y44.619 E0.06518
G1 X14.903 Y42.717 E0.08372
G1 X16.157 Y41.427 E0.06695
G1 X17.607 Y40.398 E0.06615
G1 X18.513 Y39.989 E0.03701
M107
G1 X18.656 Y40.304 F3600000
M107
G1 F3000
G1 X19.408 Y39.963 E0.03071
G1 X21.535 Y39.52 E0.08083
G1 X43.363 Y39.513 E0.81216
M73 P1 R29
G1 X45.192 Y39.849 E0.06919
G1 X46.874 Y40.528 E0.06749
G1 X48.351 Y41.5 E0.06577
G1 X49.646 Y42.757 E0.06716
G1 X50.897 Y44.657 E0.08462
G1 X51.536 Y46.38 E0.06837
G1 X51.791 Y47.872 E0.05633
G1 X51.803 Y64.661 E0.62468
G1 X51.515 Y66.355 E0.06393
G1 X50.894 Y68.008 E0.0657
G1 X49.77 Y69.75 E0.07715
G1 X48.565 Y70.982 E0.06411
G1 X47.199 Y71.951 E0.06231
G1 X45.549 Y72.698 E0.06737
G1 X43.18 Y73.164 E0.08987
G1 X21.851 Y73.164 E0.79358
G1 X20.095 Y72.897 E0.06609
G1 X18.412 Y72.293 E0.06652
G1 X16.601 Y71.147 E0.07974
G1 X15.355 Y69.94 E0.06452
G1 X14.362 Y68.546 E0.06369
G1 X13.615 Y66.895 E0.06742
G1 X13.148 Y64.525 E0.08988
G1 X13.159 Y48.057 E0.61273
G1 X13.434 Y46.369 E0.06365
G1 X14.021 Y44.755 E0.06387
G1 X15.165 Y42.947 E0.07964
G1 X16.372 Y41.701 E0.06452
G1 X17.766 Y40.708 E0.06368
G1 X18.602 Y40.329 E0.03415
M107
G1 X18.746 Y40.644 F3600000
M107
G1 F3000
G1 X19.498 Y40.301 E0.03078
G1 X21.589 Y39.865 E0.07945
G1 X43.316 Y39.859 E0.80842
G1 X45.079 Y40.179 E0.06665
G1 X46.698 Y40.828 E0.0649
G1 X48.12 Y41.762 E0.0633
G1 X49.365 Y42.965 E0.06442
G1 X50.595 Y44.832 E0.08317
G1 X51.195 Y46.455 E0.06438
G1 X51.443 Y47.887 E0.05408
G1 X51.454 Y64.647 E0.62358
G1 X51.174 Y66.28 E0.06166
G1 X50.575 Y67.868 E0.06315
G1 X49.508 Y69.52 E0.07316
G1 X48.35 Y70.708 E0.06172
G1 X47.039 Y71.641 E0.05987
G1 X45.462 Y72.36 E0.0645
G1 X43.162 Y72.816 E0.08722
G1 X21.864 Y72.816 E0.79245
G1 X20.164 Y72.555 E0.06399
G1 X18.548 Y71.971 E0.06393
G1 X16.83 Y70.884 E0.07565
G1 X15.63 Y69.725 E0.0621
G1 X14.672 Y68.386 E0.06122
G1 X13.953 Y66.808 E0.06455
G1 X13.497 Y64.508 E0.08723
G1 X13.505 Y48.099 E0.61055
G1 X13.767 Y46.472 E0.0613
G1 X14.342 Y44.892 E0.06256
G1 X15.428 Y43.176 E0.07557
G1 X16.588 Y41.976 E0.0621
G1 X17.926 Y41.018 E0.06121
G1 X18.691 Y40.669 E0.03129
M107
G1 X18.836 Y40.984 F3600000
M107
G1 F3000
G1 X19.589 Y40.638 E0.03083
G1 X21.642 Y40.21 E0.07805
G1 X43.27 Y40.205 E0.80471
G1 X44.966 Y40.509 E0.06411
G1 X46.522 Y41.13 E0.06231
G1 X47.89 Y42.024 E0.06084
G1 X49.085 Y43.173 E0.06166
G1 X50.293 Y45.007 E0.0817
G1 X50.854 Y46.53 E0.06041
G1 X51.094 Y47.902 E0.05182
G1 X51.106 Y64.632 E0.62246
G1 X50.834 Y66.204 E0.05937
G1 X50.256 Y67.727 E0.06061
G1 X49.246 Y69.289 E0.0692
G1 X48.135 Y70.433 E0.05935
G1 X46.879 Y71.331 E0.05744
G1 X45.374 Y72.022 E0.06163
G1 X43.145 Y72.467 E0.08455
G1 X21.877 Y72.467 E0.79132
M73 P2 R29
G1 X20.267 Y72.221 E0.06062
G1 X18.684 Y71.65 E0.06259
G1 X17.059 Y70.621 E0.07158
G1 X15.903 Y69.508 E0.05969
G1 X14.982 Y68.226 E0.05876
G1 X14.29 Y66.72 E0.06166
G1 X13.845 Y64.491 E0.08455
G1 X13.852 Y48.141 E0.60836
G1 X14.109 Y46.544 E0.06016
G1 X14.663 Y45.029 E0.06001
G1 X15.692 Y43.405 E0.07154
G1 X16.804 Y42.249 E0.05969
G1 X18.087 Y41.328 E0.05876
G1 X18.781 Y41.009 E0.02844
M107
G1 X18.927 Y41.323 F3600000
M107
G1 F3000
G1 X19.679 Y40.975 E0.03086
G1 X21.696 Y40.554 E0.07664
G1 X43.224 Y40.551 E0.80101
G1 X44.854 Y40.84 E0.06158
G1 X46.346 Y41.431 E0.05972
G1 X47.661 Y42.287 E0.05839
G1 X48.804 Y43.381 E0.05887
G1 X49.991 Y45.182 E0.08022
G1 X50.514 Y46.606 E0.05646
G1 X50.746 Y47.918 E0.04955
G1 X50.757 Y64.617 E0.62133
G1 X50.493 Y66.128 E0.05706
G1 X49.937 Y67.586 E0.05807
G1 X48.984 Y69.059 E0.06528
G1 X47.919 Y70.159 E0.05698
G1 X46.718 Y71.022 E0.05502
G1 X45.285 Y71.685 E0.05874
G1 X43.128 Y72.119 E0.08186
G1 X21.891 Y72.119 E0.79018
G1 X20.337 Y71.88 E0.0585
G1 X18.821 Y71.329 E0.05999
G1 X17.288 Y70.357 E0.06755
G1 X16.177 Y69.292 E0.05728
G1 X15.291 Y68.064 E0.05631
G1 X14.628 Y66.631 E0.05877
G1 X14.194 Y64.474 E0.08186
G1 X14.198 Y48.182 E0.60618
G1 X14.442 Y46.648 E0.05778
G1 X14.984 Y45.167 E0.05869
G1 X15.955 Y43.634 E0.06752
G1 X17.021 Y42.523 E0.05728
G1 X18.248 Y41.637 E0.05631
G1 X18.872 Y41.348 E0.02558
M107
G1 X19.019 Y41.662 F3600000
M107
G1 F3000
G1 X19.77 Y41.312 E0.03085
G1 X21.749 Y40.899 E0.07523
G1 X43.179 Y40.897 E0.79733
G1 X44.743 Y41.17 E0.05906
G1 X46.171 Y41.733 E0.05713
G1 X47.433 Y42.551 E0.05594
G1 X48.524 Y43.589 E0.05606
G1 X49.688 Y45.357 E0.07873
G1 X50.173 Y46.683 E0.05253
G1 X50.397 Y47.933 E0.04728
G1 X50.409 Y64.602 E0.62019
G1 X50.153 Y66.051 E0.05473
G1 X49.618 Y67.444 E0.05553
G1 X48.721 Y68.829 E0.0614
G1 X47.702 Y69.886 E0.05462
G1 X46.555 Y70.713 E0.05261
G1 X45.195 Y71.347 E0.05584
G1 X43.11 Y71.77 E0.07915
G1 X21.904 Y71.77 E0.78903
G1 X20.407 Y71.538 E0.05637
G1 X18.959 Y71.008 E0.05738
G1 X17.516 Y70.093 E0.06355
G1 X16.45 Y69.074 E0.05489
G1 X15.6 Y67.902 E0.05387
G1 X14.965 Y66.541 E0.05586
G1 X14.542 Y64.456 E0.07915
G1 X14.544 Y48.223 E0.604
G1 X14.783 Y46.72 E0.05664
G1 X15.304 Y45.305 E0.05611
G1 X16.219 Y43.862 E0.06355
G1 X17.238 Y42.796 E0.05489
G1 X18.411 Y41.946 E0.05387
G1 X18.964 Y41.688 E0.02273
M107
G1 X19.112 Y42.001 F3600000
M107
G1 F3000
G1 X19.861 Y41.649 E0.03082
G1 X21.803 Y41.244 E0.0738
G1 X43.134 Y41.243 E0.79368
G1 X44.632 Y41.501 E0.05654
G1 X45.997 Y42.035 E0.05453
G1 X47.205 Y42.815 E0.05351
G1 X48.244 Y43.798 E0.05323
G1 X49.386 Y45.531 E0.07722
G1 X49.833 Y46.759 E0.04862
G1 X50.049 Y47.949 E0.04499
G1 X50.06 Y64.587 E0.61903
G1 X49.813 Y65.973 E0.05239
G1 X49.299 Y67.301 E0.053
G1 X48.459 Y68.6 E0.05755
G1 X47.485 Y69.613 E0.05227
G1 X46.392 Y70.405 E0.05021
G1 X45.105 Y71.01 E0.05293
G1 X43.093 Y71.422 E0.07642
G1 X21.918 Y71.422 E0.78787
G1 X20.478 Y71.196 E0.05422
G1 X19.096 Y70.687 E0.05478
G1 X17.744 Y69.829 E0.05959
G1 X16.722 Y68.856 E0.0525
G1 X15.908 Y67.739 E0.05144
G1 X15.303 Y66.451 E0.05294
G1 X14.891 Y64.439 E0.07642
G1 X14.891 Y48.264 E0.60184
G1 X15.116 Y46.824 E0.05422
G1 X15.625 Y45.442 E0.05478
G1 X16.483 Y44.09 E0.05959
G1 X17.456 Y43.068 E0.0525
G1 X18.574 Y42.254 E0.05144
G1 X19.057 Y42.027 E0.01988
M107
G1 X19.206 Y42.34 F3600000
M107
G1 F3000
G1 X19.953 Y41.986 E0.03075
G1 X21.857 Y41.589 E0.07236
G1 X43.09 Y41.589 E0.79005
G1 X44.522 Y41.832 E0.05404
G1 X45.823 Y42.338 E0.05193
G1 X46.978 Y43.08 E0.05108
G1 X47.965 Y44.007 E0.05036
G1 X49.084 Y45.706 E0.0757
G1 X49.493 Y46.836 E0.04474
G1 X49.7 Y47.965 E0.0427
G1 X49.712 Y64.571 E0.61787
G1 X49.473 Y65.894 E0.05003
G1 X48.981 Y67.158 E0.05047
G1 X48.195 Y68.371 E0.05375
G1 X47.267 Y69.34 E0.04993
G1 X46.228 Y70.097 E0.04782
G1 X45.014 Y70.673 E0.05001
G1 X43.075 Y71.073 E0.07367
G1 X21.931 Y71.073 E0.7867
G1 X20.549 Y70.855 E0.05205
G1 X19.235 Y70.367 E0.05217
G1 X17.972 Y69.565 E0.05568
G1 X16.994 Y68.638 E0.05012
G1 X16.216 Y67.575 E0.04903
G1 X15.64 Y66.36 E0.05001
G1 X15.239 Y64.421 E0.07367
G1 X15.239 Y48.277 E0.60067
G1 X15.458 Y46.896 E0.05205
G1 X15.945 Y45.581 E0.05217
G1 X16.748 Y44.318 E0.05568
G1 X17.675 Y43.34 E0.05013
G1 X18.738 Y42.562 E0.04903
G1 X19.152 Y42.366 E0.01704
M107
G1 X19.302 Y42.678 F3600000
M107
G1 F3000
G1 X20.044 Y42.323 E0.03065
G1 X21.91 Y41.934 E0.07091
G1 X43.076 Y41.937 E0.78751
G1 X44.412 Y42.164 E0.05044
G1 X45.68 Y42.656 E0.05062
G1 X46.752 Y43.346 E0.0474
G1 X47.685 Y44.216 E0.04748
G1 X48.781 Y45.88 E0.07416
G1 X49.153 Y46.914 E0.04088
G1 X49.352 Y47.981 E0.04039
G1 X49.363 Y64.556 E0.61668
G1 X49.133 Y65.815 E0.04764
G1 X48.663 Y67.015 E0.04794
G1 X47.932 Y68.142 E0.04998
G1 X47.049 Y69.068 E0.04761
G1 X46.063 Y69.789 E0.04545
G1 X44.922 Y70.336 E0.04707
G1 X43.057 Y70.725 E0.07089
G1 X21.945 Y70.725 E0.78552
G1 X20.622 Y70.513 E0.04987
G1 X19.374 Y70.047 E0.04956
G1 X18.199 Y69.3 E0.05181
G1 X17.265 Y68.419 E0.04776
G1 X16.523 Y67.409 E0.04662
G1 X15.977 Y66.268 E0.04707
G1 X15.588 Y64.403 E0.07089
G1 X15.588 Y48.291 E0.59949
G1 X15.799 Y46.968 E0.04986
G1 X16.266 Y45.72 E0.04956
G1 X17.012 Y44.545 E0.05181
G1 X17.894 Y43.612 E0.04776
G1 X18.903 Y42.869 E0.04662
G1 X19.247 Y42.704 E0.0142
M107
G1 X19.399 Y43.017 F3600000
M107
G1 F3000
G1 X20.137 Y42.659 E0.03052
G1 X21.928 Y42.282 E0.06811
G1 X43.061 Y42.286 E0.78629
G1 X44.336 Y42.504 E0.04813
G1 X45.537 Y42.975 E0.04799
G1 X46.549 Y43.63 E0.04487
G1 X47.432 Y44.456 E0.04498
G1 X48.461 Y46.018 E0.06959
G1 X48.813 Y46.992 E0.03853
G1 X49.006 Y48.029 E0.03927
G1 X49.015 Y64.54 E0.6143
G1 X48.794 Y65.735 E0.04523
G1 X48.345 Y66.871 E0.04542
G1 X47.668 Y67.914 E0.04627
G1 X46.83 Y68.796 E0.04529
G1 X45.897 Y69.483 E0.0431
G1 X44.83 Y69.999 E0.04412
G1 X43.039 Y70.376 E0.06809
G1 X21.959 Y70.376 E0.78434
G1 X20.727 Y70.181 E0.04639
G1 X19.513 Y69.727 E0.04824
G1 X18.426 Y69.035 E0.04793
G1 X17.516 Y68.176 E0.04656
G1 X16.83 Y67.243 E0.0431
G1 X16.313 Y66.176 E0.04412
G1 X15.936 Y64.385 E0.06809
G1 X15.936 Y48.305 E0.5983
G1 X16.132 Y47.073 E0.04639
G1 X16.586 Y45.859 E0.04824
G1 X17.277 Y44.772 E0.04793
G1 X18.136 Y43.862 E0.04656
G1 X19.07 Y43.176 E0.0431
G1 X19.345 Y43.043 E0.01137
M107
G1 X19.495 Y43.355 F3600000
M107
G1 F3000
G1 X20.269 Y42.982 E0.03197
G1 X21.946 Y42.631 E0.06376
G1 X43.046 Y42.634 E0.78507
G1 X44.225 Y42.835 E0.04451
G1 X45.393 Y43.293 E0.04667
G1 X46.346 Y43.913 E0.04231
G1 X47.178 Y44.696 E0.0425
G1 X48.14 Y46.156 E0.06505
G1 X48.48 Y47.097 E0.03723
G1 X48.661 Y48.077 E0.03708
G1 X48.669 Y64.493 E0.61079
G1 X48.463 Y65.624 E0.04277
G1 X48.043 Y66.696 E0.04285
G1 X47.404 Y67.685 E0.04381
G1 X46.588 Y68.545 E0.0441
G1 X45.704 Y69.192 E0.04076
G1 X44.698 Y69.676 E0.04156
G1 X43.021 Y70.028 E0.06374
G1 X21.973 Y70.028 E0.78315
G1 X20.8 Y69.84 E0.0442
G1 X19.653 Y69.407 E0.04561
G1 X18.628 Y68.751 E0.04529
G1 X17.767 Y67.934 E0.04414
G1 X17.121 Y67.05 E0.04076
G1 X16.636 Y66.044 E0.04155
G1 X16.285 Y64.367 E0.06374
G1 X16.285 Y48.319 E0.59711
G1 X16.473 Y47.146 E0.04419
G1 X16.905 Y45.999 E0.04561
G1 X17.562 Y44.974 E0.04529
G1 X18.378 Y44.113 E0.04414
G1 X19.262 Y43.467 E0.04076
G1 X19.441 Y43.381 E0.00736
M107
G1 X19.59 Y43.693 F3600000
M107
G1 F3000
G1 X20.4 Y43.306 E0.03342
G1 X21.964 Y42.979 E0.05944
G1 X43.031 Y42.983 E0.78384
G1 X44.148 Y43.175 E0.04219
G1 X45.249 Y43.61 E0.04401
G1 X46.142 Y44.196 E0.03976
G1 X46.924 Y44.935 E0.04004
G1 X47.819 Y46.294 E0.06053
G1 X48.148 Y47.202 E0.03592
G1 X48.315 Y48.124 E0.03487
G1 X48.323 Y64.447 E0.60732
G1 X48.132 Y65.513 E0.04029
G1 X47.725 Y66.553 E0.04156
G1 X47.121 Y67.482 E0.04124
M73 P3 R29
G1 X46.347 Y68.293 E0.04172
G1 X45.512 Y68.901 E0.03842
G1 X44.566 Y69.353 E0.039
G1 X43.003 Y69.679 E0.05942
G1 X21.987 Y69.679 E0.78196
G1 X20.873 Y69.498 E0.04197
G1 X19.794 Y69.088 E0.04297
G1 X18.831 Y68.467 E0.04264
G1 X18.019 Y67.693 E0.04172
G1 X17.412 Y66.858 E0.03842
G1 X16.96 Y65.912 E0.039
G1 X16.633 Y64.349 E0.05942
G1 X16.633 Y48.333 E0.59592
G1 X16.814 Y47.219 E0.04197
G1 X17.225 Y46.14 E0.04297
G1 X17.846 Y45.177 E0.04264
G1 X18.62 Y44.365 E0.04172
G1 X19.455 Y43.758 E0.03842
G1 X19.536 Y43.719 E0.00334
M107
G1 X19.684 Y44.031 F3600000
M107
G1 F3000
G1 X20.531 Y43.63 E0.03488
G1 X21.982 Y43.328 E0.05515
G1 X43.016 Y43.331 E0.78262
G1 X44.071 Y43.516 E0.03984
G1 X45.103 Y43.927 E0.04135
G1 X45.937 Y44.479 E0.0372
G1 X46.67 Y45.174 E0.0376
G1 X47.499 Y46.432 E0.05605
G1 X47.807 Y47.279 E0.03352
G1 X47.969 Y48.171 E0.03374
G1 X47.977 Y64.401 E0.60389
G1 X47.801 Y65.402 E0.03783
G1 X47.423 Y66.378 E0.03892
G1 X46.838 Y67.278 E0.03996
G1 X46.106 Y68.041 E0.03931
G1 X45.321 Y68.609 E0.03608
G1 X44.436 Y69.029 E0.03645
G1 X42.985 Y69.331 E0.05513
G1 X22.001 Y69.331 E0.78076
G1 X20.947 Y69.157 E0.03973
G1 X19.936 Y68.769 E0.04032
G1 X19.034 Y68.184 E0.04
G1 X18.272 Y67.452 E0.03931
G1 X17.703 Y66.667 E0.03608
G1 X17.284 Y65.782 E0.03644
G1 X16.982 Y64.331 E0.05513
G1 X16.982 Y48.347 E0.59473
G1 X17.155 Y47.293 E0.03973
G1 X17.543 Y46.282 E0.04032
