; generated by SuperSlicer 2.5.59.8 on 2024-05-03 at 20:06:43 UTC


;
;

;
;

;
;

;
;

;
;
; 

; external perimeters extrusion width = 0.40mm
; perimeters extrusion width = 0.40mm
; infill extrusion width = 0.40mm
; solid infill extrusion width = 0.40mm
; top infill extrusion width = 0.40mm

; external perimeters extrusion width = 0.40mm
; perimeters extrusion width = 0.40mm
; infill extrusion width = 0.40mm
; solid infill extrusion width = 0.40mm
; top infill extrusion width = 0.40mm

; external perimeters extrusion width = 0.40mm
; perimeters extrusion width = 0.40mm
; infill extrusion width = 0.40mm
; solid infill extrusion width = 0.40mm
; top infill extrusion width = 0.40mm

; external perimeters extrusion width = 0.40mm
; perimeters extrusion width = 0.40mm
; infill extrusion width = 0.40mm
; solid infill extrusion width = 0.40mm
; top infill extrusion width = 0.40mm

; external perimeters extrusion width = 0.40mm
; perimeters extrusion width = 0.40mm
; infill extrusion width = 0.40mm
; solid infill extrusion width = 0.40mm
; top infill extrusion width = 0.40mm

; object:{"name":"Lexan 2020 Flush Mount - Part 1","id":"Lexan 2020 Flush Mount - Part 1.stl id:0 copy 0","object_center":[35.094208,37.098474,0.000000],"boundingbox_center":[35.094208,37.098474,10.000000],"boundingbox_size":[20.000000,15.000000,20.000000]}
EXCLUDE_OBJECT_DEFINE NAME=Lexan_2020_Flush_Mount_Part_1_stl_id_0_copy_0 CENTER=35.094208,37.098474 POLYGON=[[25.09,29.60],[45.09,29.60],[45.09,44.60],[25.09,44.60],[25.09,29.60]]
; object:{"name":"Lexan 2020 Flush Mount - Part 1","id":"Lexan 2020 Flush Mount - Part 1.stl id:1 copy 0","object_center":[103.127607,68.585536,0.000000],"boundingbox_center":[103.127607,68.585536,10.000000],"boundingbox_size":[20.000000,15.000000,20.000000]}
EXCLUDE_OBJECT_DEFINE NAME=Lexan_2020_Flush_Mount_Part_1_stl_id_1_copy_0 CENTER=103.127607,68.585536 POLYGON=[[93.13,61.09],[113.13,61.09],[113.13,76.09],[93.13,76.09],[93.13,61.09]]
; object:{"name":"Lexan 2020 Flush Mount - Part 1","id":"Lexan 2020 Flush Mount - Part 1.stl id:2 copy 0","object_center":[35.292811,110.312338,0.000000],"boundingbox_center":[35.292811,110.312338,10.000000],"boundingbox_size":[20.000000,15.000000,20.000000]}
EXCLUDE_OBJECT_DEFINE NAME=Lexan_2020_Flush_Mount_Part_1_stl_id_2_copy_0 CENTER=35.292811,110.312338 POLYGON=[[25.29,102.81],[45.29,102.81],[45.29,117.81],[25.29,117.81],[25.29,102.81]]
; object:{"name":"Lexan 2020 Flush Mount - Part 1","id":"Lexan 2020 Flush Mount - Part 1.stl id:3 copy 0","object_center":[108.015135,154.386677,0.000000],"boundingbox_center":[108.015135,154.386677,10.000000],"boundingbox_size":[20.000000,15.000000,20.000000]}
EXCLUDE_OBJECT_DEFINE NAME=Lexan_2020_Flush_Mount_Part_1_stl_id_3_copy_0 CENTER=108.015135,154.386677 POLYGON=[[98.02,146.89],[118.02,146.89],[118.02,161.89],[98.02,161.89],[98.02,146.89]]
; object:{"name":"Lexan 2020 Flush Mount - Part 1","id":"Lexan 2020 Flush Mount - Part 1.stl id:4 copy 0","object_center":[38.989415,181.743903,0.000000],"boundingbox_center":[38.989415,181.743903,10.000000],"boundingbox_size":[20.000000,15.000000,20.000000]}
EXCLUDE_OBJECT_DEFINE NAME=Lexan_2020_Flush_Mount_Part_1_stl_id_4_copy_0 CENTER=38.989415,181.743903 POLYGON=[[28.99,174.24],[48.99,174.24],[48.99,189.24],[28.99,189.24],[28.99,174.24]]
; plater:{"center":[71.554671,109.421188,0.000000],"boundingbox_center":[71.554671,109.421188,10.000000],"boundingbox_size":[92.920927,159.645428,20.000000]}

M73 P0 R90
M107
;TYPE:Custom
CALCULATE_PA MATERIAL=ABS BOWDEN_LENGTH=6 LAYER_HEIGHT=0.24 NOZZLE_SIZE=0.4 PRINT_SPEED=95


START_PRINT EXTRUDER=270 BED=100

G21 ; set units to millimeters
G90 ; use absolute coordinates
M83 ; use relative distances for extrusion
; Filament gcode
M104 S270 ; set temperature
M109 S270 ; set temperature and wait for it to be reached
M190 S100 ; set bed temperature and wait for it to be reached
;LAYER_CHANGE
;Z:0.24
;HEIGHT:0.24
;BEFORE_LAYER_CHANGE
G92 E0.0

G1 E-1.5 F3000
G1 Z0.4 F3600000
;AFTER_LAYER_CHANGE
;0.24




CALCULATE_PA MATERIAL=ABS BOWDEN_LENGTH=6.0 LAYER_HEIGHT=0.2 NOZZLE_SIZE=0.4 PRINT_SPEED=95


G92 E0
G1 X27.98754 Y164.58967
G1 Z0.24
G1 E1.5 F3000
;TYPE:Skirt
;WIDTH:0.4
M107
G1 X49.91642 Y164.58239 E0.81591
G1 X51.81231 Y164.93368 E0.07174
G1 X53.55765 Y165.64155 E0.07008
G1 X55.08766 Y166.65301 E0.06824
G1 X56.43228 Y167.96449 E0.06989
G1 X57.7047 Y169.89623 E0.08607
G1 X58.38239 Y171.71943 E0.07237
G1 X58.64594 Y173.27142 E0.05857
G1 X58.65737 Y190.09022 E0.62578
G1 X58.36193 Y191.84452 E0.06619
G1 X57.72021 Y193.56285 E0.06825
G1 X56.53725 Y195.39616 E0.08118
G1 X55.28553 Y196.67218 E0.06651
G1 X53.86413 Y197.67655 E0.06476
G1 X52.14257 Y198.45049 E0.07023
G1 X49.70261 Y198.92753 E0.0925
G1 X28.31742 Y198.92553 E0.79568
G1 X26.49884 Y198.6452 E0.06846
G1 X24.78238 Y198.02884 E0.06786
G1 X22.87721 Y196.8245 E0.08386
G1 X21.58698 Y195.57003 E0.06696
G1 X20.55743 Y194.12005 E0.06617
G1 X19.78284 Y192.39709 E0.07029
G1 X19.30576 Y189.95659 E0.09252
G1 X19.31897 Y173.42957 E0.61492
G1 X19.60728 Y171.67952 E0.06599
G1 X20.20608 Y170.03328 E0.06518
G1 X21.40882 Y168.1317 E0.08372
G1 X22.66324 Y166.84151 E0.06695
G1 X24.11271 Y165.81221 E0.06615
G1 X25.82441 Y165.04068 E0.06986
G1 X27.9288 Y164.60192 E0.07998
M107
G1 X27.99993 Y164.94308 F3600000
M107
G1 F3000
G1 X28.04115 Y164.93448 E0.00157
G1 X49.86914 Y164.92803 E0.81216
G1 X51.69827 Y165.26345 E0.06919
G1 X53.38045 Y165.94212 E0.06749
G1 X54.85666 Y166.91446 E0.06577
G1 X56.15169 Y168.17203 E0.06716
G1 X57.40276 Y170.07137 E0.08462
G1 X58.04164 Y171.79424 E0.06837
G1 X58.29745 Y173.2864 E0.05633
G1 X58.30887 Y190.07573 E0.62468
G1 X58.02114 Y191.76975 E0.06393
G1 X57.40052 Y193.42288 E0.0657
G1 X56.27583 Y195.16504 E0.07715
G1 X55.07113 Y196.397 E0.06411
G1 X53.7052 Y197.36596 E0.06231
G1 X52.05552 Y198.11244 E0.06737
G1 X49.68566 Y198.57903 E0.08987
G1 X28.35687 Y198.57903 E0.79358
G1 X26.60074 Y198.31151 E0.06609
G1 X24.91815 Y197.70731 E0.06652
G1 X23.10686 Y196.56176 E0.07974
G1 X21.86156 Y195.35484 E0.06452
G1 X20.86795 Y193.96094 E0.06369
G1 X20.12089 Y192.31004 E0.06742
G1 X19.65426 Y189.93981 E0.08988
G1 X19.66519 Y173.47178 E0.61273
G1 X19.94036 Y171.7833 E0.06365
G1 X20.52717 Y170.17005 E0.06387
G1 X21.67155 Y168.36136 E0.07964
G1 X22.87844 Y167.11608 E0.06452
G1 X24.27201 Y166.12263 E0.06368
G1 X25.91433 Y165.37792 E0.0671
G1 X27.9412 Y164.95532 E0.07704
M107
G1 X28.01233 Y165.29648 F3600000
M107
G1 F3000
G1 X28.09475 Y165.2793 E0.00313
G1 X49.82236 Y165.27372 E0.80842
G1 X51.58485 Y165.59345 E0.06665
G1 X53.20377 Y166.24302 E0.0649
G1 X54.62623 Y167.17641 E0.0633
G1 X55.87121 Y168.37975 E0.06442
G1 X57.10078 Y170.24645 E0.08317
G1 X57.70097 Y171.8694 E0.06438
G1 X57.94897 Y173.30152 E0.05408
G1 X57.96036 Y190.06111 E0.62358
G1 X57.68047 Y191.69446 E0.06166
G1 X57.08102 Y193.28247 E0.06315
G1 X56.01416 Y194.93422 E0.07316
G1 X54.85622 Y196.12221 E0.06172
G1 X53.54553 Y197.05574 E0.05987
G1 X51.9679 Y197.77453 E0.0645
G1 X49.66859 Y198.23054 E0.08722
G1 X28.37015 Y198.23054 E0.79245
G1 X26.67035 Y197.96962 E0.06399
G1 X25.05437 Y197.38598 E0.06393
G1 X23.33619 Y196.29875 E0.07565
G1 X22.13574 Y195.13915 E0.0621
G1 X21.17807 Y193.80108 E0.06122
G1 X20.45879 Y192.22242 E0.06455
G1 X20.00277 Y189.92288 E0.08723
G1 X20.01145 Y173.51351 E0.61055
G1 X20.2735 Y171.88693 E0.0613
G1 X20.84825 Y170.30683 E0.06256
G1 X21.93455 Y168.5907 E0.07557
G1 X23.09414 Y167.39026 E0.0621
G1 X24.432 Y166.43269 E0.06121
G1 X26.00447 Y165.71511 E0.06431
G1 X27.95359 Y165.30873 E0.07408
M107
G1 X28.02472 Y165.64989 F3600000
M107
G1 F3000
G1 X28.14836 Y165.62411 E0.0047
G1 X49.77608 Y165.61948 E0.80471
G1 X51.47209 Y165.92367 E0.06411
G1 X53.02765 Y166.54424 E0.06231
G1 X54.3964 Y167.43889 E0.06084
G1 X55.59085 Y168.58765 E0.06166
G1 X56.79875 Y170.42145 E0.0817
G1 X57.3604 Y171.94493 E0.06041
G1 X57.60048 Y173.31681 E0.05182
G1 X57.61186 Y190.04636 E0.62246
G1 X57.33992 Y191.61861 E0.05937
G1 X56.76174 Y193.14159 E0.06061
G1 X55.75221 Y194.70373 E0.0692
G1 X54.64079 Y195.84783 E0.05935
G1 X53.38507 Y196.74594 E0.05744
G1 X51.87968 Y197.43678 E0.06163
G1 X49.65139 Y197.88204 E0.08455
G1 X28.38336 Y197.88204 E0.79132
G1 X26.77274 Y197.63607 E0.06062
G1 X25.19062 Y197.06466 E0.06259
G1 X23.5652 Y196.03548 E0.07158
G1 X22.40951 Y194.92293 E0.05969
G1 X21.48779 Y193.64043 E0.05876
G1 X20.79655 Y192.1342 E0.06166
G1 X20.35127 Y189.90579 E0.08455
G1 X20.35772 Y173.55523 E0.60836
G1 X20.61491 Y171.9588 E0.06016
G1 X21.16912 Y170.44409 E0.06001
G1 X22.19782 Y168.81972 E0.07154
G1 X23.31036 Y167.66402 E0.05969
G1 X24.59274 Y166.74235 E0.05876
G1 X26.09482 Y166.05227 E0.0615
G1 X27.96598 Y165.66213 E0.07112
M107
G1 X28.03711 Y166.00329 F3600000
M107
G1 F3000
G1 X28.20195 Y165.96892 E0.00627
G1 X49.73034 Y165.9653 E0.80101
G1 X51.36001 Y166.25412 E0.06158
G1 X52.8521 Y166.84579 E0.05972
G1 X54.16723 Y167.70193 E0.05839
G1 X55.31061 Y168.79575 E0.05887
G1 X56.49666 Y170.59637 E0.08022
G1 X57.01993 Y172.02084 E0.05646
G1 X57.252 Y173.33225 E0.04955
G1 X57.26335 Y190.03146 E0.62133
G1 X56.9995 Y191.54217 E0.05706
G1 X56.44269 Y193.00022 E0.05807
G1 X55.48998 Y194.47357 E0.06528
G1 X54.42483 Y195.57388 E0.05698
G1 X53.22378 Y196.43657 E0.05502
G1 X51.79083 Y197.09918 E0.05874
G1 X49.63406 Y197.53355 E0.08186
G1 X28.39668 Y197.53355 E0.79018
M73 P0 R89
G1 X26.84265 Y197.29423 E0.0585
G1 X25.32737 Y196.74357 E0.05999
G1 X23.79387 Y195.77192 E0.06755
G1 X22.68285 Y194.70618 E0.05728
G1 X21.79708 Y193.47897 E0.05631
G1 X21.13415 Y192.04536 E0.05877
G1 X20.69977 Y189.88852 E0.08186
G1 X20.70405 Y173.59641 E0.60618
G1 X20.94797 Y172.06274 E0.05778
G1 X21.48998 Y170.58136 E0.05869
G1 X22.46138 Y169.04839 E0.06752
G1 X23.52711 Y167.93736 E0.05728
G1 X24.75427 Y167.0516 E0.05631
G1 X26.1854 Y166.38937 E0.05867
G1 X27.97837 Y166.01554 E0.06815
M107
G1 X28.0495 Y166.3567 F3600000
M107
G1 F3000
G1 X28.25555 Y166.31374 E0.00783
G1 X49.68515 Y166.31118 E0.79733
G1 X51.24865 Y166.58481 E0.05906
G1 X52.67715 Y167.14769 E0.05713
G1 X53.93875 Y167.96557 E0.05594
G1 X55.03052 Y169.00405 E0.05606
G1 X56.1945 Y170.77118 E0.07873
G1 X56.67955 Y172.09716 E0.05253
G1 X56.90351 Y173.34788 E0.04728
G1 X56.91485 Y190.01641 E0.62019
G1 X56.65922 Y191.4651 E0.05473
G1 X56.12387 Y192.85833 E0.05553
G1 X55.22747 Y194.24375 E0.0614
G1 X54.20831 Y195.30036 E0.05462
G1 X53.06163 Y196.12766 E0.05261
G1 X51.70133 Y196.76175 E0.05584
G1 X49.61659 Y197.18505 E0.07915
G1 X28.41011 Y197.18505 E0.78903
G1 X26.91308 Y196.95249 E0.05637
G1 X25.46465 Y196.4227 E0.05738
G1 X24.02219 Y195.50807 E0.06355
G1 X22.95575 Y194.48887 E0.05489
G1 X22.1059 Y193.31663 E0.05387
G1 X21.47158 Y191.95585 E0.05586
G1 X21.04827 Y189.87109 E0.07915
G1 X21.05037 Y173.63758 E0.604
G1 X21.28947 Y172.13428 E0.05664
G1 X21.81061 Y170.71916 E0.05611
G1 X22.72522 Y169.27671 E0.06355
G1 X23.74442 Y168.21026 E0.05489
G1 X24.91664 Y167.36041 E0.05387
G1 X26.27624 Y166.72642 E0.05582
G1 X27.99077 Y166.36894 E0.06516
M107
G1 X28.0619 Y166.7101 F3600000
M107
G1 F3000
G1 X28.30914 Y166.65855 E0.0094
G1 X49.64054 Y166.65713 E0.79368
G1 X51.13804 Y166.91575 E0.05654
G1 X52.50281 Y167.44995 E0.05453
G1 X53.71101 Y168.22984 E0.05351
G1 X54.75057 Y169.21258 E0.05323
G1 X55.89228 Y170.94589 E0.07722
G1 X56.33929 Y172.17389 E0.04862
G1 X56.55503 Y173.36369 E0.04499
G1 X56.56634 Y190.0012 E0.61903
G1 X56.31909 Y191.38738 E0.05239
G1 X55.8053 Y192.71591 E0.053
G1 X54.96465 Y194.01428 E0.05755
G1 X53.99122 Y195.0273 E0.05227
G1 X52.89855 Y195.81924 E0.05021
G1 X51.61112 Y196.42449 E0.05293
G1 X49.59898 Y196.83656 E0.07642
G1 X28.42367 Y196.83656 E0.78787
G1 X26.98406 Y196.61087 E0.05422
G1 X25.60248 Y196.10208 E0.05478
G1 X24.25015 Y195.24392 E0.05959
G1 X23.22819 Y194.27099 E0.0525
G1 X22.41423 Y193.15337 E0.05144
G1 X21.80884 Y191.86564 E0.05294
G1 X21.39676 Y189.85348 E0.07642
G1 X21.39676 Y173.67816 E0.60184
G1 X21.62244 Y172.23856 E0.05422
G1 X22.13123 Y170.85699 E0.05478
G1 X22.98937 Y169.50466 E0.05959
G1 X23.96231 Y168.4827 E0.0525
G1 X25.07992 Y167.66874 E0.05144
G1 X26.36734 Y167.06341 E0.05293
G1 X28.00316 Y166.72235 E0.06217
M107
G1 X28.07429 Y167.06351 F3600000
M107
G1 F3000
G1 X28.36272 Y167.00337 E0.01096
G1 X49.59653 Y167.00315 E0.79005
G1 X51.02821 Y167.24696 E0.05404
G1 X52.32911 Y167.75257 E0.05193
G1 X53.48407 Y168.4948 E0.05108
G1 X54.47078 Y169.42135 E0.05036
G1 X55.58996 Y171.12045 E0.0757
G1 X55.99914 Y172.25107 E0.04474
G1 X56.20654 Y173.37972 E0.0427
G1 X56.21784 Y189.98582 E0.61787
G1 X55.97911 Y191.30897 E0.05003
G1 X55.487 Y192.57293 E0.05047
G1 X54.70152 Y193.78519 E0.05375
G1 X53.77354 Y194.75472 E0.04993
G1 X52.73449 Y195.51135 E0.04782
G1 X51.52017 Y196.08743 E0.05001
G1 X49.58121 Y196.48806 E0.07367
G1 X28.43735 Y196.48806 E0.7867
G1 X27.05561 Y196.26936 E0.05205
G1 X25.7409 Y195.78173 E0.05217
G1 X24.47773 Y194.97946 E0.05568
G1 X23.50015 Y194.05251 E0.05012
G1 X22.72204 Y192.98913 E0.04903
G1 X22.1459 Y191.77468 E0.05001
G1 X21.74526 Y189.83571 E0.07367
G1 X21.74526 Y173.69185 E0.60067
G1 X21.96395 Y172.31011 E0.05205
G1 X22.45158 Y170.99541 E0.05217
G1 X23.25383 Y169.73224 E0.05568
G1 X24.18079 Y168.75466 E0.05013
G1 X25.24415 Y167.97654 E0.04903
G1 X26.45875 Y167.40034 E0.05002
G1 X28.01555 Y167.07575 E0.05917
M107
G1 X28.08668 Y167.41691 F3600000
M107
G1 F3000
G1 X28.41629 Y167.34819 E0.01253
G1 X49.58185 Y167.35164 E0.78751
G1 X50.91844 Y167.57819 E0.05044
G1 X52.18653 Y168.07105 E0.05062
G1 X53.25783 Y168.76033 E0.0474
G1 X54.19117 Y169.63039 E0.04748
G1 X55.28753 Y171.29486 E0.07416
G1 X55.65911 Y172.32871 E0.04088
G1 X55.85806 Y173.39596 E0.04039
G1 X55.86933 Y189.97025 E0.61668
G1 X55.63931 Y191.2298 E0.04764
G1 X55.16897 Y192.42934 E0.04794
G1 X54.43807 Y193.55648 E0.04998
G1 X53.55524 Y194.48262 E0.04761
G1 X52.56939 Y195.20402 E0.04545
G1 X51.42842 Y195.75057 E0.04707
G1 X49.56328 Y196.13957 E0.07089
G1 X28.45117 Y196.13957 E0.78552
G1 X27.12777 Y195.92798 E0.04987
G1 X25.87993 Y195.46165 E0.04956
G1 X24.70491 Y194.71467 E0.05181
G1 X23.77162 Y193.83342 E0.04776
G1 X23.02928 Y192.82384 E0.04662
G1 X22.48276 Y191.68294 E0.04707
G1 X22.09375 Y189.81778 E0.07089
G1 X22.09375 Y173.70567 E0.59949
G1 X22.30533 Y172.38227 E0.04986
G1 X22.77166 Y171.13444 E0.04956
G1 X23.51862 Y169.95942 E0.05181
G1 X24.39988 Y169.02612 E0.04776
G1 X25.40944 Y168.28379 E0.04662
G1 X26.55047 Y167.73721 E0.04707
G1 X28.02795 Y167.42916 E0.05615
M107
G1 X28.09914 Y167.76727 F3600000
M107
G1 F3000
G1 X28.43435 Y167.69669 E0.01275
G1 X49.56701 Y167.70013 E0.78629
G1 X50.84207 Y167.91868 E0.04813
G1 X52.04309 Y168.38914 E0.04799
G1 X53.05542 Y169.04445 E0.04487
G1 X53.93797 Y169.87073 E0.04498
G1 X54.96681 Y171.43272 E0.06959
G1 X55.31912 Y172.40652 E0.03853
G1 X55.51253 Y173.44407 E0.03927
G1 X55.52083 Y189.95443 E0.6143
G1 X55.2997 Y191.14984 E0.04523
G1 X54.85124 Y192.28513 E0.04542
G1 X54.17429 Y193.32818 E0.04627
G1 X53.33631 Y194.21103 E0.04529
G1 X52.40317 Y194.8973 E0.0431
G1 X51.33584 Y195.41393 E0.04412
G1 X49.54518 Y195.79107 E0.06809
G1 X28.4649 Y195.79107 E0.78434
G1 X27.23342 Y195.59543 E0.04639
G1 X26.01901 Y195.14159 E0.04824
G1 X24.93212 Y194.44992 E0.04793
G1 X24.02229 Y193.5908 E0.04656
G1 X23.336 Y192.65762 E0.0431
G1 X22.8194 Y191.59036 E0.04412
G1 X22.44225 Y189.79968 E0.06809
G1 X22.44225 Y173.7194 E0.5983
G1 X22.63789 Y172.48793 E0.04639
G1 X23.09172 Y171.27352 E0.04824
G1 X23.78338 Y170.18664 E0.04793
G1 X24.6425 Y169.27679 E0.04656
G1 X25.57566 Y168.5905 E0.0431
G1 X26.64304 Y168.07385 E0.04412
G1 X28.04042 Y167.77963 E0.05313
M107
G1 X28.11115 Y168.11676 F3600000
M107
G1 F3000
G1 X28.45233 Y168.04519 E0.01297
G1 X49.55224 Y168.04862 E0.78507
G1 X50.73157 Y168.24967 E0.04451
G1 X51.8994 Y168.70713 E0.04667
G1 X52.85222 Y169.32799 E0.04231
G1 X53.68438 Y170.11063 E0.0425
G1 X54.64608 Y171.57058 E0.06505
G1 X54.98652 Y172.51155 E0.03723
G1 X55.16693 Y173.4916 E0.03708
G1 X55.17515 Y189.90746 E0.61079
G1 X54.96907 Y191.0384 E0.04277
G1 X54.549 Y192.11076 E0.04285
G1 X53.91035 Y193.10003 E0.04381
G1 X53.09434 Y193.95975 E0.0441
G1 X52.21029 Y194.60662 E0.04076
