; generated by SuperSlicer 2.5.59.8 on 2024-04-14 at 21:53:09 UTC


;
;

;
;

;
;

;
;

;
;
; 

; external perimeters extrusion width = 0.40mm
; perimeters extrusion width = 0.40mm
; infill extrusion width = 0.40mm
; solid infill extrusion width = 0.40mm
; top infill extrusion width = 0.40mm

; object:{"name":"LGX_Lite_TOP","id":"LGX_Lite_TOP.stl id:0 copy 0","object_center":[75.559040,121.248115,0.000000],"boundingbox_center":[75.559040,121.248115,22.050001],"boundingbox_size":[51.200005,29.799995,44.100002]}
EXCLUDE_OBJECT_DEFINE NAME=LGX_Lite_TOP_stl_id_0_copy_0 CENTER=75.559040,121.248115 POLYGON=[[49.96,119.35],[66.38,106.35],[71.38,106.35],[92.16,117.89],[101.16,123.15],[101.16,136.15],[74.16,136.15],[65.76,134.25],[49.96,127.15],[49.96,119.35]]
; plater:{"center":[75.559040,121.248115,0.000000],"boundingbox_center":[75.559040,121.248115,22.050001],"boundingbox_size":[51.200005,29.799995,44.100002]}

M73 P0 R116
M107
;TYPE:Custom
CALCULATE_PA MATERIAL=ABS BOWDEN_LENGTH=6 LAYER_HEIGHT=0.24 NOZZLE_SIZE=0.4 PRINT_SPEED=95


START_PRINT EXTRUDER=275 BED=100

M107
G21 ; set units to millimeters
G90 ; use absolute coordinates
M83 ; use relative distances for extrusion
ACTIVATE_EXTRUDER EXTRUDER=extruder
; Filament gcode
M104 S275 T0 ; set temperature
M109 S275 T0 ; set temperature and wait for it to be reached
M190 S100 ; set bed temperature and wait for it to be reached
;LAYER_CHANGE
;Z:0.24
;HEIGHT:0.24
;BEFORE_LAYER_CHANGE
G92 E0.0

G1 E-1.5 F3000
G1 Z0.2 F3600000
G1 Z0.24
;AFTER_LAYER_CHANGE
;0.24




CALCULATE_PA MATERIAL=ABS BOWDEN_LENGTH=6.0 LAYER_HEIGHT=0.2 NOZZLE_SIZE=0.4 PRINT_SPEED=95


G92 E0
G1 Z0.44
G1 X60.212 Y97.554
G1 Z0.24
G1 E1.5 F3000
;TYPE:Skirt
;WIDTH:0.4
M107
G1 F2400
G1 X62.257 Y96.432 E0.0811
G1 X64.383 Y95.787 E0.07726
G1 X73.358 Y95.788 E0.31207
G1 X76.214 Y96.754 E0.10487
G1 X78.648 Y98.423 E0.10261
G1 X87.475 Y107.781 E0.44734
G1 X88.843 Y109.833 E0.08573
G1 X89.892 Y113.112 E0.11973
G1 X89.909 Y113.306 E0.00678
G1 X102.356 Y113.342 E0.43282
G1 X104.37 Y113.743 E0.07139
G1 X106.306 Y114.549 E0.07291
G1 X108.029 Y115.718 E0.0724
G1 X109.599 Y117.321 E0.07804
G1 X111.014 Y119.632 E0.09421
G1 X111.555 Y121.207 E0.05791
G1 X111.846 Y122.835 E0.05752
G1 X111.888 Y135.953 E0.45614
G1 X111.531 Y138.179 E0.07842
G1 X110.714 Y140.271 E0.07808
G1 X109.479 Y142.126 E0.0775
G1 X107.871 Y143.705 E0.07837
G1 X105.578 Y145.113 E0.09358
G1 X104.012 Y145.655 E0.05761
G1 X102.402 Y145.95 E0.05693
G1 X93.966 Y145.993 E0.29333
G1 X92.053 Y145.711 E0.06726
G1 X89.843 Y144.904 E0.08182
G1 X88.023 Y143.745 E0.075
G1 X87.673 Y143.406 E0.01695
G1 X87.488 Y143.585 E0.00895
G1 X85.72 Y144.778 E0.07419
G1 X83.639 Y145.612 E0.07795
G1 X81.417 Y145.99 E0.07838
G1 X73.489 Y145.997 E0.27569
G1 X71.523 Y145.711 E0.06908
G1 X69.597 Y145.038 E0.07094
G1 X67.831 Y144.005 E0.07114
G1 X66.078 Y142.406 E0.08252
G1 X64.826 Y140.672 E0.07436
G1 X64.531 Y140.045 E0.02409
G1 X64.424 Y140.038 E0.00373
G1 X62.26 Y139.562 E0.07705
G1 X60.461 Y138.764 E0.06845
G1 X58.891 Y137.681 E0.06633
G1 X57.339 Y136.107 E0.07685
G1 X56.385 Y134.697 E0.0592
G1 X56.233 Y134.395 E0.01176
G1 X54.133 Y132.296 E0.10326
G1 X53.924 Y132.172 E0.00845
G1 X52.941 Y131.435 E0.0427
G1 X51.429 Y129.893 E0.07511
G1 X50.007 Y127.596 E0.09393
G1 X49.49 Y126.14 E0.05374
G1 X49.18 Y124.611 E0.05426
G1 X49.109 Y117.723 E0.23952
G1 X49.311 Y115.942 E0.06232
G1 X49.78 Y114.484 E0.05327
G1 X51.413 Y111.464 E0.11939
G1 X54.716 Y108.093 E0.16412
G1 X54.821 Y105.383 E0.09429
G1 X55.46 Y103.239 E0.07779
G1 X56.515 Y101.275 E0.07753
G1 X60.17 Y97.596 E0.18032
M107
G1 X60.417 Y97.842 F3600000
M107
G1 F2400
G1 X60.441 Y97.817 E0.00122
G1 X62.376 Y96.76 E0.07667
G1 X64.409 Y96.136 E0.07396
G1 X73.329 Y96.136 E0.31016
G1 X76.079 Y97.076 E0.10106
G1 X78.407 Y98.676 E0.09822
G1 X87.194 Y107.987 E0.44519
G1 X88.518 Y109.962 E0.08269
G1 X89.554 Y113.198 E0.11812
G1 X89.581 Y113.654 E0.01589
G1 X102.338 Y113.691 E0.44359
G1 X104.284 Y114.081 E0.06902
G1 X106.155 Y114.864 E0.0705
G1 X107.818 Y115.996 E0.06998
G1 X109.313 Y117.52 E0.07422
G1 X110.691 Y119.763 E0.09155
G1 X111.214 Y121.281 E0.05584
G1 X111.5 Y122.881 E0.05652
G1 X111.54 Y135.94 E0.45408
G1 X111.199 Y138.07 E0.07503
G1 X110.414 Y140.094 E0.07548
G1 X109.222 Y141.891 E0.07497
G1 X107.671 Y143.419 E0.0757
G1 X105.445 Y144.79 E0.09092
G1 X103.936 Y145.315 E0.05557
G1 X102.384 Y145.602 E0.05486
G1 X93.978 Y145.644 E0.29233
G1 X92.121 Y145.369 E0.06526
G1 X90.014 Y144.6 E0.07801
G1 X88.226 Y143.461 E0.0737
G1 X87.673 Y142.917 E0.027
G1 X87.28 Y143.305 E0.01923
G1 X85.573 Y144.461 E0.07169
G1 X83.527 Y145.282 E0.07665
G1 X81.373 Y145.644 E0.07593
G1 X73.501 Y145.649 E0.27374
G1 X71.59 Y145.368 E0.06717
G1 X69.728 Y144.714 E0.06862
G1 X68.052 Y143.735 E0.06752
G1 X66.35 Y142.187 E0.08
G1 X65.118 Y140.481 E0.07316
G1 X64.758 Y139.706 E0.02974
G1 X64.484 Y139.694 E0.00953
G1 X62.386 Y139.236 E0.07469
G1 X60.617 Y138.452 E0.06727
G1 X59.103 Y137.403 E0.06406
G1 X57.619 Y135.898 E0.07349
G1 X56.68 Y134.512 E0.05823
G1 X56.52 Y134.189 E0.01252
G1 X54.348 Y132.018 E0.10679
G1 X54.125 Y131.887 E0.009
G1 X53.181 Y131.181 E0.04099
G1 X51.715 Y129.692 E0.07264
G1 X50.329 Y127.462 E0.09131
G1 X49.822 Y126.035 E0.05266
G1 X49.525 Y124.558 E0.05239
G1 X49.457 Y117.73 E0.23743
G1 X49.655 Y115.999 E0.0606
G1 X50.094 Y114.635 E0.04981
G1 X51.708 Y111.651 E0.11797
G1 X55.06 Y108.241 E0.16628
G1 X55.161 Y105.461 E0.09672
G1 X55.776 Y103.388 E0.07518
G1 X56.81 Y101.462 E0.07603
G1 X60.374 Y97.885 E0.1756
M107
G1 X60.621 Y98.131 F3600000
M107
G1 F2400
G1 X60.67 Y98.082 E0.00243
G1 X62.496 Y97.088 E0.07228
G1 X64.436 Y96.484 E0.07063
G1 X73.3 Y96.485 E0.30824
G1 X75.943 Y97.398 E0.09724
G1 X78.194 Y98.952 E0.09512
G1 X86.931 Y108.216 E0.44279
G1 X88.194 Y110.092 E0.07864
G1 X89.215 Y113.282 E0.11647
G1 X89.249 Y114.001 E0.02504
G1 X102.287 Y114.036 E0.45336
G1 X104.166 Y114.409 E0.06663
G1 X105.974 Y115.162 E0.06807
G1 X107.582 Y116.253 E0.06758
G1 X109.026 Y117.72 E0.07158
G1 X110.368 Y119.895 E0.08887
G1 X110.88 Y121.382 E0.05469
G1 X111.154 Y122.928 E0.05458
G1 X111.191 Y135.927 E0.45202
G1 X110.858 Y137.997 E0.07292
G1 X110.113 Y139.917 E0.07164
G1 X108.964 Y141.656 E0.07245
G1 X107.471 Y143.133 E0.07302
G1 X105.313 Y144.468 E0.08826
G1 X103.859 Y144.975 E0.05354
G1 X102.367 Y145.253 E0.05277
G1 X93.989 Y145.296 E0.29133
G1 X92.19 Y145.027 E0.06326
G1 X90.185 Y144.296 E0.07421
G1 X88.429 Y143.177 E0.07239
G1 X87.673 Y142.424 E0.03712
G1 X87.07 Y143.026 E0.02961
G1 X85.425 Y144.145 E0.06917
G1 X83.415 Y144.951 E0.07534
G1 X81.33 Y145.298 E0.07347
G1 X73.514 Y145.3 E0.2718
G1 X71.658 Y145.026 E0.06526
G1 X69.889 Y144.405 E0.06517
G1 X68.272 Y143.465 E0.06504
G1 X66.622 Y141.968 E0.07747
G1 X65.411 Y140.291 E0.07194
G1 X64.984 Y139.364 E0.03548
G1 X64.542 Y139.35 E0.01538
G1 X62.511 Y138.91 E0.07229
G1 X60.774 Y138.14 E0.06607
G1 X59.315 Y137.126 E0.06177
G1 X57.899 Y135.689 E0.07016
G1 X56.975 Y134.326 E0.05726
G1 X56.807 Y133.984 E0.01326
G1 X54.562 Y131.739 E0.11038
M73 P0 R115
G1 X54.325 Y131.601 E0.00954
G1 X53.419 Y130.927 E0.03928
G1 X52 Y129.492 E0.07017
G1 X50.651 Y127.327 E0.08868
G1 X50.161 Y125.954 E0.0507
G1 X49.869 Y124.505 E0.05138
G1 X49.806 Y117.738 E0.23533
G1 X49.999 Y116.056 E0.05888
G1 X50.408 Y114.787 E0.04635
G1 X52.003 Y111.839 E0.11656
G1 X55.403 Y108.389 E0.16845
G1 X55.502 Y105.539 E0.09915
G1 X56.105 Y103.505 E0.07378
G1 X57.105 Y101.65 E0.07328
G1 X60.578 Y98.173 E0.17089
M107
G1 X60.824 Y98.42 F3600000
M107
G1 F2400
G1 X60.899 Y98.346 E0.00364
G1 X62.617 Y97.415 E0.06795
G1 X64.462 Y96.833 E0.06729
G1 X73.27 Y96.833 E0.30629
G1 X75.806 Y97.719 E0.09338
G1 X77.98 Y99.228 E0.09204
G1 X86.667 Y108.445 E0.44042
G1 X87.87 Y110.222 E0.0746
G1 X88.876 Y113.366 E0.11478
G1 X88.914 Y114.349 E0.03422
G1 X102.236 Y114.381 E0.46324
G1 X104.049 Y114.738 E0.06425
G1 X105.793 Y115.46 E0.06564
G1 X107.346 Y116.51 E0.06518
G1 X108.74 Y117.92 E0.06894
G1 X110.045 Y120.027 E0.08618
G1 X110.539 Y121.456 E0.05259
G1 X110.809 Y122.974 E0.05358
G1 X110.843 Y135.913 E0.44996
G1 X110.526 Y137.888 E0.06956
G1 X109.811 Y139.741 E0.06906
G1 X108.705 Y141.421 E0.06993
G1 X107.271 Y142.847 E0.07034
G1 X105.179 Y144.145 E0.08559
G1 X103.781 Y144.635 E0.05151
G1 X102.349 Y144.905 E0.05067
G1 X94.001 Y144.947 E0.29031
G1 X92.259 Y144.685 E0.06125
G1 X90.356 Y143.991 E0.07042
G1 X88.633 Y142.894 E0.07106
G1 X87.672 Y141.93 E0.0473
G1 X86.86 Y142.748 E0.04007
G1 X85.278 Y143.828 E0.06662
G1 X83.302 Y144.621 E0.07401
G1 X81.288 Y144.952 E0.07099
G1 X73.527 Y144.952 E0.26987
G1 X71.725 Y144.684 E0.06334
G1 X70.05 Y144.095 E0.06176
G1 X68.492 Y143.194 E0.06257
G1 X66.894 Y141.749 E0.07492
G1 X65.704 Y140.101 E0.0707
G1 X65.211 Y139.021 E0.04127
G1 X64.6 Y139.006 E0.02127
G1 X62.635 Y138.584 E0.06986
G1 X60.93 Y137.828 E0.06487
G1 X59.527 Y136.85 E0.05947
G1 X58.178 Y135.481 E0.06683
G1 X57.271 Y134.141 E0.05626
G1 X57.095 Y133.779 E0.014
G1 X54.776 Y131.46 E0.11403
G1 X54.525 Y131.315 E0.0101
G1 X53.657 Y130.672 E0.03756
G1 X52.285 Y129.29 E0.0677
G1 X50.973 Y127.193 E0.08604
G1 X50.494 Y125.849 E0.04961
G1 X50.214 Y124.453 E0.0495
G1 X50.155 Y117.746 E0.23325
G1 X50.344 Y116.113 E0.05715
G1 X50.722 Y114.939 E0.0429
G1 X52.297 Y112.026 E0.11514
G1 X55.747 Y108.537 E0.17064
G1 X55.842 Y105.616 E0.1016
G1 X56.42 Y103.654 E0.07113
G1 X57.4 Y101.838 E0.07176
G1 X60.782 Y98.462 E0.16616
M107
G1 X61.023 Y98.704 F3600000
M107
G1 F2400
G1 X61.087 Y98.64 E0.00314
G1 X62.738 Y97.742 E0.06533
G1 X64.542 Y97.173 E0.06578
G1 X73.184 Y97.172 E0.30052
G1 X75.627 Y98.019 E0.08991
G1 X77.739 Y99.481 E0.08932
G1 X86.404 Y108.674 E0.4393
G1 X87.545 Y110.352 E0.07056
G1 X88.536 Y113.449 E0.11307
G1 X88.577 Y114.697 E0.04341
G1 X102.186 Y114.726 E0.47322
G1 X103.932 Y115.067 E0.06188
G1 X105.613 Y115.759 E0.06321
G1 X107.111 Y116.768 E0.06279
G1 X108.455 Y118.121 E0.0663
G1 X109.722 Y120.16 E0.08348
G1 X110.206 Y121.557 E0.05143
G1 X110.463 Y123.019 E0.05161
G1 X110.494 Y135.9 E0.44791
G1 X110.185 Y137.815 E0.06745
G1 X109.493 Y139.598 E0.06651
G1 X108.447 Y141.187 E0.06616
G1 X107.069 Y142.562 E0.06766
G1 X105.046 Y143.823 E0.08292
G1 X103.704 Y144.295 E0.04946
G1 X102.3 Y144.559 E0.04966
G1 X94.013 Y144.598 E0.2882
G1 X92.362 Y144.352 E0.05804
G1 X90.494 Y143.671 E0.06915
G1 X88.837 Y142.611 E0.0684
G1 X87.672 Y141.435 E0.05754
G1 X86.649 Y142.469 E0.05058
G1 X85.097 Y143.53 E0.06538
G1 X83.227 Y144.28 E0.07007
G1 X81.274 Y144.603 E0.06884
G1 X73.54 Y144.603 E0.26893
G1 X71.825 Y144.349 E0.06029
G1 X70.21 Y143.785 E0.05949
G1 X68.712 Y142.923 E0.0601
G1 X67.165 Y141.53 E0.07235
G1 X65.996 Y139.911 E0.06945
G1 X65.438 Y138.677 E0.0471
G1 X64.656 Y138.662 E0.02719
G1 X62.76 Y138.258 E0.0674
G1 X61.087 Y137.516 E0.06365
G1 X59.74 Y136.573 E0.05717
G1 X58.458 Y135.272 E0.06353
G1 X57.566 Y133.957 E0.05526
G1 X57.384 Y133.575 E0.01472
G1 X54.99 Y131.181 E0.11774
G1 X54.723 Y131.029 E0.01065
G1 X53.895 Y130.416 E0.03584
G1 X52.57 Y129.088 E0.06522
G1 X51.295 Y127.058 E0.08339
G1 X50.826 Y125.744 E0.0485
G1 X50.559 Y124.401 E0.0476
G1 X50.503 Y117.754 E0.23116
G1 X50.688 Y116.17 E0.05543
G1 X51.036 Y115.09 E0.03946
G1 X52.592 Y112.214 E0.11372
G1 X56.091 Y108.684 E0.17283
G1 X56.183 Y105.693 E0.10406
G1 X56.749 Y103.77 E0.06971
G1 X57.694 Y102.026 E0.06898
G1 X60.981 Y98.746 E0.16145
M107
G1 X61.222 Y98.988 F3600000
M107
G1 F2400
G1 X61.276 Y98.934 E0.00264
G1 X62.889 Y98.056 E0.06388
G1 X64.621 Y97.514 E0.0631
G1 X73.098 Y97.511 E0.29478
G1 X75.449 Y98.319 E0.08644
G1 X77.498 Y99.733 E0.08658
G1 X86.141 Y108.903 E0.43819
G1 X87.221 Y110.482 E0.06652
G1 X88.197 Y113.532 E0.11133
G1 X88.238 Y115.045 E0.05263
G1 X102.136 Y115.072 E0.48328
G1 X103.816 Y115.396 E0.05951
G1 X105.434 Y116.059 E0.06078
G1 X106.876 Y117.026 E0.06041
G1 X108.169 Y118.322 E0.06365
G1 X109.399 Y120.292 E0.08076
G1 X109.872 Y121.658 E0.05027
G1 X110.117 Y123.064 E0.04964
G1 X110.146 Y135.887 E0.44587
G1 X109.853 Y137.706 E0.06409
G1 X109.192 Y139.422 E0.06396
G1 X108.187 Y140.953 E0.06367
G1 X106.868 Y142.277 E0.06498
G1 X104.912 Y143.5 E0.08023
G1 X103.601 Y143.962 E0.04833
G1 X102.252 Y144.214 E0.04772
G1 X94.024 Y144.25 E0.2861
G1 X92.464 Y144.018 E0.05485
G1 X90.665 Y143.367 E0.06653
G1 X89.041 Y142.328 E0.06705
G1 X87.672 Y140.938 E0.06782
G1 X86.439 Y142.191 E0.06112
G1 X84.916 Y143.231 E0.06413
G1 X83.151 Y143.939 E0.06613
G1 X81.259 Y144.255 E0.06669
G1 X73.553 Y144.255 E0.26798
G1 X71.893 Y144.007 E0.05837
G1 X70.34 Y143.461 E0.05721
G1 X68.931 Y142.651 E0.05653
G1 X67.437 Y141.311 E0.06978
G1 X66.289 Y139.721 E0.06818
G1 X65.665 Y138.332 E0.05297
G1 X64.711 Y138.317 E0.03316
G1 X62.885 Y137.932 E0.06492
G1 X61.244 Y137.205 E0.06242
G1 X59.954 Y136.297 E0.05485
G1 X58.737 Y135.063 E0.06024
G1 X57.862 Y133.772 E0.05424
G1 X57.673 Y133.371 E0.01542
G1 X55.202 Y130.9 E0.1215
G1 X54.922 Y130.742 E0.01121
G1 X54.132 Y130.16 E0.03411
G1 X52.855 Y128.886 E0.06274
G1 X51.616 Y126.922 E0.08072
G1 X51.166 Y125.663 E0.0465
G1 X50.904 Y124.349 E0.04659
G1 X50.852 Y117.762 E0.22908
G1 X51.032 Y116.228 E0.0537
G1 X51.35 Y115.242 E0.03602
G1 X52.887 Y112.402 E0.11229
G1 X56.436 Y108.832 E0.17503
G1 X56.524 Y105.77 E0.10654
G1 X57.065 Y103.92 E0.06702
G1 X57.988 Y102.214 E0.06745
G1 X61.179 Y99.03 E0.15674
M107
G1 X61.42 Y99.272 F3600000
M107
G1 F2400
G1 X61.464 Y99.228 E0.00216
G1 X63.01 Y98.384 E0.06124
G1 X64.7 Y97.854 E0.06158
G1 X73.012 Y97.85 E0.28905
G1 X75.313 Y98.641 E0.0846
G1 X77.257 Y99.985 E0.0822
G1 X85.879 Y109.132 E0.43709
G1 X86.897 Y110.613 E0.06248
G1 X87.857 Y113.614 E0.10957
G1 X87.897 Y115.392 E0.06186
G1 X102.086 Y115.417 E0.49342
G1 X103.701 Y115.725 E0.05714
G1 X105.255 Y116.358 E0.05835
G1 X106.642 Y117.285 E0.05803
G1 X107.885 Y118.524 E0.061
G1 X109.076 Y120.425 E0.07803
G1 X109.531 Y121.732 E0.04811
G1 X109.771 Y123.11 E0.04863
G1 X109.797 Y135.873 E0.44384
G1 X109.522 Y137.599 E0.06075
G1 X108.89 Y139.247 E0.0614
G1 X107.928 Y140.721 E0.06118
G1 X106.666 Y141.992 E0.0623
G1 X104.777 Y143.178 E0.07753
G1 X103.523 Y143.622 E0.04625
G1 X102.203 Y143.868 E0.0467
G1 X94.036 Y143.901 E0.284
G1 X92.566 Y143.684 E0.05168
G1 X90.836 Y143.062 E0.0639
G1 X89.245 Y142.045 E0.06569
G1 X87.797 Y140.568 E0.0719
G1 X87.652 Y140.346 E0.00925
G1 X87.388 Y140.736 E0.0164
G1 X86.228 Y141.913 E0.05744
G1 X84.735 Y142.933 E0.06288
G1 X83.075 Y143.599 E0.06221
G1 X81.245 Y143.906 E0.06453
G1 X73.566 Y143.906 E0.26702
G1 X71.961 Y143.665 E0.05643
G1 X70.472 Y143.138 E0.05493
G1 X69.121 Y142.358 E0.05423
G1 X67.684 Y141.065 E0.06723
G1 X66.583 Y139.532 E0.06562
G1 X65.963 Y138.144 E0.05287
G1 X65.921 Y137.987 E0.00566
G1 X64.766 Y137.973 E0.04017
G1 X63.009 Y137.606 E0.06241
G1 X61.401 Y136.893 E0.06118
G1 X60.167 Y136.022 E0.05252
G1 X59.017 Y134.855 E0.05698
G1 X58.159 Y133.588 E0.0532
G1 X57.963 Y133.168 E0.01612
G1 X55.415 Y130.62 E0.12531
G1 X55.119 Y130.455 E0.01178
G1 X54.368 Y129.904 E0.03238
G1 X53.139 Y128.683 E0.06025
G1 X51.938 Y126.787 E0.07804
G1 X51.498 Y125.558 E0.04538
G1 X51.249 Y124.298 E0.04467
G1 X51.2 Y117.77 E0.227
G1 X51.376 Y116.286 E0.05197
G1 X51.665 Y115.394 E0.03259
G1 X53.181 Y112.59 E0.11086
G1 X56.78 Y108.98 E0.17724
G1 X56.865 Y105.846 E0.10903
G1 X57.394 Y104.036 E0.06559
G1 X58.282 Y102.403 E0.06464
G1 X61.378 Y99.315 E0.15205
M107
G1 X61.619 Y99.556 F3600000
M107
G1 F2400
G1 X61.653 Y99.522 E0.00168
G1 X63.162 Y98.698 E0.05977
G1 X64.778 Y98.195 E0.05887
G1 X72.927 Y98.189 E0.28335
G1 X75.135 Y98.942 E0.08111
G1 X77.016 Y100.238 E0.07944
G1 X85.616 Y109.362 E0.43599
G1 X86.573 Y110.744 E0.05845
G1 X87.518 Y113.696 E0.10779
G1 X87.555 Y115.74 E0.07111
G1 X102.038 Y115.763 E0.50362
G1 X103.586 Y116.055 E0.05479
G1 X105.076 Y116.658 E0.05591
G1 X106.409 Y117.544 E0.05565
G1 X107.6 Y118.726 E0.05835
G1 X108.753 Y120.558 E0.07529
G1 X109.197 Y121.833 E0.04693
G1 X109.425 Y123.154 E0.04663
G1 X109.449 Y135.86 E0.44181
G1 X109.18 Y137.525 E0.05866
G1 X108.587 Y139.073 E0.05763
G1 X107.667 Y140.488 E0.05871
G1 X106.463 Y141.708 E0.05961
G1 X104.643 Y142.856 E0.07482
G1 X103.42 Y143.288 E0.0451
G1 X102.155 Y143.523 E0.04474
G1 X94.073 Y143.555 E0.28103
