; generated by SuperSlicer 2.5.59.8 on 2024-04-13 at 23:02:01 UTC


;
;

;
;

;
;

;
;

;
;
; 

; external perimeters extrusion width = 0.40mm
; perimeters extrusion width = 0.40mm
; infill extrusion width = 0.40mm
; solid infill extrusion width = 0.40mm
; top infill extrusion width = 0.40mm

; external perimeters extrusion width = 0.40mm
; perimeters extrusion width = 0.40mm
; infill extrusion width = 0.40mm
; solid infill extrusion width = 0.40mm
; top infill extrusion width = 0.40mm

; object:{"name":"Meanwell_RSP-500_to_DIN_Rail_adaptor","id":"Meanwell_RSP-500_to_DIN_Rail_adaptor.stl id:0 copy 0","object_center":[56.129555,124.428139,0.000000],"boundingbox_center":[56.129555,124.428139,3.800000],"boundingbox_size":[18.000000,106.000000,7.600000]}
EXCLUDE_OBJECT_DEFINE NAME=Meanwell_RSP_500_to_DIN_Rail_adaptor_stl_id_0_copy_0 CENTER=56.129555,124.428139 POLYGON=[[47.13,71.43],[65.13,71.43],[65.13,177.43],[47.13,177.43],[47.13,71.43]]
; object:{"name":"Meanwell_RSP-500_to_DIN_Rail_adaptor","id":"Meanwell_RSP-500_to_DIN_Rail_adaptor.stl id:1 copy 0","object_center":[26.556727,101.935433,0.000000],"boundingbox_center":[26.556727,101.935433,3.800000],"boundingbox_size":[18.000000,106.000000,7.600000]}
EXCLUDE_OBJECT_DEFINE NAME=Meanwell_RSP_500_to_DIN_Rail_adaptor_stl_id_1_copy_0 CENTER=26.556727,101.935433 POLYGON=[[17.56,48.94],[35.56,48.94],[35.56,154.94],[17.56,154.94],[17.56,48.94]]
; plater:{"center":[41.343141,113.181786,0.000000],"boundingbox_center":[41.343141,113.181786,3.800000],"boundingbox_size":[47.572828,128.492706,7.600000]}

M73 P0 R115
M107
;TYPE:Custom
CALCULATE_PA MATERIAL=ABS BOWDEN_LENGTH=6 LAYER_HEIGHT=0.24 NOZZLE_SIZE=0.4 PRINT_SPEED=95


START_PRINT EXTRUDER=270 BED=100

M107
G21 ; set units to millimeters
G90 ; use absolute coordinates
M83 ; use relative distances for extrusion
ACTIVATE_EXTRUDER EXTRUDER=extruder
; Filament gcode
M104 S270 T0 ; set temperature
M109 S270 T0 ; set temperature and wait for it to be reached
M190 S100 ; set bed temperature and wait for it to be reached
;LAYER_CHANGE
;Z:0.24
;HEIGHT:0.24
;BEFORE_LAYER_CHANGE
G92 E0.0

G1 E-1.5 F3000
G1 Z0.2 F3600000
G1 Z0.24
;AFTER_LAYER_CHANGE
;0.24




CALCULATE_PA MATERIAL=ABS BOWDEN_LENGTH=6.0 LAYER_HEIGHT=0.2 NOZZLE_SIZE=0.4 PRINT_SPEED=95


G92 E0
G1 Z0.44
G1 X13.488 Y38.949
G1 Z0.24
G1 E1.5 F3000
;TYPE:Skirt
;WIDTH:0.4
M107
G1 F2400
G1 X15.69 Y38.331 E0.07953
G1 X37.213 Y38.299 E0.74843
G1 X38.873 Y38.683 E0.05925
G1 X40.447 Y39.32 E0.05904
G1 X42.446 Y40.64 E0.08331
G1 X43.935 Y42.149 E0.07368
G1 X45.165 Y44.036 E0.07835
G1 X45.953 Y46.119 E0.07744
G1 X46.286 Y48.268 E0.07561
G1 X46.286 Y60.743 E0.43381
G1 X66.454 Y60.755 E0.70132
G1 X68.295 Y61.129 E0.0653
G1 X70.2 Y61.908 E0.07157
G1 X71.906 Y63.041 E0.07125
G1 X73.365 Y64.467 E0.07091
G1 X74.765 Y66.581 E0.08818
G1 X75.623 Y68.998 E0.08919
G1 X75.859 Y70.772 E0.06221
G1 X75.859 Y100.111 E1.02021
G1 X75.579 Y102.008 E0.06668
G1 X75.579 Y145.849 E1.52447
G1 X75.859 Y147.76 E0.06719
G1 X75.775 Y178.971 E1.08528
G1 X75.299 Y180.99 E0.07215
G1 X74.583 Y182.624 E0.06203
G1 X73.611 Y184.086 E0.06104
G1 X72.449 Y185.347 E0.05963
G1 X70.936 Y186.518 E0.06654
G1 X69.199 Y187.415 E0.06799
G1 X66.993 Y188.033 E0.07965
G1 X45.593 Y188.074 E0.74416
G1 X43.497 Y187.572 E0.07495
G1 X41.854 Y186.837 E0.06259
G1 X40.361 Y185.821 E0.0628
G1 X39.048 Y184.567 E0.06313
G1 X37.901 Y183.01 E0.06724
G1 X36.923 Y180.89 E0.08117
G1 X36.427 Y178.458 E0.08633
G1 X36.406 Y165.618 E0.44647
G1 X15.55 Y165.521 E0.72525
G1 X13.902 Y165.073 E0.05939
G1 X12.345 Y164.381 E0.05924
G1 X10.536 Y163.119 E0.07671
G1 X9.398 Y161.986 E0.05584
G1 X8.449 Y160.72 E0.05503
G1 X7.31 Y158.272 E0.09389
G1 X6.828 Y155.694 E0.09117
G1 X6.828 Y125.253 E1.05855
G1 X7.108 Y123.356 E0.06668
G1 X7.108 Y79.515 E1.52448
G1 X6.827 Y77.597 E0.0674
G1 X7.015 Y46.651 E1.07609
G1 X7.497 Y45.068 E0.05756
G1 X8.201 Y43.565 E0.0577
G1 X9.126 Y42.215 E0.05691
G1 X10.243 Y41.011 E0.05712
G1 X11.751 Y39.845 E0.06627
G1 X13.434 Y38.976 E0.06588
M107
G1 X13.594 Y39.286 F3600000
M107
G1 F2400
G1 X13.631 Y39.267 E0.00147
G1 X15.761 Y38.673 E0.07687
G1 X37.154 Y38.643 E0.74393
G1 X38.755 Y39.011 E0.05713
G1 X40.3 Y39.636 E0.05795
G1 X42.239 Y40.921 E0.08086
G1 X43.653 Y42.354 E0.07
G1 X44.846 Y44.178 E0.07579
G1 X45.612 Y46.191 E0.07489
G1 X45.937 Y48.282 E0.07358
G1 X45.937 Y61.092 E0.44545
G1 X66.437 Y61.104 E0.71282
G1 X68.209 Y61.467 E0.06291
G1 X70.021 Y62.208 E0.06809
G1 X71.7 Y63.323 E0.07007
G1 X73.108 Y64.702 E0.06855
G1 X74.462 Y66.755 E0.08552
G1 X75.28 Y69.063 E0.08511
G1 X75.51 Y70.783 E0.06037
G1 X75.51 Y100.098 E1.01937
G1 X75.259 Y101.848 E0.06147
G1 X75.23 Y101.967 E0.00425
G1 X75.23 Y145.89 E1.52733
G1 X75.259 Y146.011 E0.00434
G1 X75.511 Y147.772 E0.06186
G1 X75.426 Y178.95 E1.08414
G1 X74.963 Y180.894 E0.0695
G1 X74.27 Y182.47 E0.05987
G1 X73.329 Y183.881 E0.05898
G1 X72.203 Y185.1 E0.05769
G1 X70.736 Y186.233 E0.06446
G1 X69.055 Y187.097 E0.06572
G1 X66.922 Y187.691 E0.07698
G1 X45.613 Y187.726 E0.74099
G1 X43.594 Y187.237 E0.07222
G1 X42.01 Y186.526 E0.06038
G1 X40.569 Y185.541 E0.0607
G1 X39.319 Y184.347 E0.06009
G1 X38.209 Y182.848 E0.06489
G1 X37.26 Y180.801 E0.07846
G1 X36.776 Y178.44 E0.08381
G1 X36.754 Y165.271 E0.45791
G1 X15.619 Y165.178 E0.73493
G1 X14.006 Y164.74 E0.05813
G1 X12.502 Y164.07 E0.05726
G1 X10.771 Y162.861 E0.07341
G1 X9.669 Y161.767 E0.054
G1 X8.739 Y160.525 E0.05396
G1 X7.648 Y158.186 E0.08975
G1 X7.176 Y155.678 E0.08873
G1 X7.176 Y125.265 E1.05755
G1 X7.428 Y123.515 E0.06147
G1 X7.456 Y123.397 E0.00425
G1 X7.456 Y79.474 E1.52733
G1 X7.427 Y79.352 E0.00435
G1 X7.175 Y77.586 E0.06203
G1 X7.356 Y46.729 E1.07302
G1 X7.827 Y45.181 E0.05625
G1 X8.51 Y43.726 E0.0559
G1 X9.406 Y42.422 E0.05499
G1 X10.489 Y41.259 E0.05528
G1 X11.951 Y40.13 E0.06423
G1 X13.54 Y39.313 E0.06214
M107
G1 X13.699 Y39.623 F3600000
M107
G1 F2400
G1 X13.774 Y39.585 E0.00294
G1 X15.831 Y39.016 E0.07421
G1 X37.096 Y38.987 E0.73944
G1 X38.664 Y39.348 E0.05595
G1 X40.153 Y39.953 E0.05589
G1 X42.031 Y41.201 E0.07842
G1 X43.371 Y42.56 E0.06635
G1 X44.527 Y44.319 E0.07322
G1 X45.279 Y46.298 E0.0736
G1 X45.589 Y48.295 E0.07028
G1 X45.589 Y61.517 E0.45976
G1 X45.968 Y61.439 E0.01344
G1 X66.419 Y61.452 E0.71114
G1 X68.122 Y61.805 E0.06051
G1 X69.843 Y62.508 E0.06462
G1 X71.493 Y63.604 E0.06889
G1 X72.851 Y64.938 E0.06619
G1 X74.141 Y66.892 E0.08142
G1 X74.937 Y69.127 E0.0825
G1 X75.162 Y70.795 E0.05852
G1 X75.162 Y100.086 E1.01853
G1 X74.915 Y101.79 E0.05987
G1 X74.882 Y101.925 E0.00483
G1 X74.882 Y145.932 E1.53027
G1 X74.915 Y146.069 E0.00492
G1 X75.162 Y147.784 E0.06024
G1 X75.078 Y178.928 E1.08299
G1 X74.628 Y180.797 E0.06684
G1 X73.957 Y182.315 E0.05771
G1 X73.047 Y183.676 E0.05693
G1 X71.957 Y184.852 E0.05576
G1 X70.536 Y185.947 E0.06239
G1 X68.912 Y186.779 E0.06344
G1 X66.852 Y187.349 E0.07432
G1 X45.634 Y187.377 E0.73783
G1 X43.693 Y186.903 E0.06948
G1 X42.168 Y186.214 E0.05818
G1 X40.799 Y185.279 E0.05764
G1 X39.59 Y184.128 E0.05805
G1 X38.518 Y182.684 E0.06253
G1 X37.597 Y180.71 E0.07574
G1 X37.124 Y178.421 E0.08127
G1 X37.102 Y164.845 E0.47209
G1 X36.709 Y164.926 E0.01396
G1 X15.688 Y164.836 E0.73094
G1 X14.136 Y164.416 E0.05593
G1 X12.659 Y163.758 E0.05621
G1 X11.005 Y162.604 E0.07013
G1 X9.941 Y161.548 E0.05215
G1 X9.028 Y160.33 E0.05289
G1 X7.987 Y158.1 E0.08562
G1 X7.525 Y155.662 E0.08627
G1 X7.525 Y125.278 E1.05655
G1 X7.771 Y123.574 E0.05987
G1 X7.805 Y123.439 E0.00483
G1 X7.805 Y79.432 E1.53027
G1 X7.771 Y79.294 E0.00493
G1 X7.524 Y77.575 E0.06039
G1 X7.696 Y46.806 E1.06996
G1 X8.148 Y45.318 E0.05407
G1 X8.806 Y43.912 E0.05398
G1 X9.686 Y42.63 E0.05404
G1 X10.734 Y41.507 E0.05343
G1 X12.151 Y40.416 E0.06218
G1 X13.646 Y39.651 E0.0584
M107
G1 X13.804 Y39.961 F3600000
M107
G1 F2400
G1 X13.917 Y39.903 E0.00441
G1 X15.901 Y39.358 E0.07155
G1 X37.037 Y39.331 E0.73496
G1 X38.572 Y39.684 E0.05478
G1 X40.005 Y40.269 E0.05383
G1 X41.796 Y41.459 E0.07476
G1 X43.089 Y42.765 E0.06393
G1 X44.225 Y44.495 E0.07195
G1 X44.947 Y46.404 E0.07097
G1 X45.24 Y48.308 E0.067
G1 X45.24 Y61.948 E0.47431
G1 X45.986 Y61.787 E0.02652
G1 X66.4 Y61.801 E0.70987
G1 X68.035 Y62.143 E0.05809
G1 X69.665 Y62.807 E0.06118
G1 X71.287 Y63.885 E0.0677
G1 X72.593 Y65.173 E0.06381
G1 X73.838 Y67.066 E0.07879
G1 X74.594 Y69.192 E0.07845
G1 X74.813 Y70.807 E0.05667
G1 X74.813 Y100.073 E1.01768
G1 X74.571 Y101.731 E0.05824
G1 X74.533 Y101.881 E0.00541
G1 X74.533 Y145.975 E1.53329
M73 P0 R114
G1 X74.572 Y146.128 E0.00548
G1 X74.814 Y147.796 E0.05859
G1 X74.73 Y178.907 E1.08183
G1 X74.293 Y180.699 E0.06416
G1 X73.645 Y182.16 E0.05556
G1 X72.765 Y183.47 E0.05488
G1 X71.712 Y184.605 E0.05383
G1 X70.336 Y185.661 E0.06031
G1 X68.769 Y186.46 E0.06117
G1 X66.782 Y187.007 E0.07167
G1 X45.654 Y187.029 E0.73467
G1 X43.792 Y186.568 E0.06672
G1 X42.326 Y185.903 E0.05598
G1 X41.008 Y184.999 E0.05557
G1 X39.861 Y183.907 E0.05507
G1 X38.826 Y182.52 E0.06018
G1 X37.934 Y180.619 E0.07301
G1 X37.473 Y178.403 E0.07871
G1 X37.45 Y164.414 E0.48646
G1 X36.691 Y164.577 E0.02699
G1 X15.757 Y164.494 E0.72794
G1 X14.24 Y164.083 E0.05467
G1 X12.816 Y163.447 E0.05422
G1 X11.24 Y162.346 E0.06686
G1 X10.195 Y161.309 E0.05118
G1 X9.318 Y160.136 E0.05093
G1 X8.325 Y158.013 E0.08151
G1 X7.873 Y155.645 E0.08381
G1 X7.873 Y125.29 E1.05554
G1 X8.115 Y123.633 E0.05824
G1 X8.153 Y123.482 E0.00541
G1 X8.153 Y79.388 E1.53329
G1 X8.114 Y79.235 E0.00549
G1 X7.872 Y77.564 E0.05872
G1 X8.037 Y46.883 E1.0669
G1 X8.478 Y45.431 E0.05276
G1 X9.115 Y44.073 E0.05217
G1 X9.965 Y42.839 E0.0521
G1 X10.978 Y41.755 E0.05158
G1 X12.35 Y40.703 E0.06014
G1 X13.75 Y39.988 E0.05465
M107
G1 X13.908 Y40.299 F3600000
M107
G1 F2400
G1 X14.059 Y40.222 E0.00588
G1 X15.97 Y39.7 E0.0689
G1 X36.978 Y39.675 E0.73051
G1 X38.453 Y40.013 E0.05262
G1 X39.858 Y40.585 E0.05273
G1 X41.561 Y41.717 E0.07112
G1 X42.808 Y42.972 E0.06149
G1 X43.923 Y44.67 E0.07066
G1 X44.614 Y46.509 E0.06833
G1 X44.892 Y48.322 E0.06375
G1 X44.892 Y62.383 E0.48894
G1 X46.005 Y62.136 E0.03964
G1 X66.382 Y62.149 E0.70858
G1 X67.948 Y62.481 E0.05567
G1 X69.486 Y63.107 E0.05776
G1 X71.08 Y64.166 E0.06651
G1 X72.335 Y65.408 E0.06142
G1 X73.517 Y67.203 E0.07474
G1 X74.251 Y69.257 E0.07584
G1 X74.465 Y70.819 E0.05481
G1 X74.465 Y100.061 E1.01683
G1 X74.228 Y101.671 E0.05659
G1 X74.185 Y101.837 E0.00597
G1 X74.185 Y146.02 E1.53639
G1 X74.228 Y146.188 E0.00604
G1 X74.465 Y147.808 E0.05692
G1 X74.381 Y178.885 E1.08065
G1 X73.958 Y180.601 E0.06146
G1 X73.333 Y182.004 E0.05342
G1 X72.484 Y183.264 E0.05283
G1 X71.467 Y184.356 E0.0519
G1 X70.137 Y185.374 E0.05823
G1 X68.627 Y186.142 E0.05889
G1 X66.713 Y186.664 E0.06901
G1 X45.676 Y186.68 E0.73152
G1 X43.892 Y186.234 E0.06394
G1 X42.484 Y185.592 E0.0538
G1 X41.238 Y184.737 E0.05256
G1 X40.131 Y183.687 E0.05306
G1 X39.133 Y182.356 E0.05783
G1 X38.271 Y180.528 E0.07028
G1 X37.821 Y178.385 E0.07614
G1 X37.798 Y163.98 E0.5009
G1 X36.673 Y164.228 E0.04004
G1 X15.826 Y164.151 E0.72492
G1 X14.369 Y163.76 E0.05245
G1 X12.974 Y163.135 E0.05316
G1 X11.475 Y162.087 E0.0636
G1 X10.466 Y161.09 E0.04932
G1 X9.608 Y159.942 E0.04986
G1 X8.663 Y157.926 E0.07741
G1 X8.222 Y155.629 E0.08133
G1 X8.222 Y125.303 E1.05452
M73 P1 R114
G1 X8.458 Y123.693 E0.05659
G1 X8.502 Y123.527 E0.00597
G1 X8.502 Y79.344 E1.53639
G1 X8.458 Y79.175 E0.00605
G1 X8.221 Y77.553 E0.05702
G1 X8.378 Y46.96 E1.06383
G1 X8.807 Y45.544 E0.05144
G1 X9.424 Y44.234 E0.05035
G1 X10.245 Y43.048 E0.05016
G1 X11.223 Y42.004 E0.04974
G1 X12.55 Y40.989 E0.05809
G1 X13.855 Y40.326 E0.05091
M107
G1 X14.012 Y40.636 F3600000
M107
G1 F2400
G1 X14.2 Y40.541 E0.00735
G1 X16.039 Y40.042 E0.06625
G1 X36.92 Y40.019 E0.72608
G1 X38.362 Y40.349 E0.05144
G1 X39.71 Y40.901 E0.05064
G1 X41.327 Y41.976 E0.06752
G1 X42.526 Y43.178 E0.05905
G1 X43.621 Y44.845 E0.06937
G1 X44.281 Y46.614 E0.06567
G1 X44.543 Y48.335 E0.06051
G1 X44.543 Y62.818 E0.50364
G1 X46.024 Y62.484 E0.05278
G1 X66.363 Y62.498 E0.70727
G1 X67.86 Y62.818 E0.05323
G1 X69.308 Y63.407 E0.05435
G1 X70.873 Y64.446 E0.06531
G1 X72.076 Y65.643 E0.05901
G1 X73.214 Y67.377 E0.07213
G1 X73.908 Y69.322 E0.07182
G1 X74.116 Y70.831 E0.05294
G1 X74.116 Y100.048 E1.01597
G1 X73.885 Y101.61 E0.05491
G1 X73.836 Y101.791 E0.00653
G1 X73.836 Y146.066 E1.53957
G1 X73.885 Y146.249 E0.00659
G1 X74.117 Y147.82 E0.05522
G1 X74.033 Y178.863 E1.07947
G1 X73.624 Y180.502 E0.05873
G1 X73.021 Y181.848 E0.05129
G1 X72.203 Y183.057 E0.05078
G1 X71.222 Y184.108 E0.04998
G1 X69.938 Y185.088 E0.05615
G1 X68.486 Y185.823 E0.0566
G1 X66.644 Y186.322 E0.06637
G1 X45.697 Y186.332 E0.72838
G1 X43.993 Y185.9 E0.06114
G1 X42.643 Y185.282 E0.05163
G1 X41.446 Y184.458 E0.05051
G1 X40.4 Y183.466 E0.05013
G1 X39.441 Y182.19 E0.0555
G1 X38.608 Y180.435 E0.06755
G1 X38.17 Y178.366 E0.07356
G1 X38.145 Y163.544 E0.51539
G1 X36.655 Y163.88 E0.05313
G1 X15.895 Y163.809 E0.7219
G1 X14.473 Y163.427 E0.05118
G1 X13.132 Y162.824 E0.05114
G1 X11.709 Y161.829 E0.06036
G1 X10.721 Y160.851 E0.04835
G1 X9.898 Y159.747 E0.04789
G1 X9.001 Y157.838 E0.07334
G1 X8.57 Y155.612 E0.07885
G1 X8.57 Y125.316 E1.0535
G1 X8.802 Y123.754 E0.05491
G1 X8.85 Y123.573 E0.00653
G1 X8.85 Y79.298 E1.53957
G1 X8.801 Y79.115 E0.0066
G1 X8.569 Y77.541 E0.0553
G1 X8.719 Y47.036 E1.06076
G1 X9.128 Y45.681 E0.04924
G1 X9.719 Y44.42 E0.04841
G1 X10.508 Y43.276 E0.0483
G1 X11.467 Y42.253 E0.04878
G1 X12.748 Y41.276 E0.05603
G1 X13.958 Y40.663 E0.04716
M107
G1 X14.115 Y40.974 F3600000
M107
G1 F2400
G1 X14.341 Y40.86 E0.00882
G1 X16.108 Y40.385 E0.06361
G1 X36.862 Y40.364 E0.72168
G1 X38.243 Y40.677 E0.04925
G1 X39.562 Y41.217 E0.04954
G1 X41.093 Y42.235 E0.06393
G1 X42.245 Y43.384 E0.05659
G1 X43.319 Y45.02 E0.06806
G1 X43.948 Y46.719 E0.063
G1 X44.195 Y48.348 E0.05729
G1 X44.195 Y63.256 E0.51839
G1 X46.043 Y62.833 E0.06594
G1 X66.345 Y62.846 E0.70594
G1 X67.772 Y63.156 E0.05077
G1 X69.13 Y63.707 E0.05098
G1 X70.665 Y64.727 E0.0641
G1 X71.817 Y65.877 E0.05659
G1 X72.893 Y67.514 E0.06812
G1 X73.565 Y69.388 E0.06924
G1 X73.768 Y70.843 E0.05106
G1 X73.768 Y100.035 E1.0151
G1 X73.542 Y101.548 E0.0532
G1 X73.488 Y101.744 E0.00707
G1 X73.488 Y146.113 E1.54283
G1 X73.542 Y146.31 E0.00713
G1 X73.768 Y147.832 E0.05349
G1 X73.684 Y178.841 E1.07827
G1 X73.29 Y180.402 E0.05599
G1 X72.709 Y181.691 E0.04917
G1 X71.922 Y182.85 E0.04873
G1 X70.977 Y183.859 E0.04805
G1 X69.74 Y184.801 E0.05407
G1 X68.345 Y185.503 E0.05432
G1 X66.575 Y185.979 E0.06372
G1 X45.719 Y185.983 E0.72524
G1 X44.095 Y185.566 E0.05832
G1 X42.802 Y184.972 E0.04947
G1 X41.656 Y184.179 E0.04847
G1 X40.651 Y183.223 E0.04822
G1 X39.73 Y181.995 E0.05338
G1 X38.945 Y180.343 E0.06361
G1 X38.514 Y178.311 E0.07221
G1 X38.493 Y163.108 E0.52868
G1 X36.636 Y163.531 E0.06624
G1 X15.963 Y163.466 E0.71886
G1 X14.577 Y163.094 E0.0499
G1 X13.29 Y162.513 E0.04911
G1 X11.944 Y161.571 E0.05714
G1 X10.992 Y160.633 E0.04646
G1 X10.187 Y159.553 E0.04682
G1 X9.339 Y157.75 E0.06928
G1 X8.919 Y155.595 E0.07635
G1 X8.919 Y125.329 E1.05246
G1 X9.145 Y123.816 E0.0532
G1 X9.199 Y123.62 E0.00707
G1 X9.199 Y79.251 E1.54283
G1 X9.144 Y79.053 E0.00714
G1 X8.918 Y77.53 E0.05356
G1 X9.06 Y47.113 E1.0577
G1 X9.449 Y45.817 E0.04704
G1 X10.029 Y44.581 E0.04746
G1 X10.787 Y43.485 E0.04633
G1 X11.711 Y42.502 E0.04692
G1 X12.946 Y41.563 E0.05397
G1 X14.061 Y41.001 E0.04341
M107
G1 X14.217 Y41.312 F3600000
M107
G1 F2400
G1 X14.482 Y41.18 E0.01028
G1 X16.176 Y40.727 E0.06098
G1 X36.804 Y40.708 E0.71729
G1 X38.152 Y41.014 E0.04807
G1 X39.413 Y41.533 E0.04743
G1 X40.859 Y42.494 E0.06038
G1 X41.963 Y43.59 E0.05411
G1 X43.017 Y45.194 E0.06674
G1 X43.615 Y46.822 E0.06031
G1 X43.846 Y48.361 E0.0541
G1 X43.846 Y63.789 E0.53649
G1 X44.253 Y63.6 E0.01561
G1 X46.063 Y63.182 E0.06459
G1 X66.289 Y63.191 E0.70331
G1 X67.683 Y63.493 E0.0496
G1 X68.982 Y64.023 E0.0488
G1 X70.432 Y64.986 E0.06052
G1 X71.536 Y66.083 E0.05412
G1 X72.591 Y67.688 E0.06677
G1 X73.223 Y69.454 E0.06523
G1 X73.419 Y70.855 E0.04918
G1 X73.419 Y100.022 E1.01422
G1 X73.199 Y101.485 E0.05146
G1 X73.139 Y101.696 E0.00761
G1 X73.139 Y146.161 E1.54618
G1 X73.199 Y146.373 E0.00767
G1 X73.42 Y147.844 E0.05173
