; generated by SuperSlicer 2.5.59.8 on 2024-04-13 at 22:31:50 UTC


;
;

;
;

;
;

;
;

;
;
; 

; external perimeters extrusion width = 0.40mm
; perimeters extrusion width = 0.40mm
; infill extrusion width = 0.40mm
; solid infill extrusion width = 0.40mm
; top infill extrusion width = 0.40mm

; external perimeters extrusion width = 0.40mm
; perimeters extrusion width = 0.40mm
; infill extrusion width = 0.40mm
; solid infill extrusion width = 0.40mm
; top infill extrusion width = 0.40mm

; object:{"name":"Meanwell_RSP-500_to_DIN_Rail_adaptor","id":"Meanwell_RSP-500_to_DIN_Rail_adaptor.stl id:0 copy 0","object_center":[35.852392,64.710534,0.000000],"boundingbox_center":[35.852392,64.710534,3.800000],"boundingbox_size":[18.000000,106.000000,7.600000]}
EXCLUDE_OBJECT_DEFINE NAME=Meanwell_RSP_500_to_DIN_Rail_adaptor_stl_id_0_copy_0 CENTER=35.852392,64.710534 POLYGON=[[26.85,11.71],[44.85,11.71],[44.85,117.71],[26.85,117.71],[26.85,11.71]]
; object:{"name":"Meanwell_RSP-500_to_DIN_Rail_adaptor","id":"Meanwell_RSP-500_to_DIN_Rail_adaptor.stl id:1 copy 0","object_center":[13.316320,66.133263,0.000000],"boundingbox_center":[13.316320,66.133263,3.800000],"boundingbox_size":[18.000000,106.000000,7.600000]}
EXCLUDE_OBJECT_DEFINE NAME=Meanwell_RSP_500_to_DIN_Rail_adaptor_stl_id_1_copy_0 CENTER=13.316320,66.133263 POLYGON=[[4.32,13.13],[22.32,13.13],[22.32,119.13],[4.32,119.13],[4.32,13.13]]
; plater:{"center":[24.584356,65.421899,0.000000],"boundingbox_center":[24.584356,65.421899,3.800000],"boundingbox_size":[40.536072,107.422729,7.600000]}

M73 P0 R114
M107
;TYPE:Custom
CALCULATE_PA MATERIAL=ABS BOWDEN_LENGTH=6 LAYER_HEIGHT=0.24 NOZZLE_SIZE=0.4 PRINT_SPEED=95


START_PRINT EXTRUDER=270 BED=100

M107
G21 ; set units to millimeters
G90 ; use absolute coordinates
M83 ; use relative distances for extrusion
ACTIVATE_EXTRUDER EXTRUDER=extruder
; Filament gcode
M104 S270 T0 ; set temperature
M109 S270 T0 ; set temperature and wait for it to be reached
M190 S100 ; set bed temperature and wait for it to be reached
;LAYER_CHANGE
;Z:0.24
;HEIGHT:0.24
;BEFORE_LAYER_CHANGE
G92 E0.0

G1 E-1.5 F3000
G1 Z0.2 F3600000
G1 Z0.24
;AFTER_LAYER_CHANGE
;0.24




CALCULATE_PA MATERIAL=ABS BOWDEN_LENGTH=6.0 LAYER_HEIGHT=0.2 NOZZLE_SIZE=0.4 PRINT_SPEED=95


G92 E0
G1 Z0.44
G1 X0.729 Y2.997
G1 Z0.24
G1 E1.5 F3000
;TYPE:Skirt
;WIDTH:0.4
M107
G1 F2400
G1 X2.866 Y2.478 E0.07646
G1 X21.448 Y2.41 E0.64615
G1 X21.92 Y2.12 E0.01929
G1 X23.485 Y1.472 E0.05888
G1 X26.084 Y0.985 E0.09196
G1 X45.599 Y0.985 E0.6786
G1 X47.62 Y1.301 E0.07112
G1 X49.582 Y2.019 E0.07264
G1 X51.305 Y3.072 E0.07023
G1 X52.819 Y4.431 E0.07077
G1 X54.716 Y7.33 E0.12046
G1 X55.308 Y9.128 E0.06582
G1 X55.576 Y10.973 E0.06483
G1 X55.582 Y40.393 E1.02301
G1 X55.301 Y42.29 E0.06669
G1 X55.301 Y86.131 E1.52446
G1 X55.582 Y88.032 E0.06683
G1 X55.564 Y118.701 E1.06646
G1 X55.023 Y121.273 E0.09137
G1 X53.726 Y123.858 E0.10059
G1 X52.694 Y125.106 E0.05631
G1 X51.496 Y126.205 E0.05653
G1 X50.174 Y127.092 E0.05536
G1 X48.726 Y127.779 E0.05572
G1 X46.163 Y128.382 E0.09156
G1 X27.739 Y128.421 E0.64067
G1 X27.245 Y128.726 E0.02017
G1 X25.666 Y129.378 E0.05941
G1 X23.037 Y129.863 E0.09296
G1 X3.323 Y129.844 E0.68551
G1 X0.754 Y129.303 E0.0913
G1 X-1.832 Y128.006 E0.10061
G1 X-3.125 Y126.931 E0.05846
G1 X-4.314 Y125.603 E0.06197
G1 X-5.125 Y124.347 E0.052
G1 X-5.761 Y122.988 E0.05218
G1 X-6.413 Y119.904 E0.10959
G1 X-6.413 Y89.451 E1.05896
G1 X-6.133 Y87.553 E0.06668
G1 X-6.133 Y43.713 E1.52446
G1 X-6.413 Y41.811 E0.06683
G1 X-6.395 Y12.142 E1.03169
G1 X-5.854 Y9.571 E0.09136
G1 X-4.558 Y6.986 E0.10056
G1 X-3.528 Y5.741 E0.05616
G1 X-2.356 Y4.661 E0.05542
G1 X-1.037 Y3.77 E0.05537
G1 X0.429 Y3.071 E0.05647
G1 X0.671 Y3.012 E0.00867
M107
G1 X0.752 Y3.347 F3600000
M107
G1 F2400
G1 X2.928 Y2.821 E0.07784
G1 X21.548 Y2.758 E0.64747
G1 X22.067 Y2.436 E0.02125
G1 X23.601 Y1.8 E0.05776
G1 X26.1 Y1.333 E0.0884
G1 X45.585 Y1.333 E0.67757
G1 X47.549 Y1.642 E0.06911
G1 X49.445 Y2.34 E0.07026
G1 X51.109 Y3.361 E0.06788
G1 X52.57 Y4.675 E0.06833
G1 X54.392 Y7.461 E0.11577
G1 X54.965 Y9.194 E0.06345
G1 X55.229 Y11.011 E0.06387
G1 X55.233 Y40.381 E1.02127
G1 X54.981 Y42.131 E0.06147
G1 X54.953 Y42.249 E0.00425
G1 X54.953 Y86.172 E1.52732
G1 X54.982 Y86.292 E0.00429
G1 X55.233 Y88.044 E0.06157
G1 X55.215 Y118.683 E1.0654
G1 X54.686 Y121.179 E0.0887
G1 X53.445 Y123.651 E0.09622
G1 X52.433 Y124.875 E0.0552
G1 X51.27 Y125.94 E0.05482
G1 X49.991 Y126.795 E0.05353
G1 X48.594 Y127.456 E0.05374
G1 X46.103 Y128.038 E0.08894
G1 X27.639 Y128.073 E0.64206
G1 X27.099 Y128.409 E0.02212
G1 X25.55 Y129.049 E0.05827
G1 X23.021 Y129.514 E0.08941
G1 X3.341 Y129.496 E0.68432
G1 X0.848 Y128.967 E0.08864
G1 X-1.625 Y127.725 E0.09622
G1 X-2.874 Y126.688 E0.05643
G1 X-4.045 Y125.381 E0.06104
G1 X-4.826 Y124.168 E0.05016
G1 X-5.437 Y122.858 E0.05025
G1 X-6.064 Y119.886 E0.10564
G1 X-6.064 Y89.463 E1.0579
G1 X-5.813 Y87.713 E0.06147
G1 X-5.784 Y87.594 E0.00425
G1 X-5.784 Y43.672 E1.52732
G1 X-5.813 Y43.552 E0.00429
G1 X-6.065 Y41.799 E0.06157
G1 X-6.046 Y12.161 E1.03063
G1 X-5.518 Y9.665 E0.0887
G1 X-4.276 Y7.193 E0.0962
G1 X-3.283 Y5.99 E0.05425
G1 X-2.13 Y4.927 E0.05455
G1 X-0.853 Y4.066 E0.05354
G1 X0.562 Y3.393 E0.05449
G1 X0.694 Y3.361 E0.00471
M107
G1 X0.774 Y3.697 F3600000
M107
G1 F2400
G1 X2.989 Y3.165 E0.07922
G1 X21.648 Y3.106 E0.64882
G1 X22.214 Y2.753 E0.0232
G1 X23.718 Y2.129 E0.05662
G1 X26.116 Y1.682 E0.08484
G1 X45.572 Y1.682 E0.67653
G1 X47.477 Y1.984 E0.06708
G1 X49.308 Y2.661 E0.06788
G1 X50.913 Y3.649 E0.06553
G1 X52.319 Y4.919 E0.0659
G1 X54.069 Y7.592 E0.11109
G1 X54.629 Y9.288 E0.06212
G1 X54.883 Y11.049 E0.06183
G1 X54.885 Y40.368 E1.01954
M73 P0 R113
G1 X54.638 Y42.072 E0.05987
G1 X54.605 Y42.207 E0.00483
G1 X54.605 Y86.214 E1.53026
G1 X54.638 Y86.35 E0.00487
G1 X54.885 Y88.057 E0.05997
G1 X54.867 Y118.665 E1.06433
G1 X54.35 Y121.084 E0.08603
G1 X53.164 Y123.445 E0.09187
G1 X52.188 Y124.626 E0.05326
G1 X51.045 Y125.674 E0.05393
G1 X49.808 Y126.498 E0.05169
G1 X48.462 Y127.133 E0.05176
G1 X46.044 Y127.694 E0.08632
G1 X27.538 Y127.725 E0.6435
G1 X26.952 Y128.093 E0.02406
G1 X25.434 Y128.72 E0.05712
G1 X23.006 Y129.166 E0.08585
G1 X3.36 Y129.147 E0.68314
G1 X0.942 Y128.631 E0.08597
G1 X-1.418 Y127.444 E0.09186
G1 X-2.623 Y126.446 E0.0544
G1 X-3.776 Y125.159 E0.0601
G1 X-4.526 Y123.99 E0.0483
G1 X-5.112 Y122.729 E0.04834
G1 X-5.716 Y119.868 E0.10169
G1 X-5.716 Y89.476 E1.05683
G1 X-5.469 Y87.772 E0.05987
G1 X-5.436 Y87.637 E0.00483
G1 X-5.436 Y43.63 E1.53026
G1 X-5.469 Y43.494 E0.00487
G1 X-5.716 Y41.787 E0.05997
G1 X-5.698 Y12.179 E1.02955
G1 X-5.182 Y9.76 E0.08602
G1 X-3.995 Y7.4 E0.09185
G1 X-3.022 Y6.221 E0.05315
G1 X-1.904 Y5.192 E0.05284
G1 X-0.669 Y4.363 E0.05171
G1 X0.695 Y3.716 E0.05251
G1 X0.716 Y3.711 E0.00074
M107
G1 X0.828 Y4.038 F3600000
M107
G1 F2400
G1 X3.051 Y3.508 E0.07947
G1 X21.749 Y3.455 E0.65021
G1 X22.361 Y3.069 E0.02514
G1 X23.834 Y2.458 E0.05547
G1 X26.132 Y2.03 E0.08127
G1 X45.558 Y2.03 E0.67549
G1 X47.405 Y2.325 E0.06505
G1 X49.171 Y2.981 E0.06549
G1 X50.716 Y3.937 E0.06318
G1 X52.069 Y5.162 E0.06347
G1 X53.745 Y7.723 E0.10642
G1 X54.294 Y9.383 E0.0608
G1 X54.536 Y11.085 E0.05979
G1 X54.536 Y40.356 E1.01781
G1 X54.294 Y42.013 E0.05824
G1 X54.256 Y42.164 E0.00541
G1 X54.256 Y86.258 E1.53328
G1 X54.294 Y86.409 E0.00544
G1 X54.536 Y88.069 E0.05833
G1 X54.518 Y118.646 E1.06325
G1 X54.014 Y120.989 E0.08334
G1 X52.882 Y123.238 E0.08754
G1 X51.927 Y124.394 E0.05216
G1 X50.82 Y125.407 E0.05219
G1 X49.626 Y126.201 E0.04985
G1 X48.33 Y126.81 E0.04978
G1 X45.984 Y127.35 E0.0837
G1 X27.437 Y127.376 E0.64497
G1 X26.805 Y127.777 E0.026
G1 X25.318 Y128.391 E0.05596
G1 X22.99 Y128.817 E0.08229
G1 X3.379 Y128.799 E0.68194
G1 X1.037 Y128.295 E0.08328
G1 X-1.211 Y127.163 E0.08753
G1 X-2.372 Y126.204 E0.05237
G1 X-3.49 Y124.958 E0.0582
G1 X-4.215 Y123.832 E0.04658
G1 X-4.788 Y122.6 E0.04723
G1 X-5.367 Y119.85 E0.09775
G1 X-5.367 Y89.488 E1.05576
G1 X-5.125 Y87.831 E0.05824
G1 X-5.087 Y87.68 E0.00541
G1 X-5.087 Y43.586 E1.53328
G1 X-5.126 Y43.435 E0.00544
G1 X-5.367 Y41.774 E0.05834
G1 X-5.349 Y12.198 E1.02847
G1 X-4.846 Y9.855 E0.08334
G1 X-3.714 Y7.606 E0.08753
G1 X-2.777 Y6.469 E0.05122
G1 X-1.678 Y5.458 E0.05196
G1 X-0.486 Y4.66 E0.04986
G1 X0.773 Y4.064 E0.04845
M107
G1 X0.922 Y4.379 F3600000
M107
G1 F2400
G1 X0.96 Y4.361 E0.00146
G1 X3.111 Y3.852 E0.07688
G1 X21.851 Y3.803 E0.65164
G1 X22.508 Y3.385 E0.02707
G1 X23.951 Y2.787 E0.05431
G1 X26.148 Y2.379 E0.07771
G1 X45.544 Y2.379 E0.67445
G1 X47.333 Y2.667 E0.063
G1 X49.032 Y3.302 E0.0631
G1 X50.519 Y4.225 E0.06084
G1 X51.818 Y5.405 E0.06105
G1 X53.421 Y7.854 E0.10178
G1 X53.951 Y9.448 E0.05839
G1 X54.188 Y11.098 E0.05796
G1 X54.188 Y40.343 E1.01694
G1 X53.951 Y41.953 E0.05659
G1 X53.908 Y42.119 E0.00597
G1 X53.908 Y86.302 E1.53638
G1 X53.951 Y86.469 E0.006
G1 X54.188 Y88.082 E0.05668
G1 X54.17 Y118.627 E1.06216
G1 X53.678 Y120.894 E0.08064
G1 X52.601 Y123.031 E0.08323
G1 X51.683 Y124.146 E0.0502
G1 X50.595 Y125.141 E0.05129
G1 X49.444 Y125.903 E0.04799
G1 X48.199 Y126.487 E0.04781
G1 X45.926 Y127.006 E0.08109
G1 X27.335 Y127.028 E0.64648
G1 X26.658 Y127.46 E0.02792
G1 X25.202 Y128.062 E0.05478
G1 X22.974 Y128.469 E0.07873
G1 X3.398 Y128.45 E0.68075
G1 X1.133 Y127.959 E0.08059
G1 X-1.004 Y126.882 E0.08322
G1 X-2.122 Y125.961 E0.05035
G1 X-3.205 Y124.758 E0.05629
G1 X-3.916 Y123.654 E0.04567
G1 X-4.464 Y122.472 E0.04529
G1 X-5.019 Y119.832 E0.09382
G1 X-5.019 Y89.501 E1.05469
G1 X-4.782 Y87.891 E0.05659
G1 X-4.739 Y87.725 E0.00597
G1 X-4.739 Y43.542 E1.53638
G1 X-4.782 Y43.375 E0.006
G1 X-5.019 Y41.762 E0.05668
G1 X-5.001 Y12.216 E1.02738
G1 X-4.51 Y9.95 E0.08064
G1 X-3.432 Y7.813 E0.08323
G1 X-2.516 Y6.7 E0.05012
G1 X-1.452 Y5.723 E0.05022
G1 X-0.303 Y4.957 E0.04802
G1 X0.868 Y4.405 E0.04502
M107
G1 X1.016 Y4.72 F3600000
M107
G1 F2400
G1 X1.092 Y4.684 E0.00291
G1 X3.172 Y4.196 E0.0743
G1 X21.954 Y4.151 E0.65311
G1 X22.656 Y3.701 E0.029
G1 X24.068 Y3.116 E0.05314
G1 X26.164 Y2.727 E0.07415
G1 X45.53 Y2.727 E0.67341
G1 X47.26 Y3.008 E0.06094
G1 X48.894 Y3.622 E0.06069
G1 X50.321 Y4.512 E0.05849
G1 X51.567 Y5.648 E0.05864
G1 X53.098 Y7.986 E0.09717
G1 X53.608 Y9.513 E0.05599
G1 X53.839 Y11.11 E0.05611
G1 X53.839 Y40.33 E1.01606
G1 X53.607 Y41.892 E0.05491
G1 X53.559 Y42.073 E0.00653
G1 X53.559 Y86.348 E1.53956
G1 X53.608 Y86.53 E0.00655
G1 X53.839 Y88.094 E0.05499
G1 X53.821 Y118.608 E1.06106
M73 P1 R113
G1 X53.343 Y120.798 E0.07793
G1 X52.32 Y122.825 E0.07895
G1 X51.439 Y123.897 E0.04824
G1 X50.369 Y124.874 E0.05039
G1 X49.263 Y125.605 E0.04612
G1 X48.069 Y126.163 E0.04583
G1 X45.868 Y126.662 E0.07847
G1 X27.232 Y126.68 E0.64802
G1 X26.51 Y127.144 E0.02984
G1 X25.086 Y127.732 E0.05359
G1 X22.959 Y128.12 E0.07517
G1 X3.417 Y128.102 E0.67955
G1 X1.229 Y127.623 E0.07788
G1 X-0.798 Y126.6 E0.07894
G1 X-1.872 Y125.718 E0.04833
G1 X-2.92 Y124.557 E0.05438
G1 X-3.605 Y123.496 E0.04392
G1 X-4.139 Y122.343 E0.04418
G1 X-4.67 Y119.814 E0.08988
G1 X-4.67 Y89.514 E1.05362
G1 X-4.439 Y87.952 E0.05491
G1 X-4.39 Y87.77 E0.00653
G1 X-4.39 Y43.496 E1.53956
G1 X-4.439 Y43.314 E0.00656
G1 X-4.67 Y41.749 E0.05499
G1 X-4.652 Y12.235 E1.02629
G1 X-4.174 Y10.046 E0.07793
G1 X-3.151 Y8.019 E0.07895
G1 X-2.272 Y6.948 E0.04818
G1 X-1.226 Y5.989 E0.04933
G1 X-0.121 Y5.254 E0.04616
G1 X0.961 Y4.746 E0.04159
M107
G1 X1.109 Y5.061 F3600000
M107
G1 F2400
G1 X1.223 Y5.008 E0.00436
G1 X3.232 Y4.54 E0.07172
G1 X22.057 Y4.499 E0.65462
G1 X22.804 Y4.017 E0.03092
G1 X24.184 Y3.445 E0.05195
G1 X26.18 Y3.076 E0.07059
G1 X45.516 Y3.076 E0.67237
G1 X47.153 Y3.34 E0.05768
G1 X48.755 Y3.942 E0.05948
G1 X50.122 Y4.799 E0.05612
G1 X51.316 Y5.891 E0.05624
G1 X52.774 Y8.118 E0.09258
G1 X53.273 Y9.609 E0.05467
G1 X53.491 Y11.123 E0.05319
G1 X53.491 Y40.317 E1.01517
G1 X53.264 Y41.83 E0.0532
G1 X53.211 Y42.026 E0.00707
G1 X53.211 Y86.395 E1.54283
G1 X53.265 Y86.592 E0.0071
G1 X53.491 Y88.107 E0.05328
G1 X53.473 Y118.589 E1.05995
G1 X53.007 Y120.701 E0.07521
G1 X52.038 Y122.619 E0.0747
G1 X51.195 Y123.648 E0.04628
G1 X50.145 Y124.608 E0.04947
G1 X49.082 Y125.307 E0.04424
G1 X47.938 Y125.839 E0.04385
G1 X45.81 Y126.318 E0.07586
G1 X27.129 Y126.331 E0.64961
G1 X26.362 Y126.828 E0.03176
G1 X24.97 Y127.403 E0.0524
G1 X22.944 Y127.772 E0.07161
G1 X3.436 Y127.753 E0.67834
G1 X1.325 Y127.288 E0.07516
G1 X-0.592 Y126.319 E0.07469
G1 X-1.622 Y125.474 E0.04632
G1 X-2.635 Y124.356 E0.05245
G1 X-3.305 Y123.317 E0.043
G1 X-3.814 Y122.215 E0.04222
G1 X-4.322 Y119.796 E0.08596
G1 X-4.322 Y89.527 E1.05254
G1 X-4.096 Y88.014 E0.0532
G1 X-4.042 Y87.817 E0.00707
G1 X-4.042 Y43.449 E1.54283
G1 X-4.096 Y43.252 E0.0071
G1 X-4.322 Y41.736 E0.05328
G1 X-4.304 Y12.254 E1.02518
G1 X-3.838 Y10.142 E0.07521
G1 X-2.869 Y8.225 E0.0747
G1 X-2.027 Y7.197 E0.04623
G1 X-1.001 Y6.255 E0.04842
G1 X0.061 Y5.552 E0.04429
G1 X1.055 Y5.086 E0.03816
M107
G1 X1.202 Y5.402 F3600000
M107
G1 F2400
G1 X1.353 Y5.331 E0.00582
G1 X3.291 Y4.884 E0.06914
G1 X22.161 Y4.848 E0.65616
G1 X22.952 Y4.333 E0.03283
G1 X24.3 Y3.774 E0.05076
G1 X26.196 Y3.424 E0.06703
G1 X45.502 Y3.424 E0.67132
G1 X47.08 Y3.681 E0.0556
G1 X48.615 Y4.262 E0.05706
G1 X49.923 Y5.085 E0.05376
G1 X51.064 Y6.133 E0.05385
G1 X52.451 Y8.25 E0.08802
G1 X52.93 Y9.674 E0.05226
G1 X53.142 Y11.135 E0.05133
G1 X53.142 Y40.304 E1.01428
G1 X52.921 Y41.767 E0.05146
G1 X52.862 Y41.978 E0.00761
G1 X52.862 Y86.443 E1.54617
G1 X52.922 Y86.654 E0.00764
G1 X53.142 Y88.12 E0.05154
G1 X53.124 Y118.57 E1.05884
G1 X52.672 Y120.604 E0.07248
G1 X51.756 Y122.413 E0.07048
G1 X50.95 Y123.399 E0.0443
G1 X49.92 Y124.341 E0.04854
G1 X48.901 Y125.008 E0.04234
G1 X47.809 Y125.515 E0.04188
G1 X45.753 Y125.973 E0.07325
G1 X27.025 Y125.983 E0.65123
G1 X26.214 Y126.512 E0.03366
G1 X24.854 Y127.074 E0.05118
G1 X22.928 Y127.423 E0.06805
G1 X3.455 Y127.405 E0.67714
G1 X1.422 Y126.952 E0.07243
G1 X-0.386 Y126.037 E0.07047
G1 X-1.373 Y125.231 E0.04432
G1 X-2.35 Y124.155 E0.05053
G1 X-2.994 Y123.16 E0.04122
G1 X-3.49 Y122.087 E0.04111
G1 X-3.973 Y119.778 E0.08204
G1 X-3.973 Y89.54 E1.05146
G1 X-3.753 Y88.076 E0.05146
G1 X-3.693 Y87.866 E0.00761
G1 X-3.693 Y43.401 E1.54617
G1 X-3.753 Y43.189 E0.00764
G1 X-3.973 Y41.724 E0.05154
G1 X-3.955 Y12.274 E1.02406
G1 X-3.503 Y10.239 E0.07247
G1 X-2.587 Y8.431 E0.07048
G1 X-1.782 Y7.445 E0.04427
G1 X-0.775 Y6.522 E0.04751
G1 X0.242 Y5.849 E0.0424
G1 X1.147 Y5.427 E0.03473
M107
G1 X1.294 Y5.743 F3600000
M107
G1 F2400
G1 X1.484 Y5.655 E0.00727
G1 X3.35 Y5.228 E0.06657
G1 X22.265 Y5.196 E0.65774
G1 X23.1 Y4.648 E0.03474
G1 X24.417 Y4.103 E0.04955
G1 X26.212 Y3.773 E0.06347
G1 X45.488 Y3.773 E0.67028
G1 X47.006 Y4.022 E0.05352
G1 X48.475 Y4.581 E0.05463
G1 X49.724 Y5.372 E0.05139
G1 X50.812 Y6.374 E0.05147
G1 X52.128 Y8.383 E0.08349
G1 X52.587 Y9.741 E0.04985
G1 X52.794 Y11.148 E0.04947
G1 X52.794 Y40.291 E1.01339
G1 X52.579 Y41.704 E0.04969
G1 X52.514 Y41.929 E0.00815
G1 X52.514 Y86.492 E1.5496
G1 X52.579 Y86.718 E0.00817
G1 X52.794 Y88.133 E0.04977
G1 X52.776 Y118.551 E1.05772
G1 X52.351 Y120.467 E0.06825
G1 X51.474 Y122.207 E0.06776
G1 X50.705 Y123.151 E0.04231
G1 X49.695 Y124.074 E0.04761
G1 X48.722 Y124.71 E0.04042
G1 X47.68 Y125.191 E0.0399
G1 X45.696 Y125.629 E0.07064
G1 X26.92 Y125.634 E0.65289
G1 X26.066 Y126.197 E0.03557
G1 X24.738 Y126.745 E0.04996
G1 X22.913 Y127.075 E0.06449
G1 X3.474 Y127.056 E0.67593
G1 X1.56 Y126.631 E0.06821
G1 X-0.18 Y125.755 E0.06775
G1 X-1.124 Y124.986 E0.04231
G1 X-2.065 Y123.953 E0.0486
G1 X-2.683 Y123.002 E0.03943
G1 X-3.165 Y121.959 E0.03998
G1 X-3.625 Y119.76 E0.07812
G1 X-3.625 Y89.553 E1.05038
G1 X-3.41 Y88.14 E0.04969
G1 X-3.345 Y87.915 E0.00815
G1 X-3.345 Y43.352 E1.5496
G1 X-3.41 Y43.126 E0.00817
G1 X-3.625 Y41.711 E0.04977
G1 X-3.607 Y12.293 E1.02294
G1 X-3.182 Y10.377 E0.06825
G1 X-2.305 Y8.636 E0.06776
G1 X-1.537 Y7.693 E0.0423
G1 X-0.55 Y6.788 E0.04658
G1 X0.423 Y6.148 E0.0405
G1 X1.24 Y5.768 E0.03131
M107
G1 X1.386 Y6.084 F3600000
M107
G1 F2400
G1 X1.613 Y5.979 E0.00872
G1 X3.408 Y5.572 E0.06399
M73 P1 R112
G1 X22.37 Y5.544 E0.65936
G1 X23.249 Y4.964 E0.03664
G1 X24.533 Y4.432 E0.04833
G1 X26.228 Y4.121 E0.05991
