; generated by PrusaSlicer 2.7.2+MacOS-arm64 on 2024-03-02 at 22:06:53 UTC


;
;

;
;

;
;

;
;

;
;
; 

; external perimeters extrusion width = 0.45mm
; perimeters extrusion width = 0.45mm
; infill extrusion width = 0.45mm
; solid infill extrusion width = 0.45mm
; top infill extrusion width = 0.40mm

M73 P0 R16

EXCLUDE_OBJECT_DEFINE NAME='Mellow_super_8_DIN_bracket_stl' CENTER=86.891,111.579 POLYGON=[[82.828,88.989],[94.931,88.989],[94.931,86.189],[95.111,86.077],[98.787,86.943],[99.005,87.188],[99.161,88.489],[99.170,89.618],[99.004,89.867],[95.333,93.018],[95.072,93.048],[94.931,92.825],[94.931,90.923],[84.280,90.923],[83.927,91.077],[83.806,91.416],[83.920,91.755],[84.280,91.909],[92.446,91.909],[92.829,91.986],[93.143,92.197],[93.354,92.510],[93.431,92.894],[93.431,126.923],[95.072,126.923],[95.958,123.772],[96.322,123.363],[96.848,123.211],[97.396,123.211],[97.745,123.355],[97.890,123.704],[97.890,133.923],[82.828,133.923],[82.828,152.000],[81.328,152.000],[81.328,150.997],[75.828,150.997],[75.828,145.003],[81.328,145.003],[81.328,74.997],[75.828,74.997],[75.828,69.003],[81.328,69.003],[81.328,68.000],[82.828,68.000]]

;TYPE:Custom
CALCULATE_PA MATERIAL=PLA BOWDEN_LENGTH=6 LAYER_HEIGHT=0.2 NOZZLE_SIZE=0.4 PRINT_SPEED=90


START_PRINT EXTRUDER=210 BED=65
G21 ; set units to millimeters
G90 ; use absolute coordinates
M83 ; use relative distances for extrusion
; Filament gcode
M107
;LAYER_CHANGE
;Z:0.2
;HEIGHT:0.2
G1 E-2 F3000
G1 Z.2 F60000
G1 X72.507 Y66.795
G1 Z.2
G1 E2 F3000
;TYPE:Skirt/Brim
;WIDTH:0.45
G1 F1800
G1 X72.696 Y66.591 E.00941
G1 X73.619 Y65.962 E.03781
G1 X74.452 Y65.622 E.03045
G1 X75.321 Y65.453 E.02997
G1 X77.292 Y65.439 E.06672
G1 X77.573 Y65.02 E.01708
G1 X78.356 Y64.239 E.03743
G1 X79.146 Y63.728 E.03185
G1 X80.018 Y63.386 E.03171
G1 X80.907 Y63.226 E.03058
G1 X83.256 Y63.226 E.07951
G1 X84.216 Y63.409 E.03308
G1 X85.045 Y63.746 E.03029
G1 X85.791 Y64.234 E.03017
G1 X86.461 Y64.875 E.03139
G1 X87.132 Y65.881 E.04093
G1 X87.431 Y66.651 E.02796
G1 X87.585 Y67.417 E.02645
G1 X87.608 Y84.208 E.56836
G1 X90.564 Y84.208 E.10006
G1 X91.114 Y83.3 E.03593
G1 X91.917 Y82.47 E.03909
G1 X92.97 Y81.798 E.04228
G1 X94.093 Y81.401 E.04032
G1 X95.028 Y81.293 E.03186
G1 X95.924 Y81.361 E.03042
G1 X100.131 Y82.35 E.14628
G1 X101.16 Y82.791 E.03789
G1 X102.072 Y83.466 E.03841
G1 X102.922 Y84.443 E.04383
G1 X103.367 Y85.229 E.03057
G1 X103.695 Y86.242 E.03604
G1 X103.922 Y88.029 E.06097
G1 X103.953 Y89.757 E.0585
G1 X103.83 Y90.693 E.03195
G1 X103.534 Y91.585 E.03181
G1 X103.372 Y91.884 E.01151
G1 X102.486 Y93.144 E.05214
G1 X98.212 Y96.845 E.19137
G1 X98.212 Y118.524 E.73381
G1 X98.842 Y118.652 E.02176
G1 X99.842 Y119.053 E.03647
G1 X100.798 Y119.672 E.03855
G1 X101.468 Y120.351 E.03229
G1 X101.946 Y121.065 E.02908
G1 X102.483 Y122.381 E.04811
G1 X102.671 Y123.462 E.03714
G1 X102.671 Y134.265 E.36567
G1 X102.428 Y135.483 E.04204
G1 X102.176 Y136.075 E.02178
G1 X101.853 Y136.631 E.02177
G1 X100.919 Y137.636 E.04644
G1 X100 Y138.231 E.03706
G1 X99.262 Y138.519 E.02682
G1 X98.537 Y138.674 E.02509
G1 X87.606 Y138.701 E.37
G1 X87.589 Y152.553 E.46887
G1 X87.385 Y153.494 E.03259
G1 X87.037 Y154.299 E.02969
G1 X86.546 Y155.024 E.02964
G1 X85.826 Y155.739 E.03435
G1 X84.957 Y156.298 E.03497
G1 X84.188 Y156.6 E.02797
G1 X83.394 Y156.76 E.02742
G1 X80.99 Y156.782 E.08138
G1 X79.857 Y156.565 E.03905
G1 X78.981 Y156.184 E.03233
G1 X78.28 Y155.699 E.02885
G1 X77.637 Y155.057 E.03076
G1 X77.284 Y154.561 E.02061
G1 X75.319 Y154.546 E.06651
G1 X74.397 Y154.361 E.03183
G1 X73.533 Y153.994 E.03177
G1 X72.826 Y153.518 E.02885
G1 X72.018 Y152.691 E.03914
G1 X71.497 Y151.847 E.03357
G1 X71.218 Y151.109 E.02671
G1 X71.067 Y150.343 E.02643
G1 X71.072 Y145.616 E.16
G1 X71.285 Y144.683 E.03239
G1 X71.67 Y143.825 E.03183
G1 X72.123 Y143.18 E.02668
G1 X72.696 Y142.591 E.02781
G1 X73.495 Y142.027 E.0331
G1 X74.396 Y141.64 E.03319
G1 X75.355 Y141.449 E.0331
G1 X76.546 Y141.443 E.04031
G1 X76.546 Y78.557 E2.12862
G1 X75.355 Y78.551 E.04031
G1 X74.396 Y78.36 E.0331
G1 X73.495 Y77.973 E.03319
G1 X72.696 Y77.409 E.0331
G1 X72.143 Y76.846 E.02671
G1 X71.67 Y76.175 E.02779
G1 X71.285 Y75.317 E.03183
G1 X71.072 Y74.387 E.03229
G1 X71.046 Y69.885 E.15239
G1 X71.292 Y68.65 E.04262
G1 X71.561 Y68.027 E.02297
G1 X71.929 Y67.423 E.02394
G1 X72.467 Y66.84 E.02685
G1 X72.467 Y66.84 F60000
G1 X72.764 Y67.116
G1 F1800
G1 X72.978 Y66.885 E.01066
G1 X73.828 Y66.312 E.0347
G1 X74.584 Y66.008 E.02758
G1 X75.379 Y65.856 E.0274
G1 X77.513 Y65.845 E.07223
G1 X77.877 Y65.292 E.02241
G1 X78.596 Y64.569 E.03451
G1 X79.35 Y64.082 E.03038
G1 X80.146 Y63.773 E.0289
G1 X80.925 Y63.633 E.02679
G1 X83.237 Y63.633 E.07826
G1 X84.082 Y63.794 E.02912
G1 X84.874 Y64.116 E.02894
G1 X85.525 Y64.542 E.02633
G1 X86.136 Y65.121 E.02849
G1 X86.781 Y66.088 E.03934
G1 X87.035 Y66.75 E.024
G1 X87.178 Y67.438 E.02379
G1 X87.201 Y84.615 E.58142
G1 X90.859 Y84.615 E.12382
M73 P1 R16
G1 X90.955 Y84.347 E.00964
G1 X91.425 Y83.564 E.03091
G1 X92.158 Y82.799 E.03586
G1 X93.13 Y82.173 E.03913
G1 X94.165 Y81.802 E.03722
G1 X95.019 Y81.701 E.02911
G1 X95.847 Y81.761 E.0281
G1 X99.989 Y82.732 E.144
G1 X100.938 Y83.133 E.03487
G1 X101.811 Y83.78 E.03678
G1 X102.6 Y84.693 E.04084
G1 X103.001 Y85.41 E.02781
G1 X103.293 Y86.312 E.03209
G1 X103.516 Y88.069 E.05995
G1 X103.546 Y89.749 E.05688
G1 X103.429 Y90.619 E.02971
G1 X103.154 Y91.437 E.02921
G1 X103.033 Y91.659 E.00856
G1 X102.168 Y92.889 E.0509
G1 X97.805 Y96.616 E.19423
G1 X97.805 Y118.861 E.75297
G1 X98.709 Y119.037 E.03117
G1 X99.672 Y119.424 E.03513
G1 X100.524 Y119.974 E.03433
G1 X101.165 Y120.623 E.03088
G1 X101.595 Y121.272 E.02635
G1 X102.086 Y122.474 E.04395
G1 X102.264 Y123.48 E.03458
G1 X102.264 Y134.245 E.36438
G1 X102.045 Y135.344 E.03793
G1 X101.818 Y135.882 E.01977
G1 X101.513 Y136.406 E.02052
G1 X100.64 Y137.338 E.04323
G1 X99.799 Y137.877 E.03381
G1 X99.159 Y138.125 E.02323
G1 X98.513 Y138.267 E.02239
G1 X87.199 Y138.295 E.38297
G1 X87.181 Y152.53 E.48184
G1 X87.003 Y153.352 E.02847
G1 X86.688 Y154.089 E.02713
G1 X86.244 Y154.75 E.02695
G1 X85.555 Y155.435 E.03289
G1 X84.757 Y155.943 E.03202
G1 X84.058 Y156.213 E.02536
G1 X83.335 Y156.356 E.02495
G1 X81.008 Y156.374 E.07877
G1 X79.957 Y156.17 E.03624
G1 X79.195 Y155.837 E.02815
G1 X78.555 Y155.397 E.02629
G1 X77.938 Y154.781 E.02951
G1 X77.497 Y154.155 E.02592
G1 X75.378 Y154.143 E.07173
G1 X74.535 Y153.978 E.02908
G1 X73.742 Y153.644 E.02913
G1 X73.1 Y153.217 E.0261
G1 X72.351 Y152.456 E.03614
G1 X71.87 Y151.683 E.03082
G1 X71.614 Y151.013 E.02428
G1 X71.471 Y150.284 E.02515
G1 X71.479 Y145.641 E.15716
G1 X71.676 Y144.795 E.0294
G1 X72.014 Y144.043 E.02791
G1 X72.446 Y143.427 E.02547
G1 X72.974 Y142.889 E.02552
G1 X73.677 Y142.392 E.02914
G1 X74.499 Y142.035 E.03033
G1 X75.378 Y141.856 E.03036
G1 X76.953 Y141.848 E.05331
G1 X76.953 Y78.152 E2.15603
G1 X75.378 Y78.144 E.05331
G1 X74.499 Y77.965 E.03036
G1 X73.677 Y77.608 E.03033
G1 X72.974 Y77.111 E.02914
G1 X72.446 Y76.573 E.02552
G1 X72.014 Y75.957 E.02547
G1 X71.676 Y75.205 E.02791
G1 X71.479 Y74.361 E.02934
G1 X71.453 Y69.904 E.15087
G1 X71.675 Y68.791 E.03842
G1 X71.928 Y68.202 E.0217
G1 X72.265 Y67.654 E.02178
G1 X72.723 Y67.16 E.0228
G1 X72.723 Y67.16 F60000
G1 X73.02 Y67.436
G1 F1800
G1 X73.258 Y67.181 E.01181
G1 X74.035 Y66.663 E.03161
G1 X74.715 Y66.394 E.02475
G1 X75.434 Y66.26 E.02476
G1 X77.736 Y66.251 E.07792
G1 X78.182 Y65.562 E.02778
G1 X78.838 Y64.897 E.03162
G1 X79.519 Y64.453 E.02752
G1 X80.24 Y64.17 E.02622
G1 X80.944 Y64.04 E.02423
G1 X83.217 Y64.04 E.07694
G1 X83.983 Y64.19 E.02642
G1 X84.7 Y64.484 E.02623
G1 X85.285 Y64.871 E.02374
G1 X85.838 Y65.399 E.02588
G1 X86.41 Y66.256 E.03488
G1 X86.64 Y66.85 E.02156
G1 X86.776 Y67.501 E.02251
G1 X86.794 Y85.022 E.59307
G1 X91.161 Y85.022 E.14782
G1 X91.318 Y84.534 E.01735
G1 X91.762 Y83.794 E.02921
G1 X92.433 Y83.1 E.03268
G1 X93.329 Y82.529 E.03596
G1 X94.237 Y82.203 E.03266
G1 X95.011 Y82.108 E.0264
G1 X95.77 Y82.161 E.02575
G1 X99.878 Y83.124 E.14282
G1 X100.755 Y83.498 E.03227
G1 X101.549 Y84.092 E.03356
G1 X102.277 Y84.942 E.03788
G1 X102.636 Y85.59 E.02508
G1 X102.892 Y86.382 E.02817
G1 X103.111 Y88.109 E.05893
G1 X103.139 Y89.74 E.05522
G1 X103.037 Y90.509 E.02626
G1 X102.788 Y91.259 E.02675
G1 X101.849 Y92.634 E.05636
G1 X97.748 Y96.17 E.18329
G1 X97.398 Y96.386 E.01392
G1 X97.398 Y119.245 E.77375
G1 X97.675 Y119.251 E.00938
M73 P2 R16
G1 X98.577 Y119.423 E.03108
G1 X99.503 Y119.794 E.03377
G1 X100.251 Y120.276 E.03012
G1 X100.86 Y120.894 E.02937
G1 X101.244 Y121.479 E.02369
G1 X101.69 Y122.567 E.0398
G1 X101.857 Y123.499 E.03205
G1 X101.857 Y134.225 E.36306
G1 X101.662 Y135.205 E.03382
G1 X101.448 Y135.711 E.0186
G1 X101.174 Y136.18 E.01839
G1 X100.362 Y137.04 E.04004
G1 X99.632 Y137.505 E.0293
G1 X99.056 Y137.731 E.02094
G1 X98.447 Y137.864 E.0211
G1 X86.793 Y137.889 E.39447
G1 X86.774 Y152.508 E.49484
G1 X86.621 Y153.211 E.02435
G1 X86.338 Y153.88 E.02459
G1 X85.942 Y154.476 E.02422
G1 X85.284 Y155.13 E.0314
G1 X84.558 Y155.588 E.02906
G1 X83.931 Y155.826 E.0227
G1 X83.276 Y155.953 E.02258
G1 X81.026 Y155.967 E.07616
G1 X80.059 Y155.775 E.03337
G1 X79.408 Y155.49 E.02405
G1 X78.828 Y155.095 E.02375
G1 X78.238 Y154.506 E.02822
G1 X77.761 Y153.749 E.03029
G1 X75.435 Y153.74 E.07873
G1 X74.671 Y153.594 E.02633
G1 X73.949 Y153.293 E.02648
G1 X73.374 Y152.914 E.02331
G1 X72.683 Y152.219 E.03317
G1 X72.243 Y151.518 E.02801
G1 X72.001 Y150.885 E.02294
G1 X71.874 Y150.227 E.02268
G1 X71.886 Y145.666 E.15438
G1 X72.068 Y144.909 E.02635
G1 X72.359 Y144.259 E.02411
G1 X72.749 Y143.7 E.02307
G1 X73.252 Y143.187 E.02432
G1 X73.859 Y142.757 E.02518
G1 X74.641 Y142.417 E.02886
G1 X75.437 Y142.259 E.02747
G1 X77.36 Y142.255 E.06509
G1 X77.36 Y77.745 E2.18359
G1 X75.437 Y77.741 E.06509
G1 X74.641 Y77.583 E.02747
G1 X73.859 Y77.243 E.02886
G1 X73.252 Y76.813 E.02518
G1 X72.749 Y76.3 E.02432
G1 X72.359 Y75.741 E.02307
G1 X72.068 Y75.091 E.02411
G1 X71.886 Y74.335 E.02632
G1 X71.86 Y69.922 E.14938
G1 X72.057 Y68.931 E.0342
G1 X72.283 Y68.402 E.01947
G1 X72.601 Y67.885 E.02055
G1 X72.979 Y67.48 E.01875
G1 X72.979 Y67.48 F60000
G1 X73.274 Y67.758
G1 F1800
G1 X73.538 Y67.478 E.01303
G1 X74.24 Y67.016 E.02845
G1 X74.843 Y66.78 E.02192
G1 X75.488 Y66.664 E.02218
G1 X78.026 Y66.658 E.08591
G1 X78.157 Y66.35 E.01133
G1 X78.489 Y65.83 E.02088
G1 X79.081 Y65.224 E.02868
G1 X79.689 Y64.823 E.02465
G1 X80.335 Y64.566 E.02353
G1 X80.964 Y64.447 E.02167
G1 X83.196 Y64.447 E.07555
G1 X83.883 Y64.585 E.02372
G1 X84.524 Y64.852 E.0235
G1 X85.043 Y65.199 E.02113
G1 X85.54 Y65.677 E.02334
G1 X86.038 Y66.425 E.03042
G1 X86.255 Y66.981 E.0202
G1 X86.373 Y67.561 E.02003
G1 X86.388 Y85.429 E.60481
G1 X91.464 Y85.429 E.17182
G1 X91.681 Y84.721 E.02507
G1 X92.098 Y84.024 E.02749
G1 X92.706 Y83.402 E.02944
G1 X93.526 Y82.885 E.03281
G1 X94.311 Y82.604 E.02822
G1 X95.005 Y82.515 E.02368
G1 X95.694 Y82.561 E.02337
G1 X99.768 Y83.516 E.14164
G1 X100.571 Y83.862 E.0296
G1 X101.285 Y84.402 E.0303
G1 X101.953 Y85.189 E.03494
G1 X102.269 Y85.767 E.0223
G1 X102.49 Y86.452 E.02436
G1 X102.706 Y88.149 E.0579
G1 X102.731 Y89.731 E.05356
G1 X102.636 Y90.436 E.02408
G1 X102.352 Y91.211 E.02794
G1 X101.531 Y92.379 E.04833
G1 X97.496 Y95.85 E.18016
G1 X96.991 Y96.155 E.01997
G1 X96.991 Y119.671 E.79599
G1 X97.626 Y119.656 E.0215
G1 X98.444 Y119.808 E.02816
G1 X99.332 Y120.165 E.0324
G1 X100.009 Y120.605 E.02733
G1 X100.554 Y121.163 E.0264
G1 X100.892 Y121.684 E.02102
G1 X101.293 Y122.662 E.03578
G1 X101.45 Y123.517 E.02942
G1 X101.45 Y134.205 E.36178
G1 X101.278 Y135.067 E.02975
G1 X101.09 Y135.517 E.01651
G1 X100.834 Y135.955 E.01717
G1 X100.12 Y136.711 E.0352
G1 X99.464 Y137.134 E.02642
G1 X98.923 Y137.346 E.01967
G1 X98.383 Y137.462 E.0187
G1 X86.386 Y137.482 E.40608
G1 X86.367 Y152.485 E.50783
G1 X86.238 Y153.071 E.02031
M73 P3 R16
G1 X85.987 Y153.674 E.02211
G1 X85.639 Y154.204 E.02146
G1 X85.046 Y154.799 E.02843
G1 X84.391 Y155.216 E.02628
G1 X83.835 Y155.43 E.02017
G1 X83.218 Y155.55 E.02128
G1 X81.046 Y155.56 E.07352
G1 X80.162 Y155.381 E.03053
G1 X79.62 Y155.142 E.02005
G1 X79.102 Y154.793 E.02114
G1 X78.539 Y154.232 E.0269
G1 X78.22 Y153.768 E.01906
G1 X78.028 Y153.342 E.01582
G1 X75.49 Y153.336 E.08591
G1 X74.806 Y153.209 E.02355
G1 X74.154 Y152.941 E.02386
G1 X73.645 Y152.61 E.02055
G1 X73.014 Y151.982 E.03013
G1 X72.615 Y151.352 E.02524
G1 X72.397 Y150.789 E.02044
G1 X72.278 Y150.169 E.02137
G1 X72.293 Y145.693 E.15151
G1 X72.458 Y145.025 E.02329
G1 X72.705 Y144.475 E.02041
G1 X73.053 Y143.971 E.02073
G1 X73.504 Y143.507 E.0219
G1 X74.042 Y143.121 E.02241
G1 X74.783 Y142.799 E.02735
G1 X75.457 Y142.666 E.02325
G1 X77.768 Y142.661 E.07822
G1 X77.768 Y77.339 E2.21107
G1 X75.457 Y77.334 E.07822
G1 X74.783 Y77.201 E.02325
G1 X74.042 Y76.879 E.02735
G1 X73.504 Y76.493 E.02241
G1 X73.053 Y76.029 E.0219
G1 X72.705 Y75.525 E.02073
G1 X72.458 Y74.975 E.02041
G1 X72.293 Y74.307 E.02329
G1 X72.267 Y69.94 E.14782
G1 X72.44 Y69.072 E.02996
G1 X72.652 Y68.576 E.01826
G1 X72.936 Y68.117 E.01827
G1 X73.233 Y67.802 E.01465
G1 X73.233 Y67.802 F60000
G1 X73.526 Y68.081
G1 F1800
G1 X73.816 Y67.777 E.01422
G1 X74.442 Y67.369 E.02529
G1 X74.969 Y67.168 E.01909
G1 X75.541 Y67.068 E.01966
G1 X78.302 Y67.065 E.09346
G1 X78.511 Y66.552 E.01875
G1 X78.82 Y66.068 E.01944
G1 X79.354 Y65.527 E.02573
G1 X79.894 Y65.175 E.02182
G1 X80.432 Y64.962 E.01959
G1 X80.984 Y64.854 E.01904
G1 X83.139 Y64.851 E.07294
G1 X83.746 Y64.969 E.02093
G1 X84.348 Y65.22 E.02208
G1 X84.799 Y65.525 E.01843
G1 X85.241 Y65.954 E.02085
G1 X85.668 Y66.595 E.02607
G1 X85.859 Y67.08 E.01764
G1 X85.97 Y67.623 E.01876
G1 X85.981 Y85.836 E.61649
G1 X91.77 Y85.836 E.19595
G1 X92.044 Y84.907 E.03278
G1 X92.435 Y84.255 E.02573
G1 X92.978 Y83.706 E.02614
G1 X93.723 Y83.243 E.02969
G1 X94.387 Y83.005 E.02388
G1 X95 Y82.923 E.02093
G1 X95.618 Y82.961 E.02096
G1 X99.657 Y83.908 E.14042
G1 X100.385 Y84.225 E.02688
G1 X101.019 Y84.711 E.02704
G1 X101.627 Y85.434 E.03198
G1 X101.902 Y85.943 E.01958
G1 X102.089 Y86.522 E.0206
G1 X102.301 Y88.189 E.05688
G1 X102.324 Y89.722 E.0519
G1 X102.243 Y90.327 E.02066
G1 X102.011 Y90.989 E.02374
G1 X101.212 Y92.124 E.04698
G1 X97.245 Y95.529 E.17696
G1 X96.584 Y95.923 E.02605
G1 X96.584 Y120.093 E.81813
G1 X97.576 Y120.061 E.0336
G1 X98.312 Y120.194 E.02532
G1 X99.161 Y120.535 E.03097
G1 X99.766 Y120.932 E.02449
G1 X100.246 Y121.43 E.02341
G1 X100.539 Y121.887 E.01838
G1 X100.897 Y122.757 E.03184
G1 X101.043 Y123.537 E.02686
G1 X101.043 Y134.185 E.36042
G1 X100.895 Y134.928 E.02564
G1 X100.495 Y135.728 E.03028
G1 X99.843 Y136.412 E.03199
G1 X99.295 Y136.763 E.02203
G1 X98.82 Y136.951 E.01729
G1 X98.319 Y137.059 E.01735
G1 X85.979 Y137.076 E.41769
G1 X85.96 Y152.461 E.52076
G1 X85.846 Y152.963 E.01742
G1 X85.635 Y153.468 E.01853
G1 X85.333 Y153.934 E.0188
G1 X84.806 Y154.469 E.02542
G1 X84.225 Y154.843 E.02339
G1 X83.706 Y155.044 E.01884
G1 X83.161 Y155.146 E.01877
G1 X81.065 Y155.153 E.07095
G1 X80.306 Y154.999 E.02621
G1 X79.802 Y154.777 E.01864
G1 X79.347 Y154.467 E.01864
G1 X78.864 Y153.985 E.0231
G1 X78.567 Y153.554 E.01772
G1 X78.296 Y152.935 E.02287
G1 X75.544 Y152.932 E.09315
G1 X74.938 Y152.824 E.02084
G1 X74.356 Y152.587 E.02127
G1 X73.915 Y152.305 E.01772
G1 X73.344 Y151.742 E.02714
G1 X72.987 Y151.186 E.02237
G1 X72.784 Y150.66 E.01908
G1 X72.681 Y150.114 E.01881
G1 X72.694 Y145.765 E.14721
G1 X72.837 Y145.174 E.02058
G1 X73.068 Y144.66 E.01907
G1 X73.377 Y144.218 E.01825
G1 X73.782 Y143.805 E.01958
G1 X74.26 Y143.466 E.01984
G1 X74.885 Y143.193 E.02309
G1 X75.479 Y143.073 E.02051
G1 X78.175 Y143.067 E.09126
G1 X78.175 Y76.933 E2.23856
G1 X75.479 Y76.927 E.09126
M73 P4 R16
G1 X74.885 Y76.807 E.02051
G1 X74.26 Y76.534 E.02309
G1 X73.782 Y76.195 E.01984
G1 X73.377 Y75.782 E.01958
G1 X73.068 Y75.34 E.01825
G1 X72.837 Y74.826 E.01907
G1 X72.694 Y74.235 E.02058
G1 X72.674 Y69.959 E.14474
G1 X72.823 Y69.212 E.02578
G1 X73.02 Y68.751 E.01697
G1 X73.27 Y68.351 E.01597
G1 X73.485 Y68.124 E.01058
G1 X73.485 Y68.124 F60000
G1 X73.777 Y68.405
G1 F1800
G1 X74.092 Y68.076 E.01542
G1 X74.607 Y67.742 E.02078
