; generated by PrusaSlicer 2.7.2+MacOS-arm64 on 2024-03-02 at 17:13:40 UTC


;
;

;
;

;
;

;
;

;
;
; 

; external perimeters extrusion width = 0.45mm
; perimeters extrusion width = 0.45mm
; infill extrusion width = 0.45mm
; solid infill extrusion width = 0.45mm
; top infill extrusion width = 0.40mm

M73 P0 R109

EXCLUDE_OBJECT_DEFINE NAME='mellow_super_8_moumt_v1_stl' CENTER=72.639,110.063 POLYGON=[[125.557,31.484],[126.448,31.881],[127.217,32.481],[127.817,33.250],[128.214,34.141],[128.383,35.101],[127.388,45.680],[127.642,43.055],[127.388,45.680],[127.388,49.560],[117.725,61.712],[117.260,62.410],[116.918,63.176],[116.709,63.988],[116.638,64.824],[116.638,155.296],[116.709,156.131],[116.918,156.944],[117.260,157.710],[117.725,158.408],[126.715,169.713],[127.083,170.300],[127.311,170.954],[127.388,171.642],[127.388,174.440],[128.383,185.018],[128.214,185.979],[127.817,186.870],[127.217,187.638],[126.448,188.239],[125.557,188.635],[124.597,188.804],[114.018,187.810],[112.574,187.761],[112.043,187.617],[111.414,187.298],[110.873,186.846],[110.518,186.394],[110.162,185.639],[109.685,182.014],[109.111,179.118],[108.800,177.985],[108.312,176.276],[107.291,173.506],[106.056,170.824],[104.613,168.247],[102.972,165.792],[101.142,163.472],[99.135,161.303],[98.155,160.359],[95.913,158.432],[93.528,156.689],[92.171,155.828],[91.013,155.139],[88.385,153.792],[85.660,152.656],[82.853,151.738],[79.984,151.043],[78.129,150.741],[77.069,150.576],[74.118,150.340],[71.159,150.340],[68.208,150.576],[65.293,151.043],[64.115,151.319],[62.423,151.738],[59.617,152.656],[56.892,153.792],[54.264,155.139],[51.749,156.689],[49.364,158.432],[47.122,160.359],[46.142,161.303],[44.134,163.472],[42.305,165.792],[40.663,168.247],[39.221,170.824],[37.985,173.506],[36.965,176.276],[36.477,177.985],[36.166,179.118],[35.592,182.014],[35.114,185.639],[34.759,186.394],[34.403,186.846],[33.863,187.298],[33.234,187.617],[32.703,187.761],[31.259,187.810],[20.680,188.804],[19.719,188.635],[18.829,188.239],[18.060,187.638],[17.460,186.870],[17.063,185.979],[16.894,185.018],[17.888,174.440],[17.888,171.642],[17.966,170.954],[18.194,170.300],[18.562,169.713],[27.552,158.408],[28.017,157.710],[28.359,156.944],[28.568,156.131],[28.638,155.296],[28.638,64.824],[28.568,63.988],[28.359,63.176],[28.017,62.410],[27.552,61.712],[18.562,50.407],[18.194,49.820],[17.966,49.166],[17.888,48.477],[17.888,45.680],[16.894,35.101],[17.063,34.141],[17.460,33.250],[18.060,32.481],[18.829,31.881],[19.719,31.484],[20.680,31.315],[31.259,32.310],[32.703,32.358],[33.234,32.503],[33.863,32.821],[34.403,33.274],[34.759,33.725],[35.094,34.418],[35.248,35.173],[35.601,38.181],[36.195,41.150],[37.027,44.062],[38.092,46.897],[39.382,49.637],[40.888,52.264],[42.602,54.761],[44.511,57.111],[46.604,59.300],[48.867,61.312],[51.284,63.136],[53.841,64.758],[56.521,66.169],[59.306,67.359],[62.177,68.321],[65.117,69.048],[68.106,69.535],[71.124,69.779],[74.153,69.779],[77.171,69.535],[80.160,69.048],[83.100,68.321],[85.971,67.359],[88.756,66.169],[91.435,64.758],[93.992,63.136],[96.410,61.312],[98.673,59.300],[100.766,57.111],[102.675,54.761],[104.389,52.264],[105.895,49.637],[107.185,46.897],[108.249,44.062],[109.082,41.150],[109.676,38.181],[110.029,35.173],[110.183,34.418],[110.518,33.725],[110.873,33.274],[111.414,32.821],[112.043,32.503],[112.574,32.358],[114.018,32.310],[124.597,31.315]]

;TYPE:Custom
CALCULATE_PA MATERIAL=PLA BOWDEN_LENGTH=6 LAYER_HEIGHT=0.2 NOZZLE_SIZE=0.4 PRINT_SPEED=90


START_PRINT EXTRUDER=210 BED=65
G21 ; set units to millimeters
G90 ; use absolute coordinates
M83 ; use relative distances for extrusion
; Filament gcode
M107
;LAYER_CHANGE
;Z:0.2
;HEIGHT:0.2
G1 E-.6 F3600
EXCLUDE_OBJECT_START NAME='mellow_super_8_moumt_v1_stl'
G1 Z.2 F60000
G1 X103.22 Y135.605
G1 Z.2
G1 E.6 F3600
;TYPE:Perimeter
;WIDTH:0.45
G1 F1800
G1 X99.405 Y133.44 E.14848
G1 X97.235 Y131.917 E.08974
G1 X95.221 Y130.192 E.08976
G1 X93.381 Y128.283 E.08975
G1 X91.759 Y126.241 E.08827
G1 X90.29 Y123.983 E.09118
G1 X89.066 Y121.629 E.08981
G1 X88.09 Y119.211 E.08826
G1 X87.322 Y116.629 E.09118
G1 X86.817 Y114.025 E.08978
G1 X86.563 Y111.385 E.08977
G1 X86.563 Y108.734 E.08973
G1 X86.817 Y106.095 E.08974
G1 X87.322 Y103.492 E.08975
G1 X88.074 Y100.949 E.08976
G1 X89.05 Y98.53 E.08829
G1 X90.289 Y96.138 E.09118
G1 X91.732 Y93.913 E.08977
G1 X93.381 Y91.836 E.08977
G1 X95.221 Y89.927 E.08975
G1 X97.235 Y88.203 E.08974
G1 X99.405 Y86.679 E.08976
G1 X103.22 Y84.514 E.14848
G1 X103.22 Y135.545 E1.72734
G1 X103.22 Y135.545 F60000
G1 X102.813 Y134.906
G1 F1800
G1 X99.623 Y133.096 E.12415
G1 X97.485 Y131.595 E.08842
G1 X95.5 Y129.896 E.08844
G1 X93.687 Y128.015 E.08843
G1 X92.089 Y126.003 E.08697
G1 X90.642 Y123.777 E.08987
G1 X89.437 Y121.459 E.08843
G1 X88.475 Y119.076 E.08699
G1 X87.718 Y116.532 E.08984
G1 X87.22 Y113.966 E.08848
G1 X86.97 Y111.366 E.08841
G1 X86.97 Y108.753 E.08845
G1 X87.22 Y106.153 E.08841
G1 X87.718 Y103.588 E.08844
G1 X88.459 Y101.083 E.08842
G1 X89.42 Y98.7 E.08697
G1 X90.641 Y96.343 E.08985
G1 X92.063 Y94.15 E.08847
G1 X93.687 Y92.105 E.08839
G1 X95.5 Y90.224 E.08843
G1 X97.485 Y88.525 E.08844
G1 X99.623 Y87.024 E.08842
G1 X102.813 Y85.213 E.12416
G1 X102.813 Y134.846 E1.68002
G1 X102.406 Y134.207 F60000
;TYPE:External perimeter
G1 F1800
G1 X99.841 Y132.751 E.09983
G1 X97.735 Y131.273 E.08709
G1 X95.78 Y129.599 E.08712
G1 X93.994 Y127.746 E.08711
G1 X92.42 Y125.765 E.08564
G1 X90.994 Y123.572 E.08854
G1 X89.807 Y121.289 E.0871
G1 X88.86 Y118.942 E.08567
G1 X88.114 Y116.434 E.08857
G1 X87.623 Y113.908 E.0871
G1 X87.377 Y111.346 E.08712
G1 X87.377 Y108.773 E.08709
G1 X87.623 Y106.211 E.08712
G1 X88.114 Y103.685 E.0871
G1 X88.844 Y101.217 E.08712
G1 X89.791 Y98.871 E.08563
G1 X90.994 Y96.548 E.08855
G1 X92.394 Y94.388 E.08713
G1 X93.994 Y92.373 E.08709
G1 X95.78 Y90.52 E.08711
G1 X97.735 Y88.847 E.0871
G1 X99.841 Y87.368 E.08711
G1 X102.406 Y85.913 E.09982
G1 X102.406 Y134.147 E1.63266
G1 X102.034 Y134 F60000
G1 E-.6 F3600
G1 X101.845 Y134.332 F60000
G1 X102.792 Y134.869
G1 X106.522 Y72.06
G1 X106.663 Y70.994
G1 X107.074 Y70.002
G1 X107.728 Y69.149
G1 X108.58 Y68.495
G1 X109.573 Y68.084
G1 X110.544 Y67.956
G1 X110.591 Y67.95
G1 X110.535 Y67.525
G1 E.6 F3600
;TYPE:Perimeter
G1 F1800
G1 X110.621 Y67.514 E.00293
G1 X111.814 Y67.666 E.04071
G1 X112.913 Y68.121 E.04026
G1 X113.854 Y68.844 E.04017
G1 X114.577 Y69.786 E.04019
G1 X115.032 Y70.883 E.0402
G1 X115.187 Y72.06 E.04018
G1 X115.032 Y73.237 E.04018
G1 X114.577 Y74.334 E.0402
G1 X113.854 Y75.276 E.04019
G1 X112.913 Y75.999 E.04017
G1 X111.816 Y76.453 E.04019
G1 X110.638 Y76.608 E.04022
G1 X109.461 Y76.453 E.04018
G1 X108.364 Y75.999 E.04019
G1 X107.422 Y75.276 E.04019
G1 X106.7 Y74.334 E.04017
G1 X106.245 Y73.237 E.0402
G1 X106.09 Y72.06 E.04018
G1 X106.245 Y70.883 E.04018
G1 X106.693 Y69.802 E.03961
G1 X107.421 Y68.845 E.0407
G1 X108.364 Y68.121 E.04024
G1 X109.461 Y67.667 E.04019
G1 X110.476 Y67.533 E.03465
G1 X110.579 Y67.93 F60000
G1 F1800
G1 X110.622 Y67.924 E.00147
G1 X111.708 Y68.063 E.03706
G1 X112.707 Y68.477 E.0366
G1 X113.564 Y69.134 E.03655
G1 X114.222 Y69.991 E.03657
G1 X114.635 Y70.989 E.03656
G1 X114.776 Y72.06 E.03656
G1 X114.635 Y73.131 E.03656
G1 X114.222 Y74.128 E.03653
G1 X113.564 Y74.985 E.03657
G1 X112.707 Y75.643 E.03657
G1 X111.709 Y76.056 E.03656
G1 X110.638 Y76.197 E.03656
G1 X109.568 Y76.056 E.03653
G1 X108.57 Y75.643 E.03656
G1 X107.713 Y74.985 E.03657
G1 X107.055 Y74.128 E.03657
G1 X106.642 Y73.131 E.03653
G1 X106.501 Y72.06 E.03656
G1 X106.642 Y70.989 E.03656
G1 X107.049 Y70.006 E.03601
G1 X107.712 Y69.135 E.03705
G1 X108.57 Y68.477 E.0366
G1 X109.568 Y68.063 E.03657
G1 X110.52 Y67.938 E.0325
G1 X110.52 Y67.938 F60000
G1 X110.636 Y68.336
;TYPE:External perimeter
G1 F1800
G1 X111.603 Y68.46 E.033
G1 X112.502 Y68.832 E.03293
G1 X113.274 Y69.424 E.03293
G1 X113.866 Y70.196 E.03293
G1 X114.238 Y71.095 E.03293
G1 X114.365 Y72.06 E.03295
G1 X114.238 Y73.024 E.03291
G1 X113.866 Y73.923 E.03293
G1 X113.274 Y74.695 E.03293
G1 X112.502 Y75.287 E.03293
G1 X111.603 Y75.66 E.03295
G1 X110.638 Y75.787 E.03295
G1 X109.674 Y75.66 E.03291
G1 X108.775 Y75.287 E.03295
G1 X108.003 Y74.695 E.03293
G1 X107.411 Y73.923 E.03293
G1 X107.038 Y73.024 E.03295
G1 X106.912 Y72.06 E.03291
G1 X107.038 Y71.095 E.03294
G1 X107.405 Y70.211 E.0324
G1 X108.003 Y69.425 E.03343
G1 X108.775 Y68.832 E.03295
G1 X109.674 Y68.46 E.03293
G1 X110.576 Y68.341 E.0308
G1 X110.974 Y68.381 F60000
G1 E-.6 F3600
G1 X111.025 Y67.995 F60000
G1 X122.277 Y35.344
G1 X121.852 Y35.4
G1 E.6 F3600
;TYPE:Perimeter
G1 F1800
G1 X121.84 Y35.312 E.00301
G1 X121.927 Y34.65 E.0226
G1 X122.182 Y34.036 E.0225
G1 X122.587 Y33.508 E.02252
G1 X123.114 Y33.103 E.0225
G1 X123.729 Y32.848 E.02254
G1 X124.379 Y32.763 E.02219
G1 X125.046 Y32.847 E.02276
G1 X125.662 Y33.103 E.02258
G1 X126.19 Y33.508 E.02252
G1 X126.595 Y34.036 E.02252
G1 X126.85 Y34.65 E.0225
G1 X126.937 Y35.31 E.02253
G1 X126.85 Y35.969 E.0225
G1 X126.595 Y36.584 E.02254
G1 X126.19 Y37.112 E.02252
G1 X125.662 Y37.516 E.0225
G1 X125.048 Y37.771 E.0225
G1 X124.388 Y37.858 E.02253
G1 X123.729 Y37.771 E.0225
G1 X123.123 Y37.52 E.0222
G1 X122.588 Y37.113 E.02275
G1 X122.182 Y36.584 E.02257
G1 X121.931 Y35.978 E.0222
G1 X121.86 Y35.459 E.01773
G1 X121.86 Y35.459 F60000
G1 X122.257 Y35.267
G1 F1800
G1 X122.324 Y34.757 E.01741
G1 X122.537 Y34.241 E.0189
G1 X122.877 Y33.798 E.0189
G1 X123.32 Y33.459 E.01888
G1 X123.835 Y33.245 E.01888
G1 X124.38 Y33.173 E.01861
G1 X124.94 Y33.244 E.01911
G1 X125.457 Y33.459 E.01895
G1 X125.9 Y33.798 E.01888
G1 X126.24 Y34.241 E.0189
G1 X126.453 Y34.756 E.01886
G1 X126.526 Y35.31 E.01891
G1 X126.453 Y35.863 E.01888
G1 X126.24 Y36.378 E.01886
G1 X125.9 Y36.821 E.0189
G1 X125.457 Y37.161 E.0189
G1 X124.942 Y37.374 E.01886
G1 X124.388 Y37.447 E.01891
G1 X123.835 Y37.374 E.01888
G1 X123.328 Y37.164 E.01858
G1 X122.878 Y36.822 E.01913
G1 X122.537 Y36.378 E.01895
G1 X122.327 Y35.871 E.01858
G1 X122.253 Y35.327 E.01858
G1 X122.253 Y35.327 F60000
G1 X122.662 Y35.312
;TYPE:External perimeter
G1 F1800
G1 X122.661 Y35.31 E.00008
G1 X122.72 Y34.863 E.01526
G1 X122.893 Y34.446 E.01528
G1 X123.167 Y34.089 E.01523
G1 X123.525 Y33.814 E.01528
G1 X123.941 Y33.642 E.01524
G1 X124.381 Y33.584 E.01502
G1 X124.835 Y33.641 E.01549
G1 X125.252 Y33.814 E.01528
G1 X125.61 Y34.089 E.01528
G1 X125.884 Y34.446 E.01523
G1 X126.057 Y34.863 E.01528
G1 X126.115 Y35.31 E.01526
G1 X126.057 Y35.757 E.01526
G1 X125.884 Y36.173 E.01525
G1 X125.61 Y36.531 E.01526
G1 X125.252 Y36.805 E.01526
G1 X124.835 Y36.978 E.01528
G1 X124.388 Y37.037 E.01526
G1 X123.941 Y36.978 E.01526
G1 X123.532 Y36.808 E.01499
G1 X123.168 Y36.531 E.01548
G1 X122.893 Y36.173 E.01528
G1 X122.723 Y35.764 E.01499
G1 X122.67 Y35.371 E.01342
G1 X122.708 Y34.973 F60000
G1 E-.6 F3600
G1 X122.323 Y34.922 F60000
G1 X101.224 Y57.515
G1 X99.097 Y59.74
G1 X96.798 Y61.785
G1 X94.34 Y63.638
G1 X91.742 Y65.287
G1 X89.019 Y66.721
G1 X86.189 Y67.931
G1 X83.27 Y68.908
G1 X80.282 Y69.646
G1 X77.245 Y70.142
G1 X74.177 Y70.39
G1 X71.1 Y70.39
G1 X68.032 Y70.142
G1 X64.994 Y69.646
G1 X62.007 Y68.908
G1 X59.088 Y67.931
G1 X56.258 Y66.721
G1 X53.535 Y65.287
G1 X50.936 Y63.638
G1 X48.479 Y61.785
G1 X46.18 Y59.74
G1 X44.053 Y57.515
G1 X42.112 Y55.127
G1 X40.371 Y52.589
G1 X38.839 Y49.919
G1 X37.529 Y47.135
G1 X36.447 Y44.253
G1 X35.601 Y41.294
G1 X34.997 Y38.276
G1 X34.901 Y37.453
G1 X20.919 Y37.422
G1 X20.975 Y37.846
G1 E.6 F3600
;TYPE:Perimeter
G1 F1800
G1 X20.888 Y37.858 E.00297
G1 X20.229 Y37.771 E.0225
G1 X19.614 Y37.516 E.02254
G1 X19.087 Y37.111 E.0225
G1 X18.682 Y36.584 E.0225
G1 X18.431 Y35.978 E.0222
G1 X18.34 Y35.312 E.02275
G1 X18.427 Y34.65 E.0226
G1 X18.682 Y34.036 E.0225
G1 X19.087 Y33.508 E.02252
G1 X19.614 Y33.103 E.0225
G1 X20.229 Y32.848 E.02254
G1 X20.879 Y32.763 E.02219
G1 X21.546 Y32.847 E.02276
G1 X22.162 Y33.103 E.02258
G1 X22.69 Y33.508 E.02252
G1 X23.095 Y34.036 E.02252
G1 X23.35 Y34.65 E.0225
G1 X23.437 Y35.31 E.02253
G1 X23.35 Y35.969 E.0225
G1 X23.095 Y36.584 E.02254
G1 X22.69 Y37.112 E.02252
G1 X22.162 Y37.516 E.0225
G1 X21.548 Y37.771 E.0225
G1 X21.035 Y37.839 E.01752
G1 X21.035 Y37.839 F60000
G1 X20.932 Y37.442
G1 F1800
G1 X20.888 Y37.447 E.0015
G1 X20.335 Y37.374 E.01888
G1 X19.82 Y37.161 E.01886
G1 X19.377 Y36.821 E.0189
G1 X19.037 Y36.378 E.0189
G1 X18.827 Y35.871 E.01858
G1 X18.751 Y35.311 E.01913
G1 X18.824 Y34.757 E.01891
G1 X19.037 Y34.241 E.0189
G1 X19.377 Y33.798 E.0189
G1 X19.82 Y33.459 E.01888
G1 X20.335 Y33.245 E.01888
G1 X20.88 Y33.173 E.01861
G1 X21.44 Y33.244 E.01911
G1 X21.957 Y33.459 E.01895
G1 X22.4 Y33.798 E.01888
G1 X22.74 Y34.241 E.0189
G1 X22.953 Y34.756 E.01886
G1 X23.026 Y35.31 E.01891
G1 X22.953 Y35.863 E.01888
G1 X22.74 Y36.378 E.01886
G1 X22.4 Y36.821 E.0189
G1 X21.957 Y37.161 E.0189
G1 X21.442 Y37.374 E.01886
G1 X20.991 Y37.434 E.0154
G1 X20.991 Y37.434 F60000
G1 X20.888 Y37.037
;TYPE:External perimeter
G1 F1800
G1 X20.441 Y36.978 E.01526
G1 X20.025 Y36.805 E.01525
G1 X19.667 Y36.531 E.01526
G1 X19.393 Y36.173 E.01526
G1 X19.223 Y35.764 E.01499
G1 X19.161 Y35.31 E.01551
G1 X19.22 Y34.863 E.01526
G1 X19.393 Y34.446 E.01528
G1 X19.667 Y34.089 E.01523
G1 X20.025 Y33.814 E.01528
G1 X20.441 Y33.642 E.01524
G1 X20.881 Y33.584 E.01502
G1 X21.335 Y33.641 E.01549
G1 X21.752 Y33.814 E.01528
G1 X22.11 Y34.089 E.01528
G1 X22.384 Y34.446 E.01523
G1 X22.557 Y34.863 E.01528
G1 X22.615 Y35.31 E.01526
G1 X22.557 Y35.757 E.01526
G1 X22.384 Y36.173 E.01525
G1 X22.11 Y36.531 E.01526
G1 X21.752 Y36.805 E.01526
G1 X21.335 Y36.978 E.01528
G1 X20.948 Y37.029 E.01321
G1 X20.55 Y36.99 F60000
G1 E-.6 F3600
G1 X20.499 Y37.374 F60000
G1 X38.203 Y70.002
G1 X38.614 Y70.994
G1 X38.754 Y72.06
G1 X38.614 Y73.125
G1 X38.203 Y74.118
G1 X38.184 Y74.142
G1 X38.524 Y74.403
G1 E.6 F3600
;TYPE:Perimeter
G1 F1800
G1 X37.854 Y75.276 E.03725
G1 X36.913 Y75.999 E.04017
G1 X35.816 Y76.453 E.04019
G1 X34.638 Y76.608 E.04022
G1 X33.461 Y76.453 E.04018
G1 X32.364 Y75.999 E.04019
G1 X31.422 Y75.276 E.04019
G1 X30.7 Y74.334 E.04017
G1 X30.245 Y73.237 E.0402
G1 X30.09 Y72.06 E.04018
G1 X30.245 Y70.883 E.04018
G1 X30.693 Y69.802 E.03961
G1 X31.421 Y68.845 E.0407
G1 X32.364 Y68.121 E.04024
G1 X33.461 Y67.667 E.04019
G1 X34.621 Y67.514 E.0396
G1 X35.814 Y67.666 E.04071
G1 X36.913 Y68.121 E.04026
G1 X37.854 Y68.844 E.04017
G1 X38.577 Y69.786 E.04019
G1 X39.032 Y70.883 E.0402
G1 X39.187 Y72.06 E.04018
G1 X39.032 Y73.237 E.04018
G1 X38.577 Y74.334 E.0402
G1 X38.561 Y74.356 E.00092
G1 X38.561 Y74.356 F60000
G1 X38.195 Y74.163
G1 F1800
G1 X37.564 Y74.985 E.03508
G1 X36.707 Y75.643 E.03657
G1 X35.709 Y76.056 E.03656
G1 X34.638 Y76.197 E.03656
G1 X33.568 Y76.056 E.03653
G1 X32.57 Y75.643 E.03656
G1 X31.713 Y74.985 E.03657
G1 X31.055 Y74.128 E.03657
G1 X30.642 Y73.131 E.03653
G1 X30.501 Y72.06 E.03656
G1 X30.642 Y70.989 E.03656
G1 X31.049 Y70.006 E.03601
G1 X31.712 Y69.135 E.03705
G1 X32.57 Y68.477 E.0366
G1 X33.568 Y68.063 E.03657
G1 X34.622 Y67.924 E.03599
G1 X35.708 Y68.063 E.03706
G1 X36.707 Y68.477 E.0366
G1 X37.564 Y69.134 E.03655
G1 X38.222 Y69.991 E.03657
G1 X38.635 Y70.989 E.03656
G1 X38.776 Y72.06 E.03656
G1 X38.635 Y73.131 E.03656
G1 X38.228 Y74.113 E.03598
G1 X38.228 Y74.113 F60000
G1 X37.866 Y73.923
;TYPE:External perimeter
G1 F1800
G1 X37.274 Y74.695 E.03293
G1 X36.502 Y75.287 E.03293
G1 X35.603 Y75.66 E.03295
G1 X34.638 Y75.787 E.03295
G1 X33.674 Y75.66 E.03291
G1 X32.775 Y75.287 E.03295
G1 X32.003 Y74.695 E.03293
G1 X31.411 Y73.923 E.03293
G1 X31.038 Y73.024 E.03295
G1 X30.912 Y72.06 E.03291
G1 X31.038 Y71.095 E.03294
G1 X31.405 Y70.211 E.0324
G1 X32.003 Y69.425 E.03343
G1 X32.775 Y68.832 E.03295
G1 X33.674 Y68.46 E.03293
G1 X34.623 Y68.335 E.0324
G1 X35.603 Y68.46 E.03344
G1 X36.502 Y68.832 E.03293
G1 X37.274 Y69.424 E.03293
G1 X37.866 Y70.196 E.03293
G1 X38.238 Y71.095 E.03293
G1 X38.365 Y72.06 E.03295
G1 X38.238 Y73.024 E.03291
G1 X37.889 Y73.868 E.03091
G1 X37.656 Y74.193 F60000
G1 E-.6 F3600
G1 X37.964 Y74.429 F60000
G1 X48.028 Y71.838
G1 X97.249 Y71.838
G1 X97.678 Y71.409
G1 E.6 F3600
;TYPE:Perimeter
G1 F1800
G1 X97.678 Y80.988 E.32424
