; generated by SuperSlicer 2.5.59.8 on 2024-03-22 at 15:05:22 UTC


;
;

;
;

;
;

;
;

;
;
; 

; external perimeters extrusion width = 0.40mm
; perimeters extrusion width = 0.40mm
; infill extrusion width = 0.40mm
; solid infill extrusion width = 0.40mm
; top infill extrusion width = 0.40mm
; support material extrusion width = 0.36mm

; object:{"name":"Microswiss Driect Drive Linear Rail Fang Mount BLtouch alt v6","id":"Microswiss Driect Drive Linear Rail Fang Mount BLtouch alt v6.stl id:0 copy 0","object_center":[82.362305,105.115950,0.000000],"boundingbox_center":[82.362305,105.115950,15.867500],"boundingbox_size":[36.806579,97.930212,31.735001]}
EXCLUDE_OBJECT_DEFINE NAME=Microswiss_Driect_Drive_Linear_Rail_Fang_Mount_BLtouch_alt_v6_stl_id_0_copy_0 CENTER=82.362305,105.115950 POLYGON=[[63.96,151.03],[64.08,129.73],[64.29,94.11],[64.46,92.81],[71.75,56.15],[77.75,56.19],[90.78,78.19],[91.08,78.91],[100.77,129.46],[100.65,149.39],[72.20,154.08],[66.94,154.05],[66.17,153.94],[65.44,153.64],[64.83,153.16],[64.35,152.54],[64.06,151.81],[63.96,151.03]]
; plater:{"center":[82.362305,105.115950,0.000000],"boundingbox_center":[82.362305,105.115950,15.867500],"boundingbox_size":[36.806579,97.930212,31.735001]}

M73 P0 R91
M107
;TYPE:Custom
CALCULATE_PA MATERIAL=ABS BOWDEN_LENGTH=6 LAYER_HEIGHT=0.24 NOZZLE_SIZE=0.4 PRINT_SPEED=95


START_PRINT EXTRUDER=270 BED=100

M107
G21 ; set units to millimeters
G90 ; use absolute coordinates
M83 ; use relative distances for extrusion
ACTIVATE_EXTRUDER EXTRUDER=extruder
; Filament gcode
M104 S270 T0 ; set temperature
M109 S270 T0 ; set temperature and wait for it to be reached
M190 S100 ; set bed temperature and wait for it to be reached
;LAYER_CHANGE
;Z:0.24
;HEIGHT:0.24
;BEFORE_LAYER_CHANGE
G92 E0.0

G1 E-1.5 F3000
G1 Z0.2 F3600000
G1 Z0.24
;AFTER_LAYER_CHANGE
;0.24




CALCULATE_PA MATERIAL=ABS BOWDEN_LENGTH=6.0 LAYER_HEIGHT=0.2 NOZZLE_SIZE=0.4 PRINT_SPEED=95


G92 E0
G1 Z0.44
G1 X63.169 Y52.058
G1 Z0.24
G1 E1.5 F3000
;TYPE:Skirt
;WIDTH:0.4
M107
G1 F2400
G1 X64.781 Y50.647 E0.07452
G1 X66.633 Y49.634 E0.07341
G1 X68.636 Y49.046 E0.07258
G1 X80.112 Y49.01 E0.39903
G1 X82.207 Y49.47 E0.0746
G1 X83.642 Y50.107 E0.05461
G1 X84.927 Y50.95 E0.05344
G1 X86.136 Y52.038 E0.05655
G1 X87.201 Y53.359 E0.059
G1 X88.109 Y55.083 E0.06776
G1 X88.654 Y57.009 E0.06961
G1 X88.927 Y59.93 E0.10201
G1 X88.901 Y65.513 E0.19415
G1 X91.187 Y65.809 E0.08014
G1 X93.038 Y66.351 E0.0671
G1 X95.782 Y67.686 E0.10609
G1 X98.738 Y70.181 E0.13453
G1 X100.53 Y72.677 E0.10686
G1 X101.749 Y75.497 E0.10684
G1 X102.364 Y79.307 E0.13419
G1 X102.138 Y118.34 E1.35732
G1 X103.634 Y118.382 E0.05206
G1 X106.256 Y119.168 E0.09516
G1 X108.301 Y120.448 E0.0839
G1 X110.091 Y122.324 E0.09019
G1 X111.563 Y125.259 E0.11417
G1 X111.96 Y127.548 E0.0808
G1 X111.822 Y151.665 E0.83862
G1 X110.852 Y155.054 E0.12258
G1 X109.227 Y157.431 E0.1001
G1 X107.818 Y158.693 E0.06579
G1 X106.158 Y159.69 E0.06734
G1 X103.538 Y160.475 E0.0951
G1 X98.685 Y160.562 E0.1688
G1 X98.113 Y160.616 E0.01997
G1 X81.913 Y160.523 E0.56333
G1 X81.269 Y161.552 E0.04222
G1 X79.743 Y163.086 E0.07524
G1 X77.147 Y164.609 E0.10465
G1 X74.251 Y165.279 E0.10339
G1 X65.618 Y165.164 E0.30019
G1 X63.118 Y164.717 E0.08834
G1 X60.736 Y163.797 E0.08877
G1 X58.905 Y162.723 E0.07382
G1 X56.876 Y161.043 E0.09161
G1 X55.139 Y158.888 E0.09626
G1 X54.14 Y157.123 E0.0705
G1 X53.23 Y154.662 E0.09125
G1 X52.821 Y152.115 E0.08969
G1 X53.171 Y92.795 E2.0628
G1 X53.756 Y89.536 E0.11513
G1 X55.006 Y86.484 E0.11467
G1 X57.267 Y83.315 E0.13536
G1 X59.476 Y81.067 E0.10961
G1 X59.545 Y69.285 E0.40968
G1 X59.961 Y66.973 E0.0817
G1 X60.514 Y65.599 E0.05148
G1 X60.59 Y57.636 E0.27693
G1 X61.377 Y54.839 E0.10102
G1 X61.876 Y53.761 E0.0413
G1 X63.132 Y52.106 E0.07227
M107
G1 X63.41 Y52.317 F3600000
M107
G1 F2400
G1 X63.435 Y52.283 E0.00147
G1 X64.996 Y50.922 E0.072
G1 X66.783 Y49.949 E0.07078
G1 X68.71 Y49.388 E0.06978
G1 X80.055 Y49.355 E0.39452
G1 X82.115 Y49.806 E0.07332
G1 X83.463 Y50.406 E0.05131
G1 X84.704 Y51.218 E0.05156
G1 X85.893 Y52.288 E0.0556
G1 X86.901 Y53.537 E0.05582
G1 X87.779 Y55.196 E0.06528
G1 X88.309 Y57.057 E0.06731
G1 X88.578 Y59.937 E0.10056
G1 X88.551 Y65.845 E0.20543
G1 X88.777 Y65.849 E0.00787
G1 X91.128 Y66.152 E0.08243
G1 X92.926 Y66.681 E0.06516
G1 X95.574 Y67.966 E0.10234
G1 X98.468 Y70.402 E0.13154
G1 X100.218 Y72.833 E0.10415
G1 X101.421 Y75.616 E0.10543
G1 X102.015 Y79.32 E0.13044
G1 X101.787 Y118.681 E1.36873
G1 X103.557 Y118.722 E0.06154
G1 X106.133 Y119.495 E0.09353
G1 X108.097 Y120.731 E0.0807
G1 X109.792 Y122.504 E0.08529
G1 X111.224 Y125.344 E0.11061
G1 X111.612 Y127.562 E0.07829
G1 X111.474 Y151.639 E0.83725
G1 X110.525 Y154.931 E0.11912
G1 X108.979 Y157.185 E0.09505
G1 X107.625 Y158.403 E0.06333
G1 X105.997 Y159.38 E0.066
G1 X103.462 Y160.135 E0.09199
G1 X98.665 Y160.214 E0.16681
G1 X98.106 Y160.267 E0.01953
G1 X81.72 Y160.173 E0.56981
M73 P0 R90
G1 X81.008 Y161.32 E0.04695
G1 X79.512 Y162.825 E0.07377
G1 X77.042 Y164.275 E0.09959
G1 X74.234 Y164.93 E0.10028
G1 X65.666 Y164.818 E0.29797
G1 X63.196 Y164.377 E0.08725
G1 X60.875 Y163.478 E0.08653
G1 X59.117 Y162.446 E0.0709
G1 X57.112 Y160.786 E0.09052
G1 X55.435 Y158.704 E0.09296
G1 X54.462 Y156.989 E0.06855
G1 X53.572 Y154.59 E0.08899
G1 X53.17 Y152.103 E0.0876
G1 X53.517 Y92.841 E2.06075
G1 X54.086 Y89.651 E0.11269
G1 X55.321 Y86.635 E0.11333
G1 X57.543 Y83.529 E0.13278
G1 X59.824 Y81.21 E0.11311
G1 X59.893 Y69.303 E0.41408
G1 X60.301 Y67.053 E0.07951
G1 X60.862 Y65.669 E0.05192
G1 X60.932 Y57.708 E0.27684
G1 X61.708 Y54.947 E0.09974
G1 X62.165 Y53.957 E0.0379
G1 X63.374 Y52.365 E0.06952
M107
G1 X63.649 Y52.573 F3600000
M107
G1 F2400
G1 X63.678 Y52.534 E0.00171
G1 X65.18 Y51.218 E0.0694
G1 X66.899 Y50.278 E0.06814
G1 X68.784 Y49.729 E0.06827
G1 X80 Y49.699 E0.39001
G1 X81.99 Y50.132 E0.07081
G1 X83.309 Y50.719 E0.0502
G1 X84.502 Y51.502 E0.04963
G1 X85.649 Y52.537 E0.05373
G1 X86.619 Y53.742 E0.05379
G1 X87.462 Y55.342 E0.0629
G1 X87.963 Y57.106 E0.06375
G1 X88.231 Y59.961 E0.09971
G1 X88.201 Y66.189 E0.21657
G1 X88.743 Y66.195 E0.01884
G1 X91.07 Y66.496 E0.0816
G1 X92.814 Y67.011 E0.06323
G1 X95.366 Y68.247 E0.09861
G1 X98.198 Y70.623 E0.12854
G1 X99.924 Y73.021 E0.10273
G1 X101.092 Y75.734 E0.1027
G1 X101.666 Y79.332 E0.12671
G1 X101.437 Y119.022 E1.38018
G1 X103.479 Y119.063 E0.07104
G1 X106.01 Y119.822 E0.09187
G1 X107.893 Y121.014 E0.07749
G1 X109.493 Y122.685 E0.08044
G1 X110.886 Y125.43 E0.10705
G1 X111.263 Y127.576 E0.07576
G1 X111.125 Y151.613 E0.83586
G1 X110.198 Y154.807 E0.11565
G1 X108.73 Y156.94 E0.09004
G1 X107.431 Y158.113 E0.06086
G1 X105.837 Y159.069 E0.06465
G1 X103.386 Y159.794 E0.08888
G1 X98.646 Y159.866 E0.16484
G1 X98.099 Y159.919 E0.0191
G1 X81.526 Y159.823 E0.57632
G1 X80.746 Y161.089 E0.05167
G1 X79.281 Y162.563 E0.07229
G1 X76.937 Y163.942 E0.09455
G1 X74.217 Y164.582 E0.09716
G1 X65.713 Y164.473 E0.29576
G1 X63.306 Y164.046 E0.085
G1 X61.014 Y163.158 E0.08545
G1 X59.328 Y162.168 E0.06798
G1 X57.348 Y160.528 E0.08942
G1 X55.731 Y158.519 E0.08968
G1 X54.784 Y156.854 E0.06661
G1 X53.913 Y154.517 E0.08673
G1 X53.519 Y152.09 E0.08549
G1 X53.862 Y92.888 E2.0587
G1 X54.425 Y89.73 E0.11153
G1 X55.636 Y86.786 E0.11069
G1 X57.818 Y83.743 E0.1302
G1 X60.011 Y81.529 E0.10838
G1 X60.162 Y81.351 E0.00809
G1 X60.175 Y81.19 E0.00563
G1 X60.241 Y69.32 E0.41277
G1 X60.64 Y67.133 E0.07729
G1 X61.21 Y65.739 E0.05237
G1 X61.274 Y57.78 E0.27676
G1 X62.04 Y55.054 E0.09846
G1 X62.454 Y54.152 E0.03451
G1 X63.613 Y52.621 E0.06677
M107
G1 X63.888 Y52.828 F3600000
M107
G1 F2400
G1 X63.922 Y52.784 E0.00193
G1 X65.395 Y51.493 E0.06811
G1 X67.049 Y50.593 E0.06548
G1 X68.857 Y50.071 E0.06545
G1 X79.945 Y50.044 E0.38555
G1 X81.865 Y50.458 E0.0683
G1 X83.129 Y51.018 E0.0481
G1 X84.299 Y51.786 E0.04866
G1 X85.405 Y52.786 E0.05184
G1 X86.337 Y53.947 E0.05176
G1 X87.145 Y55.488 E0.06052
G1 X87.618 Y57.154 E0.06022
G1 X87.883 Y59.985 E0.09886
G1 X87.851 Y66.534 E0.22773
G1 X88.708 Y66.542 E0.02983
G1 X90.985 Y66.835 E0.07981
G1 X92.675 Y67.332 E0.06127
G1 X95.159 Y68.528 E0.09587
G1 X97.928 Y70.845 E0.12554
G1 X99.612 Y73.176 E0.1
G1 X100.763 Y75.851 E0.10128
G1 X101.318 Y79.344 E0.12297
G1 X101.086 Y119.365 E1.39167
G1 X103.402 Y119.404 E0.08054
G1 X105.887 Y120.148 E0.0902
G1 X107.688 Y121.297 E0.07427
G1 X109.194 Y122.866 E0.07563
G1 X110.547 Y125.516 E0.10348
G1 X110.915 Y127.59 E0.07321
G1 X110.777 Y151.587 E0.83447
G1 X109.872 Y154.682 E0.11215
G1 X108.482 Y156.695 E0.08507
G1 X107.237 Y157.823 E0.05839
G1 X105.677 Y158.759 E0.06328
G1 X103.31 Y159.453 E0.08574
G1 X98.626 Y159.518 E0.1629
G1 X98.092 Y159.57 E0.01866
G1 X81.331 Y159.474 E0.58284
G1 X80.485 Y160.857 E0.0564
G1 X79.049 Y162.302 E0.07081
G1 X76.831 Y163.609 E0.08952
G1 X74.2 Y164.233 E0.09403
G1 X65.759 Y164.127 E0.29353
G1 X63.383 Y163.706 E0.08391
G1 X61.154 Y162.838 E0.08319
G1 X59.54 Y161.891 E0.06507
G1 X57.584 Y160.271 E0.08832
G1 X56.027 Y158.335 E0.0864
G1 X55.105 Y156.719 E0.06468
G1 X54.254 Y154.444 E0.08446
G1 X53.867 Y152.078 E0.08337
G1 X54.208 Y92.934 E2.05665
G1 X54.755 Y89.845 E0.10906
G1 X55.95 Y86.937 E0.10933
G1 X58.093 Y83.958 E0.12761
G1 X60.267 Y81.765 E0.10741
G1 X60.499 Y81.492 E0.01243
G1 X60.524 Y81.206 E0.01
G1 X60.59 Y69.337 E0.41272
G1 X60.98 Y67.214 E0.07506
G1 X61.558 Y65.809 E0.05283
G1 X61.616 Y57.852 E0.2767
G1 X62.372 Y55.161 E0.09718
G1 X62.744 Y54.347 E0.03114
G1 X63.852 Y52.876 E0.06403
M107
G1 X64.128 Y53.083 F3600000
M107
G1 F2400
G1 X64.165 Y53.034 E0.00216
G1 X65.579 Y51.79 E0.06548
G1 X67.164 Y50.923 E0.06282
G1 X68.931 Y50.412 E0.06394
G1 X79.89 Y50.388 E0.38109
G1 X81.74 Y50.784 E0.06578
G1 X82.975 Y51.331 E0.04697
G1 X84.096 Y52.069 E0.04669
G1 X85.16 Y53.035 E0.04996
G1 X86.054 Y54.152 E0.04973
G1 X86.828 Y55.634 E0.05814
G1 X87.272 Y57.203 E0.0567
G1 X87.535 Y60.009 E0.09801
G1 X87.5 Y66.879 E0.23891
G1 X88.675 Y66.889 E0.04083
G1 X90.9 Y67.173 E0.07802
G1 X92.537 Y67.652 E0.05932
G1 X94.953 Y68.81 E0.09313
G1 X97.658 Y71.067 E0.12252
G1 X99.318 Y73.365 E0.09857
G1 X100.435 Y75.969 E0.09853
G1 X100.969 Y79.356 E0.11925
G1 X100.736 Y119.708 E1.4032
G1 X103.325 Y119.744 E0.09005
G1 X105.763 Y120.475 E0.08851
G1 X107.482 Y121.579 E0.07103
G1 X108.896 Y123.048 E0.07088
G1 X110.209 Y125.603 E0.0999
G1 X110.566 Y127.603 E0.07065
G1 X110.429 Y151.56 E0.83306
M73 P1 R90
G1 X109.545 Y154.557 E0.10864
G1 X108.233 Y156.451 E0.08013
G1 X107.043 Y157.533 E0.05591
G1 X105.517 Y158.449 E0.0619
G1 X103.236 Y159.111 E0.08259
G1 X98.607 Y159.169 E0.16098
G1 X98.085 Y159.222 E0.01823
G1 X81.136 Y159.124 E0.58938
G1 X80.223 Y160.626 E0.06112
G1 X78.818 Y162.04 E0.06932
G1 X76.725 Y163.276 E0.08452
G1 X74.183 Y163.884 E0.09088
G1 X65.806 Y163.782 E0.29132
G1 X63.494 Y163.375 E0.08163
G1 X61.293 Y162.518 E0.08211
G1 X59.751 Y161.613 E0.06218
G1 X57.844 Y160.039 E0.08599
G1 X56.307 Y158.127 E0.0853
G1 X55.427 Y156.583 E0.0618
G1 X54.595 Y154.371 E0.08219
G1 X54.213 Y152.036 E0.08226
G1 X54.554 Y92.98 E2.05359
G1 X55.095 Y89.925 E0.1079
G1 X56.265 Y87.089 E0.10666
G1 X58.367 Y84.173 E0.12502
G1 X60.524 Y82.001 E0.10644
G1 X60.811 Y81.664 E0.01536
G1 X60.841 Y81.589 E0.00284
G1 X60.872 Y81.222 E0.0128
G1 X60.938 Y69.354 E0.41267
G1 X61.319 Y67.295 E0.07283
G1 X61.845 Y66.008 E0.04834
G1 X61.905 Y65.901 E0.00426
G1 X61.958 Y57.924 E0.27742
G1 X62.704 Y55.268 E0.09591
G1 X63.034 Y54.541 E0.02778
G1 X64.092 Y53.131 E0.06128
M107
G1 X64.368 Y53.338 F3600000
M107
G1 F2400
G1 X64.409 Y53.283 E0.00238
G1 X65.763 Y52.086 E0.06284
G1 X67.314 Y51.238 E0.06147
G1 X69.003 Y50.754 E0.06109
G1 X79.836 Y50.733 E0.37668
G1 X81.616 Y51.11 E0.06327
G1 X82.795 Y51.63 E0.04482
G1 X83.893 Y52.353 E0.04571
G1 X84.916 Y53.283 E0.04806
G1 X85.771 Y54.356 E0.0477
G1 X86.511 Y55.779 E0.05576
G1 X86.927 Y57.251 E0.0532
G1 X87.187 Y60.033 E0.09716
G1 X87.15 Y67.225 E0.2501
G1 X88.641 Y67.236 E0.05185
G1 X90.816 Y67.511 E0.07623
G1 X92.4 Y67.973 E0.05737
G1 X94.746 Y69.091 E0.09039
G1 X97.388 Y71.289 E0.11949
G1 X99.024 Y73.553 E0.09713
G1 X100.106 Y76.086 E0.09577
G1 X100.621 Y79.368 E0.11554
G1 X100.385 Y120.052 E1.41473
G1 X103.296 Y120.093 E0.10123
G1 X105.596 Y120.782 E0.08349
G1 X107.245 Y121.836 E0.06805
G1 X108.627 Y123.271 E0.06928
G1 X109.87 Y125.691 E0.09459
G1 X110.218 Y127.618 E0.06808
G1 X110.08 Y151.534 E0.83165
G1 X109.219 Y154.431 E0.10511
G1 X107.983 Y156.207 E0.07523
G1 X106.849 Y157.243 E0.05343
G1 X105.357 Y158.138 E0.0605
G1 X103.162 Y158.77 E0.07942
G1 X98.587 Y158.821 E0.1591
G1 X98.077 Y158.873 E0.01781
G1 X80.94 Y158.775 E0.59594
G1 X79.961 Y160.395 E0.06584
G1 X78.586 Y161.779 E0.06782
G1 X76.618 Y162.944 E0.07953
G1 X74.165 Y163.535 E0.08773
G1 X65.852 Y163.436 E0.28909
G1 X63.571 Y163.035 E0.08054
G1 X61.433 Y162.199 E0.07983
G1 X59.962 Y161.336 E0.05929
G1 X58.08 Y159.782 E0.08488
G1 X56.588 Y157.92 E0.08297
G1 X55.748 Y156.448 E0.05893
G1 X54.927 Y154.264 E0.08111
G1 X54.56 Y151.995 E0.07996
G1 X54.9 Y93.026 E2.05056
G1 X55.424 Y90.04 E0.10541
G1 X56.579 Y87.241 E0.10529
G1 X58.642 Y84.388 E0.12242
G1 X60.781 Y82.237 E0.10549
G1 X61.113 Y81.847 E0.01783
G1 X61.184 Y81.67 E0.00663
G1 X61.221 Y81.238 E0.01508
G1 X61.287 Y69.372 E0.41261
G1 X61.658 Y67.376 E0.07059
G1 X62.163 Y66.152 E0.04606
G1 X62.253 Y65.996 E0.00625
G1 X62.299 Y57.995 E0.27822
G1 X63.036 Y55.375 E0.09464
G1 X63.325 Y54.734 E0.02445
G1 X64.332 Y53.386 E0.05853
M107
G1 X64.612 Y53.595 F3600000
M107
G1 F2400
G1 X64.678 Y53.506 E0.00384
G1 X65.979 Y52.361 E0.06028
G1 X67.464 Y51.553 E0.05877
G1 X69.075 Y51.096 E0.05825
G1 X79.782 Y51.078 E0.37231
G1 X81.492 Y51.436 E0.06075
G1 X82.641 Y51.943 E0.04368
G1 X83.69 Y52.636 E0.04371
G1 X84.67 Y53.531 E0.04617
G1 X85.488 Y54.559 E0.04567
G1 X86.193 Y55.923 E0.05339
G1 X86.581 Y57.299 E0.04972
G1 X86.84 Y60.057 E0.09631
G1 X86.8 Y67.571 E0.2613
G1 X88.608 Y67.584 E0.06288
G1 X90.732 Y67.85 E0.07444
G1 X92.263 Y68.293 E0.05543
G1 X94.541 Y69.374 E0.08765
G1 X97.119 Y71.511 E0.11645
G1 X98.711 Y73.708 E0.09435
G1 X99.777 Y76.203 E0.09434
G1 X100.272 Y79.38 E0.11183
G1 X100.035 Y120.396 E1.42626
G1 X103.267 Y120.441 E0.11241
G1 X105.429 Y121.089 E0.07848
G1 X107.04 Y122.118 E0.06649
G1 X108.358 Y123.494 E0.06624
G1 X109.532 Y125.778 E0.08931
G1 X109.869 Y127.632 E0.0655
G1 X109.732 Y151.507 E0.83022
G1 X108.893 Y154.304 E0.10156
G1 X107.734 Y155.963 E0.07037
G1 X106.654 Y156.953 E0.05094
G1 X105.197 Y157.828 E0.0591
G1 X103.089 Y158.428 E0.07622
G1 X98.567 Y158.473 E0.15725
G1 X98.07 Y158.525 E0.01738
G1 X80.697 Y158.425 E0.60412
G1 X80.629 Y158.616 E0.00706
G1 X79.699 Y160.165 E0.06281
G1 X78.354 Y161.517 E0.06632
G1 X76.51 Y162.611 E0.07456
G1 X74.148 Y163.187 E0.08456
G1 X65.898 Y163.09 E0.28687
G1 X63.682 Y162.704 E0.07824
G1 X61.573 Y161.879 E0.07875
G1 X60.173 Y161.058 E0.05643
G1 X58.34 Y159.55 E0.08253
G1 X56.868 Y157.713 E0.08187
G1 X56.069 Y156.312 E0.05607
G1 X55.269 Y154.191 E0.07881
G1 X54.906 Y151.953 E0.07884
G1 X55.246 Y93.071 E2.04754
G1 X55.754 Y90.155 E0.10293
G1 X56.893 Y87.393 E0.10391
G1 X58.916 Y84.604 E0.11981
G1 X61.037 Y82.473 E0.10454
G1 X61.416 Y82.029 E0.02029
G1 X61.519 Y81.768 E0.00975
G1 X61.541 Y81.66 E0.00383
G1 X61.569 Y81.251 E0.01428
G1 X61.635 Y69.39 E0.41246
G1 X61.998 Y67.458 E0.06832
G1 X62.48 Y66.297 E0.04374
G1 X62.601 Y66.093 E0.00825
G1 X62.648 Y58.021 E0.28069
G1 X63.368 Y55.482 E0.09176
G1 X63.615 Y54.927 E0.02113
G1 X64.576 Y53.643 E0.05577
M107
G1 X64.852 Y53.849 F3600000
M107
G1 F2400
G1 X64.922 Y53.755 E0.00406
G1 X66.163 Y52.657 E0.05763
G1 X67.578 Y51.883 E0.05606
G1 X69.147 Y51.438 E0.05673
G1 X79.729 Y51.423 E0.36796
G1 X81.368 Y51.762 E0.05821
G1 X82.487 Y52.256 E0.04252
G1 X83.486 Y52.919 E0.04168
G1 X84.425 Y53.779 E0.04428
G1 X85.204 Y54.762 E0.04363
G1 X85.875 Y56.067 E0.05101
G1 X86.236 Y57.347 E0.04625
G1 X86.492 Y60.08 E0.09546
G1 X86.449 Y67.917 E0.27251
G1 X88.575 Y67.931 E0.07392
G1 X90.649 Y68.188 E0.07267
G1 X92.127 Y68.615 E0.05351
G1 X94.336 Y69.656 E0.0849
G1 X96.85 Y71.733 E0.11342
G1 X98.398 Y73.863 E0.09154
G1 X99.448 Y76.32 E0.09289
G1 X99.924 Y79.392 E0.10812
G1 X99.684 Y120.739 E1.4378
G1 X103.238 Y120.789 E0.12359
