; generated by SuperSlicer 2.5.59.8 on 2024-03-23 at 20:11:59 UTC


;
;

;
;

;
;

;
;

;
;
; 

; external perimeters extrusion width = 0.40mm
; perimeters extrusion width = 0.40mm
; infill extrusion width = 0.40mm
; solid infill extrusion width = 0.40mm
; top infill extrusion width = 0.40mm

; object:{"name":"Microswiss Driect Drive Linear Rail Fang Mount BLtouch alt v6","id":"Microswiss Driect Drive Linear Rail Fang Mount BLtouch alt v6.stl id:0 copy 0","object_center":[65.464683,111.564000,0.000000],"boundingbox_center":[65.464683,111.564000,15.867500],"boundingbox_size":[97.926003,36.681999,31.735001]}
EXCLUDE_OBJECT_DEFINE NAME=Microswiss_Driect_Drive_Linear_Rail_Fang_Mount_BLtouch_alt_v6_stl_id_0_copy_0 CENTER=65.464683,111.564000 POLYGON=[[16.50,116.66],[38.43,103.50],[39.15,103.20],[89.64,93.22],[109.58,93.22],[114.43,121.64],[114.43,126.91],[114.33,127.68],[114.03,128.41],[113.55,129.03],[112.93,129.50],[112.20,129.80],[111.43,129.91],[54.50,129.91],[53.20,129.73],[16.50,122.66],[16.50,116.66]]
; plater:{"center":[65.464683,111.564000,0.000000],"boundingbox_center":[65.464683,111.564000,15.867500],"boundingbox_size":[97.926003,36.681999,31.735001]}

M73 P0 R84
M107
;TYPE:Custom
CALCULATE_PA MATERIAL=ABS BOWDEN_LENGTH=6 LAYER_HEIGHT=0.24 NOZZLE_SIZE=0.4 PRINT_SPEED=95


START_PRINT EXTRUDER=270 BED=100

M107
G21 ; set units to millimeters
G90 ; use absolute coordinates
M83 ; use relative distances for extrusion
ACTIVATE_EXTRUDER EXTRUDER=extruder
; Filament gcode
M104 S270 T0 ; set temperature
M109 S270 T0 ; set temperature and wait for it to be reached
M190 S100 ; set bed temperature and wait for it to be reached
;LAYER_CHANGE
;Z:0.24
;HEIGHT:0.24
;BEFORE_LAYER_CHANGE
G92 E0.0

G1 E-1.5 F3000
M73 P0 R83
G1 Z0.2 F3600000
G1 Z0.24
;AFTER_LAYER_CHANGE
;0.24




CALCULATE_PA MATERIAL=ABS BOWDEN_LENGTH=6.0 LAYER_HEIGHT=0.2 NOZZLE_SIZE=0.4 PRINT_SPEED=95


G92 E0
G1 Z0.44
G1 X37.536 Y98.664
G1 Z0.24
G1 E1.5 F3000
;TYPE:Skirt
;WIDTH:0.4
M107
G1 F2400
G1 X39.751 Y98.292 E0.07808
G1 X84.843 Y98.294 E1.56798
G1 X84.861 Y92.515 E0.20097
G1 X85.051 Y91.65 E0.03078
G1 X85.322 Y90.998 E0.02456
G1 X85.691 Y90.387 E0.02479
G1 X86.503 Y89.515 E0.04144
G1 X87.524 Y88.847 E0.04242
G1 X88.346 Y88.552 E0.03039
G1 X89.197 Y88.418 E0.02996
G1 X110.078 Y88.422 E0.72609
G1 X111.006 Y88.589 E0.03276
G1 X111.902 Y88.954 E0.03364
G1 X112.618 Y89.435 E0.03
G1 X113.253 Y90.044 E0.03062
G1 X113.949 Y91.098 E0.0439
G1 X114.215 Y91.808 E0.02637
G1 X114.364 Y92.58 E0.02734
G1 X114.381 Y97.063 E0.15589
G1 X114.434 Y97.426 E0.01278
G1 X114.434 Y116.842 E0.67515
G1 X114.949 Y116.846 E0.01789
G1 X115.767 Y116.984 E0.02884
G1 X116.594 Y117.295 E0.03072
G1 X117.365 Y117.77 E0.0315
G1 X118.163 Y118.538 E0.03851
G1 X118.712 Y119.348 E0.03403
G1 X119.066 Y120.228 E0.03299
G1 X119.232 Y121.196 E0.03415
G1 X119.232 Y127.082 E0.20467
G1 X118.86 Y129.298 E0.07812
G1 X118.102 Y130.953 E0.06331
G1 X116.961 Y132.41 E0.06434
G1 X115.51 Y133.558 E0.06435
G1 X113.819 Y134.338 E0.06474
G1 X111.604 Y134.71 E0.07811
G1 X53.972 Y134.684 E2.00403
G1 X51.746 Y134.317 E0.07845
G1 X49.671 Y133.44 E0.07835
G1 X47.687 Y131.958 E0.08611
G1 X45.771 Y130.043 E0.09419
G1 X45.141 Y129.49 E0.02916
G1 X44.575 Y129.112 E0.02366
G1 X43.969 Y128.812 E0.02353
G1 X43.329 Y128.595 E0.02349
G1 X42.662 Y128.463 E0.02365
G1 X41.828 Y128.408 E0.02906
G1 X31.185 Y128.41 E0.37008
G1 X30.322 Y128.273 E0.03038
G1 X29.48 Y127.962 E0.03122
G1 X28.675 Y127.461 E0.03297
G1 X19.645 Y127.428 E0.314
G1 X18.972 Y127.278 E0.02396
G1 X18.31 Y127.023 E0.02468
G1 X17.396 Y126.438 E0.03774
G1 X16.434 Y125.409 E0.04897
G1 X16.127 Y124.881 E0.02126
G1 X15.879 Y124.302 E0.0219
G1 X15.643 Y123.114 E0.04212
G1 X15.674 Y115.902 E0.25077
G1 X15.992 Y114.754 E0.04142
G1 X16.627 Y113.659 E0.04402
G1 X17.372 Y112.902 E0.03694
G1 X18.276 Y112.322 E0.03737
G1 X19.533 Y111.918 E0.0459
G1 X20.545 Y111.832 E0.03533
G1 X32.123 Y111.831 E0.4026
G1 X32.123 Y105.921 E0.20552
G1 X32.495 Y103.705 E0.07812
G1 X33.253 Y102.05 E0.06331
G1 X34.394 Y100.592 E0.0644
G1 X35.846 Y99.443 E0.06438
G1 X37.482 Y98.689 E0.06263
M107
G1 X37.627 Y99.006 F3600000
M107
G1 F2400
G1 X37.661 Y98.99 E0.00128
G1 X39.765 Y98.641 E0.07419
G1 X85.19 Y98.643 E1.57957
G1 X85.21 Y92.535 E0.21239
G1 X85.388 Y91.741 E0.02828
G1 X85.638 Y91.144 E0.02253
G1 X85.959 Y90.611 E0.02163
G1 X86.713 Y89.795 E0.03864
G1 X87.662 Y89.168 E0.03955
G1 X88.418 Y88.894 E0.02796
G1 X89.211 Y88.767 E0.02794
G1 X110.063 Y88.77 E0.72506
G1 X110.925 Y88.928 E0.03048
G1 X111.753 Y89.269 E0.03112
G1 X112.41 Y89.715 E0.02761
G1 X112.997 Y90.282 E0.02839
G1 X113.629 Y91.238 E0.03987
G1 X113.883 Y91.916 E0.02516
G1 X114.019 Y92.629 E0.02523
G1 X114.033 Y97.089 E0.15512
G1 X114.086 Y97.439 E0.01231
G1 X114.086 Y117.189 E0.68676
G1 X114.906 Y117.192 E0.02853
G1 X115.661 Y117.316 E0.0266
G1 X116.426 Y117.601 E0.0284
G1 X117.137 Y118.034 E0.02894
G1 X117.908 Y118.776 E0.0372
G1 X118.412 Y119.527 E0.03145
G1 X118.735 Y120.34 E0.03042
G1 X118.884 Y121.211 E0.03072
G1 X118.884 Y127.068 E0.20366
G1 X118.534 Y129.174 E0.07423
G1 X117.794 Y130.789 E0.06179
G1 X116.7 Y132.178 E0.06147
G1 X115.311 Y133.271 E0.06148
G1 X113.695 Y134.011 E0.06179
G1 X111.59 Y134.361 E0.07422
G1 X54.014 Y134.338 E2.00208
G1 X51.863 Y133.988 E0.0758
G1 X49.826 Y133.127 E0.07689
G1 X47.925 Y131.702 E0.08262
G1 X46.009 Y129.789 E0.09415
G1 X45.353 Y129.213 E0.03035
G1 X44.75 Y128.81 E0.02524
G1 X44.102 Y128.489 E0.02512
G1 X43.419 Y128.258 E0.02509
G1 X42.707 Y128.116 E0.02523
G1 X41.839 Y128.059 E0.03025
G1 X31.199 Y128.061 E0.37
G1 X30.395 Y127.931 E0.02833
G1 X29.617 Y127.642 E0.02885
G1 X28.912 Y127.205 E0.02886
G1 X28.806 Y127.113 E0.00486
G1 X19.702 Y127.084 E0.31658
G1 X19.061 Y126.941 E0.02285
G1 X18.452 Y126.705 E0.02271
G1 X17.635 Y126.184 E0.0337
G1 X16.726 Y125.217 E0.04615
G1 X16.434 Y124.715 E0.02019
G1 X16.207 Y124.182 E0.02015
G1 X15.992 Y123.098 E0.03843
G1 X16.023 Y115.927 E0.24935
G1 X16.306 Y114.909 E0.03675
G1 X16.891 Y113.887 E0.04094
G1 X17.606 Y113.16 E0.03547
G1 X18.444 Y112.628 E0.03452
G1 X19.582 Y112.264 E0.04155
G1 X20.553 Y112.18 E0.03387
G1 X32.471 Y112.18 E0.41446
G1 X32.471 Y105.935 E0.21714
G1 X32.821 Y103.83 E0.07423
G1 X33.561 Y102.214 E0.06178
G1 X34.655 Y100.824 E0.06153
G1 X36.046 Y99.73 E0.06151
G1 X37.572 Y99.031 E0.05839
M107
G1 X37.717 Y99.348 F3600000
M107
G1 F2400
G1 X37.784 Y99.317 E0.00257
G1 X39.779 Y98.989 E0.07032
G1 X85.538 Y98.991 E1.59115
G1 X85.558 Y92.555 E0.22379
G1 X85.724 Y91.834 E0.02574
G1 X85.944 Y91.311 E0.01972
G1 X86.228 Y90.833 E0.01935
G1 X86.924 Y90.073 E0.03582
G1 X87.8 Y89.488 E0.03665
G1 X88.521 Y89.227 E0.02665
G1 X89.225 Y89.115 E0.02479
G1 X110.046 Y89.119 E0.72403
G1 X110.843 Y89.268 E0.02817
G1 X111.602 Y89.584 E0.0286
G1 X112.2 Y89.994 E0.02522
G1 X112.741 Y90.519 E0.02619
G1 X113.31 Y91.379 E0.03587
G1 X113.552 Y92.024 E0.02395
G1 X113.673 Y92.677 E0.02309
G1 X113.684 Y97.117 E0.15441
G1 X113.737 Y97.453 E0.01182
G1 X113.737 Y117.537 E0.69839
G1 X114.865 Y117.539 E0.03921
G1 X115.557 Y117.649 E0.02436
G1 X116.261 Y117.908 E0.02609
G1 X116.91 Y118.299 E0.02634
G1 X117.653 Y119.014 E0.03586
G1 X118.112 Y119.704 E0.02882
G1 X118.404 Y120.45 E0.02787
G1 X118.535 Y121.225 E0.02734
G1 X118.535 Y127.054 E0.20266
G1 X118.207 Y129.05 E0.07036
G1 X117.506 Y130.591 E0.05884
G1 X116.468 Y131.917 E0.05857
G1 X115.112 Y132.985 E0.06003
G1 X113.572 Y133.685 E0.05881
G1 X111.576 Y134.013 E0.07035
G1 X54.056 Y133.991 E2.00012
G1 X51.939 Y133.647 E0.07458
G1 X49.982 Y132.815 E0.07397
G1 X48.162 Y131.447 E0.07914
G1 X46.248 Y129.534 E0.09412
G1 X45.566 Y128.936 E0.03153
G1 X44.925 Y128.507 E0.02682
G1 X44.236 Y128.167 E0.02672
G1 X43.509 Y127.921 E0.02668
G1 X42.753 Y127.77 E0.02682
G1 X41.851 Y127.711 E0.03144
G1 X31.213 Y127.713 E0.3699
G1 X30.468 Y127.59 E0.02625
G1 X29.756 Y127.322 E0.02646
G1 X29.11 Y126.918 E0.02652
G1 X28.942 Y126.765 E0.00789
G1 X19.759 Y126.739 E0.31933
G1 X19.174 Y126.611 E0.0208
G1 X18.595 Y126.386 E0.02163
G1 X17.841 Y125.902 E0.03114
G1 X17.017 Y125.025 E0.04186
G1 X16.741 Y124.55 E0.01911
G1 X16.535 Y124.063 E0.01838
G1 X16.34 Y123.082 E0.03477
G1 X16.371 Y115.952 E0.24793
G1 X16.619 Y115.062 E0.03213
G1 X17.156 Y114.114 E0.03787
G1 X17.81 Y113.443 E0.03258
G1 X18.612 Y112.934 E0.03304
G1 X19.631 Y112.609 E0.03721
G1 X20.56 Y112.529 E0.03241
G1 X32.82 Y112.528 E0.42631
G1 X32.82 Y105.95 E0.22876
G1 X33.148 Y103.953 E0.07037
G1 X33.848 Y102.413 E0.05881
G1 X34.916 Y101.056 E0.06007
G1 X36.244 Y100.017 E0.05861
G1 X37.662 Y99.373 E0.05416
M107
G1 X37.805 Y99.69 F3600000
M107
G1 F2400
G1 X37.906 Y99.644 E0.00386
G1 X39.793 Y99.338 E0.06649
G1 X85.885 Y99.34 E1.60274
G1 X85.907 Y92.577 E0.23517
G1 X86.06 Y91.929 E0.02315
G1 X86.251 Y91.477 E0.01703
G1 X86.498 Y91.053 E0.01708
G1 X87.136 Y90.35 E0.033
G1 X87.94 Y89.808 E0.03373
G1 X88.593 Y89.568 E0.02418
G1 X89.239 Y89.464 E0.02275
G1 X110.03 Y89.467 E0.72297
G1 X110.759 Y89.607 E0.02582
G1 X111.45 Y89.898 E0.02606
G1 X111.99 Y90.272 E0.02284
G1 X112.484 Y90.755 E0.02402
G1 X112.991 Y91.521 E0.03194
G1 X113.212 Y92.103 E0.02165
G1 X113.328 Y92.725 E0.022
G1 X113.336 Y97.146 E0.15374
G1 X113.389 Y97.467 E0.01132
G1 X113.389 Y117.886 E0.71
G1 X114.851 Y117.887 E0.05083
G1 X115.484 Y117.99 E0.02231
G1 X116.123 Y118.229 E0.02374
G1 X116.712 Y118.587 E0.02395
G1 X117.397 Y119.251 E0.03317
G1 X117.811 Y119.881 E0.02621
G1 X118.064 Y120.527 E0.02414
G1 X118.187 Y121.24 E0.02517
G1 X118.187 Y127.039 E0.20165
G1 X117.88 Y128.928 E0.06652
G1 X117.219 Y130.392 E0.05587
G1 X116.207 Y131.686 E0.05711
G1 X114.914 Y132.697 E0.0571
G1 X113.45 Y133.357 E0.05584
G1 X111.562 Y133.664 E0.06651
G1 X54.098 Y133.645 E1.9982
G1 X52.056 Y133.318 E0.0719
G1 X50.138 Y132.503 E0.07249
G1 X48.4 Y131.192 E0.07567
G1 X46.486 Y129.28 E0.09409
G1 X45.779 Y128.659 E0.03272
G1 X45.1 Y128.205 E0.02841
G1 X44.37 Y127.844 E0.02831
G1 X43.6 Y127.583 E0.02828
G1 X42.799 Y127.424 E0.0284
G1 X41.862 Y127.362 E0.03263
G1 X31.228 Y127.364 E0.3698
G1 X30.543 Y127.249 E0.02414
G1 X29.897 Y127.002 E0.02405
G1 X29.31 Y126.632 E0.02414
G1 X29.08 Y126.417 E0.01094
G1 X19.815 Y126.395 E0.32218
G1 X19.262 Y126.274 E0.01967
G1 X18.738 Y126.068 E0.0196
G1 X18.08 Y125.647 E0.02716
G1 X17.308 Y124.832 E0.03904
G1 X17.057 Y124.404 E0.01725
G1 X16.863 Y123.943 E0.01737
G1 X16.689 Y123.066 E0.03111
G1 X16.72 Y115.977 E0.24651
G1 X16.934 Y115.214 E0.02755
G1 X17.421 Y114.341 E0.03477
G1 X18.045 Y113.701 E0.03107
G1 X18.779 Y113.241 E0.03012
G1 X19.681 Y112.955 E0.03291
G1 X20.568 Y112.877 E0.03096
G1 X33.168 Y112.877 E0.43817
G1 X33.168 Y105.964 E0.24039
G1 X33.475 Y104.075 E0.06653
G1 X34.135 Y102.611 E0.05584
G1 X35.148 Y101.317 E0.05714
G1 X36.442 Y100.305 E0.05715
G1 X37.75 Y99.715 E0.0499
M107
G1 X37.894 Y100.032 F3600000
M107
G1 F2400
G1 X38.028 Y99.972 E0.00514
G1 X39.807 Y99.686 E0.06265
G1 X86.233 Y99.688 E1.61435
G1 X86.251 Y92.636 E0.24521
G1 X86.387 Y92.05 E0.02094
G1 X86.557 Y91.643 E0.01532
G1 X86.79 Y91.245 E0.01603
G1 X87.379 Y90.6 E0.03037
G1 X88.081 Y90.128 E0.02944
G1 X88.667 Y89.909 E0.02172
G1 X89.253 Y89.812 E0.02067
G1 X110.013 Y89.816 E0.72188
M73 P1 R83
G1 X110.674 Y89.945 E0.02343
G1 X111.296 Y90.211 E0.02352
G1 X111.778 Y90.549 E0.02046
G1 X112.226 Y90.991 E0.02188
G1 X112.672 Y91.663 E0.02804
G1 X112.88 Y92.212 E0.02042
G1 X112.982 Y92.772 E0.01979
G1 X112.987 Y97.176 E0.15316
G1 X113.04 Y97.482 E0.0108
G1 X113.04 Y118.234 E0.72159
G1 X114.836 Y118.236 E0.06243
G1 X115.41 Y118.331 E0.02023
G1 X115.985 Y118.549 E0.02138
G1 X116.513 Y118.873 E0.02156
G1 X117.139 Y119.486 E0.03048
G1 X117.508 Y120.055 E0.02358
G1 X117.732 Y120.636 E0.02166
G1 X117.838 Y121.255 E0.02183
G1 X117.838 Y127.026 E0.20066
G1 X117.553 Y128.805 E0.06268
G1 X116.91 Y130.23 E0.05433
G1 X115.946 Y131.453 E0.05417
G1 X114.716 Y132.409 E0.05417
G1 X113.328 Y133.03 E0.05288
G1 X111.548 Y133.316 E0.0627
G1 X54.139 Y133.299 E1.99628
G1 X52.132 Y132.978 E0.07067
G1 X50.294 Y132.191 E0.06952
G1 X48.638 Y130.937 E0.07222
G1 X46.724 Y129.025 E0.09407
G1 X45.991 Y128.382 E0.0339
G1 X45.274 Y127.903 E0.02999
G1 X44.504 Y127.522 E0.0299
G1 X43.69 Y127.246 E0.02987
G1 X42.844 Y127.078 E0.02998
G1 X41.874 Y127.014 E0.03382
G1 X31.242 Y127.016 E0.36968
G1 X30.619 Y126.909 E0.02199
G1 X30.039 Y126.684 E0.02164
G1 X29.512 Y126.347 E0.02175
G1 X29.221 Y126.068 E0.01402
G1 X19.87 Y126.05 E0.32514
G1 X19.377 Y125.944 E0.01756
G1 X18.881 Y125.75 E0.01851
G1 X18.286 Y125.366 E0.02462
G1 X17.598 Y124.639 E0.0348
G1 X17.364 Y124.238 E0.01615
G1 X17.191 Y123.825 E0.01556
G1 X17.037 Y123.05 E0.02747
G1 X17.068 Y116.002 E0.24507
G1 X17.248 Y115.365 E0.02303
G1 X17.688 Y114.566 E0.0317
G1 X18.248 Y113.985 E0.02806
G1 X18.945 Y113.548 E0.02861
G1 X19.73 Y113.3 E0.02863
G1 X20.575 Y113.226 E0.0295
G1 X33.195 Y113.225 E0.43883
G1 X33.517 Y113.284 E0.01137
G1 X33.517 Y105.977 E0.25408
G1 X33.803 Y104.197 E0.06272
G1 X34.423 Y102.809 E0.05287
G1 X35.38 Y101.578 E0.05421
G1 X36.605 Y100.614 E0.05421
G1 X37.839 Y100.057 E0.04708
M107
G1 X37.981 Y100.375 F3600000
M107
G1 F2400
G1 X38.15 Y100.299 E0.00643
G1 X39.821 Y100.035 E0.05884
G1 X86.58 Y100.037 E1.62597
G1 X86.595 Y92.695 E0.25529
G1 X86.714 Y92.171 E0.0187
G1 X86.874 Y91.789 E0.01439
G1 X87.081 Y91.438 E0.01416
G1 X87.622 Y90.852 E0.02773
G1 X88.223 Y90.446 E0.02524
G1 X88.742 Y90.25 E0.01926
G1 X89.268 Y90.161 E0.01856
G1 X109.996 Y90.164 E0.72077
G1 X110.588 Y90.283 E0.02099
G1 X111.141 Y90.524 E0.02097
G1 X111.565 Y90.825 E0.01808
G1 X111.968 Y91.225 E0.01978
G1 X112.354 Y91.806 E0.02422
G1 X112.54 Y92.29 E0.01805
G1 X112.636 Y92.819 E0.01868
G1 X112.639 Y97.208 E0.15263
G1 X112.692 Y97.498 E0.01025
G1 X112.692 Y118.582 E0.73314
G1 X114.821 Y118.584 E0.07403
G1 X115.334 Y118.672 E0.0181
G1 X115.844 Y118.868 E0.01901
G1 X116.312 Y119.159 E0.01917
G1 X116.88 Y119.721 E0.02778
G1 X117.205 Y120.228 E0.02094
G1 X117.401 Y120.744 E0.01919
G1 X117.49 Y121.27 E0.01855
G1 X117.49 Y127.012 E0.19967
G1 X117.225 Y128.684 E0.05887
G1 X116.623 Y130.032 E0.05133
G1 X115.715 Y131.192 E0.05123
G1 X114.555 Y132.1 E0.05123
G1 X113.207 Y132.703 E0.05134
G1 X111.534 Y132.967 E0.05888
G1 X54.18 Y132.952 E1.99439
G1 X52.25 Y132.649 E0.06795
G1 X50.451 Y131.879 E0.06803
G1 X48.876 Y130.682 E0.06878
G1 X46.963 Y128.771 E0.09406
G1 X46.204 Y128.105 E0.03509
G1 X45.449 Y127.6 E0.03157
G1 X44.637 Y127.199 E0.0315
G1 X43.78 Y126.908 E0.03147
G1 X42.89 Y126.731 E0.03157
G1 X41.885 Y126.665 E0.03501
G1 X31.257 Y126.667 E0.36957
G1 X30.729 Y126.578 E0.01863
G1 X30.182 Y126.365 E0.02041
G1 X29.715 Y126.064 E0.0193
G1 X29.363 Y125.72 E0.01713
G1 X19.926 Y125.706 E0.32815
G1 X19.464 Y125.607 E0.01642
G1 X19.026 Y125.432 E0.01639
G1 X18.494 Y125.085 E0.0221
G1 X17.889 Y124.445 E0.03063
G1 X17.681 Y124.092 E0.01424
G1 X17.519 Y123.706 E0.01454
G1 X17.386 Y123.034 E0.02383
G1 X17.416 Y116.028 E0.24363
G1 X17.564 Y115.514 E0.01857
G1 X17.957 Y114.79 E0.02865
G1 X18.454 Y114.268 E0.02507
G1 X19.073 Y113.873 E0.02554
G1 X19.78 Y113.646 E0.02583
G1 X20.598 Y113.574 E0.02856
G1 X33.179 Y113.574 E0.43745
G1 X33.484 Y113.633 E0.01082
G1 X33.836 Y113.633 E0.01224
G1 X33.865 Y113.41 E0.00781
G1 X33.865 Y105.991 E0.25798
G1 X34.13 Y104.318 E0.05891
G1 X34.733 Y102.97 E0.05133
G1 X35.641 Y101.809 E0.05126
G1 X36.803 Y100.901 E0.05126
G1 X37.926 Y100.399 E0.04279
M107
G1 X38.067 Y100.717 F3600000
M107
G1 F2400
G1 X38.27 Y100.627 E0.00772
G1 X39.834 Y100.383 E0.05506
G1 X86.928 Y100.385 E1.6376
G1 X86.939 Y92.752 E0.26542
G1 X87.042 Y92.29 E0.01647
G1 X87.181 Y91.955 E0.0126
G1 X87.372 Y91.631 E0.01308
G1 X87.863 Y91.104 E0.02507
G1 X88.367 Y90.764 E0.02113
G1 X88.818 Y90.59 E0.01682
G1 X89.283 Y90.509 E0.0164
G1 X109.978 Y90.513 E0.71965
G1 X110.466 Y90.61 E0.01728
G1 X110.984 Y90.836 E0.01967
G1 X111.349 Y91.099 E0.01565
G1 X111.71 Y91.46 E0.01773
G1 X112.035 Y91.949 E0.02044
G1 X112.209 Y92.4 E0.01679
G1 X112.29 Y92.864 E0.01639
G1 X112.29 Y97.242 E0.15222
G1 X112.343 Y97.515 E0.00968
G1 X112.343 Y118.93 E0.74468
G1 X114.778 Y118.93 E0.08467
G1 X115.227 Y119.004 E0.01579
G1 X115.676 Y119.174 E0.01672
G1 X116.083 Y119.422 E0.01656
