; generated by SuperSlicer 2.5.59.8 on 2024-03-21 at 22:48:05 UTC


;
;

;
;

;
;

;
;

;
;
; 

; external perimeters extrusion width = 0.40mm
; perimeters extrusion width = 0.40mm
; infill extrusion width = 0.40mm
; solid infill extrusion width = 0.40mm
; top infill extrusion width = 0.40mm

; object:{"name":"Microswiss Driect Drive Linear Rail Fang Mount BLtouch alt v6","id":"Microswiss Driect Drive Linear Rail Fang Mount BLtouch alt v6.stl id:0 copy 0","object_center":[59.764540,100.755607,0.000000],"boundingbox_center":[59.764540,100.755607,15.867500],"boundingbox_size":[36.806579,97.930212,31.735001]}
EXCLUDE_OBJECT_DEFINE NAME=Microswiss_Driect_Drive_Linear_Rail_Fang_Mount_BLtouch_alt_v6_stl_id_0_copy_0 CENTER=59.764540,100.755607 POLYGON=[[41.36,146.67],[41.63,100.37],[41.69,89.75],[41.87,88.45],[49.15,51.79],[55.16,51.82],[68.19,73.83],[68.48,74.55],[78.17,125.10],[78.05,145.03],[49.60,149.72],[44.34,149.69],[43.57,149.58],[42.85,149.28],[42.23,148.80],[41.75,148.18],[41.46,147.45],[41.36,146.67]]
; plater:{"center":[59.764540,100.755607,0.000000],"boundingbox_center":[59.764540,100.755607,15.867500],"boundingbox_size":[36.806579,97.930212,31.735001]}

M73 P0 R87
M107
;TYPE:Custom
CALCULATE_PA MATERIAL=ABS BOWDEN_LENGTH=6 LAYER_HEIGHT=0.24 NOZZLE_SIZE=0.4 PRINT_SPEED=95


START_PRINT EXTRUDER=270 BED=100

M107
G21 ; set units to millimeters
G90 ; use absolute coordinates
M83 ; use relative distances for extrusion
ACTIVATE_EXTRUDER EXTRUDER=extruder
; Filament gcode
M104 S270 T0 ; set temperature
M109 S270 T0 ; set temperature and wait for it to be reached
M190 S100 ; set bed temperature and wait for it to be reached
;LAYER_CHANGE
;Z:0.24
;HEIGHT:0.24
;BEFORE_LAYER_CHANGE
G92 E0.0

G1 E-1.5 F3000
M73 P0 R86
G1 Z0.2 F3600000
G1 Z0.24
;AFTER_LAYER_CHANGE
;0.24




CALCULATE_PA MATERIAL=ABS BOWDEN_LENGTH=6.0 LAYER_HEIGHT=0.2 NOZZLE_SIZE=0.4 PRINT_SPEED=95


G92 E0
G1 Z0.44
G1 X43.161 Y48.044
G1 Z0.24
G1 E1.5 F3000
;TYPE:Skirt
;WIDTH:0.4
M107
G1 F2400
G1 X44.54 Y47.148 E0.0572
G1 X46.053 Y46.506 E0.05713
G1 X47.942 Y46.101 E0.06719
G1 X55.998 Y46.103 E0.28013
G1 X58.572 Y46.673 E0.09167
G1 X60.899 Y47.933 E0.09202
G1 X62.934 Y49.946 E0.09953
G1 X63.976 Y51.738 E0.07209
G1 X64.607 Y53.643 E0.0698
G1 X64.829 Y55.633 E0.0696
G1 X64.796 Y62.635 E0.24351
G1 X66.332 Y62.657 E0.05344
G1 X69.265 Y63.172 E0.10355
G1 X72.221 Y64.503 E0.11271
G1 X74.856 Y66.657 E0.11837
G1 X76.513 Y68.879 E0.09636
G1 X77.657 Y71.418 E0.09683
G1 X78.265 Y75.014 E0.12685
G1 X78.031 Y115.446 E1.40594
G1 X79.415 Y115.47 E0.04814
G1 X81.18 Y115.847 E0.06276
G1 X82.708 Y116.483 E0.05754
G1 X84.107 Y117.379 E0.05778
G1 X85.764 Y119.007 E0.08076
G1 X86.996 Y120.982 E0.08095
G1 X87.591 Y122.693 E0.06297
G1 X87.855 Y124.537 E0.06479
G1 X87.666 Y146.427 E0.76121
G1 X87.311 Y148.023 E0.05685
G1 X86.702 Y149.52 E0.05619
G1 X85.31 Y151.528 E0.08498
G1 X84.108 Y152.659 E0.05736
G1 X82.721 Y153.584 E0.05798
G1 X80.612 Y154.417 E0.07886
G1 X78.749 Y154.712 E0.0656
G1 X74.461 Y154.695 E0.14909
G1 X73.943 Y154.746 E0.01809
G1 X58 Y154.655 E0.55442
G1 X57.959 Y154.732 E0.00304
G1 X57.008 Y156.045 E0.05636
G1 X55.585 Y157.408 E0.06853
G1 X53.917 Y158.453 E0.06845
G1 X52.161 Y159.105 E0.06512
G1 X50.165 Y159.409 E0.07023
G1 X43.139 Y159.305 E0.24435
G1 X40.974 Y158.915 E0.07648
G1 X38.927 Y158.143 E0.0761
G1 X37.016 Y157.02 E0.07705
G1 X35.288 Y155.555 E0.0788
G1 X33.899 Y153.849 E0.07648
G1 X32.831 Y151.955 E0.0756
G1 X32.075 Y149.846 E0.07792
G1 X31.723 Y147.649 E0.07738
G1 X32.074 Y88.526 E2.0559
G1 X32.627 Y85.538 E0.10567
G1 X33.802 Y82.726 E0.10598
G1 X35.897 Y79.833 E0.1242
G1 X38.051 Y77.666 E0.10625
G1 X38.296 Y77.39 E0.01283
G1 X38.344 Y77.287 E0.00396
G1 X38.38 Y76.892 E0.01379
G1 X38.44 Y66.204 E0.37164
G1 X38.812 Y64.081 E0.07495
G1 X39.331 Y62.721 E0.05063
G1 X39.406 Y62.58 E0.00556
G1 X39.461 Y54.931 E0.26599
G1 X39.795 Y53.004 E0.068
G1 X40.539 Y51.15 E0.06946
G1 X41.684 Y49.464 E0.07088
G1 X43.118 Y48.086 E0.06915
M107
G1 X43.359 Y48.337 F3600000
M107
G1 F2400
G1 X43.39 Y48.307 E0.00151
G1 X44.717 Y47.448 E0.05495
G1 X46.173 Y46.833 E0.05497
G1 X47.96 Y46.449 E0.06356
G1 X55.979 Y46.452 E0.27882
G1 X58.472 Y47.008 E0.08884
G1 X60.711 Y48.227 E0.08863
G1 X62.672 Y50.176 E0.09616
G1 X63.665 Y51.897 E0.06907
G1 X64.27 Y53.735 E0.0673
G1 X64.482 Y55.661 E0.06736
G1 X64.446 Y62.979 E0.25449
G1 X66.286 Y63.003 E0.064
G1 X69.183 Y63.512 E0.1023
G1 X72.018 Y64.788 E0.1081
G1 X74.59 Y66.883 E0.11535
G1 X76.222 Y69.072 E0.09495
G1 X77.33 Y71.54 E0.09407
G1 X77.917 Y75.027 E0.12297
G1 X77.681 Y115.789 E1.41742
G1 X79.36 Y115.815 E0.05839
G1 X81.062 Y116.175 E0.0605
G1 X82.533 Y116.784 E0.05537
G1 X83.904 Y117.663 E0.05662
G1 X85.479 Y119.209 E0.07675
G1 X86.69 Y121.15 E0.07955
G1 X87.256 Y122.79 E0.06035
G1 X87.507 Y124.547 E0.0617
G1 X87.321 Y146.37 E0.75887
G1 X86.983 Y147.906 E0.05468
G1 X86.387 Y149.371 E0.05501
G1 X85.058 Y151.287 E0.08109
G1 X83.88 Y152.395 E0.05622
G1 X82.544 Y153.284 E0.05581
G1 X80.502 Y154.086 E0.07627
G1 X78.736 Y154.364 E0.06217
G1 X74.445 Y154.347 E0.14923
G1 X73.936 Y154.398 E0.01776
G1 X57.784 Y154.305 E0.56166
G1 X57.668 Y154.54 E0.00911
G1 X56.755 Y155.804 E0.05423
G1 X55.385 Y157.122 E0.06611
G1 X53.747 Y158.148 E0.0672
G1 X52.057 Y158.772 E0.06264
G1 X50.156 Y159.061 E0.06689
G1 X43.186 Y158.96 E0.24237
G1 X41.082 Y158.583 E0.07432
G1 X39.064 Y157.822 E0.07502
G1 X37.206 Y156.727 E0.07497
G1 X35.526 Y155.299 E0.07668
G1 X34.179 Y153.641 E0.07429
G1 X33.154 Y151.823 E0.07255
G1 X32.416 Y149.775 E0.07572
G1 X32.069 Y147.608 E0.07632
G1 X32.42 Y88.574 E2.0528
G1 X32.966 Y85.62 E0.10449
G1 X34.116 Y82.879 E0.10333
G1 X36.171 Y80.049 E0.12163
G1 X38.305 Y77.905 E0.10519
G1 X38.572 Y77.604 E0.01397
G1 X38.615 Y77.54 E0.00269
G1 X38.686 Y77.373 E0.00633
G1 X38.729 Y76.909 E0.0162
G1 X38.788 Y66.221 E0.37165
G1 X39.152 Y64.158 E0.07283
G1 X39.652 Y62.857 E0.04848
G1 X39.754 Y62.67 E0.0074
G1 X39.807 Y54.976 E0.26757
G1 X40.126 Y53.116 E0.0656
G1 X40.838 Y51.33 E0.06686
G1 X41.962 Y49.675 E0.06959
G1 X43.315 Y48.379 E0.06515
M107
G1 X43.556 Y48.63 F3600000
M107
G1 F2400
G1 X43.619 Y48.57 E0.00302
G1 X44.893 Y47.75 E0.05269
G1 X46.293 Y47.161 E0.05283
G1 X47.979 Y46.798 E0.05995
G1 X55.96 Y46.8 E0.27752
G1 X58.327 Y47.325 E0.08433
G1 X60.522 Y48.521 E0.08691
G1 X62.409 Y50.407 E0.09277
G1 X63.353 Y52.055 E0.06605
G1 X63.933 Y53.826 E0.06482
G1 X64.134 Y55.688 E0.06512
G1 X64.095 Y63.324 E0.26551
G1 X66.24 Y63.349 E0.07457
G1 X69.102 Y63.851 E0.10105
G1 X71.816 Y65.073 E0.1035
G1 X74.324 Y67.109 E0.11233
G1 X75.912 Y69.232 E0.0922
G1 X77.003 Y71.662 E0.09263
G1 X77.568 Y75.04 E0.1191
G1 X77.33 Y116.133 E1.42893
G1 X79.304 Y116.159 E0.06864
G1 X80.974 Y116.513 E0.05935
G1 X82.385 Y117.1 E0.05315
G1 X83.7 Y117.946 E0.0544
G1 X85.194 Y119.411 E0.07275
G1 X86.384 Y121.317 E0.07814
G1 X86.921 Y122.888 E0.05771
G1 X87.158 Y124.557 E0.05864
G1 X86.977 Y146.313 E0.75653
G1 X86.646 Y147.816 E0.05353
G1 X86.071 Y149.221 E0.0528
G1 X84.805 Y151.046 E0.07723
G1 X83.675 Y152.113 E0.05405
G1 X82.367 Y152.983 E0.05464
G1 X80.393 Y153.754 E0.07367
G1 X78.724 Y154.015 E0.05876
G1 X74.428 Y153.998 E0.14939
G1 X73.929 Y154.049 E0.01743
G1 X57.566 Y153.955 E0.56899
G1 X57.376 Y154.348 E0.01517
G1 X56.482 Y155.588 E0.05315
G1 X55.157 Y156.858 E0.06384
G1 X53.578 Y157.842 E0.0647
G1 X51.954 Y158.439 E0.06016
G1 X50.146 Y158.712 E0.06357
G1 X43.234 Y158.614 E0.24039
G1 X41.16 Y158.243 E0.07327
G1 X39.201 Y157.501 E0.07283
G1 X37.42 Y156.452 E0.07188
G1 X35.786 Y155.067 E0.07449
G1 X34.475 Y153.457 E0.0722
G1 X33.477 Y151.691 E0.07051
G1 X32.75 Y149.672 E0.07464
G1 X32.415 Y147.567 E0.07411
G1 X32.765 Y88.622 E2.04972
G1 X33.295 Y85.737 E0.102
G1 X34.429 Y83.033 E0.10198
G1 X36.444 Y80.265 E0.11906
G1 X38.559 Y78.144 E0.10414
G1 X38.847 Y77.819 E0.01512
G1 X38.923 Y77.707 E0.00467
G1 X39.02 Y77.476 E0.00872
G1 X39.047 Y77.345 E0.00465
G1 X39.077 Y76.922 E0.01475
G1 X39.137 Y66.238 E0.37154
G1 X39.492 Y64.236 E0.0707
G1 X39.972 Y62.994 E0.04631
G1 X40.102 Y62.762 E0.00923
G1 X40.153 Y55.02 E0.26922
G1 X40.456 Y53.228 E0.06321
G1 X41.137 Y51.51 E0.06426
G1 X42.217 Y49.914 E0.067
G1 X43.513 Y48.672 E0.06242
M107
G1 X43.753 Y48.924 F3600000
M107
G1 F2400
G1 X43.848 Y48.834 E0.00452
G1 X45.068 Y48.051 E0.05043
G1 X46.413 Y47.488 E0.05069
G1 X47.997 Y47.146 E0.05635
G1 X55.94 Y47.149 E0.27621
G1 X58.227 Y47.66 E0.08148
G1 X60.333 Y48.815 E0.0835
G1 X62.146 Y50.636 E0.08937
G1 X63.042 Y52.212 E0.06303
G1 X63.589 Y53.882 E0.06111
G1 X63.786 Y55.716 E0.06415
G1 X63.745 Y63.669 E0.27654
G1 X66.193 Y63.694 E0.08514
G1 X69.02 Y64.191 E0.0998
G1 X71.614 Y65.358 E0.09891
G1 X74.058 Y67.335 E0.1093
G1 X75.621 Y69.425 E0.09078
G1 X76.675 Y71.784 E0.08984
G1 X77.22 Y75.053 E0.11524
G1 X76.98 Y116.477 E1.44044
G1 X79.282 Y116.507 E0.08007
G1 X80.885 Y116.85 E0.05699
G1 X82.236 Y117.416 E0.05093
G1 X83.497 Y118.23 E0.05218
G1 X84.91 Y119.613 E0.06877
G1 X86.078 Y121.485 E0.07671
G1 X86.586 Y122.984 E0.05505
G1 X86.809 Y124.567 E0.0556
G1 X86.629 Y146.291 E0.75543
G1 X86.309 Y147.726 E0.0511
G1 X85.756 Y149.071 E0.05059
G1 X84.553 Y150.805 E0.07338
G1 X83.447 Y151.849 E0.0529
G1 X82.19 Y152.682 E0.05244
G1 X80.285 Y153.423 E0.07107
G1 X78.711 Y153.667 E0.05536
G1 X74.41 Y153.65 E0.14956
G1 X73.921 Y153.701 E0.01709
G1 X57.347 Y153.605 E0.57636
G1 X57.085 Y154.157 E0.02123
G1 X56.209 Y155.371 E0.05205
G1 X54.929 Y156.594 E0.06155
G1 X53.409 Y157.537 E0.06219
G1 X51.851 Y158.105 E0.05769
G1 X50.137 Y158.363 E0.06027
G1 X43.281 Y158.269 E0.23843
G1 X41.268 Y157.911 E0.07109
G1 X39.338 Y157.181 E0.07174
G1 X37.634 Y156.176 E0.06879
G1 X36.024 Y154.812 E0.07341
G1 X34.755 Y153.248 E0.07001
G1 X33.8 Y151.559 E0.06747
G1 X33.091 Y149.601 E0.07241
G1 X32.762 Y147.526 E0.07304
G1 X33.111 Y88.67 E2.04666
G1 X33.624 Y85.854 E0.09951
G1 X34.743 Y83.186 E0.10061
G1 X36.718 Y80.481 E0.11648
G1 X38.813 Y78.383 E0.1031
G1 X39.123 Y78.033 E0.01626
G1 X39.224 Y77.884 E0.00625
G1 X39.301 Y77.73 E0.006
G1 X39.357 Y77.569 E0.00593
G1 X39.393 Y77.393 E0.00623
G1 X39.426 Y76.936 E0.01594
G1 X39.485 Y66.255 E0.37142
G1 X39.833 Y64.314 E0.06856
G1 X40.293 Y63.132 E0.04411
G1 X40.45 Y62.855 E0.01107
G1 X40.499 Y55.064 E0.27093
G1 X40.787 Y53.338 E0.06083
G1 X41.437 Y51.689 E0.06163
G1 X42.495 Y50.124 E0.06569
G1 X43.71 Y48.965 E0.05839
M107
G1 X43.951 Y49.217 F3600000
M107
G1 F2400
G1 X44.076 Y49.098 E0.00602
G1 X45.243 Y48.353 E0.04815
G1 X46.503 Y47.825 E0.04749
G1 X48.016 Y47.495 E0.05385
G1 X55.921 Y47.497 E0.27488
G1 X58.126 Y47.995 E0.07862
G1 X60.142 Y49.108 E0.08008
G1 X61.882 Y50.865 E0.08598
G1 X62.73 Y52.368 E0.06002
G1 X63.244 Y53.937 E0.05742
G1 X63.439 Y55.744 E0.06317
G1 X63.395 Y64.014 E0.28759
G1 X66.147 Y64.04 E0.09572
G1 X68.938 Y64.53 E0.09855
G1 X71.413 Y65.643 E0.09434
G1 X73.792 Y67.561 E0.10627
G1 X75.311 Y69.585 E0.088
G1 X76.348 Y71.906 E0.08839
G1 X76.871 Y75.066 E0.11138
M73 P1 R86
G1 X76.629 Y116.82 E1.45195
G1 X79.26 Y116.855 E0.09149
G1 X80.796 Y117.187 E0.05463
G1 X82.06 Y117.717 E0.04766
G1 X83.293 Y118.513 E0.05104
G1 X84.625 Y119.816 E0.06478
G1 X85.771 Y121.652 E0.07528
G1 X86.25 Y123.08 E0.05236
G1 X86.461 Y124.577 E0.05259
G1 X86.285 Y146.234 E0.75309
G1 X85.981 Y147.607 E0.04891
G1 X85.441 Y148.922 E0.04941
G1 X84.3 Y150.564 E0.06955
G1 X83.242 Y151.567 E0.05071
G1 X82.013 Y152.382 E0.05126
G1 X80.177 Y153.091 E0.06845
G1 X78.699 Y153.318 E0.05199
G1 X74.392 Y153.301 E0.14975
G1 X73.914 Y153.352 E0.01674
G1 X57.126 Y153.256 E0.58377
G1 X56.792 Y153.966 E0.02729
G1 X55.936 Y155.154 E0.05093
G1 X54.702 Y156.329 E0.05925
G1 X53.242 Y157.231 E0.05969
G1 X51.748 Y157.772 E0.05522
G1 X50.127 Y158.015 E0.057
G1 X43.328 Y157.923 E0.23646
G1 X41.345 Y157.571 E0.07003
G1 X39.476 Y156.86 E0.06953
G1 X37.848 Y155.901 E0.06572
G1 X36.284 Y154.579 E0.07119
G1 X35.035 Y153.04 E0.06894
G1 X34.123 Y151.427 E0.06444
G1 X33.425 Y149.498 E0.07132
G1 X33.108 Y147.486 E0.07082
G1 X33.457 Y88.717 E2.04361
G1 X33.963 Y85.936 E0.09832
G1 X35.056 Y83.34 E0.09792
G1 X36.991 Y80.698 E0.1139
G1 X39.067 Y78.622 E0.10207
G1 X39.399 Y78.247 E0.01742
G1 X39.525 Y78.061 E0.00783
G1 X39.623 Y77.865 E0.00759
G1 X39.694 Y77.661 E0.00753
G1 X39.739 Y77.441 E0.00781
G1 X39.774 Y76.949 E0.01713
G1 X39.834 Y66.272 E0.3713
G1 X40.163 Y64.425 E0.06524
G1 X40.613 Y63.271 E0.04306
G1 X40.798 Y62.949 E0.0129
G1 X40.845 Y55.107 E0.2727
G1 X41.119 Y53.448 E0.05846
G1 X41.737 Y51.868 E0.05901
G1 X42.749 Y50.363 E0.06306
G1 X43.907 Y49.259 E0.05565
M107
G1 X44.147 Y49.511 F3600000
M107
G1 F2400
G1 X44.304 Y49.362 E0.00753
G1 X45.392 Y48.668 E0.04488
G1 X46.594 Y48.162 E0.04534
G1 X48.035 Y47.843 E0.05133
G1 X55.901 Y47.846 E0.27354
G1 X58.025 Y48.329 E0.07573
G1 X59.951 Y49.4 E0.07664
G1 X61.617 Y51.092 E0.08258
G1 X62.418 Y52.523 E0.05701
G1 X62.9 Y53.993 E0.05377
G1 X63.091 Y55.771 E0.0622
G1 X63.044 Y64.359 E0.29864
G1 X66.101 Y64.386 E0.1063
G1 X68.857 Y64.87 E0.09729
G1 X71.249 Y65.951 E0.0913
G1 X73.526 Y67.788 E0.10173
G1 X75.021 Y69.779 E0.08656
G1 X76.021 Y72.027 E0.08557
G1 X76.522 Y75.079 E0.10754
G1 X76.279 Y117.164 E1.46347
G1 X79.238 Y117.204 E0.10291
G1 X80.706 Y117.524 E0.05224
G1 X81.884 Y118.018 E0.04441
G1 X83.089 Y118.796 E0.04989
G1 X84.34 Y120.018 E0.0608
G1 X85.465 Y121.819 E0.07383
G1 X85.914 Y123.174 E0.04966
G1 X86.112 Y124.587 E0.04961
G1 X85.94 Y146.176 E0.75074
G1 X85.644 Y147.517 E0.04775
G1 X85.126 Y148.771 E0.04718
G1 X84.048 Y150.324 E0.06573
G1 X83.013 Y151.304 E0.04955
G1 X81.837 Y152.08 E0.04901
G1 X80.069 Y152.759 E0.06583
G1 X78.687 Y152.969 E0.04863
G1 X74.374 Y152.953 E0.14996
G1 X73.906 Y153.004 E0.01638
G1 X56.904 Y152.906 E0.59121
G1 X56.5 Y153.776 E0.03335
G1 X55.662 Y154.937 E0.04978
G1 X54.475 Y156.064 E0.05693
G1 X53.074 Y156.925 E0.05717
G1 X51.647 Y157.438 E0.05276
G1 X50.118 Y157.666 E0.05375
G1 X43.374 Y157.578 E0.23451
G1 X41.453 Y157.24 E0.06782
G1 X39.614 Y156.54 E0.06844
G1 X38.061 Y155.625 E0.06265
G1 X36.522 Y154.324 E0.07011
G1 X35.315 Y152.832 E0.06672
G1 X34.445 Y151.294 E0.06143
G1 X33.766 Y149.427 E0.06907
G1 X33.455 Y147.446 E0.06974
G1 X33.802 Y88.764 E2.04057
G1 X34.292 Y86.053 E0.0958
G1 X35.369 Y83.494 E0.09654
G1 X37.264 Y80.915 E0.11131
G1 X39.32 Y78.861 E0.10105
G1 X39.675 Y78.461 E0.01857
G1 X39.827 Y78.237 E0.00942
G1 X39.945 Y78.001 E0.00919
G1 X40.031 Y77.753 E0.00912
G1 X40.085 Y77.488 E0.0094
G1 X40.123 Y76.963 E0.01832
G1 X40.182 Y66.288 E0.37118
G1 X40.494 Y64.535 E0.06193
G1 X40.932 Y63.41 E0.04199
G1 X41.146 Y63.044 E0.01471
G1 X41.193 Y55.123 E0.27546
G1 X41.459 Y53.523 E0.05639
G1 X42.036 Y52.046 E0.05514
G1 X43.028 Y50.574 E0.06173
G1 X44.103 Y49.553 E0.05158
M107
G1 X44.343 Y49.805 F3600000
M107
G1 F2400
G1 X44.531 Y49.627 E0.00902
G1 X45.566 Y48.97 E0.04261
G1 X46.685 Y48.499 E0.04221
G1 X48.054 Y48.192 E0.04879
G1 X55.882 Y48.194 E0.27219
G1 X57.923 Y48.663 E0.07282
G1 X59.759 Y49.692 E0.0732
G1 X61.352 Y51.32 E0.07919
G1 X62.092 Y52.648 E0.05289
G1 X62.555 Y54.049 E0.05128
G1 X62.744 Y55.799 E0.06121
G1 X62.694 Y64.705 E0.3097
G1 X66.083 Y64.734 E0.11787
G1 X68.774 Y65.209 E0.09502
G1 X71.085 Y66.26 E0.08826
G1 X73.261 Y68.015 E0.09721
G1 X74.71 Y69.939 E0.08376
G1 X75.693 Y72.148 E0.0841
G1 X76.174 Y75.091 E0.10369
G1 X75.928 Y117.509 E1.475
M73 P1 R85
G1 X79.181 Y117.548 E0.11311
G1 X80.616 Y117.862 E0.05107
G1 X81.734 Y118.333 E0.04222
G1 X82.858 Y119.058 E0.0465
G1 X84.082 Y120.253 E0.05947
G1 X85.141 Y121.948 E0.06951
G1 X85.579 Y123.269 E0.04839
G1 X85.764 Y124.597 E0.04663
G1 X85.592 Y146.155 E0.74965
G1 X85.307 Y147.426 E0.04529
G1 X84.811 Y148.62 E0.04496
G1 X83.795 Y150.083 E0.06195
G1 X82.808 Y151.021 E0.04734
G1 X81.661 Y151.779 E0.04781
G1 X79.962 Y152.426 E0.06319
G1 X78.675 Y152.621 E0.04529
G1 X74.355 Y152.604 E0.15019
G1 X73.898 Y152.655 E0.01602
G1 X56.681 Y152.556 E0.59867
G1 X56.208 Y153.585 E0.0394
G1 X55.389 Y154.719 E0.04862
G1 X54.249 Y155.798 E0.05459
G1 X52.908 Y156.618 E0.05466
G1 X51.546 Y157.104 E0.0503
G1 X50.108 Y157.317 E0.05053
G1 X43.421 Y157.232 E0.23256
G1 X41.53 Y156.899 E0.06675
G1 X39.752 Y156.219 E0.0662
G1 X38.275 Y155.349 E0.05961
G1 X36.782 Y154.092 E0.06787
