; generated by SuperSlicer 2.5.59.12 on 2024-06-12 at 23:12:11 UTC


;
;

;
;
; 

; external perimeters extrusion width = 0.48mm
; perimeters extrusion width = 0.48mm
; infill extrusion width = 0.48mm
; solid infill extrusion width = 0.48mm
; top infill extrusion width = 0.48mm
; support material extrusion width = 0.42mm
; first layer extrusion width = 0.48mm

; object:{"name":"MOD9V2_Charging_Handle_Final","id":"MOD9V2_Charging_Handle_Final.stp_ASM Body__Main_2024-06-08 11-06-59.stl id:0 copy 0","object_center":[90.000000,92.500000,0.000000],"boundingbox_center":[90.000000,92.500000,10.500000],"boundingbox_size":[14.772640,46.574940,21.000000]}
EXCLUDE_OBJECT_DEFINE NAME=MOD9V2_Charging_Handle_Final_stp_ASM_Body__Main_2024_06_08_11_06_59_stl_id_0_copy_0 CENTER=90.000000,92.500000 POLYGON=[[82.61,83.79],[82.62,83.57],[82.62,83.36],[82.63,82.91],[82.63,82.79],[82.65,82.47],[82.65,82.29],[82.67,82.03],[82.69,81.77],[82.71,81.49],[82.73,81.19],[82.74,81.09],[82.78,80.74],[82.78,80.68],[82.83,80.30],[82.85,80.10],[82.88,79.91],[82.94,79.54],[83.00,79.16],[83.00,79.13],[83.06,78.81],[83.13,78.45],[83.19,78.16],[83.20,78.10],[83.20,78.10],[83.28,77.75],[83.31,77.65],[83.36,77.42],[83.44,77.13],[83.45,77.08],[83.54,76.76],[83.57,76.65],[83.63,76.43],[83.70,76.20],[83.73,76.12],[83.83,75.81],[83.87,75.68],[83.92,75.53],[84.00,75.32],[84.02,75.26],[84.11,75.01],[84.21,74.77],[84.21,74.76],[84.25,74.65],[84.30,74.53],[84.39,74.32],[84.40,74.29],[84.52,74.03],[84.58,73.89],[84.76,73.53],[84.79,73.47],[84.94,73.18],[84.99,73.08],[85.11,72.87],[85.21,72.69],[85.23,72.66],[85.30,72.55],[85.39,72.40],[85.44,72.33],[85.48,72.28],[85.58,72.12],[85.67,71.99],[85.68,71.98],[85.72,71.92],[85.77,71.85],[85.86,71.72],[85.91,71.66],[85.95,71.61],[85.97,71.58],[86.04,71.49],[86.12,71.39],[86.15,71.36],[86.20,71.29],[86.29,71.19],[86.37,71.10],[86.43,71.03],[86.52,70.94],[86.53,70.93],[86.60,70.85],[86.64,70.82],[86.68,70.77],[86.75,70.70],[86.77,70.68],[86.83,70.62],[86.90,70.56],[86.98,70.49],[87.03,70.45],[87.05,70.43],[87.12,70.37],[87.16,70.34],[87.22,70.29],[87.27,70.25],[87.29,70.23],[87.34,70.19],[87.43,70.13],[87.49,70.09],[87.55,70.04],[87.56,70.03],[87.63,69.99],[87.64,69.98],[87.70,69.94],[87.77,69.90],[87.81,69.87],[87.82,69.86],[87.90,69.82],[87.94,69.79],[87.97,69.78],[88.00,69.76],[88.03,69.74],[88.07,69.72],[88.09,69.71],[88.16,69.68],[88.16,69.67],[88.22,69.64],[88.28,69.61],[88.33,69.59],[88.40,69.56],[88.48,69.52],[88.52,69.51],[88.58,69.48],[88.59,69.48],[88.64,69.46],[88.66,69.46],[88.72,69.43],[88.77,69.42],[88.83,69.40],[88.89,69.38],[88.95,69.36],[88.98,69.35],[88.99,69.35],[89.07,69.33],[89.11,69.32],[89.13,69.32],[89.16,69.31],[89.24,69.29],[89.25,69.29],[89.33,69.27],[89.37,69.27],[89.43,69.26],[89.49,69.25],[89.50,69.25],[89.55,69.24],[89.62,69.23],[89.66,69.23],[89.72,69.22],[89.75,69.22],[89.77,69.22],[89.82,69.22],[89.88,69.21],[89.88,69.21],[89.94,69.21],[89.96,69.21],[90.00,69.21],[90.09,69.21],[90.12,69.21],[90.15,69.22],[90.20,69.22],[90.25,69.22],[90.30,69.23],[90.37,69.23],[90.45,69.24],[90.50,69.25],[90.56,69.26],[90.61,69.26],[90.63,69.27],[90.69,69.28],[90.77,69.29],[90.81,69.30],[90.88,69.32],[90.93,69.33],[91.01,69.35],[91.09,69.37],[91.14,69.39],[91.19,69.40],[91.25,69.42],[91.31,69.45],[91.40,69.48],[91.41,69.48],[91.44,69.49],[91.53,69.53],[91.57,69.55],[91.66,69.59],[91.73,69.62],[91.79,69.65],[91.84,69.67],[91.89,69.70],[91.96,69.74],[92.05,69.79],[92.06,69.79],[92.09,69.81],[92.18,69.87],[92.24,69.90],[92.31,69.95],[92.36,69.98],[92.42,70.02],[92.52,70.09],[92.57,70.13],[92.61,70.15],[92.70,70.22],[92.80,70.30],[92.83,70.33],[92.99,70.47],[93.09,70.55],[93.14,70.60],[93.19,70.64],[93.21,70.67],[93.28,70.74],[93.34,70.79],[93.38,70.83],[93.43,70.89],[93.46,70.92],[93.58,71.04],[93.63,71.10],[93.76,71.26],[93.84,71.35],[93.94,71.46],[94.07,71.63],[94.07,71.64],[94.14,71.73],[94.31,71.96],[94.35,72.01],[94.45,72.16],[94.54,72.30],[94.56,72.32],[94.65,72.47],[94.75,72.63],[94.77,72.66],[94.80,72.71],[94.93,72.94],[94.98,73.04],[95.03,73.13],[95.11,73.27],[95.19,73.43],[95.27,73.58],[95.29,73.62],[95.40,73.85],[95.47,74.00],[95.50,74.07],[95.60,74.30],[95.65,74.42],[95.77,74.71],[95.83,74.85],[95.84,74.90],[95.94,75.17],[96.03,75.39],[96.09,75.57],[96.14,75.72],[96.25,76.05],[96.27,76.11],[96.35,76.36],[96.45,76.70],[96.55,77.08],[96.59,77.22],[96.63,77.40],[96.72,77.76],[96.80,78.11],[96.88,78.50],[96.95,78.88],[96.98,79.04],[97.02,79.27],[97.08,79.63],[97.13,80.02],[97.20,80.51],[97.21,80.66],[97.26,81.10],[97.28,81.30],[97.31,81.69],[97.34,82.20],[97.36,82.70],[97.38,83.14],[97.38,83.37],[97.39,83.69],[97.39,84.07],[97.38,84.62],[97.38,84.68],[97.37,84.96],[96.54,109.45],[96.54,109.57],[96.53,109.73],[96.52,109.85],[96.50,110.02],[96.49,110.14],[96.46,110.30],[96.44,110.42],[96.41,110.57],[96.39,110.69],[96.35,110.85],[96.32,110.97],[96.28,111.12],[96.24,111.24],[96.19,111.39],[96.15,111.51],[96.09,111.66],[96.05,111.77],[95.99,111.92],[95.93,112.03],[95.86,112.18],[95.81,112.29],[95.73,112.43],[95.67,112.54],[95.59,112.67],[95.52,112.78],[95.44,112.91],[95.37,113.02],[95.28,113.14],[95.20,113.24],[95.10,113.37],[95.02,113.47],[94.92,113.58],[94.83,113.68],[94.73,113.79],[94.64,113.88],[94.53,113.99],[94.43,114.08],[94.32,114.18],[94.22,114.27],[94.10,114.36],[94.00,114.44],[93.88,114.53],[93.77,114.61],[93.65,114.70],[93.53,114.77],[93.41,114.85],[93.29,114.92],[93.16,114.99],[93.04,115.05],[92.91,115.12],[92.79,115.18],[92.65,115.24],[92.53,115.29],[92.39,115.35],[92.27,115.40],[92.13,115.44],[92.00,115.49],[91.86,115.53],[91.72,115.57],[91.58,115.60],[91.45,115.63],[91.31,115.66],[91.17,115.69],[91.03,115.71],[90.89,115.73],[90.75,115.75],[90.61,115.76],[90.47,115.77],[90.33,115.78],[90.18,115.79],[90.04,115.79],[89.90,115.79],[89.76,115.78],[89.62,115.77],[89.48,115.76],[89.34,115.75],[89.19,115.73],[89.06,115.71],[88.91,115.69],[88.78,115.66],[88.64,115.63],[88.50,115.60],[88.36,115.57],[88.23,115.53],[88.09,115.49],[87.96,115.44],[87.82,115.40],[87.69,115.35],[87.55,115.29],[87.43,115.24],[87.30,115.18],[87.17,115.12],[87.04,115.05],[86.92,114.99],[86.79,114.92],[86.68,114.85],[86.55,114.77],[86.44,114.70],[86.31,114.61],[86.21,114.53],[86.09,114.44],[85.98,114.36],[85.86,114.27],[85.76,114.18],[85.65,114.08],[85.56,113.99],[85.45,113.88],[85.35,113.79],[85.25,113.68],[85.16,113.58],[85.06,113.47],[84.98,113.37],[84.89,113.24],[84.81,113.14],[84.72,113.02],[84.65,112.91],[84.56,112.78],[84.49,112.67],[84.41,112.54],[84.35,112.43],[84.28,112.29],[84.22,112.18],[84.15,112.03],[84.10,111.92],[84.04,111.77],[83.99,111.66],[83.93,111.51],[83.89,111.39],[83.84,111.24],[83.81,111.12],[83.76,110.97],[83.73,110.85],[83.70,110.69],[83.67,110.57],[83.64,110.42],[83.62,110.30],[83.60,110.14],[83.58,110.02],[83.57,109.85],[83.56,109.73],[83.55,109.57],[82.64,85.21],[82.63,84.78],[82.63,84.76],[82.62,84.32],[82.61,83.79]]
; plater:{"center":[90.000000,92.500000,0.000000],"boundingbox_center":[90.000000,92.500000,10.500000],"boundingbox_size":[14.772640,46.574940,21.000000]}

M107
;TYPE:Custom
START_PRINT EXTRUDER=250 BED=100
M107
G21 ; set units to millimeters
G90 ; use absolute coordinates
M83 ; use relative distances for extrusion
; Filament gcode
FILAMENT_START MATERIAL=ASA COLOR=#E8FEF0 VENDOR=123-3D
SET_PRESSURE_ADVANCE ADVANCE=0.062
M104 S250 ; set temperature
M109 S250 ; set temperature and wait for it to be reached
M190 S100 ; set bed temperature and wait for it to be reached
;LAYER_CHANGE
;Z:0.24
;HEIGHT:0.24
G1 E-1.000000 F3600
G1 Z0.24 F60000
G92 E0
M204 S750
G1 X80.886 Y67.968
G1 E1.000000 F3600
;TYPE:Skirt
;WIDTH:0.48
M107
G1 F2399.564
G1 X81.955 Y66.932 E.05857
G1 X83.182 Y65.98 E.06108
G1 X84.707 Y65.078 E0.06967
G1 F2398.399
G1 X86.227 Y64.443 E.06483
G1 F2399.953
G1 X87.807 Y64.018 E.06436
G1 X90.962 Y63.848 E.12428
G1 X92.401 Y64.066 E0.05722
G1 X93.797 Y64.447 E.05692
G1 X95.654 Y65.265 E.07983
G1 X97.225 Y66.268 E.07332
G1 X98.48 Y67.324 E0.06451
G1 X99.408 Y68.288 E.05263
G1 X100.219 Y69.294 E0.05082
G1 X100.963 Y70.384 E.05193
G1 X101.596 Y71.472 E.04952
G1 X102.223 Y72.744 E.05579
G1 X102.777 Y74.097 E0.05748
G1 F2398.442
G1 X103.149 Y75.171 E.04473
G1 F2399.083
G1 X103.455 Y76.211 E.04265
G1 X103.719 Y77.273 E0.04302
G1 X103.943 Y78.364 E.0438
G1 X104.126 Y79.48 E.04448
G1 X104.274 Y80.687 E.04784
G1 X104.404 Y82.44 E.06917
G1 X104.433 Y84.187 E.06872
G1 X104.388 Y85.528 E0.05277
G1 X104.277 Y86.948 E.05603
G1 X104.124 Y88.178 E.04876
G1 X103.927 Y89.357 E.04701
G1 X103.685 Y90.51 E0.04632
G1 F2398.748
G1 X103.423 Y91.545 E.04202
G1 X103.303 Y91.938 E.01618
G1 X103.247 Y98.904 E0.27398
G1 X102.854 Y100.734 E.07365
G1 X102.542 Y101.497 E0.03241
G1 F2396.219
G1 X102.802 Y101.893 E.01866
G1 F2399.613
G1 X103.55 Y103.358 E.06471
G1 X104.092 Y104.776 E.0597
G1 X104.471 Y106.183 E0.0573
G1 X104.721 Y107.691 E.06013
G1 X104.808 Y109.69 E.07871
G1 X104.7 Y111.137 E0.05706
G1 F2396.931
G1 X104.453 Y112.564 E.05701
G1 X104.074 Y113.935 E0.05591
G1 F2398.14
G1 X103.553 Y115.295 E.05731
G1 F2399.891
G1 X102.91 Y116.578 E.05645
G1 X102.142 Y117.798 E0.0567
G1 F2398.666
G1 X101.258 Y118.937 E.05673
G1 X100.265 Y119.989 E0.05688
G1 F2399.91
G1 X99.201 Y120.916 E.05549
G1 F2397.93
G1 X98.057 Y121.734 E.05535
G1 X96.803 Y122.46 E0.05698
G1 F2399.398
G1 X95.493 Y123.057 E.05664
G1 X94.023 Y123.55 E.06101
G1 X92.65 Y123.866 E0.05541
G1 X91.227 Y124.051 E.05644
G1 X89.804 Y124.097 E.05601
G1 X88.241 Y123.988 E.06162
G1 X86.807 Y123.739 E.05724
G1 X85.417 Y123.356 E0.0567
G1 F2398.588
G1 X84.188 Y122.889 E.05174
G1 F2399.646
G1 X83.005 Y122.314 E.05174
G1 X81.471 Y121.357 E0.0711
G1 F2398.843
G1 X80.39 Y120.508 E.05409
G1 F2399.609
G1 X79.417 Y119.588 E.05268
G1 X78.492 Y118.533 E0.05518
G1 X77.667 Y117.389 E.05547
G1 X76.97 Y116.203 E.05411
G1 X76.403 Y114.997 E0.05241
G1 X75.881 Y113.521 E.06159
G1 X75.494 Y111.87 E.06672
G1 X75.327 Y110.586 E0.05091
G1 X75.273 Y109.244 E.05283
G1 F2398.887
G1 X75.359 Y107.737 E.05939
G1 X75.605 Y106.223 E0.06031
G1 F2399.181
G1 X76.081 Y104.513 E.06983
G1 X76.748 Y102.895 E0.06884
G1 F2394.689
G1 X77.528 Y101.516 E.06233
G1 X77.427 Y101.293 E0.00959
G1 X76.851 Y99.015 E.09245
G1 F2399.744
G1 X76.819 Y95.63 Z.24 E.13316
G1 F2398.975
G1 X76.787 Y92.245 Z.24 E.13317
G1 X76.32 Y90.539 E0.06955
G1 F2399.662
G1 X76.079 Y89.399 E.04583
G1 F2398.398
G1 X75.885 Y88.242 E.04617
G1 X75.738 Y87.079 E0.0461
G1 F2399.099
G1 X75.636 Y85.912 E.04608
G1 X75.582 Y84.812 E0.0433
G1 X75.569 Y83.334 E.05814
G1 X75.639 Y81.697 E.06446
G1 F2398.293
G1 X75.726 Y80.686 E.03994
G1 F2399.892
G1 X75.879 Y79.446 E.04913
G1 X76.091 Y78.187 E0.0502
G1 F2398.875
G1 X76.36 Y76.942 E.05011
G1 X76.688 Y75.711 E0.0501
G1 F2399.687
G1 X77.034 Y74.627 E.04476
G1 F2398.429
G1 X77.429 Y73.563 E.04467
G1 X78.003 Y72.258 E0.05607
G1 F2399.804
G1 X78.489 Y71.319 E.04159
G1 X79.124 Y70.25 E.04891
G1 X79.925 Y69.107 E.05491
G1 X80.847 Y68.014 E.05625
M107
G1 X81.192 Y68.268 F60000
M107
G1 F2400
G1 X82.228 Y67.263 E0.05676
G1 F2399.643
G1 X83.412 Y66.341 E.05903
G1 X84.886 Y65.468 E.06739
G1 X86.353 Y64.853 E0.06255
G1 F2398.511
G1 X87.897 Y64.438 E.06292
G1 F2399.583
G1 X90.92 Y64.275 E.11909
G1 X92.3 Y64.483 E0.05488
G1 X93.669 Y64.856 E.0558
G1 X95.466 Y65.65 E.07729
G1 X96.982 Y66.621 E0.07082
G1 X98.195 Y67.644 E.06243
G1 X99.08 Y68.565 E0.05022
G1 F2398.375
G1 X99.87 Y69.542 E.04944
G1 F2399.82
G1 X100.597 Y70.606 E.05068
G1 X101.215 Y71.669 E0.04835
G1 F2398.904
G1 X101.836 Y72.927 E.0552
G1 X102.379 Y74.253 E0.05636
G1 F2399.58
G1 X102.739 Y75.297 E.04344
G1 X103.043 Y76.328 E0.04227
G1 X103.302 Y77.372 E.04231
G1 X103.521 Y78.437 E.04278
G1 X103.701 Y79.536 E.04381
G1 X103.847 Y80.724 E0.04705
G1 X103.976 Y82.466 E.06872
G1 X104.005 Y84.178 E.06737
G1 X103.96 Y85.499 E.05199
G1 X103.85 Y86.91 E0.05565
G1 F2398.75
G1 X103.7 Y88.112 E.04766
G1 X103.505 Y89.282 E0.04665
G1 X103.267 Y90.417 E.04563
G1 X103.009 Y91.435 E0.04129
G1 F2399.165
G1 X102.875 Y91.873 E.01802
G1 X102.847 Y95.376 Z.24 E.13778
G1 X102.819 Y98.878 Z.24 E.13778
G1 X102.439 Y100.625 E0.0703
G1 F2397.283
G1 X102.058 Y101.543 E.03913
G1 F2399.719
G1 X102.426 Y102.098 E.02619
G1 X103.163 Y103.543 E0.06378
G1 F2398.5
G1 X103.681 Y104.898 E.05708
G1 X104.05 Y106.263 E0.05561
G1 F2399.956
G1 X104.296 Y107.748 E.0592
G1 X104.379 Y109.671 E.07571
G1 X104.276 Y111.074 E.05534
G1 X104.037 Y112.461 E0.05535
G1 X103.67 Y113.791 E.05428
G1 X103.157 Y115.132 E.05648
G1 X102.532 Y116.377 E.05479
G1 X101.785 Y117.561 E0.05505
G1 X100.939 Y118.651 E.05429
G1 X99.976 Y119.673 E.05525
G1 F2398.929
G1 X98.944 Y120.573 E.05387
G1 X97.833 Y121.369 E0.05372
G1 F2397.32
G1 X96.616 Y122.074 E.05536
G1 F2399.862
G1 X95.346 Y122.654 E.05491
G1 X93.896 Y123.141 E0.06015
G1 X92.564 Y123.446 E.05376
G1 F2398.417
G1 X91.203 Y123.623 E.05401
G1 X89.822 Y123.669 E0.05432
G1 F2399.143
G1 X88.303 Y123.564 E.0599
G1 X86.911 Y123.323 E.05558
G1 X85.56 Y122.952 E0.05511
G1 X84.367 Y122.499 E.0502
G1 X83.202 Y121.934 E0.05091
G1 F2398.914
G1 X81.727 Y121.013 E.06842
G1 X80.677 Y120.19 E.05248
G1 X79.732 Y119.297 E0.0511
G1 X78.821 Y118.258 E.05438
G1 F2399.294
G1 X78.021 Y117.147 E.05386
G1 X77.345 Y115.994 E0.05255
G1 F2398.215
G1 X76.796 Y114.825 E.05083
G1 F2399.733
G1 X76.289 Y113.39 E.05987
G1 X75.914 Y111.783 E0.0649
G1 X75.753 Y110.541 E.04926
G1 X75.702 Y109.258 E0.0505
G1 X75.784 Y107.794 E.05768
G1 X76.021 Y106.327 E.05847
G1 X76.482 Y104.665 E.06784
G1 X77.139 Y103.071 E.06781
G1 X78.01 Y101.534 E0.06948
G1 F2395.94
G1 X77.838 Y101.168 E.01593
G1 X77.279 Y98.985 E0.08861
G1 F2399.271
G1 X77.247 Y95.585 Z.24 E.13375
G1 X77.215 Y92.185 Z.24 E.13375
G1 X76.738 Y90.444 E0.071
G1 X76.501 Y89.324 E.04504
G1 X76.309 Y88.184 E.04549
G1 X76.164 Y87.038 E0.04543
G1 F2398.916
G1 X76.064 Y85.887 E.04545
G1 X76.01 Y84.804 E0.04263
G1 X75.998 Y83.347 E.05732
G1 X76.066 Y81.729 E0.06369
G1 F2399.614
G1 X76.152 Y80.734 E.03929
G1 F2398.509
G1 X76.303 Y79.513 E.04842
G1 X76.511 Y78.273 E0.04944
G1 F2399.169
G1 X76.778 Y77.038 E.04971
G1 X77.098 Y75.837 E.04889
G1 X77.437 Y74.772 E.04396
G1 X77.829 Y73.718 E0.04421
G1 F2398.556
G1 X78.387 Y72.449 E.05455
G1 F2399.093
G1 X78.86 Y71.532 E.04059
G1 X79.488 Y70.475 E0.04833
G1 F2397.94
G1 X80.259 Y69.376 E.05283
G1 X81.154 Y68.314 E0.05462
M107
G1 X81.499 Y68.568 F60000
M107
G1 F2398.906
G1 X82.5 Y67.594 E.05496
G1 F2399.368
G1 X83.642 Y66.703 E.05698
G1 X85.065 Y65.857 E0.06509
G1 X86.505 Y65.254 E.0614
G1 X87.986 Y64.857 E.06033
G1 X90.878 Y64.702 E.11391
G1 X92.224 Y64.905 E0.05353
G1 X93.54 Y65.265 E.05368
G1 X95.277 Y66.035 E.07474
G1 X96.739 Y66.974 E0.06834
G1 X97.91 Y67.964 E.06033
G1 X98.753 Y68.841 E0.04784
G1 F2398.428
G1 X99.521 Y69.791 E.04806
G1 X100.231 Y70.829 E0.04943
G1 X100.834 Y71.865 E.04717
G1 F2399.822
G1 X101.448 Y73.11 E.05461
G1 X101.98 Y74.41 E.05525
G1 X102.33 Y75.423 E0.04215
G1 X102.63 Y76.445 E.04189
G1 X102.885 Y77.471 E.04159
G1 X103.098 Y78.511 E0.04176
G1 X103.276 Y79.593 E.04314
G1 X103.42 Y80.76 E.04627
G1 X103.549 Y82.491 E.06828
G1 X103.576 Y84.169 E.066
G1 X103.533 Y85.471 E0.05122
G1 F2397.766
G1 X103.423 Y86.871 E.05527
G1 X103.277 Y88.046 E0.04656
G1 F2399.684
G1 X103.083 Y89.207 E.0463
G1 X102.849 Y90.325 E.04493
G1 F2397.941
G1 X102.595 Y91.324 E.04056
G1 X102.447 Y91.807 E0.01985
G1 X102.419 Y95.329 Z.24 E.13857
G1 F2399.039
G1 X102.39 Y98.852 Z.24 E.13857
G1 X102.025 Y100.514 E0.06691
G1 F2398.971
G1 X101.574 Y101.59 E.0459
G1 X102.05 Y102.304 E0.03375
G1 X102.776 Y103.727 E.06285
G1 X103.27 Y105.021 E0.05446
G1 F2399.542
G1 X103.629 Y106.344 E.05392
G1 X103.871 Y107.805 E.05827
G1 X103.951 Y109.652 E.07272
G1 X103.852 Y111.012 E0.05362
G1 F2398.115
G1 X103.621 Y112.357 E.0537
G1 X103.266 Y113.648 E0.05264
G1 F2397.429
G1 X102.769 Y114.949 E.05482
G1 X102.164 Y116.157 E0.05313
G1 F2399.177
G1 X101.44 Y117.306 E.05342
G1 X100.62 Y118.365 E0.05266
G1 F2398.532
G1 X99.686 Y119.357 E.05361
G1 X98.685 Y120.231 E0.05226
G1 F2399.79
G1 X97.609 Y121.003 E.05209
G1 X96.428 Y121.689 E.05373
G1 X95.199 Y122.252 E0.05317
G1 X93.77 Y122.731 E.05929
G1 F2398.841
