; generated by SuperSlicer 2.5.59.10 on 2024-06-03 at 23:36:57 UTC


;
;

;
;
; 

; external perimeters extrusion width = 0.40mm
; perimeters extrusion width = 0.40mm
; infill extrusion width = 0.40mm
; solid infill extrusion width = 0.40mm
; top infill extrusion width = 0.40mm
; first layer extrusion width = 0.40mm

; external perimeters extrusion width = 0.40mm
; perimeters extrusion width = 0.40mm
; infill extrusion width = 0.40mm
; solid infill extrusion width = 0.40mm
; top infill extrusion width = 0.40mm
; first layer extrusion width = 0.40mm

; object:{"name":"OPTIONAL_4x_mellow--super-8-spacer","id":"OPTIONAL_4x_mellow--super-8-spacer.stl id:0 copy 0","object_center":[90.000000,92.500000,0.000000],"boundingbox_center":[90.000000,92.500000,2.000000],"boundingbox_size":[7.000000,6.970139,4.000000]}
EXCLUDE_OBJECT_DEFINE NAME=OPTIONAL_4x_mellow_super_8_spacer_stl_id_0_copy_0 CENTER=90.000000,92.500000 POLYGON=[[86.50,92.50],[86.56,91.86],[86.74,91.24],[87.02,90.66],[87.41,90.14],[87.89,89.71],[88.44,89.37],[89.04,89.13],[89.68,89.01],[90.32,89.01],[90.96,89.13],[91.56,89.37],[92.11,89.71],[92.59,90.14],[92.98,90.66],[93.26,91.24],[93.44,91.86],[93.50,92.50],[93.44,93.14],[93.26,93.76],[92.98,94.34],[92.59,94.86],[92.11,95.29],[91.56,95.63],[90.96,95.87],[90.32,95.99],[89.68,95.99],[89.04,95.87],[88.44,95.63],[87.89,95.29],[87.41,94.86],[87.02,94.34],[86.74,93.76],[86.56,93.14],[86.50,92.50]]
; object:{"name":"OPTIONAL_4x_mellow--super-8-spacer","id":"OPTIONAL_4x_mellow--super-8-spacer.stl id:1 copy 0","object_center":[96.940814,97.168808,0.000000],"boundingbox_center":[96.940814,97.168808,2.000000],"boundingbox_size":[7.000000,6.970139,4.000000]}
EXCLUDE_OBJECT_DEFINE NAME=OPTIONAL_4x_mellow_super_8_spacer_stl_id_1_copy_0 CENTER=96.940814,97.168808 POLYGON=[[93.44,97.17],[93.50,96.53],[93.68,95.90],[93.97,95.33],[94.35,94.81],[94.83,94.38],[95.38,94.04],[95.98,93.80],[96.62,93.68],[97.26,93.68],[97.90,93.80],[98.50,94.04],[99.05,94.38],[99.53,94.81],[99.92,95.33],[100.20,95.90],[100.38,96.53],[100.44,97.17],[100.38,97.81],[100.20,98.43],[99.92,99.01],[99.53,99.53],[99.05,99.96],[98.50,100.30],[97.90,100.54],[97.26,100.65],[96.62,100.65],[95.98,100.54],[95.38,100.30],[94.83,99.96],[94.35,99.53],[93.97,99.01],[93.68,98.43],[93.50,97.81],[93.44,97.17]]
; plater:{"center":[93.470407,94.834404,0.000000],"boundingbox_center":[93.470407,94.834404,2.000000],"boundingbox_size":[13.940814,11.638947,4.000000]}

M107
;TYPE:Custom
START_PRINT EXTRUDER=250 BED=100
M107
G21 ; set units to millimeters
G90 ; use absolute coordinates
M83 ; use relative distances for extrusion
; Filament gcode
FILAMENT_START MATERIAL=ASA COLOR=#368900 VENDOR=123-3D
SET_PRESSURE_ADVANCE ADVANCE=0.062
M104 S250 ; set temperature
M109 S250 ; set temperature and wait for it to be reached
M190 S100 ; set bed temperature and wait for it to be reached
;LAYER_CHANGE
;Z:0.24
;HEIGHT:0.24
G1 E-1 F3600
G1 Z0.24 F60000
G92 E0
M204 S750
G1 X84.34 Y86.769
G1 E1 F3600
;TYPE:Skirt
;WIDTH:0.4
M107
G1 F2400
G1 X83.383 Y87.907 E0.04755
G1 F2399.975
G1 X82.939 Y88.624 E.02697
G1 X82.347 Y89.987 E.04755
G1 X82.016 Y91.436 E0.04755
G1 F2398.069
G1 X81.956 Y92.921 E.04755
G1 X82.016 Y93.564 E0.02063
G1 F2395.878
G1 X82.171 Y94.392 E.02697
G1 X82.652 Y95.799 E0.04755
G1 F2398.829
G1 X83.383 Y97.093 E.04755
G1 X84.34 Y98.231 E0.04755
G1 F2396.101
G1 X84.816 Y98.665 E.02063
G1 X85.344 Y99.08 E0.02147
G1 F2398.369
G1 X89.161 Y101.631 Z.24 E.14687
G1 X92.978 Y104.181 Z.24 E.14687
G1 X93.733 Y104.557 E0.02697
G1 F2399.372
G1 X95.145 Y105.021 E.04755
G1 F2398.899
G1 X96.618 Y105.217 E.04755
G1 X98.103 Y105.139 E0.04755
G1 F2399.479
G1 X98.737 Y105.021 E.02063
G1 X100.149 Y104.557 E.04755
G1 X101.452 Y103.842 E.04755
G1 X102.601 Y102.899 E0.04755
G1 X103.558 Y101.762 E.04755
G1 X104.289 Y100.468 E.04755
G1 X104.77 Y99.061 E0.04755
G1 F2396.929
G1 X104.925 Y98.233 E.02697
G1 X104.985 Y96.747 E0.04755
G1 F2399.532
G1 X104.77 Y95.276 E.04755
G1 X104.289 Y93.87 E.04755
G1 F2398.038
G1 X104.002 Y93.293 E.02063
G1 X103.169 Y92.061 E0.04755
G1 F2399.345
G1 X102.601 Y91.438 E.02697
G1 X101.597 Y90.589 E.04208
G1 X93.963 Y85.487 E0.29374
G1 X92.607 Y84.879 E.04755
G1 X91.162 Y84.529 E.04755
G1 X90.322 Y84.452 E0.02697
G1 F2398.367
G1 X88.838 Y84.529 E.04755
G1 X88.204 Y84.648 E0.02063
G1 F2399.569
G1 X86.792 Y85.112 E.04755
G1 X85.489 Y85.827 E.04755
G1 X84.816 Y86.335 E0.02697
G1 X84.384 Y86.729 E.01871
M107
G1 X84.652 Y86.995 F60000
M107
G1 F2397.488
G1 X84.05 Y87.602 E.02737
G1 X83.661 Y88.117 E0.02063
G1 F2399.166
G1 X82.964 Y89.357 E.0455
G1 X82.506 Y90.703 E.0455
G1 X82.363 Y91.468 E.02491
G1 F2398.269
G1 X82.303 Y92.889 E.0455
G1 X82.363 Y93.532 E0.02063
G1 F2397.441
G1 X82.506 Y94.297 E.02491
G1 F2399.422
G1 X82.964 Y95.643 E.0455
G1 X83.661 Y96.883 E.0455
G1 X84.05 Y97.398 E0.02063
G1 F2396.394
G1 X85.051 Y98.407 E.0455
G1 X85.539 Y98.79 E0.01983
G1 F2398.601
G1 X89.351 Y101.338 Z.24 E.14666
G1 F2400
G1 X93.162 Y103.885 Z.24 E.14666
G1 F2399.9
G1 X93.859 Y104.232 E.02491
G1 X95.209 Y104.678 E.0455
G1 X96.618 Y104.869 E.0455
G1 X98.039 Y104.797 E0.0455
G1 X98.673 Y104.678 E.02063
G1 X100.023 Y104.232 E.0455
G1 X101.268 Y103.546 E.0455
G1 X102.366 Y102.642 E.0455
G1 X103.28 Y101.552 E0.0455
G1 X103.977 Y100.312 E.0455
G1 F2398.106
G1 X104.435 Y98.966 E.0455
G1 X104.578 Y98.2 E0.02491
G1 F2399.094
G1 X104.638 Y96.779 E.0455
G1 F2398.427
G1 X104.435 Y95.372 E.0455
G1 X103.977 Y94.025 E0.0455
G1 F2397.755
G1 X103.69 Y93.448 E.02063
G1 X102.891 Y92.271 E0.0455
G1 F2399.479
G1 X102.366 Y91.696 E.02491
G1 X101.402 Y90.878 E0.04044
G1 X97.59 Y88.331 Z.24 E.14666
G1 F2400
G1 X93.779 Y85.784 Z.24 E.14666
G1 F2399.054
G1 X92.481 Y85.204 E.0455
G1 X91.098 Y84.872 E0.0455
G1 F2398.18
G1 X89.678 Y84.8 E.0455
G1 X88.902 Y84.872 E0.02491
G1 F2399.342
G1 X88.268 Y84.991 E.02063
G1 F2398.679
G1 X86.918 Y85.437 E.0455
G1 F2399.853
G1 X85.672 Y86.123 E.0455
G1 X85.051 Y86.593 E0.02491
G1 F2394.772
G1 X84.694 Y86.952 E.01621
M107
G1 X84.912 Y87.191 F60000
M107
G1 F2400
G1 X84.809 Y87.285 E0.00445
G1 F2395.189
G1 X83.939 Y88.327 E.04344
G1 X83.563 Y88.935 E0.02285
G1 F2397.417
G1 X83.018 Y90.178 E.04344
G1 X82.71 Y91.501 E0.04344
G1 F2398.72
G1 X82.65 Y92.857 E.04344
G1 X82.71 Y93.499 E.02063
G1 X82.841 Y94.202 E0.02285
G1 X83.276 Y95.488 E.04344
G1 X83.939 Y96.673 E0.04344
G1 F2397.934
G1 X84.809 Y97.715 E.04344
G1 X85.286 Y98.15 E0.02063
G1 F2396.258
G1 X85.733 Y98.501 E.0182
G1 X93.345 Y103.589 E0.2929
G1 F2399.926
G1 X94.586 Y104.14 E.04344
G1 X95.907 Y104.454 E.04344
G1 F2398.715
G1 X96.618 Y104.52 E.02285
G1 X97.975 Y104.454 E0.04344
G1 F2399.405
G1 X98.609 Y104.336 E.02063
G1 X99.897 Y103.907 E.04344
G1 X101.085 Y103.249 E.04344
G1 X102.132 Y102.384 E0.04344
G1 X103.002 Y101.342 E.04344
G1 X103.665 Y100.157 E.04344
G1 X104.1 Y98.87 E0.04344
G1 X104.231 Y98.168 E.02285
G1 F2398.731
G1 X104.291 Y96.812 E.04344
G1 X104.1 Y95.467 E0.04344
G1 X103.665 Y94.181 E.04344
G1 X103.378 Y93.603 E0.02063
G1 F2399.211
G1 X102.613 Y92.481 E.04344
G1 X102.132 Y91.953 E.02285
G1 X101.208 Y91.168 E.0388
G1 X93.596 Y86.08 E0.2929
G1 X92.355 Y85.529 E.04344
G1 X91.034 Y85.215 E.04344
G1 F2398.249
G1 X89.678 Y85.149 E.04344
G1 X88.966 Y85.215 E0.02285
G1 X88.332 Y85.333 E.02063
G1 F2399.254
G1 X87.044 Y85.762 E.04344
G1 X85.856 Y86.42 E0.04344
G1 F2397.356
G1 X85.286 Y86.85 E.02285
G1 X84.956 Y87.151 E0.01427
M107
G1 X85.191 Y87.408 F60000
M107
G1 F2395.881
G1 X85.044 Y87.542 E.00637
G1 F2399.976
G1 X84.217 Y88.537 E.04139
G1 X83.875 Y89.09 E0.0208
G1 F2398.123
G1 X83.353 Y90.273 E.04139
G1 X83.057 Y91.533 E0.04139
G1 F2399.398
G1 X82.997 Y92.175 E.02063
G1 X83.057 Y93.467 E0.04138
G1 F2398.578
G1 X83.176 Y94.106 E.0208
G1 X83.588 Y95.333 E0.04138
G1 X83.875 Y95.91 E.02063
G1 X84.606 Y96.977 E.04139
G1 X85.044 Y97.458 E0.0208
G1 F2399.341
G1 X85.928 Y98.212 E.03717
G1 X89.398 Y100.546 Z.24 E.1338
G1 F2400
G1 X92.868 Y102.881 Z.24 E.13381
G1 F2399.363
G1 X94.11 Y103.582 E.04563
G1 X95.337 Y103.993 E0.04138
G1 X95.971 Y104.112 E.02063
G1 F2397.744
G1 X97.263 Y104.172 E.04139
G1 X97.911 Y104.112 E0.0208
G1 F2398.434
G1 X99.17 Y103.815 E.04139
G1 X100.353 Y103.292 E0.04138
G1 F2399.071
G1 X101.42 Y102.561 E.04139
G1 X102.335 Y101.646 E0.04139
G1 X103.066 Y100.579 E.04139
G1 F2398.027
G1 X103.353 Y100.002 E.02063
G1 X103.765 Y98.775 E0.04138
G1 X103.944 Y97.494 E.04139
G1 F2399.458
G1 X103.884 Y96.202 E.04138
G1 X103.588 Y94.942 E0.04139
G1 F2397.748
G1 X103.066 Y93.759 E.04139
G1 X102.335 Y92.691 E0.04139
G1 F2398.287
G1 X101.897 Y92.211 E.0208
G1 F2399.942
G1 X101.013 Y91.457 E.03717
G1 X93.412 Y86.376 E0.29248
G1 X92.229 Y85.854 E.04138
G1 X90.97 Y85.557 E.04139
G1 F2398.801
G1 X89.678 Y85.497 E.04138
G1 X89.03 Y85.557 E0.0208
G1 F2399.264
G1 X88.396 Y85.676 E.02063
G1 F2397.924
G1 X87.17 Y86.087 E.04139
G1 X86.039 Y86.716 E0.04139
G1 F2396.148
G1 X85.521 Y87.108 E.0208
G1 X85.235 Y87.368 E0.01235
M107
G1 X85.493 Y87.626 F60000
M107
G1 F2399.31
G1 X84.884 Y88.233 E.02749
G1 F2398.738
G1 X84.495 Y88.747 E.02063
G1 F2399.153
G1 X84.187 Y89.245 E.01874
G1 X83.688 Y90.369 E0.03933
G1 X83.404 Y91.565 E.03933
G1 X83.344 Y92.207 E.02063
G1 X83.404 Y93.435 E.03933
G1 X83.511 Y94.011 E0.01874
G1 F2398.564
G1 X83.9 Y95.177 E.03933
G1 X84.187 Y95.755 E0.02063
G1 F2397.349
G1 X84.884 Y96.767 E.03933
G1 X85.279 Y97.2 E0.01874
G1 F2399.23
G1 X86.122 Y97.923 E.03553
G1 X93.063 Y102.592 E0.26761
G1 F2398.225
G1 X94.236 Y103.257 E.04316
G1 X95.401 Y103.651 E0.03933
G1 F2399.628
G1 X96.035 Y103.769 E.02063
G1 F2398.091
G1 X97.263 Y103.823 E.03933
G1 X97.847 Y103.769 E0.01874
G1 F2397.743
G1 X99.044 Y103.49 E.03933
G1 X100.17 Y102.996 E0.03933
G1 X101.185 Y102.304 E.03933
G1 X102.057 Y101.436 E0.03933
G1 X102.754 Y100.424 E.03933
G1 X103.041 Y99.846 E0.02063
G1 F2398.084
G1 X103.429 Y98.68 E.03933
G1 F2399.985
G1 X103.596 Y97.462 E.03933
G1 X103.537 Y96.234 E0.03933
G1 X103.253 Y95.038 E.03933
G1 X102.754 Y93.914 E0.03933
G1 X102.057 Y92.901 E.03933
G1 X101.662 Y92.468 E0.01874
G1 F2397.859
G1 X100.819 Y91.746 E.03553
G1 F2399.89
G1 X97.024 Y89.21 Z.24 E.14603
G1 X93.229 Y86.673 Z.24 E.14603
G1 X92.103 Y86.179 E0.03933
G1 X90.906 Y85.9 E.03933
G1 F2398.342
G1 X89.678 Y85.846 E.03933
G1 X89.094 Y85.9 E0.01874
G1 X88.46 Y86.018 E.02063
G1 X87.295 Y86.412 E0.03933
G1 F2396.947
G1 X86.223 Y87.012 E.03933
G1 X85.755 Y87.365 E0.01874
G1 F2398.946
G1 X85.535 Y87.584 E.00993
M107
G1 X84.478 Y86.47 F60000
M107
G1 F2400
G1 X84.84 Y86.126 E0.01597
G1 F2399.096
G1 X86.465 Y85.099 E.06151
G1 X87.721 Y84.623 E.04297
G1 X89.037 Y84.355 E0.04295
G1 F2398.002
G1 X90.933 Y84.353 E.06068
G1 X92.457 Y84.677 E0.04982
G1 F2399.193
G1 X93.759 Y85.212 E.04504
G1 X94.949 Y85.962 E.04501
G1 X96.057 Y86.973 E0.04796
G1 F2398.599
G1 X96.914 Y88.091 E.04508
G1 X97.387 Y89.007 E.03298
G1 X97.863 Y89.021 E0.01522
G1 F2397.938
G1 X99.181 Y89.281 E.04299
G1 X100.636 Y89.849 E0.04996
G1 F2399.743
G1 X101.834 Y90.589 E.04505
G1 F2397.748
G1 X102.893 Y91.528 E.04531
G1 X103.982 Y92.965 E0.05765
G1 X104.636 Y94.336 E.04863
G1 X105.026 Y95.805 E0.0486
G1 F2399.485
G1 X105.139 Y97.331 E.04895
G1 F2398.976
G1 X104.973 Y98.82 E.04795
G1 F2399.713
G1 X104.524 Y100.286 E.04905
G1 X103.827 Y101.62 E0.04814
G1 X102.92 Y102.781 E.04713
G1 X101.88 Y103.714 E.0447
G1 X100.709 Y104.451 E.04426
G1 X99.195 Y105.053 E0.05211
G1 F2398.358
G1 X97.57 Y105.345 E.05284
G1 X95.981 Y105.313 E0.05083
G1 X94.682 Y105.051 E.0424
G1 X93.463 Y104.596 E0.04161
G1 F2399.738
G1 X92.031 Y103.736 E.05343
G1 F2398.179
G1 X90.82 Y102.625 E.0526
G1 X89.92 Y101.405 E0.04848
G1 X89.552 Y100.662 E.02654
G1 X89.078 Y100.648 E0.01517
G1 F2399.069
G1 X87.76 Y100.388 E.04299
G1 X86.305 Y99.82 E0.04996
G1 X85.107 Y99.08 E.04505
G1 X84.047 Y98.14 E0.04532
G1 X82.949 Y96.686 E.05829
G1 X82.258 Y95.205 E.0523
G1 X81.906 Y93.813 E0.04593
G1 F2398.889
G1 X81.802 Y92.385 E.04582
G1 X81.996 Y90.713 E0.05384
G1 F2399.548
G1 X82.453 Y89.295 E.04766
G1 X83.131 Y88.023 E0.0461
G1 X83.915 Y87.003 E.04116
G1 X84.434 Y86.511 E0.02288
M107
G1 X84.674 Y86.764 F60000
M107
G1 F2398.807
G1 X85.067 Y86.391 E.01734
G1 X86.606 Y85.419 E0.05821
G1 F2399.531
G1 X87.805 Y84.962 E.04105
G1 X89.089 Y84.7 E.04194
G1 X90.879 Y84.697 E.05727
G1 X92.339 Y85.005 E.04773
G1 X93.586 Y85.515 E.04309
G1 X94.751 Y86.249 E0.04403
G1 X95.79 Y87.197 E.045
G1 X96.628 Y88.291 E0.04408
G1 X97.172 Y89.351 E.03812
G1 X97.81 Y89.365 E.02042
G1 X99.098 Y89.62 E.04202
G1 X100.466 Y90.153 E.04697
G1 X101.638 Y90.877 E0.04406
G1 X102.649 Y91.777 E.04331
G1 X103.675 Y93.131 E0.05434
G1 X104.304 Y94.442 E.04652
G1 X104.68 Y95.847 E.04653
G1 X104.79 Y97.309 E0.04689
G1 F2398.116
G1 X104.634 Y98.734 E.04588
G1 X104.208 Y100.14 E0.04698
G1 X103.542 Y101.418 E.04611
G1 X102.675 Y102.532 E0.04515
G1 X101.681 Y103.427 E.04281
G1 X100.565 Y104.134 E0.04226
G1 F2399.882
G1 X99.116 Y104.713 E.04992
G1 X97.559 Y104.996 E.05063
G1 X96.034 Y104.968 E0.04878
G1 X94.79 Y104.72 E.04057
G1 X93.6 Y104.275 E.04065
G1 X92.226 Y103.447 E0.05132
G1 X91.068 Y102.38 E.05038
G1 X90.21 Y101.211 E0.04638
G1 F2398.815
G1 X89.772 Y100.318 E.03183
G1 F2399.871
G1 X89.131 Y100.303 E.02051
G1 X87.842 Y100.049 E0.04202
G1 F2398.865
G1 X86.475 Y99.515 E.04697
G1 F2399.371
G1 X85.303 Y98.792 E.04406
G1 X84.291 Y97.891 E0.04333
G1 F2398.583
G1 X83.257 Y96.522 E.05491
G1 F2399.906
G1 X82.592 Y95.103 E.05014
G1 X82.252 Y93.772 E.04395
G1 X82.15 Y92.408 E0.04375
G1 X82.334 Y90.803 E.05168
G1 X82.768 Y89.444 E.04563
G1 X83.416 Y88.223 E0.04421
G1 F2397.338
G1 X84.165 Y87.247 E.03938
G1 X84.631 Y86.805 E0.02053
M107
G1 X84.869 Y87.057 F60000
M107
G1 F2398.159
G1 X85.294 Y86.655 E.01872
G1 X86.746 Y85.738 E0.05493
G1 X87.915 Y85.293 E.04003
G1 X89.141 Y85.045 E0.04001
G1 F2399.968
G1 X90.826 Y85.042 E.0539
G1 X92.222 Y85.334 E.04563
G1 X93.44 Y85.832 E0.04209
G1 F2397.987
G1 X94.551 Y86.535 E.04208
G1 X95.523 Y87.421 E0.04205
G1 F2398.279
G1 X96.341 Y88.49 E.04308
G1 X96.956 Y89.695 E0.04328
G1 X97.757 Y89.71 E.02564
G1 X99.016 Y89.958 E0.04103
G1 F2399.436
G1 X100.297 Y90.458 E.04399
G1 X101.417 Y91.148 E.04209
G1 X102.405 Y92.026 E.04228
G1 X103.369 Y93.298 E0.05105
G1 X103.971 Y94.549 E.04442
G1 X104.334 Y95.89 E.04445
G1 X104.442 Y97.288 E0.04484
G1 F2397.478
G1 X104.296 Y98.649 E.04382
G1 X103.891 Y99.994 E0.04492
G1 F2398.517
G1 X103.257 Y101.217 E.04408
G1 X102.43 Y102.284 E0.04317
G1 F2399.438
G1 X101.481 Y103.141 E.04091
G1 X100.42 Y103.817 E.04025
G1 X99.035 Y104.373 E0.04774
G1 X97.547 Y104.647 E.04842
G1 X96.087 Y104.624 E.04672
G1 X94.873 Y104.381 E.03961
G1 X93.738 Y103.955 E.03878
G1 X92.422 Y103.158 E0.04921
G1 X91.317 Y102.136 E.04815
G1 X90.501 Y101.018 E0.04427
G1 F2398.087
G1 X89.992 Y99.974 E.03717
G1 X89.183 Y99.958 E0.02587
G1 X87.925 Y99.71 E.04103
G1 F2399.942
G1 X86.644 Y99.21 E.04399
G1 X85.523 Y98.521 E0.04209
G1 X84.536 Y97.642 E.04229
G1 X83.564 Y96.357 E0.05154
G1 X82.925 Y95 E.04799
G1 X82.599 Y93.73 E0.04195
G1 X82.499 Y92.398 E.04274
G1 X82.671 Y90.892 E.04849
G1 X83.084 Y89.593 E0.0436
G1 F2398.508
G1 X83.701 Y88.424 E.04231
G1 F2399.342
G1 X84.433 Y87.47 E.03847
G1 X84.826 Y87.099 E0.01728
M107
G1 X85.065 Y87.352 F60000
M107
G1 F2398.87
G1 X85.521 Y86.92 E.0201
G1 F2399.146
G1 X86.886 Y86.058 E.05165
G1 X88.026 Y85.623 E0.03901
G1 X89.193 Y85.391 E.03807
G1 X90.808 Y85.391 E.05168
G1 X92.105 Y85.662 E.0424
G1 X93.266 Y86.135 E.04011
G1 X94.352 Y86.821 E.04109
G1 X95.276 Y87.668 E0.04008
G1 X96.055 Y88.689 E.04109
G1 F2397.109
G1 X96.651 Y89.864 E.04217
G1 X96.706 Y90.04 E0.00589
G1 F2398.26
G1 X97.705 Y90.055 E.03196
G1 F2399.283
G1 X98.933 Y90.297 E.04004
G1 X100.128 Y90.763 E0.04101
G1 X101.222 Y91.436 E.04109
G1 X102.16 Y92.275 E.04026
G1 X103.062 Y93.466 E.0478
G1 X103.639 Y94.656 E.04232
G1 X103.988 Y95.934 E0.04238
G1 X104.094 Y97.267 E.04278
G1 X103.958 Y98.565 E.04175
G1 X103.574 Y99.849 E0.04285
G1 X102.972 Y101.017 E.04204
G1 X102.185 Y102.036 E.04119
G1 X101.281 Y102.855 E.03902
G1 X100.274 Y103.5 E0.03824
G1 X98.954 Y104.034 E.04555
G1 F2398.792
G1 X97.535 Y104.299 E.0462
G1 X96.139 Y104.279 E0.04466
G1 F2399.245
