; generated by SuperSlicer 2.5.59.10 on 2024-05-30 at 19:10:32 UTC


;
;

;
;
; 

; external perimeters extrusion width = 0.60mm
; perimeters extrusion width = 0.60mm
; infill extrusion width = 0.60mm
; solid infill extrusion width = 0.60mm
; top infill extrusion width = 0.60mm
; first layer extrusion width = 0.60mm

; object:{"name":"OPTIONAL_4x_mellow--super-8-spacer","id":"OPTIONAL_4x_mellow--super-8-spacer.stl id:0 copy 0","object_center":[84.000000,98.485069,0.000000],"boundingbox_center":[84.000000,98.485069,2.000000],"boundingbox_size":[7.000000,6.970139,4.000000]}
EXCLUDE_OBJECT_DEFINE NAME=OPTIONAL_4x_mellow_super_8_spacer_stl_id_0_copy_0 CENTER=84.000000,98.485069 POLYGON=[[80.50,98.49],[80.56,97.84],[80.74,97.22],[81.02,96.64],[81.41,96.13],[81.89,95.69],[82.44,95.35],[83.04,95.12],[83.68,95.00],[84.32,95.00],[84.96,95.12],[85.56,95.35],[86.11,95.69],[86.59,96.13],[86.98,96.64],[87.26,97.22],[87.44,97.84],[87.50,98.49],[87.44,99.13],[87.26,99.75],[86.98,100.33],[86.59,100.84],[86.11,101.28],[85.56,101.62],[84.96,101.85],[84.32,101.97],[83.68,101.97],[83.04,101.85],[82.44,101.62],[81.89,101.28],[81.41,100.84],[81.02,100.33],[80.74,99.75],[80.56,99.13],[80.50,98.49]]
; object:{"name":"OPTIONAL_4x_mellow--super-8-spacer","id":"OPTIONAL_4x_mellow--super-8-spacer.stl id:0 copy 1","object_center":[84.000000,86.514931,0.000000],"boundingbox_center":[84.000000,86.514931,2.000000],"boundingbox_size":[7.000000,6.970139,4.000000]}
EXCLUDE_OBJECT_DEFINE NAME=OPTIONAL_4x_mellow_super_8_spacer_stl_id_0_copy_1 CENTER=84.000000,86.514931 POLYGON=[[80.50,86.51],[80.56,85.87],[80.74,85.25],[81.02,84.67],[81.41,84.16],[81.89,83.72],[82.44,83.38],[83.04,83.15],[83.68,83.03],[84.32,83.03],[84.96,83.15],[85.56,83.38],[86.11,83.72],[86.59,84.16],[86.98,84.67],[87.26,85.25],[87.44,85.87],[87.50,86.51],[87.44,87.16],[87.26,87.78],[86.98,88.36],[86.59,88.87],[86.11,89.31],[85.56,89.65],[84.96,89.88],[84.32,90.00],[83.68,90.00],[83.04,89.88],[82.44,89.65],[81.89,89.31],[81.41,88.87],[81.02,88.36],[80.74,87.78],[80.56,87.16],[80.50,86.51]]
; object:{"name":"OPTIONAL_4x_mellow--super-8-spacer","id":"OPTIONAL_4x_mellow--super-8-spacer.stl id:0 copy 2","object_center":[96.000000,98.485069,0.000000],"boundingbox_center":[96.000000,98.485069,2.000000],"boundingbox_size":[7.000000,6.970139,4.000000]}
EXCLUDE_OBJECT_DEFINE NAME=OPTIONAL_4x_mellow_super_8_spacer_stl_id_0_copy_2 CENTER=96.000000,98.485069 POLYGON=[[92.50,98.49],[92.56,97.84],[92.74,97.22],[93.02,96.64],[93.41,96.13],[93.89,95.69],[94.44,95.35],[95.04,95.12],[95.68,95.00],[96.32,95.00],[96.96,95.12],[97.56,95.35],[98.11,95.69],[98.59,96.13],[98.98,96.64],[99.26,97.22],[99.44,97.84],[99.50,98.49],[99.44,99.13],[99.26,99.75],[98.98,100.33],[98.59,100.84],[98.11,101.28],[97.56,101.62],[96.96,101.85],[96.32,101.97],[95.68,101.97],[95.04,101.85],[94.44,101.62],[93.89,101.28],[93.41,100.84],[93.02,100.33],[92.74,99.75],[92.56,99.13],[92.50,98.49]]
; object:{"name":"OPTIONAL_4x_mellow--super-8-spacer","id":"OPTIONAL_4x_mellow--super-8-spacer.stl id:0 copy 3","object_center":[96.000000,86.514931,0.000000],"boundingbox_center":[96.000000,86.514931,2.000000],"boundingbox_size":[7.000000,6.970139,4.000000]}
EXCLUDE_OBJECT_DEFINE NAME=OPTIONAL_4x_mellow_super_8_spacer_stl_id_0_copy_3 CENTER=96.000000,86.514931 POLYGON=[[92.50,86.51],[92.56,85.87],[92.74,85.25],[93.02,84.67],[93.41,84.16],[93.89,83.72],[94.44,83.38],[95.04,83.15],[95.68,83.03],[96.32,83.03],[96.96,83.15],[97.56,83.38],[98.11,83.72],[98.59,84.16],[98.98,84.67],[99.26,85.25],[99.44,85.87],[99.50,86.51],[99.44,87.16],[99.26,87.78],[98.98,88.36],[98.59,88.87],[98.11,89.31],[97.56,89.65],[96.96,89.88],[96.32,90.00],[95.68,90.00],[95.04,89.88],[94.44,89.65],[93.89,89.31],[93.41,88.87],[93.02,88.36],[92.74,87.78],[92.56,87.16],[92.50,86.51]]
; plater:{"center":[90.000000,92.500000,0.000000],"boundingbox_center":[90.000000,92.500000,2.000000],"boundingbox_size":[19.000000,18.940277,4.000000]}

M107
;TYPE:Custom
START_PRINT EXTRUDER=250 BED=100
M107
G21 ; set units to millimeters
G90 ; use absolute coordinates
M83 ; use relative distances for extrusion
; Filament gcode
FILAMENT_START MATERIAL=ASA COLOR=#368900 VENDOR=123-3D
;SET_PRESSURE_ADVANCE ADVANCE=0.062
SET_PRESSURE_ADVANCE ADVANCE=0.055
M104 S250 ; set temperature
M109 S250 ; set temperature and wait for it to be reached
M190 S100 ; set bed temperature and wait for it to be reached
;LAYER_CHANGE
;Z:0.24
;HEIGHT:0.24
G1 E-1 F3600
G1 Z0.24 F360000
G92 E0
M204 S750
G1 X78.188 Y80.618
G1 E1 F3600
;TYPE:Skirt
;WIDTH:0.45
M107
G1 F2399.508
G1 X77.203 Y81.786 E.05589
G1 X76.738 Y82.539 E0.03236
G1 X76.131 Y83.941 E.05589
G1 F2397.187
G1 X75.792 Y85.43 E.05589
G1 X75.732 Y86.073 E0.02359
G1 F2396.908
G1 X75.732 Y90.358 Z.24 E.15675
G1 F2397.856
G1 X75.732 Y94.642 Z.24 E.15675
G1 F2399.277
G1 X75.732 Y98.927 Z.24 E.15675
G1 X75.954 Y100.439 E0.05589
G1 X76.45 Y101.884 E.05589
G1 X76.738 Y102.461 E.02359
G1 X77.592 Y103.728 E.05589
G1 X78.188 Y104.382 E0.03236
G1 F2396.967
G1 X79.37 Y105.349 E.05589
G1 X79.919 Y105.689 E0.02359
G1 F2397.662
G1 X81.312 Y106.316 E.05589
G1 X82.797 Y106.677 E0.05589
G1 F2399.825
G1 X83.678 Y106.758 E.03236
G1 X87.893 Y106.758 Z.24 E.15419
G1 X92.107 Y106.758 Z.24 E.15419
G1 X96.322 Y106.758 Z.24 E.15419
G1 X97.203 Y106.677 E.03236
G1 X98.688 Y106.316 E0.05589
G1 X100.081 Y105.689 E.05589
G1 X101.335 Y104.816 E0.05589
G1 X101.812 Y104.382 E.02359
G1 X102.797 Y103.214 E.05589
G1 X103.262 Y102.461 E0.03236
G1 X103.869 Y101.059 E.05589
G1 F2397.19
G1 X104.208 Y99.57 E.05589
G1 X104.268 Y98.927 E0.02359
G1 F2396.889
G1 X104.275 Y94.79 Z.24 E.15135
G1 F2397.661
G1 X104.281 Y90.652 Z.24 E.15135
G1 F2398.818
G1 X104.288 Y86.515 Z.24 E.15135
G1 X104.208 Y85.43 E0.03978
G1 F2397.787
G1 X104.046 Y84.561 E.03236
G1 F2399.52
G1 X103.55 Y83.116 E.05589
G1 X102.797 Y81.786 E0.05589
G1 X101.812 Y80.618 E.05589
G1 X101.335 Y80.184 E.02359
G1 F2397.081
G1 X100.63 Y79.651 E.03236
G1 X99.289 Y78.917 E0.05589
G1 F2398.75
G1 X97.837 Y78.442 E.05589
G1 X97.203 Y78.323 E0.02359
G1 F2399.782
G1 X96.322 Y78.242 E.03236
G1 X92.107 Y78.242 Z.24 E.15419
G1 X87.893 Y78.242 Z.24 E.15419
G1 X83.678 Y78.242 Z.24 E.15419
G1 X82.797 Y78.323 E.03236
G1 X81.312 Y78.684 E0.05589
G1 X79.919 Y79.311 E.05589
G1 F2387.652
G1 X78.665 Y80.184 E.05589
G1 F2369.473
G1 X78.232 Y80.578 E.0214
M107
G1 X78.501 Y80.872 F360000
M107
G1 F2400
G1 X78.456 Y80.913 E0.00219
G1 F2378.913
G1 X77.521 Y82.027 E.0532
G1 F2395.031
G1 X77.095 Y82.716 E.02967
G1 X76.514 Y84.05 E0.0532
G1 F2398.7
G1 X76.189 Y85.467 E.0532
G1 F2399.785
G1 X76.129 Y86.109 E.02359
G1 X76.129 Y98.891 E0.46755
G1 X76.338 Y100.33 E.0532
G1 F2397.553
G1 X76.807 Y101.706 E.0532
G1 X77.095 Y102.284 E0.02359
G1 F2398.003
G1 X77.91 Y103.488 E.0532
G1 F2397.988
G1 X78.456 Y104.087 E.02967
G1 F2399.959
G1 X79.58 Y105.011 E.0532
G1 X80.129 Y105.35 E0.02359
G1 X81.456 Y105.945 E.0532
G1 X82.87 Y106.285 E.0532
G1 X83.678 Y106.36 E0.02967
G1 F2398.648
G1 X87.893 Y106.36 Z.24 E.15419
G1 X92.107 Y106.36 Z.24 E.15419
G1 X96.322 Y106.36 Z.24 E.15419
G1 X97.764 Y106.167 E0.0532
G1 X99.145 Y105.712 E.0532
G1 F2399.983
G1 X99.871 Y105.35 E.02967
G1 F2398.994
G1 X101.067 Y104.522 E.0532
G1 X101.544 Y104.087 E0.02359
G1 X102.479 Y102.973 E.0532
G1 F2396.356
G1 X102.905 Y102.284 E.02967
G1 X103.486 Y100.95 E0.0532
G1 F2398.7
G1 X103.811 Y99.533 E.0532
G1 F2399.813
G1 X103.871 Y98.891 E.02359
G1 X103.877 Y94.766 Z.24 E.1509
G1 X103.884 Y90.64 Z.24 E.1509
G1 X103.89 Y86.515 Z.24 E.1509
G1 X103.811 Y85.467 E0.03843
G1 X103.662 Y84.67 E.02967
G1 X103.193 Y83.294 E.0532
G1 X102.479 Y82.027 E.0532
G1 F2398.773
G1 X101.544 Y80.913 E.0532
G1 X101.067 Y80.478 E0.02359
G1 F2397.947
G1 X100.42 Y79.989 E.02967
G1 X99.145 Y79.288 E0.0532
G1 F2398.929
G1 X97.764 Y78.833 E.0532
G1 F2399.44
G1 X97.13 Y78.715 E.02359
G1 X96.322 Y78.64 E0.02967
G1 F2398.604
G1 X92.107 Y78.64 Z.24 E.15419
G1 X87.893 Y78.64 Z.24 E.15419
G1 X83.678 Y78.64 Z.24 E.15419
G1 X82.87 Y78.715 E0.02967
G1 F2399.41
G1 X81.456 Y79.055 E.0532
G1 X80.129 Y79.65 E.0532
G1 X78.933 Y80.478 E.0532
G1 F2397.377
G1 X78.545 Y80.832 E.0192
M107
G1 X78.814 Y81.126 F360000
M107
G1 F2400
G1 X78.725 Y81.207 E0.00439
G1 F2396.979
G1 X77.839 Y82.267 E.05052
G1 F2398.947
G1 X77.451 Y82.894 E.02698
G1 X76.897 Y84.159 E0.05052
G1 F2399.762
G1 X76.585 Y85.504 E.05052
G1 X76.526 Y86.146 E.02359
G1 X76.526 Y98.854 E0.46486
G1 X76.721 Y100.221 E.05052
G1 X77.164 Y101.529 E0.05052
G1 F2398.24
G1 X77.451 Y102.106 E.02359
G1 X78.228 Y103.248 E0.05052
G1 F2399.864
G1 X78.725 Y103.793 E.02698
G1 X79.79 Y104.672 E.05052
G1 F2397.914
G1 X80.338 Y105.011 E.02359
G1 X81.6 Y105.573 E0.05052
G1 X82.943 Y105.893 E.05052
G1 X83.678 Y105.961 E0.02698
G1 F2398.045
G1 X87.893 Y105.961 Z.24 E.15419
G1 X92.107 Y105.961 Z.24 E.15419
G1 X96.322 Y105.961 Z.24 E.15419
G1 X97.691 Y105.775 E0.05052
G1 F2397.004
G1 X99.001 Y105.34 E.05052
G1 X99.662 Y105.011 E0.02698
G1 X100.798 Y104.227 E.05052
G1 F2399.627
G1 X101.275 Y103.793 E.02359
G1 X102.161 Y102.733 E0.05052
G1 F2398.947
G1 X102.549 Y102.106 E.02698
G1 X103.103 Y100.841 E0.05052
G1 F2399.762
G1 X103.415 Y99.496 E.05052
G1 X103.474 Y98.854 E.02359
G1 X103.491 Y86.515 E0.45137
G1 X103.415 Y85.504 E.03709
G1 X103.279 Y84.779 E0.02698
G1 X102.836 Y83.471 E.05052
G1 F2398.357
G1 X102.161 Y82.267 E.05052
G1 X101.275 Y81.207 E0.05052
G1 F2399.627
G1 X100.798 Y80.773 E.02359
G1 X100.21 Y80.328 E.02698
G1 X99.001 Y79.66 E0.05052
G1 F2398.541
G1 X97.691 Y79.225 E.05052
G1 F2399.076
G1 X97.057 Y79.107 E.02359
G1 X96.322 Y79.039 E0.02698
G1 F2397.882
G1 X92.107 Y79.039 Z.24 E.15419
G1 X87.893 Y79.039 Z.24 E.15419
G1 X83.678 Y79.039 Z.24 E.15419
G1 X82.943 Y79.107 E0.02698
G1 X81.6 Y79.427 E.05052
G1 X80.338 Y79.989 E0.05052
G1 F2398.029
G1 X79.202 Y80.773 E.05052
G1 X78.858 Y81.086 E0.01701
M107
G1 X79.155 Y81.383 F360000
M107
G1 F2397.656
G1 X78.546 Y81.992 E.03152
G1 X78.157 Y82.507 E0.02359
G1 F2395.893
G1 X77.808 Y83.071 E.02429
G1 X77.281 Y84.268 E0.04783
G1 F2399.789
G1 X76.982 Y85.541 E.04783
G1 X76.923 Y86.183 E.02359
G1 X76.923 Y90.394 Z.24 E.15406
G1 X76.923 Y94.606 Z.24 E.15406
G1 X76.923 Y98.817 Z.24 E.15406
G1 X77.104 Y100.112 E0.04783
G1 F2397.265
G1 X77.52 Y101.351 E.04783
G1 X77.808 Y101.929 E0.02359
G1 F2398.08
G1 X78.546 Y103.008 E.04783
G1 F2396.902
G1 X78.993 Y103.498 E.02429
G1 X80 Y104.333 E0.04783
G1 F2399.448
G1 X80.548 Y104.673 E.02359
G1 X81.744 Y105.201 E.04783
G1 F2397.989
G1 X83.016 Y105.502 E.04783
G1 X83.678 Y105.563 E0.02429
G1 X87.893 Y105.563 Z.24 E.15419
G1 X92.107 Y105.563 Z.24 E.15419
G1 F2398.07
G1 X96.322 Y105.563 Z.24 E.15419
G1 X97.618 Y105.383 E0.04783
G1 F2397.399
G1 X98.857 Y104.968 E.04783
G1 X99.452 Y104.673 E0.02429
G1 F2399.839
G1 X100.53 Y103.933 E.04783
G1 F2398.853
G1 X101.454 Y103.008 E.04783
G1 X101.843 Y102.493 E0.02359
G1 F2395.893
G1 X102.192 Y101.929 E.02429
G1 X102.719 Y100.732 E0.04783
G1 F2399.789
G1 X103.018 Y99.459 E.04783
G1 X103.077 Y98.817 E.02359
G1 X103.082 Y94.716 Z.24 E.15001
G1 X103.088 Y90.616 Z.24 E.15001
G1 X103.093 Y86.515 Z.24 E.15001
G1 X102.896 Y84.888 E0.05994
G1 F2398.667
G1 X102.48 Y83.649 E.04783
G1 F2399.134
G1 X101.843 Y82.507 E.04783
G1 X101.454 Y81.992 E0.02359
G1 F2398.903
G1 X100.53 Y81.067 E.04783
G1 F2399.949
G1 X100 Y80.667 E.02429
G1 X98.857 Y80.032 E0.04783
G1 F2398.061
G1 X97.618 Y79.617 E.04783
G1 X96.984 Y79.498 E.02359
G1 X96.322 Y79.437 E0.02429
G1 F2396.906
G1 X92.107 Y79.437 Z.24 E.15419
G1 X87.893 Y79.437 Z.24 E.15419
G1 X83.678 Y79.437 Z.24 E.15419
G1 X83.016 Y79.498 E0.02429
G1 F2397.989
G1 X81.744 Y79.799 E.04783
G1 F2399.841
G1 X80.548 Y80.327 E.04783
G1 F2398.891
G1 X79.47 Y81.067 E.04783
G1 X79.197 Y81.34 E0.01411
M107
G1 X79.478 Y81.621 F360000
M107
G1 F2399.16
G1 X78.864 Y82.232 E.03167
G1 X78.475 Y82.747 E0.02359
G1 F2396.868
G1 X78.165 Y83.249 E.0216
G1 F2399.899
G1 X77.664 Y84.377 E.04514
G1 X77.379 Y85.578 E0.04514
G1 X77.319 Y86.22 E.02359
G1 X77.319 Y90.407 Z.24 E.15316
G1 X77.319 Y94.593 Z.24 E.15316
G1 F2398.902
G1 X77.319 Y98.78 Z.24 E.15316
G1 X77.487 Y100.003 E0.04514
G1 F2399.764
G1 X77.877 Y101.174 E.04514
G1 X78.165 Y101.751 E.02359
G1 X78.864 Y102.768 E0.04514
G1 X79.262 Y103.204 E.0216
G1 X80.21 Y103.994 E.04514
G1 X80.758 Y104.334 E.02359
G1 X81.888 Y104.83 E.04514
G1 X83.09 Y105.11 E0.04514
G1 X83.678 Y105.164 E.0216
G1 X87.893 Y105.164 Z.24 E.15419
G1 X92.107 Y105.164 Z.24 E.15419
G1 X96.322 Y105.164 Z.24 E.15419
G1 X96.91 Y105.11 E.0216
G1 X98.112 Y104.83 E0.04514
G1 X99.242 Y104.334 E.04514
G1 X100.262 Y103.638 E0.04514
G1 F2396.688
G1 X101.136 Y102.768 E.04514
G1 X101.525 Y102.253 E0.02359
G1 X101.835 Y101.751 E.0216
G1 F2399.899
G1 X102.336 Y100.623 E.04514
G1 X102.621 Y99.422 E0.04514
G1 X102.681 Y98.78 E.02359
G1 X102.685 Y94.692 Z.24 E.14956
G1 X102.69 Y90.603 Z.24 E.14956
G1 X102.694 Y86.515 Z.24 E.14956
G1 X102.513 Y84.997 E.05592
G1 X102.123 Y83.826 E0.04514
G1 F2398.095
G1 X101.525 Y82.747 E.04514
G1 X101.136 Y82.232 E0.02359
G1 F2396.688
G1 X100.262 Y81.362 E.04514
G1 X99.242 Y80.666 E0.04514
G1 X98.714 Y80.403 E.0216
G1 X97.544 Y80.009 E0.04514
G1 F2399.777
G1 X96.91 Y79.89 E.02359
G1 X96.322 Y79.836 E.0216
G1 X92.107 Y79.836 Z.24 E.15419
G1 X87.893 Y79.836 Z.24 E.15419
G1 X83.678 Y79.836 Z.24 E.15419
G1 X83.09 Y79.89 E.0216
G1 X81.888 Y80.17 E0.04514
G1 X80.758 Y80.666 E.04514
G1 X79.738 Y81.362 E0.04514
G1 F2397.189
G1 X79.52 Y81.579 E.01127
M107
G1 X78.511 Y80.51 F360000
;WIDTH:0.6
M107
G1 F1748.577
G1 X78.863 Y80.178 E.02438
G1 F1764.235
G1 X80.114 Y79.342 E.07572
G1 F1784.497
G1 X81.571 Y78.727 E.07963
G1 F1806.037
G1 X83.123 Y78.405 E.07983
G1 F1829.147
G1 X84.808 Y78.397 E.08486
G1 F1853.327
G1 X86.351 Y78.704 E.07919
G1 F1874.47
G1 X87.716 Y79.253 E.07409
G1 F1897.293
G1 X89.036 Y80.097 E.07887
G1 F1917.4
G1 X89.996 Y80.994 E.06618
G1 F1937.504
G1 X90.943 Y80.115 E.06506
G1 F1958.507
G1 X92.213 Y79.289 E.07629
G1 F1982.577
G1 X93.627 Y78.71 E.07691
G1 F2005.192
G1 X95.178 Y78.399 E.07968
G1 F2031.755
G1 X96.862 Y78.403 E.08478
G1 F2056.746
G1 X98.303 Y78.689 E.07396
G1 F2080.38
G1 X99.67 Y79.229 E.07399
G1 F2104.808
G1 X101.079 Y80.131 E.08426
G1 F2131.713
G1 X102.136 Y81.139 E.07352
G1 F2156.046
G1 X103.021 Y82.362 E.076
G1 F2180.319
G1 X103.666 Y83.725 E.07595
G1 F2206.494
G1 X104.04 Y85.137 E.07354
G1 F2232.054
G1 X104.155 Y86.664 E.0771
G1 F2258.137
G1 X103.994 Y88.138 E.07466
G1 F2285.361
G1 X103.527 Y89.657 E.08001
G1 F2311.969
G1 X102.811 Y91.004 E.07684
G1 F2339.437
G1 X102.029 Y92.01 E.06412
G1 F2354.488
G1 X101.505 Y92.507 E.03639
G1 F2368.33
G1 X102.132 Y93.105 E.04367
G1 F2389.688
G1 X103.046 Y94.375 E.07876
G1 F2399.583
G1 X103.683 Y95.744 E.07603
G1 X104.057 Y97.211 E.07624
G1 X104.153 Y98.739 E0.07708
G1 X103.973 Y100.211 E.07467
G1 X103.507 Y101.675 E.07738
G1 X102.783 Y103.016 E0.07673
G1 X102.028 Y103.981 E.0617
G1 X101.135 Y104.824 E0.06182
G1 X99.829 Y105.688 E.07883
G1 X98.314 Y106.308 E.08243
G1 X96.713 Y106.612 E.08206
G1 X95.195 Y106.603 E0.07642
G1 X93.75 Y106.326 E.07408
G1 F2398.635
G1 X92.281 Y105.746 E.07955
G1 X90.96 Y104.899 E0.07898
G1 X90.004 Y104.006 E.0659
G1 F2399.683
G1 X89.056 Y104.886 E.06514
G1 X87.781 Y105.714 E.07654
G1 X86.317 Y106.307 E0.07951
G1 F2398.425
G1 X84.824 Y106.601 E.07664
G1 X83.302 Y106.613 E0.0766
G1 X81.801 Y106.341 E.07684
G1 X80.33 Y105.771 E0.07941
G1 F2399.945
G1 X79.044 Y104.965 E.0764
G1 X77.901 Y103.902 E.07859
G1 X76.978 Y102.638 E.07883
G1 X76.315 Y101.221 E.07878
G1 X75.934 Y99.703 E0.07877
G1 X75.846 Y98.28 E.07179
G1 X76.006 Y96.86 E0.07194
G1 X76.473 Y95.343 E.07994
G1 F2398.667
G1 X77.189 Y93.996 E.07684
G1 X77.971 Y92.99 E0.06412
G1 X78.496 Y92.493 E.0364
G1 X77.865 Y91.892 E0.04385
G1 X76.953 Y90.625 E.07862
G1 X76.317 Y89.256 E0.07599
G1 F2399.212
G1 X75.943 Y87.789 E.07624
G1 X75.847 Y86.261 E0.07708
G1 X76.027 Y84.789 E.07467
G1 X76.493 Y83.325 E.07738
G1 X77.217 Y81.984 E0.07673
G1 F2395.49
G1 X77.972 Y81.019 E.0617
G1 F2387.889
G1 X78.468 Y80.551 E.0343
M107
;WIPE_START
G1 F288000
G1 X77.972 Y81.019 E-0.00809
G1 X77.217 Y81.984 E-0.01455
