; generated by SuperSlicer 2.5.59.9 on 2024-05-08 at 02:22:25 UTC


;
;

;
;

;
;

;
;

;
;
; 

; external perimeters extrusion width = 0.40mm
; perimeters extrusion width = 0.40mm
; infill extrusion width = 0.40mm
; solid infill extrusion width = 0.40mm
; top infill extrusion width = 0.40mm

; object:{"name":"Part 1","id":"Part 1 id:0 copy 0","object_center":[58.042926,68.638605,0.000000],"boundingbox_center":[58.042926,68.638605,1.000000],"boundingbox_size":[22.500000,22.500000,2.000000]}
EXCLUDE_OBJECT_DEFINE NAME=Part_1_id_0_copy_0 CENTER=58.042926,68.638605 POLYGON=[[46.79,68.64],[46.80,68.15],[46.84,67.66],[46.89,67.17],[46.96,66.69],[47.06,66.20],[47.18,65.73],[47.31,65.26],[47.47,64.79],[47.65,64.33],[47.85,63.88],[48.06,63.44],[48.30,63.01],[48.55,62.59],[48.83,62.19],[49.12,61.79],[49.42,61.41],[49.75,61.04],[50.09,60.68],[50.44,60.34],[50.81,60.02],[51.19,59.71],[51.59,59.42],[52.00,59.15],[52.42,58.90],[52.85,58.66],[53.29,58.44],[53.74,58.24],[54.20,58.07],[54.66,57.91],[55.13,57.77],[55.61,57.66],[56.09,57.56],[56.57,57.48],[57.06,57.43],[57.55,57.40],[58.04,57.39],[58.53,57.40],[59.02,57.43],[59.51,57.48],[60.00,57.56],[60.48,57.66],[60.95,57.77],[61.43,57.91],[61.89,58.07],[62.35,58.24],[62.80,58.44],[63.24,58.66],[63.67,58.90],[64.09,59.15],[64.50,59.42],[64.89,59.71],[65.27,60.02],[65.64,60.34],[66.00,60.68],[66.34,61.04],[66.66,61.41],[66.97,61.79],[67.26,62.19],[67.53,62.59],[67.79,63.01],[68.02,63.44],[68.24,63.88],[68.44,64.33],[68.61,64.79],[68.77,65.26],[68.91,65.73],[69.03,66.20],[69.12,66.69],[69.20,67.17],[69.25,67.66],[69.28,68.15],[69.29,68.64],[69.28,69.13],[69.25,69.62],[69.20,70.11],[69.12,70.59],[69.03,71.07],[68.91,71.55],[68.77,72.02],[68.61,72.49],[68.44,72.94],[68.24,73.39],[68.02,73.83],[67.79,74.26],[67.53,74.68],[67.26,75.09],[66.97,75.49],[66.66,75.87],[66.34,76.24],[66.00,76.59],[65.64,76.93],[65.27,77.26],[64.89,77.56],[64.50,77.85],[64.09,78.13],[63.67,78.38],[63.24,78.62],[62.80,78.83],[62.35,79.03],[61.89,79.21],[61.43,79.37],[60.95,79.51],[60.48,79.62],[60.00,79.72],[59.51,79.79],[59.02,79.85],[58.53,79.88],[58.04,79.89],[57.55,79.88],[57.06,79.85],[56.57,79.79],[56.09,79.72],[55.61,79.62],[55.13,79.51],[54.66,79.37],[54.20,79.21],[53.74,79.03],[53.29,78.83],[52.85,78.62],[52.42,78.38],[52.00,78.13],[51.59,77.85],[51.19,77.56],[50.81,77.26],[50.44,76.93],[50.09,76.59],[49.75,76.24],[49.42,75.87],[49.12,75.49],[48.83,75.09],[48.55,74.68],[48.30,74.26],[48.06,73.83],[47.85,73.39],[47.65,72.94],[47.47,72.49],[47.31,72.02],[47.18,71.55],[47.06,71.07],[46.96,70.59],[46.89,70.11],[46.84,69.62],[46.80,69.13],[46.79,68.64]]
; plater:{"center":[58.042926,68.638605,0.000000],"boundingbox_center":[58.042926,68.638605,1.000000],"boundingbox_size":[22.500000,22.500000,2.000000]}

M73 P0 R2
M107
;TYPE:Custom
CALCULATE_PA MATERIAL=ASA BOWDEN_LENGTH=6 LAYER_HEIGHT=0.25 NOZZLE_SIZE=0.4 PRINT_SPEED=95


START_PRINT EXTRUDER=260 BED=105

G21 ; set units to millimeters
G90 ; use absolute coordinates
M83 ; use relative distances for extrusion
ACTIVATE_EXTRUDER EXTRUDER=extruder
; Filament gcode
M104 S260 T0 ; set temperature
M109 S260 T0 ; set temperature and wait for it to be reached
M190 S105 ; set bed temperature and wait for it to be reached
;LAYER_CHANGE
;Z:0.24
;HEIGHT:0.24
;BEFORE_LAYER_CHANGE
G92 E0.0

G1 E-0.4 F3000
M73 P13 R2
G1 Z0.24 F3600000
;AFTER_LAYER_CHANGE
;0.24




CALCULATE_PA MATERIAL=ASA BOWDEN_LENGTH=6.0 LAYER_HEIGHT=0.2 NOZZLE_SIZE=0.4 PRINT_SPEED=95


G92 E0
G1 Z0.4
G1 X47.43648 Y56.63904
G1 Z0.24
G1 E0.4 F3000
;TYPE:Skirt
;WIDTH:0.4
;HEIGHT:0.25
M107
M73 P14 R2
G1 X48.31508 Y55.90319 E0.04126
G1 X49.50856 Y55.07416 E0.05231
G1 X50.67979 Y54.40397 E0.04858
G1 X51.39236 Y54.05885 E0.0285
G1 X52.50795 Y53.59898 E0.04344
G1 X53.91981 Y53.15225 E0.05331
G1 X55.35088 Y52.84045 E0.05273
G1 X56.73124 Y52.66643 E0.05008
G1 X57.93151 Y52.61393 E0.04325
G1 X58.72533 Y52.62695 E0.02858
G1 X60.16959 Y52.75468 E0.05219
G1 X61.59975 Y53.01238 E0.05231
G1 X62.90171 Y53.36665 E0.04857
G1 X63.64854 Y53.62604 E0.02846
G1 X64.74867 Y54.08319 E0.04289
G1 X66.06324 Y54.7641 E0.05329
G1 X67.31015 Y55.56391 E0.05333
G1 X68.40881 Y56.41652 E0.05006
G1 X69.29059 Y57.22395 E0.04304
G1 X69.84695 Y57.79869 E0.0288
G1 X70.77776 Y58.91 E0.05218
G1 X71.60128 Y60.09486 E0.05194
G1 X72.26853 Y61.25827 E0.04828
G1 X72.62477 Y61.99283 E0.02939
G1 X73.0803 Y63.097 E0.043
G1 X73.52681 Y64.50689 E0.05324
G1 X73.8393 Y65.93713 E0.0527
G1 X74.01501 Y67.32559 E0.05038
G1 X74.0676 Y68.52051 E0.04306
G1 X74.0546 Y69.32035 E0.0288
G1 X73.92698 Y70.7643 E0.05218
G1 X73.67147 Y72.18449 E0.05195
G1 X73.32065 Y73.47888 E0.04828
G1 X73.05313 Y74.25023 E0.02939
G1 X72.59446 Y75.35314 E0.043
G1 X71.91323 Y76.66584 E0.05324
G1 X71.12289 Y77.8981 E0.0527
G1 X70.26534 Y79.00413 E0.05038
G1 X69.4576 Y79.88624 E0.04306
G1 X68.88284 Y80.44263 E0.0288
G1 X67.77153 Y81.37344 E0.05218
G1 X66.58667 Y82.19696 E0.05194
G1 X65.42327 Y82.86421 E0.04828
G1 X64.6887 Y83.22045 E0.02939
G1 X63.58453 Y83.67598 E0.043
G1 X62.1899 Y84.11842 E0.05267
G1 X60.7444 Y84.43498 E0.05327
G1 X59.35594 Y84.61069 E0.05038
G1 X58.16102 Y84.66328 E0.04306
G1 X57.36118 Y84.65028 E0.0288
G1 X55.91723 Y84.52266 E0.05218
G1 X54.49712 Y84.26717 E0.05194
G1 X53.20402 Y83.91677 E0.04823
G1 X52.43744 Y83.65124 E0.0292
G1 X51.32811 Y83.19002 E0.04325
G1 X50.01181 Y82.50667 E0.05339
G1 X48.76189 Y81.7035 E0.05348
G1 X47.84066 Y80.99649 E0.0418
M73 P15 R2
G1 X47.22536 Y80.46286 E0.02932
G1 X46.25302 Y79.49342 E0.04943
G1 X45.30612 Y78.36465 E0.05304
G1 X44.46861 Y77.15724 E0.0529
G1 X43.88837 Y76.15201 E0.04178
G1 X43.52672 Y75.42959 E0.02908
G1 X43.00481 Y74.17749 E0.04883
G1 X42.5606 Y72.77681 E0.0529
G1 X42.2465 Y71.33969 E0.05296
G1 X42.07083 Y69.95162 E0.05037
G1 X42.01825 Y68.7567 E0.04306
G1 X42.03125 Y67.95686 E0.0288
G1 X42.15887 Y66.51291 E0.05218
G1 X42.41438 Y65.09272 E0.05195
G1 X42.7652 Y63.79832 E0.04828
G1 X43.03272 Y63.02697 E0.02939
G1 X43.49139 Y61.92407 E0.043
G1 X44.17262 Y60.61137 E0.05324
G1 X44.96296 Y59.37911 E0.0527
G1 X45.82051 Y58.27307 E0.05038
G1 X46.62827 Y57.39094 E0.04306
G1 X47.20313 Y56.83447 E0.0288
G1 X47.39048 Y56.67756 E0.0088
M107
G1 X47.61254 Y56.94287 F3600000
M107
G1 F3000
G1 X48.53142 Y56.17377 E0.04314
G1 X49.6872 Y55.37098 E0.05066
G1 X50.83623 Y54.71303 E0.04766
G1 X51.52919 Y54.37706 E0.02772
G1 X52.63318 Y53.92198 E0.04299
G1 X54.00144 Y53.48893 E0.05166
G1 X55.402 Y53.18309 E0.05161
G1 X56.75348 Y53.01214 E0.04904
G1 X57.94141 Y52.96018 E0.04281
G1 X58.7133 Y52.97315 E0.02779
G1 X60.13123 Y53.09899 E0.05124
G1 X61.51619 Y53.34859 E0.05066
G1 X62.79381 Y53.69581 E0.04766
G1 X63.52043 Y53.94787 E0.02769
G1 X64.60901 Y54.40022 E0.04244
G1 X65.89674 Y55.06791 E0.05222
G1 X67.10403 Y55.84235 E0.05163
G1 X68.18014 Y56.67674 E0.04902
G1 X69.05281 Y57.47585 E0.0426
G1 X69.59371 Y58.03505 E0.02801
G1 X70.49788 Y59.11416 E0.05068
G1 X71.30463 Y60.27378 E0.05085
G1 X71.95957 Y61.4149 E0.04736
G1 X72.3066 Y62.12977 E0.02861
G1 X72.75734 Y63.22232 E0.04255
G1 X73.19017 Y64.5887 E0.0516
G1 X73.49669 Y65.98843 E0.05158
G1 X73.66931 Y67.34794 E0.04933
G1 X73.72136 Y68.53049 E0.04261
G1 X73.7084 Y69.3084 E0.02801
G1 X73.58471 Y70.71077 E0.05068
G1 X73.33519 Y72.10124 E0.05086
G1 X72.99142 Y73.37117 E0.04736
G1 X72.73131 Y74.12209 E0.02861
G1 X72.27747 Y75.21339 E0.04255
G1 X71.61734 Y76.48564 E0.0516
M73 P16 R2
G1 X70.84435 Y77.6921 E0.05158
G1 X70.00509 Y78.77549 E0.04933
G1 X69.20571 Y79.64847 E0.04261
G1 X68.64648 Y80.18939 E0.02801
G1 X67.56736 Y81.09356 E0.05068
G1 X66.40774 Y81.90031 E0.05085
G1 X65.26663 Y82.55525 E0.04736
G1 X64.55176 Y82.90228 E0.02861
G1 X63.4592 Y83.35302 E0.04255
G1 X62.09283 Y83.78585 E0.0516
G1 X60.6931 Y84.09237 E0.05158
G1 X59.33359 Y84.26499 E0.04933
G1 X58.15104 Y84.31704 E0.04261
G1 X57.37313 Y84.30408 E0.02801
G1 X55.97076 Y84.18039 E0.05068
G1 X54.58035 Y83.93088 E0.05085
G1 X53.31162 Y83.5875 E0.04732
G1 X52.56553 Y83.32941 E0.02842
G1 X51.46789 Y82.87305 E0.04279
G1 X50.17859 Y82.20302 E0.05231
G1 X48.96703 Y81.42435 E0.05185
G1 X48.05566 Y80.72491 E0.04136
G1 X47.45692 Y80.20523 E0.02854
G1 X46.50306 Y79.25364 E0.0485
G1 X45.58613 Y78.16064 E0.05136
G1 X44.76497 Y76.97785 E0.05183
G1 X44.19092 Y75.98335 E0.04134
G1 X43.83917 Y75.28002 E0.02831
G1 X43.32747 Y74.05137 E0.04791
G1 X42.89318 Y72.67981 E0.05179
G1 X42.58912 Y71.28843 E0.05127
G1 X42.41654 Y69.92927 E0.04932
G1 X42.36449 Y68.74672 E0.04261
G1 X42.37745 Y67.96881 E0.02801
G1 X42.50114 Y66.56644 E0.05068
G1 X42.75066 Y65.17596 E0.05086
G1 X43.09443 Y63.90603 E0.04736
G1 X43.35454 Y63.15512 E0.02861
G1 X43.80838 Y62.06382 E0.04255
G1 X44.4685 Y60.79157 E0.0516
G1 X45.2415 Y59.5851 E0.05158
G1 X46.08076 Y58.50172 E0.04933
G1 X46.88017 Y57.62872 E0.04261
G1 X47.43946 Y57.08774 E0.02801
G1 X47.56653 Y56.98138 E0.00597
M107
G1 X47.78858 Y57.24657 F3600000
M107
G1 F3000
G1 X48.7355 Y56.45372 E0.04446
G1 X49.86595 Y55.66773 E0.04956
G1 X50.9928 Y55.02203 E0.04675
G1 X51.66606 Y54.69527 E0.02694
G1 X52.75838 Y54.245 E0.04253
G1 X54.09829 Y53.82156 E0.05059
G1 X55.45324 Y53.52571 E0.04993
G1 X56.77575 Y53.35785 E0.04799
G1 X57.95127 Y53.30643 E0.04236
G1 X58.70118 Y53.31934 E0.027
G1 X60.07759 Y53.44124 E0.04974
G1 X61.43275 Y53.68482 E0.04957
G1 X62.68603 Y54.02502 E0.04675
G1 X63.39235 Y54.2697 E0.02691
M73 P17 R2
G1 X64.46935 Y54.71725 E0.04199
G1 X65.71656 Y55.3638 E0.05057
G1 X66.89803 Y56.12088 E0.05051
G1 X67.95149 Y56.93699 E0.04797
G1 X68.81501 Y57.72771 E0.04215
G1 X69.34037 Y58.27131 E0.02721
G1 X70.22736 Y59.33059 E0.04974
G1 X71.00803 Y60.45278 E0.04921
G1 X71.65067 Y61.57166 E0.04645
G1 X71.98844 Y62.26675 E0.02782
G1 X72.43436 Y63.34761 E0.04209
G1 X72.85758 Y64.68565 E0.05052
G1 X73.15409 Y66.03983 E0.0499
G1 X73.32362 Y67.37033 E0.04828
G1 X73.37511 Y68.54044 E0.04216
G1 X73.36221 Y69.29633 E0.02722
G1 X73.24039 Y70.67252 E0.04974
G1 X72.99889 Y72.01808 E0.04921
G1 X72.66215 Y73.26359 E0.04645
G1 X72.40949 Y73.99398 E0.02782
G1 X71.96048 Y75.07364 E0.04209
G1 X71.32139 Y76.30556 E0.04996
G1 X70.56572 Y77.48623 E0.05046
G1 X69.74481 Y78.54688 E0.04828
G1 X68.95384 Y79.41067 E0.04216
G1 X68.41022 Y79.93605 E0.02722
G1 X67.35094 Y80.82304 E0.04974
G1 X66.22875 Y81.60371 E0.04921
G1 X65.10987 Y82.24635 E0.04645
G1 X64.41478 Y82.58413 E0.02782
G1 X63.33392 Y83.03004 E0.04209
G1 X61.99588 Y83.45326 E0.05052
G1 X60.6417 Y83.74977 E0.0499
G1 X59.3112 Y83.91929 E0.04828
G1 X58.14109 Y83.97079 E0.04216
G1 X57.3852 Y83.95789 E0.02722
G1 X56.00901 Y83.83607 E0.04974
G1 X54.6635 Y83.59458 E0.04921
G1 X53.4191 Y83.2582 E0.0464
G1 X52.69359 Y83.00756 E0.02763
G1 X51.60767 Y82.55607 E0.04234
G1 X50.35905 Y81.90729 E0.05065
G1 X49.17214 Y81.14517 E0.05078
G1 X48.2707 Y80.45334 E0.04091
G1 X47.68855 Y79.94766 E0.02776
G1 X46.76338 Y79.02505 E0.04704
G1 X45.86604 Y77.95651 E0.05023
G1 X45.0613 Y76.79841 E0.05077
G1 X44.49348 Y75.81471 E0.04089
G1 X44.15167 Y75.13057 E0.02753
G1 X43.65015 Y73.92532 E0.04699
G1 X43.22982 Y72.59801 E0.05012
G1 X42.93172 Y71.23701 E0.05016
G1 X42.76223 Y69.90688 E0.04827
G1 X42.71074 Y68.73677 E0.04216
G1 X42.72364 Y67.98088 E0.02722
G1 X42.84546 Y66.60469 E0.04974
G1 X43.08696 Y65.25913 E0.04921
G1 X43.4237 Y64.01362 E0.04645
G1 X43.67636 Y63.28323 E0.02782
G1 X44.12537 Y62.20357 E0.04209
M73 P18 R2
G1 X44.76446 Y60.97166 E0.04996
G1 X45.52013 Y59.79097 E0.05046
G1 X46.34104 Y58.73033 E0.04828
G1 X47.13203 Y57.86652 E0.04216
G1 X47.67571 Y57.34108 E0.02722
G1 X47.74257 Y57.28509 E0.00314
M107
G1 X47.96469 Y57.55026 F3600000
M107
G1 F3000
G1 X48.93969 Y56.73358 E0.04579
G1 X50.04481 Y55.96442 E0.04847
G1 X51.14948 Y55.33097 E0.04584
G1 X51.80296 Y55.01345 E0.02615
G1 X52.88359 Y54.56801 E0.04208
G1 X54.18001 Y54.15822 E0.04895
G1 X55.50463 Y53.86832 E0.04881
G1 X56.79807 Y53.70355 E0.04694
G1 X57.9611 Y53.65268 E0.04191
G1 X58.68897 Y53.66553 E0.02621
G1 X60.02408 Y53.78352 E0.04825
G1 X61.34942 Y54.02108 E0.04847
G1 X62.57839 Y54.35427 E0.04584
G1 X63.26431 Y54.59156 E0.02613
G1 X64.3297 Y55.03428 E0.04153
G1 X65.53649 Y55.65977 E0.04893
G1 X66.69215 Y56.39951 E0.0494
G1 X67.72287 Y57.19727 E0.04692
G1 X68.57719 Y57.97955 E0.0417
G1 X69.08697 Y58.50749 E0.02642
G1 X69.94754 Y59.53484 E0.04824
G1 X70.71149 Y60.63188 E0.04812
G1 X71.34183 Y61.72854 E0.04554
G1 X71.6703 Y62.40376 E0.02703
G1 X72.11138 Y63.47291 E0.04163
G1 X72.52096 Y64.76754 E0.04888
G1 X72.81151 Y66.0914 E0.04879
G1 X72.97792 Y67.39275 E0.04723
G1 X73.02886 Y68.55035 E0.04171
G1 X73.01602 Y69.28415 E0.02642
G1 X72.8981 Y70.61909 E0.04824
G1 X72.66256 Y71.93503 E0.04813
G1 X72.33284 Y73.15614 E0.04553
G1 X72.08765 Y73.8659 E0.02703
G1 X71.64351 Y74.93386 E0.04164
G1 X71.01763 Y76.13898 E0.04888
G1 X70.28702 Y77.28046 E0.04879
G1 X69.48451 Y78.31829 E0.04723
G1 X68.702 Y79.17284 E0.04171
M73 P18 R1
G1 X68.17404 Y79.68265 E0.02642
G1 X67.14669 Y80.54322 E0.04824
G1 X66.04965 Y81.30716 E0.04812
G1 X64.953 Y81.93751 E0.04554
G1 X64.27777 Y82.26598 E0.02703
G1 X63.20862 Y82.70707 E0.04163
G1 X61.91399 Y83.11664 E0.04888
G1 X60.59013 Y83.40719 E0.04879
G1 X59.28878 Y83.5736 E0.04723
G1 X58.13118 Y83.62454 E0.04171
G1 X57.39738 Y83.6117 E0.02642
G1 X56.06244 Y83.49378 E0.04824
G1 X54.74654 Y83.25825 E0.04812
G1 X53.52644 Y82.92885 E0.04549
G1 X52.82161 Y82.68569 E0.02684
G1 X51.74748 Y82.23911 E0.04188
G1 X50.52589 Y81.60367 E0.04957
M73 P19 R1
G1 X49.37726 Y80.866 E0.04914
G1 X48.48576 Y80.1818 E0.04046
G1 X47.92027 Y79.69018 E0.02697
G1 X47.01344 Y78.78529 E0.04612
G1 X46.13644 Y77.73994 E0.04912
G1 X45.35764 Y76.61899 E0.04914
G1 X44.79607 Y75.64611 E0.04044
G1 X44.46423 Y74.98124 E0.02675
G1 X43.97288 Y73.79938 E0.04608
G1 X43.56243 Y72.50108 E0.04902
G1 X43.2743 Y71.18549 E0.04848
G1 X43.10793 Y69.88446 E0.04722
G1 X43.05699 Y68.72686 E0.04171
G1 X43.06983 Y67.99306 E0.02642
G1 X43.18775 Y66.65812 E0.04824
G1 X43.42329 Y65.34218 E0.04813
G1 X43.75301 Y64.12107 E0.04553
G1 X43.99821 Y63.41131 E0.02703
G1 X44.44234 Y62.34335 E0.04164
G1 X45.06822 Y61.13823 E0.04888
G1 X45.79883 Y59.99675 E0.04879
G1 X46.60134 Y58.95892 E0.04723
G1 X47.38387 Y58.10434 E0.04171
G1 X47.91869 Y57.58879 E0.02674
M107
G1 X48.14797 Y57.84798 F3600000
M107
G1 F3000
G1 X49.1561 Y57.0041 E0.04733
G1 X50.22373 Y56.26107 E0.04683
G1 X51.3063 Y55.63984 E0.04493
G1 X51.9399 Y55.33163 E0.02536
G1 X53.00879 Y54.89102 E0.04162
G1 X54.26186 Y54.49485 E0.04731
G1 X55.55618 Y54.21089 E0.0477
G1 X56.82042 Y54.04925 E0.04588
G1 X57.97088 Y53.99893 E0.04145
G1 X58.67661 Y54.01171 E0.02541
G1 X59.98581 Y54.12784 E0.04731
G1 X61.26618 Y54.35736 E0.04683
G1 X62.47088 Y54.68356 E0.04493
G1 X63.1363 Y54.91343 E0.02534
G1 X64.19002 Y55.35129 E0.04108
G1 X65.36999 Y55.96357 E0.04786
G1 X66.48637 Y56.67821 E0.04772
G1 X67.49429 Y57.45757 E0.04587
G1 X68.33933 Y58.23137 E0.04125
G1 X68.83351 Y58.74361 E0.02562
G1 X69.66781 Y59.73921 E0.04676
G1 X70.41501 Y60.81108 E0.04704
G1 X71.03305 Y61.88554 E0.04462
G1 X71.35218 Y62.54081 E0.02624
G1 X71.78841 Y63.5982 E0.04118
G1 X72.18437 Y64.84956 E0.04725
G1 X72.46896 Y66.14312 E0.04768
G1 X72.63222 Y67.41522 E0.04617
G1 X72.68261 Y68.56022 E0.04126
G1 X72.66984 Y69.27188 E0.02562
G1 X72.55579 Y70.5658 E0.04676
G1 X72.3262 Y71.85211 E0.04704
G1 X72.00348 Y73.04882 E0.04462
G1 X71.76579 Y73.73785 E0.02624
G1 X71.32655 Y74.79404 E0.04118
G1 X70.71392 Y75.9723 E0.04781
G1 X70.00825 Y77.07477 E0.04712
G1 X69.22418 Y78.08973 E0.04617
M73 P20 R1
G1 X68.45019 Y78.93498 E0.04126
G1 X67.93792 Y79.42919 E0.02562
G1 X66.94232 Y80.26349 E0.04676
G1 X65.87045 Y81.01069 E0.04704
G1 X64.79599 Y81.62873 E0.04462
G1 X64.14073 Y81.94786 E0.02624
G1 X63.08332 Y82.38409 E0.04118
G1 X61.83197 Y82.78005 E0.04725
G1 X60.53841 Y83.06464 E0.04768
G1 X59.26631 Y83.2279 E0.04617
G1 X58.12131 Y83.27829 E0.04126
G1 X57.40965 Y83.26552 E0.02562
G1 X56.11573 Y83.15147 E0.04676
G1 X54.82945 Y82.92189 E0.04704
G1 X53.63365 Y82.59946 E0.04458
G1 X52.9496 Y82.36381 E0.02605
G1 X51.88729 Y81.92215 E0.04142
G1 X50.7063 Y81.30791 E0.04792
G1 X49.58235 Y80.58681 E0.04807
G1 X48.70085 Y79.91029 E0.04
G1 X48.15211 Y79.4328 E0.02619
G1 X47.26359 Y78.54562 E0.0452
