; generated by SuperSlicer 2.5.59.9 on 2024-05-08 at 13:51:31 UTC


;
;

;
;

;
;

;
;

;
;
; 

; external perimeters extrusion width = 0.42mm
; perimeters extrusion width = 0.45mm
; infill extrusion width = 0.45mm
; solid infill extrusion width = 0.45mm
; top infill extrusion width = 0.42mm

; object:{"name":"Part Studio 1 - Filter Cage","id":"Part Studio 1 - Filter Cage id:0 copy 0","object_center":[87.500000,110.000000,0.000000],"boundingbox_center":[87.500000,110.000000,13.200000],"boundingbox_size":[54.998749,54.997498,26.400000]}
EXCLUDE_OBJECT_DEFINE NAME=Part_Studio_1_Filter_Cage_id_0_copy_0 CENTER=87.500000,110.000000 POLYGON=[[60.00,109.82],[60.02,109.07],[60.05,108.33],[60.11,107.59],[60.18,106.86],[60.28,106.12],[60.39,105.39],[60.52,104.66],[60.68,103.93],[60.85,103.21],[61.04,102.50],[61.26,101.79],[61.49,101.08],[61.74,100.38],[62.01,99.69],[62.29,99.01],[62.60,98.33],[62.92,97.67],[63.26,97.01],[63.62,96.36],[64.00,95.72],[64.39,95.09],[64.80,94.47],[65.23,93.87],[65.67,93.27],[66.13,92.69],[66.61,92.12],[67.10,91.56],[67.60,91.02],[68.12,90.49],[68.65,89.97],[69.20,89.47],[69.76,88.99],[70.33,88.52],[70.92,88.06],[71.52,87.62],[72.13,87.20],[72.75,86.79],[73.38,86.40],[74.02,86.03],[74.67,85.68],[75.33,85.34],[76.00,85.02],[76.68,84.72],[77.36,84.44],[78.06,84.17],[78.76,83.93],[79.46,83.70],[80.17,83.50],[80.89,83.31],[81.61,83.14],[82.34,82.99],[83.07,82.86],[83.80,82.75],[84.54,82.66],[85.28,82.59],[86.02,82.54],[86.76,82.51],[87.50,82.50],[88.24,82.51],[88.98,82.54],[89.72,82.59],[90.46,82.66],[91.20,82.75],[91.93,82.86],[92.66,82.99],[93.39,83.14],[94.11,83.31],[94.83,83.50],[95.54,83.70],[96.24,83.93],[96.94,84.17],[97.64,84.44],[98.32,84.72],[99.00,85.02],[99.67,85.34],[100.33,85.68],[100.98,86.03],[101.62,86.40],[102.25,86.79],[102.87,87.20],[103.48,87.62],[104.08,88.06],[104.67,88.52],[105.24,88.99],[105.80,89.47],[106.35,89.97],[106.88,90.49],[107.40,91.02],[107.90,91.56],[108.39,92.12],[108.87,92.69],[109.33,93.27],[109.77,93.87],[110.20,94.47],[110.61,95.09],[111.00,95.72],[111.38,96.36],[111.74,97.01],[112.08,97.67],[112.40,98.33],[112.71,99.01],[112.99,99.69],[113.26,100.38],[113.51,101.08],[113.74,101.79],[113.96,102.50],[114.15,103.21],[114.32,103.93],[114.48,104.66],[114.61,105.39],[114.72,106.12],[114.82,106.86],[114.89,107.59],[114.95,108.33],[114.98,109.07],[115.00,109.82],[114.99,110.56],[114.97,111.30],[114.92,112.04],[114.86,112.78],[114.77,113.51],[114.67,114.25],[114.55,114.98],[114.40,115.71],[114.24,116.43],[114.05,117.15],[113.85,117.86],[113.63,118.57],[113.39,119.27],[113.13,119.97],[112.85,120.65],[112.56,121.33],[112.24,122.00],[111.91,122.67],[111.56,123.32],[111.19,123.96],[110.81,124.60],[110.40,125.22],[109.99,125.83],[109.55,126.43],[109.10,127.02],[108.63,127.60],[108.15,128.16],[107.65,128.71],[107.14,129.25],[106.61,129.77],[106.07,130.28],[105.52,130.77],[104.95,131.25],[104.38,131.71],[103.78,132.16],[103.18,132.59],[102.57,133.01],[101.94,133.41],[101.30,133.79],[100.66,134.15],[100.00,134.50],[99.34,134.82],[98.66,135.13],[97.98,135.43],[97.29,135.70],[96.60,135.95],[95.89,136.19],[95.18,136.41],[94.47,136.60],[93.75,136.78],[93.02,136.94],[92.30,137.08],[91.56,137.20],[90.83,137.30],[90.09,137.38],[89.35,137.44],[88.61,137.48],[87.87,137.50],[87.13,137.50],[86.39,137.48],[85.65,137.44],[84.91,137.38],[84.17,137.30],[83.44,137.20],[82.70,137.08],[81.98,136.94],[81.25,136.78],[80.53,136.60],[79.82,136.41],[79.11,136.19],[78.40,135.95],[77.71,135.70],[77.02,135.43],[76.34,135.13],[75.66,134.82],[75.00,134.50],[74.34,134.15],[73.70,133.79],[73.06,133.41],[72.43,133.01],[71.82,132.59],[71.22,132.16],[70.62,131.71],[70.05,131.25],[69.48,130.77],[68.93,130.28],[68.39,129.77],[67.86,129.25],[67.35,128.71],[66.85,128.16],[66.37,127.60],[65.90,127.02],[65.45,126.43],[65.01,125.83],[64.60,125.22],[64.19,124.60],[63.81,123.96],[63.44,123.32],[63.09,122.67],[62.76,122.00],[62.44,121.33],[62.15,120.65],[61.87,119.97],[61.61,119.27],[61.37,118.57],[61.15,117.86],[60.95,117.15],[60.76,116.43],[60.60,115.71],[60.45,114.98],[60.33,114.25],[60.23,113.51],[60.14,112.78],[60.08,112.04],[60.03,111.30],[60.01,110.56],[60.00,109.82]]
; plater:{"center":[87.500000,110.000000,0.000000],"boundingbox_center":[87.500000,110.000000,13.200000],"boundingbox_size":[54.998749,54.997498,26.400000]}

M73 P0 R33
M107
;TYPE:Custom
CALCULATE_PA MATERIAL=ASA BOWDEN_LENGTH=6 LAYER_HEIGHT=0.25 NOZZLE_SIZE=0.4 PRINT_SPEED=95


START_PRINT EXTRUDER=260 BED=105

G21 ; set units to millimeters
G90 ; use absolute coordinates
M83 ; use relative distances for extrusion
ACTIVATE_EXTRUDER EXTRUDER=extruder
; Filament gcode
M104 S260 T0 ; set temperature
M109 S260 T0 ; set temperature and wait for it to be reached
M190 S105 ; set bed temperature and wait for it to be reached
;LAYER_CHANGE
;Z:0.24
;HEIGHT:0.24
;BEFORE_LAYER_CHANGE
G92 E0.0

G1 E-0.4 F3000
M73 P1 R32
G1 Z0.24 F3600000
;AFTER_LAYER_CHANGE
;0.24




CALCULATE_PA MATERIAL=ASA BOWDEN_LENGTH=6.0 LAYER_HEIGHT=0.2 NOZZLE_SIZE=0.4 PRINT_SPEED=95


G92 E0
G1 Z0.4
G1 X68.63169 Y86.52462
G1 Z0.24
G1 E0.4 F3000
;TYPE:Skirt
;WIDTH:0.45
;HEIGHT:0.25
M107
G1 X69.87987 Y85.57512 E0.06461
G1 X70.77082 Y84.95624 E0.04469
G1 X72.08809 Y84.12376 E0.06419
G1 X73.44409 Y83.36264 E0.06406
G1 X74.83774 Y82.673 E0.06406
G1 X76.26832 Y82.05564 E0.06419
G1 X77.28189 Y81.66919 E0.04469
G1 X78.77111 Y81.17458 E0.06464
G1 X80.29131 Y80.75713 E0.06494
G1 X81.834 Y80.41981 E0.06505
G1 X83.46299 Y80.15381 E0.068
G1 X85.03301 Y79.98295 E0.06506
G1 X86.60154 Y79.89554 E0.06472
G1 X87.68035 Y79.8848 E0.04444
G1 X89.11245 Y79.92526 E0.05902
G1 X90.82169 Y80.06571 E0.07065
G1 X92.35323 Y80.27533 E0.06368
G1 X93.87058 Y80.56342 E0.06363
G1 X95.39439 Y80.93592 E0.06462
G1 X96.436 Y81.23918 E0.04469
G1 X97.92198 Y81.74263 E0.06463
G1 X99.38641 Y82.3264 E0.06495
G1 X100.82066 Y82.98776 E0.06506
G1 X102.28039 Y83.75809 E0.06799
G1 X103.63564 Y84.56849 E0.06505
G1 X104.94415 Y85.44777 E0.06494
G1 X106.19872 Y86.39031 E0.06464
G1 X107.03668 Y87.07915 E0.04469
G1 X108.18107 Y88.10474 E0.06331
G1 X109.27652 Y89.19339 E0.06362
G1 X110.33493 Y90.36101 E0.06492
G1 X111.32618 Y91.57752 E0.06465
G1 X111.97402 Y92.4478 E0.04469
G1 X112.84982 Y93.73626 E0.06418
G1 X113.65568 Y95.06592 E0.06405
G1 X114.38672 Y96.42634 E0.06362
G1 X115.05641 Y97.84528 E0.06464
G1 X115.47586 Y98.84554 E0.04468
G1 X116.01616 Y100.3064 E0.06417
G1 X116.47895 Y101.79125 E0.06407
G1 X116.86392 Y103.29793 E0.06406
G1 X117.17055 Y104.82592 E0.0642
G1 X117.33717 Y105.89768 E0.04468
G1 X117.51139 Y107.45619 E0.0646
G1 X117.60277 Y108.9979 E0.06362
G1 X117.6145 Y110.54237 E0.06363
G1 X117.54466 Y112.10987 E0.06464
G1 X117.44866 Y113.19045 E0.04469
G1 X117.24308 Y114.74549 E0.06462
G1 X116.95449 Y116.29538 E0.06495
G1 X116.5838 Y117.83111 E0.06508
G1 X116.11093 Y119.41241 E0.06799
G1 X115.57896 Y120.89869 E0.06503
G1 X114.97023 Y122.35292 E0.06494
G1 X114.28875 Y123.76694 E0.06466
G1 X113.77519 Y124.72207 E0.04467
G1 X112.9912 Y126.04351 E0.0633
G1 X112.13578 Y127.32928 E0.06362
G1 X111.19569 Y128.59405 E0.06492
G1 X110.19422 Y129.80291 E0.06467
G1 X109.46634 Y130.60624 E0.04466
G1 X108.4103 Y131.67871 E0.062
G1 X107.2484 Y132.7429 E0.06491
G1 X106.03139 Y133.74501 E0.06494
G1 X104.76882 Y134.67762 E0.06466
G1 X103.86847 Y135.28277 E0.04469
G1 X102.5403 Y136.09611 E0.06416
G1 X101.17374 Y136.83798 E0.06406
G1 X99.7704 Y137.50791 E0.06406
G1 X98.3332 Y138.1042 E0.0641
G1 X97.44407 Y138.43152 E0.03903
G1 X95.81749 Y138.949 E0.07032
G1 X94.32179 Y139.33798 E0.06367
G1 X92.80724 Y139.64945 E0.0637
G1 X91.10992 Y139.90301 E0.0707
G1 X89.5432 Y140.05123 E0.06483
G1 X87.97215 Y140.11678 E0.06478
G1 X87.08253 Y140.11785 E0.03665
G1 X85.5355 Y140.05636 E0.06378
G1 X84.59564 Y139.98013 E0.03885
G1 X83.03978 Y139.7886 E0.06458
G1 X81.48568 Y139.51355 E0.06502
G1 X79.88574 Y139.14209 E0.06766
G1 X78.97361 Y138.88784 E0.03901
G1 X77.48255 Y138.40601 E0.06455
G1 X76.00571 Y137.84112 E0.06514
G1 X74.59867 Y137.21719 E0.06341
G1 X73.22831 Y136.52294 E0.06328
G1 X72.28239 Y135.9928 E0.04467
G1 X70.94845 Y135.16522 E0.06467
G1 X69.65442 Y134.26473 E0.06495
G1 X68.4081 Y133.29612 E0.06503
G1 X67.1603 Y132.2155 E0.068
G1 X65.9862 Y131.08059 E0.06727
G1 X64.93404 Y129.94949 E0.06364
G1 X63.9404 Y128.76375 E0.06373
G1 X63.27941 Y127.90365 E0.04469
G1 X62.3793 Y126.61836 E0.06464
G1 X61.56046 Y125.30885 E0.06362
G1 X60.81024 Y123.95881 E0.06363
G1 X60.12105 Y122.55044 E0.06459
G1 X59.68623 Y121.55656 E0.04469
G1 X59.12495 Y120.10238 E0.06421
G1 X58.64131 Y118.62441 E0.06406
G1 X58.23508 Y117.1232 E0.06407
G1 X57.90711 Y115.6006 E0.06416
G1 X57.72409 Y114.5316 E0.04468
G1 X57.52774 Y112.97437 E0.06466
G1 X57.41312 Y111.40213 E0.06494
G1 X57.38143 Y109.82682 E0.06491
G1 X57.42881 Y108.32234 E0.06201
G1 X57.5082 Y107.24113 E0.04466
G1 X57.6919 Y105.68245 E0.06466
G1 X57.95847 Y104.12917 E0.06492
G1 X58.29867 Y102.62269 E0.06362
G1 X58.71404 Y101.14311 E0.06331
G1 X59.05116 Y100.11247 E0.04467
G1 X59.6041 Y98.64373 E0.06465
G1 X60.23647 Y97.19956 E0.06495
G1 X60.94509 Y95.78869 E0.06504
G1 X61.7634 Y94.35522 E0.068
G1 X62.61883 Y93.02741 E0.06507
G1 X63.54135 Y91.74894 E0.06495
G1 X64.52494 Y90.52694 E0.06462
G1 X65.24108 Y89.71183 E0.0447
G1 X66.32709 Y88.57976 E0.06463
G1 X67.45292 Y87.5224 E0.06363
G1 X68.58589 Y86.56338 E0.06115
M107
G1 X68.84191 Y86.86594 F3600000
M107
G1 F3000
G1 X68.88377 Y86.83052 E0.00226
G1 X70.11639 Y85.89319 E0.06379
G1 X70.98625 Y85.28896 E0.04363
G1 X72.28661 Y84.46685 E0.06338
G1 X73.63358 Y83.7108 E0.06363
G1 X75.00884 Y83.03055 E0.06321
G1 X76.42139 Y82.42126 E0.06337
G1 X77.41097 Y82.04396 E0.04363
G1 X78.88116 Y81.55538 E0.06382
G1 X80.38114 Y81.14319 E0.06408
G1 X81.90312 Y80.81012 E0.06418
G1 X83.52162 Y80.54584 E0.06756
G1 X85.07063 Y80.37755 E0.06419
G1 X86.61901 Y80.29153 E0.06389
G1 X87.673 Y80.2811 E0.04342
G1 X89.08537 Y80.32072 E0.05821
G1 X90.77331 Y80.45913 E0.06977
G1 X92.28434 Y80.66568 E0.06283
G1 X93.79156 Y80.95185 E0.0632
G1 X95.29603 Y81.3199 E0.06381
G1 X96.31294 Y81.61597 E0.04363
G1 X97.78012 Y82.11277 E0.06381
G1 X99.22525 Y82.68854 E0.06408
G1 X100.64038 Y83.34078 E0.06419
G1 X102.09072 Y84.10614 E0.06756
G1 X103.42768 Y84.90595 E0.06418
G1 X104.7187 Y85.7738 E0.06408
G1 X105.95715 Y86.70456 E0.06382
G1 X106.7753 Y87.37713 E0.04363
G1 X107.91273 Y88.39648 E0.06292
G1 X108.99342 Y89.47083 E0.06278
G1 X110.03772 Y90.62329 E0.06407
G1 X111.01615 Y91.82448 E0.06382
G1 X111.64862 Y92.67413 E0.04363
G1 X112.51911 Y93.95479 E0.06379
G1 X113.31403 Y95.2669 E0.0632
G1 X114.03511 Y96.60934 E0.06278
G1 X114.6961 Y98.01047 E0.06382
G1 X115.10561 Y98.98705 E0.04362
G1 X115.6393 Y100.42928 E0.06335
G1 X116.09901 Y101.90426 E0.06365
G1 X116.47862 Y103.39098 E0.06321
G1 X116.78109 Y104.89959 E0.06339
G1 X116.94375 Y105.94599 E0.04362
G1 X117.11604 Y107.48481 E0.06379
G1 X117.20681 Y109.01623 E0.0632
G1 X117.21812 Y110.54015 E0.06278
G1 X117.1489 Y112.08782 E0.06382
G1 X117.05516 Y113.14276 E0.04363
G1 X116.85246 Y114.67814 E0.0638
G1 X116.56796 Y116.20753 E0.06409
G1 X116.20253 Y117.72267 E0.06421
G1 X115.73271 Y119.29379 E0.06756
G1 X115.20758 Y120.76014 E0.06416
G1 X114.60666 Y122.19499 E0.06408
G1 X113.93363 Y123.59087 E0.06384
G1 X113.43219 Y124.52343 E0.04362
G1 X112.65294 Y125.83686 E0.06291
G1 X111.80869 Y127.10538 E0.06277
G1 X110.88074 Y128.35337 E0.06407
G1 X109.89184 Y129.54664 E0.06384
G1 X109.18104 Y130.33108 E0.04361
G1 X108.13149 Y131.39697 E0.06162
G1 X106.98459 Y132.44704 E0.06406
G1 X105.78353 Y133.43568 E0.06409
G1 X104.53691 Y134.35617 E0.06384
G1 X103.65786 Y134.94698 E0.04363
G1 X102.34661 Y135.75028 E0.06335
G1 X100.99832 Y136.48252 E0.06321
G1 X99.60432 Y137.148 E0.06364
G1 X98.18507 Y137.73655 E0.0633
G1 X97.31964 Y138.05519 E0.03799
G1 X95.71253 Y138.56676 E0.06948
G1 X94.23692 Y138.95079 E0.06281
G1 X92.73271 Y139.26013 E0.06326
G1 X91.05672 Y139.51021 E0.06981
G1 X89.51113 Y139.65615 E0.06395
G1 X87.9597 Y139.7206 E0.06397
G1 X87.08617 Y139.72149 E0.03599
G1 X85.55535 Y139.66049 E0.06311
G1 X84.63992 Y139.58624 E0.03784
G1 X83.10365 Y139.3974 E0.06376
G1 X81.57019 Y139.12628 E0.06415
G1 X79.9796 Y138.75699 E0.06727
G1 X79.0916 Y138.50944 E0.03798
G1 X77.6192 Y138.03392 E0.06374
G1 X76.16165 Y137.4767 E0.06428
G1 X74.76402 Y136.85694 E0.06298
G1 X73.41118 Y136.17128 E0.06248
G1 X72.48755 Y135.65365 E0.04362
G1 X71.1705 Y134.83687 E0.06384
G1 X69.89345 Y133.94853 E0.06409
G1 X68.66358 Y132.99305 E0.06416
G1 X67.42386 Y131.91944 E0.06756
G1 X66.27278 Y130.80675 E0.06595
G1 X65.23452 Y129.69097 E0.06279
G1 X64.24687 Y128.51239 E0.06335
G1 X63.60152 Y127.67265 E0.04363
G1 X62.71258 Y126.40378 E0.06382
G1 X61.90442 Y125.11184 E0.06278
G1 X61.1592 Y123.77082 E0.0632
G1 X60.47894 Y122.38008 E0.06378
G1 X60.0544 Y121.40972 E0.04363
G1 X59.50003 Y119.97419 E0.06339
G1 X59.01961 Y118.50605 E0.06364
G1 X58.61903 Y117.02473 E0.06322
G1 X58.29547 Y115.52132 E0.06335
G1 X58.11678 Y114.47762 E0.04362
G1 X57.92265 Y112.94028 E0.06383
G1 X57.80928 Y111.38887 E0.06408
G1 X57.77774 Y109.83417 E0.06406
G1 X57.82483 Y108.33895 E0.06163
G1 X57.90234 Y107.28314 E0.04361
G1 X58.08343 Y105.74428 E0.06383
G1 X58.34623 Y104.21137 E0.06407
G1 X58.68166 Y102.72488 E0.06278
G1 X59.0945 Y101.25429 E0.06292
G1 X59.42365 Y100.24799 E0.04362
G1 X59.96929 Y98.79787 E0.06383
G1 X60.59303 Y97.37272 E0.06409
G1 X61.29193 Y95.98058 E0.06417
G1 X62.10497 Y94.55635 E0.06756
G1 X62.94915 Y93.24652 E0.0642
G1 X63.85967 Y91.98515 E0.06409
G1 X64.83098 Y90.77883 E0.0638
G1 X65.53014 Y89.98304 E0.04364
G1 X66.6022 Y88.86512 E0.06381
G1 X67.72052 Y87.81482 E0.0632
G1 X68.7961 Y86.9047 E0.05804
M107
G1 X69.05212 Y87.20726 F3600000
M107
G1 F3000
G1 X69.13583 Y87.13643 E0.00452
G1 X70.35287 Y86.21129 E0.06298
G1 X71.20173 Y85.62165 E0.04258
G1 X72.48519 Y84.80991 E0.06256
G1 X73.814 Y84.06374 E0.06278
G1 X75.17058 Y83.39243 E0.06235
G1 X76.57446 Y82.78689 E0.06298
G1 X77.54009 Y82.41871 E0.04257
G1 X78.99129 Y81.93616 E0.063
G1 X80.47105 Y81.52925 E0.06322
G1 X81.97225 Y81.20043 E0.06331
G1 X83.58023 Y80.93787 E0.06712
G1 X85.10817 Y80.77215 E0.06331
G1 X86.63643 Y80.68752 E0.06305
G1 X87.66569 Y80.6774 E0.0424
G1 X89.05836 Y80.71618 E0.05739
G1 X90.72495 Y80.85255 E0.06889
G1 X92.22556 Y81.05768 E0.06239
G1 X93.71247 Y81.34026 E0.06235
G1 X95.19762 Y81.70386 E0.06299
G1 X96.18992 Y81.99277 E0.04258
G1 X97.63834 Y82.48292 E0.06299
G1 X99.06416 Y83.05072 E0.06322
G1 X100.46012 Y83.69381 E0.06332
G1 X101.90103 Y84.45419 E0.06712
G1 X103.21966 Y85.24336 E0.06331
G1 X104.49319 Y86.09978 E0.06322
G1 X105.71553 Y87.01878 E0.063
G1 X106.51397 Y87.67515 E0.04258
G1 X107.63694 Y88.68119 E0.06211
G1 X108.71031 Y89.74826 E0.06235
G1 X109.74047 Y90.88551 E0.06321
G1 X110.70608 Y92.0714 E0.063
G1 X111.32325 Y92.9005 E0.04258
G1 X112.18284 Y94.16465 E0.06298
G1 X112.9673 Y95.45899 E0.06235
G1 X113.68349 Y96.79233 E0.06235
G1 X114.33577 Y98.17561 E0.063
G1 X114.73538 Y99.12861 E0.04257
G1 X115.26247 Y100.55223 E0.06254
G1 X115.71627 Y102.00733 E0.06279
G1 X116.09331 Y103.48401 E0.06278
G1 X116.39161 Y104.97321 E0.06257
G1 X116.55034 Y105.99435 E0.04257
G1 X116.72069 Y107.5135 E0.06298
G1 X116.81051 Y109.02432 E0.06235
G1 X116.82175 Y110.53791 E0.06236
G1 X116.75314 Y112.0657 E0.063
G1 X116.66166 Y113.09513 E0.04257
G1 X116.46183 Y114.61085 E0.06298
G1 X116.18142 Y116.11975 E0.06322
G1 X115.82126 Y117.61426 E0.06333
G1 X115.35449 Y119.17516 E0.06712
G1 X114.83622 Y120.62153 E0.06329
G1 X114.24312 Y122.03701 E0.06322
G1 X113.57853 Y123.41475 E0.06302
G1 X113.08916 Y124.32483 E0.04257
G1 X112.32014 Y125.62155 E0.06211
G1 X111.48161 Y126.88146 E0.06235
G1 X110.56583 Y128.11263 E0.06321
G1 X109.5895 Y129.29032 E0.06302
G1 X108.89574 Y130.05592 E0.04256
G1 X107.85268 Y131.11521 E0.06124
G1 X106.72084 Y132.15115 E0.06321
G1 X105.53572 Y133.12631 E0.06323
G1 X104.30505 Y134.03469 E0.06301
G1 X103.44722 Y134.61122 E0.04258
G1 X102.15289 Y135.40445 E0.06254
G1 X100.81372 Y136.13175 E0.06278
G1 X99.43831 Y136.78806 E0.06278
G1 X98.03698 Y137.36888 E0.06249
G1 X97.19515 Y137.67887 E0.03696
G1 X95.60755 Y138.18453 E0.06864
