; generated by SuperSlicer 2.5.59.9 on 2024-05-15 at 13:18:44 UTC


;
;

;
;

;
;

;
;

;
;
; 

; external perimeters extrusion width = 0.42mm
; perimeters extrusion width = 0.45mm
; infill extrusion width = 0.45mm
; solid infill extrusion width = 0.45mm
; top infill extrusion width = 0.42mm

; external perimeters extrusion width = 0.42mm
; perimeters extrusion width = 0.45mm
; infill extrusion width = 0.45mm
; solid infill extrusion width = 0.45mm
; top infill extrusion width = 0.42mm

; external perimeters extrusion width = 0.42mm
; perimeters extrusion width = 0.45mm
; infill extrusion width = 0.45mm
; solid infill extrusion width = 0.45mm
; top infill extrusion width = 0.42mm

; object:{"name":"PiCam_v2_-_Housing_rear","id":"PiCam_v2_-_Housing_rear.stl id:0 copy 0","object_center":[50.247704,135.647293,0.000000],"boundingbox_center":[50.247704,135.647293,5.250000],"boundingbox_size":[33.000000,26.129000,10.500000]}
EXCLUDE_OBJECT_DEFINE NAME=PiCam_v2___Housing_rear_stl_id_0_copy_0 CENTER=50.247704,135.647293 POLYGON=[[33.75,122.58],[66.75,122.58],[66.75,148.71],[33.75,148.71],[33.75,122.58]]
; object:{"name":"PiCam_v2_-_Housing_front","id":"PiCam_v2_-_Housing_front.stl id:1 copy 0","object_center":[67.413943,70.217029,0.000000],"boundingbox_center":[67.413943,70.217029,4.726002],"boundingbox_size":[33.000000,28.128998,9.452003]}
EXCLUDE_OBJECT_DEFINE NAME=PiCam_v2___Housing_front_stl_id_1_copy_0 CENTER=67.413943,70.217029 POLYGON=[[50.91,56.15],[83.91,56.15],[83.91,84.28],[50.91,84.28],[50.91,56.15]]
; object:{"name":"PiCam_-_mount_v2","id":"PiCam_-_mount_v2.stl id:2 copy 0","object_center":[50.965395,89.730835,0.000000],"boundingbox_center":[50.965395,89.730835,12.497912],"boundingbox_size":[35.999977,58.999969,24.995825]}
EXCLUDE_OBJECT_DEFINE NAME=PiCam___mount_v2_stl_id_2_copy_0 CENTER=50.965395,89.730835 POLYGON=[[32.97,119.23],[32.97,62.23],[33.02,61.79],[33.16,61.36],[33.40,60.98],[33.72,60.67],[34.10,60.43],[34.52,60.28],[34.97,60.23],[46.97,60.23],[68.97,107.23],[68.97,113.23],[44.97,119.23],[32.97,119.23]]
; plater:{"center":[58.439674,102.432161,0.000000],"boundingbox_center":[58.439674,102.432161,12.497912],"boundingbox_size":[50.948536,92.559263,24.995825]}

M73 P0 R66
M107
;TYPE:Custom
CALCULATE_PA MATERIAL=PLA BOWDEN_LENGTH=6 LAYER_HEIGHT=0.24 NOZZLE_SIZE=0.4 PRINT_SPEED=60
START_PRINT EXTRUDER=210 BED=60
SET_VELOCITY_LIMIT ACCEL=500



M107
G21 ; set units to millimeters
G90 ; use absolute coordinates
M83 ; use relative distances for extrusion
ACTIVATE_EXTRUDER EXTRUDER=extruder
; Filament gcode
M104 S210 T0 ; set temperature
M109 S210 T0 ; set temperature and wait for it to be reached
M190 S60 ; set bed temperature and wait for it to be reached
;LAYER_CHANGE
;Z:0.24
;HEIGHT:0.24
;BEFORE_LAYER_CHANGE
G92 E0.0

G1 E-0.4 F3600
M73 P0 R65
G1 Z0.16 F600000
G1 Z0.24
;AFTER_LAYER_CHANGE
;0.24
SET_VELOCITY_LIMIT ACCEL=5000


CALCULATE_PA MATERIAL=PLA BOWDEN_LENGTH=6.0 LAYER_HEIGHT=0.2 NOZZLE_SIZE=0.4 PRINT_SPEED=60


G92 E0
G1 Z0.4
G1 X31.37639 Y54.44226
G1 Z0.24
G1 E0.4 F3600
;TYPE:Skirt
;WIDTH:0.45
M107
G1 F1800
G1 X33.21432 Y53.8369 E0.07694
G1 F1799.99207
G1 X34.80002 Y53.65567 E.06346
G1 X38.38753 Y53.65567 Z.24 E.14265
G1 X41.97505 Y53.65568 Z.24 E.14265
G1 X45.56256 Y53.65568 Z.24 E.14265
G1 X45.88721 Y53.21585 E.02174
G1 X46.759 Y52.35877 E0.04861
G1 X47.68462 Y51.72088 E.0447
G1 X48.79632 Y51.22418 E.04842
G1 X50.00232 Y50.94475 E0.04922
G1 X54.96901 Y50.9437 Z.24 E.19749
G1 X59.93571 Y50.94264 Z.24 E.19749
G1 X64.9024 Y50.94158 Z.24 E.19749
G1 X69.86909 Y50.94052 Z.24 E.19749
G1 X74.83578 Y50.93946 Z.24 E.19749
G1 X79.80248 Y50.93841 Z.24 E.19749
G1 X84.76917 Y50.93735 Z.24 E.19749
G1 X85.90777 Y51.18495 E0.04633
G1 X86.97919 Y51.6299 E.04613
G1 X87.98434 Y52.29243 E.04787
G1 X88.84811 Y53.10804 E.04724
G1 X89.57161 Y54.08084 E.04821
G1 X90.10857 Y55.19035 E.04901
G1 X90.46219 Y56.73694 E0.06308
G1 X90.46668 Y61.18495 Z.24 E.17686
G1 X90.47118 Y65.63297 Z.24 E.17686
G1 X90.47568 Y70.08098 Z.24 E.17686
G1 X90.48017 Y74.52899 Z.24 E.17686
G1 X90.48466 Y78.97701 Z.24 E.17686
G1 X90.48916 Y83.42502 Z.24 E.17686
G1 X90.24014 Y84.8339 E.05689
G1 X89.69365 Y86.14421 E0.05645
G1 X88.91281 Y87.25164 E.05388
G1 X88.1541 Y88.00386 E0.04248
G1 X87.28097 Y88.63503 E.04284
G1 X86.00185 Y89.21947 E.05592
G1 X84.61445 Y89.51174 E.05638
G1 X80.09499 Y89.51708 Z.24 E.1797
G1 X75.57553 Y89.52242 Z.24 E.1797
G1 X71.05608 Y89.52776 Z.24 E.1797
G1 X66.53662 Y89.5331 Z.24 E.1797
G1 X66.54382 Y100.6702 E0.44283
G1 X69.97445 Y100.71274 E.13642
G1 X71.22288 Y101.03049 E0.05122
G1 X72.37234 Y101.57846 E.05063
G1 X73.37184 Y102.33504 E0.04984
G1 X74.13174 Y103.13777 E.04395
G1 X74.72606 Y104.01276 E.04206
G1 X75.24988 Y105.21792 E.05225
G1 X75.53264 Y106.67439 E0.05899
G1 X75.53662 Y110.17473 Z.24 E.13918
G1 F1800
G1 X75.54061 Y113.67506 Z.24 E.13918
G1 F1799.86121
G1 X75.27765 Y115.15726 E.05986
G1 X74.78014 Y116.35173 E.05145
G1 X74.07171 Y117.39742 E0.05022
G1 X72.98444 Y118.45592 E.06034
G1 X72.22419 Y118.93426 E0.03571
G1 X72.59958 Y119.53324 E.02811
G1 X72.99964 Y120.46478 E0.04031
G1 X73.32288 Y122.10727 E.06656
G1 X73.32288 Y126.61699 Z.24 E.17932
G1 X73.32288 Y131.12671 Z.24 E.17932
G1 X73.32288 Y135.63641 Z.24 E.17932
G1 X73.32288 Y140.14613 Z.24 E.17931
G1 X73.32288 Y144.65585 Z.24 E.17932
G1 X73.32288 Y149.16557 Z.24 E.17932
G1 X73.10471 Y150.47935 E0.05295
G1 X72.62394 Y151.71765 E.05282
G1 X71.78278 Y152.96165 E.05971
G1 X70.69826 Y153.99099 E0.05945
G1 X69.75015 Y154.58836 E.04456
G1 X68.74374 Y155.00302 E0.04328
G1 X67.38006 Y155.27071 E.05526
G1 X63.61032 Y155.25996 E0.14989
G1 X62.52519 Y155.04752 E.04397
G1 X61.50915 Y154.66063 E0.04323
G1 X60.42332 Y153.9966 E.05061
G1 X59.21766 Y152.82487 E0.06685
G1 X58.53837 Y151.80284 E.0488
G1 X58.05603 Y150.63524 E.05023
G1 X57.80911 Y149.34984 E0.05204
G1 X57.80389 Y145.04175 Z.24 E.1713
G1 X57.79868 Y140.73367 Z.24 E.1713
G1 F1798.88416
G1 X57.79347 Y136.42558 Z.24 E.1713
G1 X57.69148 Y136.37752 E0.00448
G1 F1799.5271
G1 X56.73554 Y135.73473 E.0458
G1 X55.4871 Y134.42746 E.07188
G1 X54.94584 Y133.53356 E0.04155
G1 X54.59662 Y132.70161 E.03588
G1 X54.46881 Y132.15797 E.02221
G1 X46.0266 Y132.15797 E0.33568
G1 X45.89879 Y132.70163 E.02221
G1 X45.54956 Y133.53355 E.03588
G1 X45.00831 Y134.42746 E0.04155
G1 X43.75985 Y135.73476 E.07188
G1 X42.80391 Y136.37752 E.0458
G1 X42.70288 Y136.42517 E0.00444
G1 X42.70193 Y140.6812 Z.24 E.16923
G1 X42.70098 Y144.93721 Z.24 E.16923
G1 F1800
G1 X42.70004 Y149.19324 Z.24 E.16923
G1 F1799.93652
G1 X42.46212 Y150.5602 E.05517
G1 X41.94946 Y151.81655 E0.05395
G1 X41.21137 Y152.9081 E.05239
G1 X40.26686 Y153.84045 E.05277
G1 X39.17256 Y154.56639 E.05222
G1 X37.95195 Y155.05354 E.05226
G1 X36.80791 Y155.2669 E0.04627
G1 X33.15355 Y155.27542 E.14531
G1 X31.91434 Y155.05016 E.05008
G1 X30.76188 Y154.59962 E.0492
G1 X29.47786 Y153.72916 E.06168
G1 X28.39853 Y152.57051 E0.06296
G1 X27.87738 Y151.72598 E.03946
G1 X27.49606 Y150.83449 E0.03855
G1 X27.17612 Y149.21893 E.06549
G1 X27.17575 Y144.74347 Z.24 E.17795
G1 X27.17539 Y140.26801 Z.24 E.17795
G1 X27.17502 Y135.79256 Z.24 E.17795
G1 X27.17465 Y131.31709 Z.24 E.17795
G1 X27.17429 Y126.84164 Z.24 E.17795
G1 X27.17392 Y122.36617 Z.24 E.17795
G1 X27.04692 Y122.14926 E0.00999
G1 X26.66445 Y121.19528 E.04087
G1 X26.39023 Y119.68838 E0.0609
G1 X26.39023 Y114.88374 Z.24 E.19104
G1 X26.39023 Y110.07912 Z.24 E.19104
G1 X26.39023 Y105.27448 Z.24 E.19104
G1 X26.39023 Y100.46985 Z.24 E.19104
G1 X26.39023 Y95.66522 Z.24 E.19104
G1 X26.39024 Y90.86059 Z.24 E.19104
G1 X26.39024 Y86.05595 Z.24 E.19104
G1 X26.39024 Y81.25133 Z.24 E.19104
G1 X26.39024 Y76.44669 Z.24 E.19104
G1 X26.39024 Y71.64206 Z.24 E.19104
G1 X26.39024 Y66.83743 Z.24 E.19104
G1 X26.39024 Y62.0328 Z.24 E.19104
G1 X26.66553 Y60.07956 E0.07843
G1 X27.37759 Y58.2329 E.0787
G1 X28.38183 Y56.7355 E0.07169
G1 X29.69181 Y55.47232 E.07236
G1 X31.3252 Y54.47356 E.07613
M107
G1 X31.52316 Y54.81347 F600000
M107
G1 F1800
G1 X33.31945 Y54.22182 E0.0752
G1 F1799.93982
G1 X34.81117 Y54.05417 E.05969
G1 X38.46242 Y54.05417 Z.24 E.14518
G1 X42.11367 Y54.05417 Z.24 E.14518
G1 X45.76492 Y54.05417 Z.24 E.14518
G1 X46.17816 Y53.48863 E0.02785
G1 X47.02585 Y52.65525 E.04727
G1 X47.89477 Y52.05995 E0.04188
G1 X48.94031 Y51.59625 E.04548
G1 X50.06929 Y51.33822 E.04605
G1 X55.01742 Y51.33725 Z.24 E.19675
G1 X59.96555 Y51.33627 Z.24 E.19675
G1 X64.91368 Y51.3353 Z.24 E.19675
G1 X69.86182 Y51.33432 Z.24 E.19675
G1 X74.80994 Y51.33335 Z.24 E.19675
G1 X79.75808 Y51.33237 Z.24 E.19675
G1 X84.70621 Y51.3314 Z.24 E.19675
G1 X85.77172 Y51.55995 E.04333
G1 X86.80866 Y51.99057 E0.04464
G1 X87.74962 Y52.61492 E.0449
G1 X88.56118 Y53.38511 E.04449
G1 X89.24004 Y54.30269 E0.04538
G1 X89.7396 Y55.34257 E.04587
G1 X90.0686 Y56.80304 E.05953
G1 X90.07228 Y61.23719 Z.24 E.17631
G1 X90.07595 Y65.67135 Z.24 E.17631
G1 X90.07963 Y70.1055 Z.24 E.17631
G1 X90.08331 Y74.53965 Z.24 E.17631
G1 X90.08698 Y78.97381 Z.24 E.17631
G1 X90.09065 Y83.40796 Z.24 E.17631
G1 X89.86385 Y84.70089 E0.05219
G1 X89.33432 Y85.97053 E.0547
G1 X88.61991 Y86.98088 E0.0492
G1 X87.88468 Y87.70982 E.04117
G1 X87.06427 Y88.30002 E.04019
G1 X85.85738 Y88.84743 E.05269
G1 X84.5535 Y89.11741 E0.05294
G1 X79.94959 Y89.1218 Z.24 E.18306
G1 X75.34569 Y89.12619 Z.24 E.18306
G1 X70.74178 Y89.13058 Z.24 E.18306
G1 F1800
G1 X66.13787 Y89.13498 Z.24 E.18306
G1 F1799.99048
G1 X66.14044 Y93.11146 Z.24 E.15811
G1 X66.14301 Y97.08794 Z.24 E.15811
G1 X66.14558 Y101.06442 Z.24 E.15811
G1 X69.90008 Y101.10493 E.1493
G1 X71.07018 Y101.39908 E0.04797
G1 X72.14879 Y101.90897 E.04744
G1 X73.0939 Y102.62109 E0.04705
G1 X73.83111 Y103.39986 E.04264
G1 X74.38564 Y104.22071 E.03939
G1 X74.86306 Y105.31606 E.04751
G1 X75.13417 Y106.6941 E0.05584
G1 X75.13814 Y110.1759 Z.24 E.13844
G1 F1800.00012
G1 X75.1421 Y113.65769 Z.24 E.13844
G1 F1799.96252
G1 X74.88932 Y115.06515 E.05686
G1 X74.42059 Y116.17873 E.04804
G1 X73.75391 Y117.15616 E0.04704
G1 X72.72248 Y118.15489 E.05709
G1 X71.6572 Y118.8177 E.04989
G1 F1798.53381
G1 X71.73754 Y118.90999 E.00487
G1 X72.23963 Y119.70494 E0.03739
G1 F1799.85095
G1 X72.62515 Y120.60263 E.03885
G1 X72.92439 Y122.1266 E0.06175
G1 X72.92439 Y126.63033 Z.24 E.17908
G1 X72.92439 Y131.13406 Z.24 E.17908
G1 X72.92439 Y135.63779 Z.24 E.17908
G1 X72.92439 Y140.14151 Z.24 E.17908
G1 X72.92439 Y144.64525 Z.24 E.17908
G1 F1800.00012
G1 X72.92439 Y149.14897 Z.24 E.17908
G1 F1799.93018
G1 X72.71516 Y150.39291 E.05016
G1 X72.26098 Y151.5517 E.04949
G1 X71.49226 Y152.68807 E0.05455
G1 X70.46834 Y153.66492 E.05627
G1 X69.5823 Y154.22653 E0.04171
G1 X68.61036 Y154.62698 E.0418
G1 X67.3234 Y154.87579 E0.05212
G1 F1800
G1 X63.66745 Y154.86513 E.14537
M73 P1 R65
G1 F1799.89844
G1 X62.65086 Y154.66898 E.04117
G1 X61.66845 Y154.29488 E0.0418
G1 X60.65105 Y153.66884 E.0475
G1 X59.51148 Y152.55482 E.06337
G1 X58.88172 Y151.59964 E0.04549
G1 X58.43243 Y150.50284 E.04713
G1 X58.20412 Y149.29408 E0.04891
G1 X58.19999 Y144.91779 Z.24 E.17401
G1 X58.19585 Y140.5415 Z.24 E.17401
G1 X58.19172 Y136.16521 Z.24 E.17401
G1 X57.89799 Y136.03627 E0.01275
G1 X57.00853 Y135.4436 E.0425
G1 X55.79048 Y134.16815 E.07013
G1 X55.30771 Y133.36605 E0.03722
G1 X54.97068 Y132.56319 E.03462
G1 X54.78619 Y131.75948 E.03279
G1 X45.70921 Y131.75947 E0.36092
G1 X45.52473 Y132.56319 E.03279
G1 X45.1877 Y133.36604 E.03462
G1 X44.70493 Y134.16815 E0.03722
G1 X43.48686 Y135.44362 E.07013
G1 X42.59739 Y136.03629 E.0425
G1 X42.30439 Y136.16491 E0.01272
G1 X42.30439 Y140.49088 Z.24 E.17201
G1 X42.30439 Y144.81685 Z.24 E.17201
G1 X42.30439 Y149.14281 Z.24 E.17201
G1 X42.08463 Y150.43074 E0.05195
G1 X41.6076 Y151.6107 E.05061
G1 X40.89245 Y152.66833 E.05077
G1 X40.00151 Y153.54254 E0.04963
G1 X38.97039 Y154.22237 E.04911
G1 X37.82355 Y154.6758 E.04904
G1 X36.75366 Y154.8717 E.04325
G1 X33.20605 Y154.87999 E0.14106
G1 X32.04124 Y154.67191 E.04705
G1 X30.928 Y154.23669 E.04753
G1 X29.72088 Y153.41257 E.05812
G1 X28.72697 Y152.34402 E.05803
G1 X28.23785 Y151.55544 E0.0369
G1 X27.87064 Y150.69695 E.03713
G1 X27.57462 Y149.19946 E.0607
G1 X27.5724 Y122.25594 E1.07133
G1 X27.41092 Y121.98632 E.0125
G1 X27.04182 Y121.06567 E.03944
G1 X26.78872 Y119.67049 E0.05638
G1 X26.78872 Y114.86852 Z.24 E.19094
G1 X26.78872 Y110.06654 Z.24 E.19094
G1 X26.78872 Y105.26458 Z.24 E.19094
G1 X26.78873 Y100.46261 Z.24 E.19094
G1 X26.78873 Y95.66064 Z.24 E.19094
G1 X26.78873 Y90.85867 Z.24 E.19094
G1 X26.78873 Y86.0567 Z.24 E.19094
G1 X26.78873 Y81.25473 Z.24 E.19094
G1 X26.78873 Y76.45276 Z.24 E.19094
G1 X26.78874 Y71.65079 Z.24 E.19094
G1 X26.78874 Y66.84882 Z.24 E.19094
G1 F1800
G1 X26.78874 Y62.04685 Z.24 E.19094
G1 F1799.92212
G1 X27.05685 Y60.15825 E.07585
G1 X27.74097 Y58.39796 E0.07509
G1 X28.70047 Y56.97571 E.06822
G1 X29.91896 Y55.80045 E0.06731
G1 X31.47206 Y54.84491 E.07251
M107
G1 X31.68088 Y55.18432 F600000
M107
G1 F1798.88831
G1 X31.71191 Y55.16523 E.00145
G1 F1799.97034
G1 X33.42354 Y54.60703 E.07159
G1 X34.82212 Y54.45266 E.05595
G1 X45.96828 Y54.45267 E0.44319
G1 X46.46939 Y53.76114 E.03396
G1 X47.29247 Y52.95195 E0.04589
G1 X48.10418 Y52.39946 E.03904
G1 X49.04788 Y51.98043 E.04106
G1 X50.13625 Y51.73168 E0.04439
G1 X55.06582 Y51.73079 Z.24 E.19601
G1 X59.9954 Y51.7299 Z.24 E.19601
G1 X64.92496 Y51.72902 Z.24 E.19601
G1 X69.85454 Y51.72813 Z.24 E.19601
G1 X74.78411 Y51.72724 Z.24 E.19601
G1 X79.71368 Y51.72635 Z.24 E.19601
G1 F1800
G1 X84.64326 Y51.72546 Z.24 E.19601
G1 F1799.81689
G1 X85.67008 Y51.9457 E.04176
G1 X86.63701 Y52.35071 E0.04168
G1 X87.51389 Y52.93668 E.04193
G1 X88.2735 Y53.66142 E.04175
G1 X88.90786 Y54.52363 E.04256
G1 X89.37015 Y55.49361 E0.04272
G1 X89.67485 Y56.86811 E.05598
G1 X89.69215 Y83.39061 E1.05459
G1 X89.4754 Y84.60924 E.04922
G1 X88.97553 Y85.79577 E0.05119
G1 X88.32663 Y86.71056 E.0446
G1 X87.63903 Y87.39564 E0.03859
G1 X86.84781 Y87.96484 E.03876
G1 X85.71409 Y88.47492 E0.04943
G1 X84.49366 Y88.72293 E.04952
G1 X79.79754 Y88.72639 Z.24 E.18673
G1 X75.10143 Y88.72987 Z.24 E.18673
G1 X70.4053 Y88.73334 Z.24 E.18673
G1 X65.70918 Y88.7368 Z.24 E.18673
G1 X65.73927 Y88.97363 E0.00949
G1 X65.74196 Y93.13549 Z.24 E.16548
G1 X65.74465 Y97.29736 Z.24 E.16549
G1 X65.74734 Y101.45921 Z.24 E.16548
G1 X69.82677 Y101.49732 E.16221
G1 X70.91873 Y101.76819 E0.04473
G1 X71.92613 Y102.24009 E.04423
G1 X72.81612 Y102.90731 E.04423
G1 X73.5303 Y103.66175 E.04131
G1 X74.04485 Y104.42803 E0.0367
G1 X74.47647 Y105.4151 E.04284
G1 X74.7357 Y106.71408 E.05267
G1 X74.74358 Y113.64008 E0.27539
G1 X74.50123 Y114.97199 E.05383
G1 X74.06159 Y116.00467 E.04463
G1 X73.46215 Y116.88397 E0.04231
G1 X72.4606 Y117.85376 E.05543
G1 X71.49108 Y118.45529 E.04537
G1 X70.96701 Y118.6549 E.0223
G1 X71.41016 Y119.13788 E0.02606
G1 X71.89417 Y119.90422 E.03604
G1 X72.25039 Y120.7397 E0.03611
G1 X72.52589 Y122.14589 E.05698
G1 X72.52589 Y126.64365 Z.24 E.17884
G1 X72.52589 Y131.14142 Z.24 E.17884
G1 X72.52589 Y135.63919 Z.24 E.17884
G1 X72.52589 Y140.13695 Z.24 E.17884
G1 X72.52589 Y144.6347 Z.24 E.17884
G1 X72.52589 Y149.13248 Z.24 E.17884
G1 X72.33622 Y150.26793 E0.04577
G1 X71.91783 Y151.34789 E.04605
G1 X71.20092 Y152.41534 E.05113
G1 X70.23818 Y153.339 E.05305
G1 X69.38387 Y153.8805 E0.04022
G1 X68.4781 Y154.25055 E.03891
G1 X67.26764 Y154.48076 E0.04899
G1 X63.72458 Y154.47031 E.14088
G1 X62.74361 Y154.28102 E.03973
G1 X61.82883 Y153.9296 E0.03896
G1 X60.87975 Y153.34175 E.04439
G1 X59.80619 Y152.28575 E.05988
G1 X59.22583 Y151.39776 E0.04218
G1 X58.80924 Y150.37161 E.04404
G1 X58.59925 Y149.23932 E.04579
G1 X58.59618 Y144.79349 Z.24 E.17678
G1 X58.59311 Y140.34766 Z.24 E.17678
G1 X58.59003 Y135.90182 Z.24 E.17678
G1 X58.10363 Y135.69444 E0.02102
G1 X57.24804 Y135.12434 E.04088
G1 X56.09476 Y133.90987 E0.06659
G1 X55.65741 Y133.17447 E.03402
G1 X55.34511 Y132.4257 E.03226
G1 X55.10476 Y131.36098 E0.0434
G1 X50.2477 Y131.36098 Z.24 E.19313
G1 X45.39065 Y131.36098 Z.24 E.19312
G1 X45.1503 Y132.4257 E0.0434
G1 X44.83799 Y133.17447 E.03226
G1 X44.40065 Y133.90988 E.03402
G1 X43.24735 Y135.12435 E0.06659
G1 X42.39175 Y135.69444 E.04088
