; generated by SuperSlicer 2.5.59.9 on 2024-05-15 at 10:57:33 UTC


;
;

;
;

;
;

;
;

;
;
; 

; external perimeters extrusion width = 0.42mm
; perimeters extrusion width = 0.45mm
; infill extrusion width = 0.45mm
; solid infill extrusion width = 0.45mm
; top infill extrusion width = 0.42mm
; support material extrusion width = 0.42mm

; object:{"name":"Pi_Cam_3_Front (1)","id":"Pi_Cam_3_Front (1).stl id:0 copy 0","object_center":[87.500000,110.000000,0.000000],"boundingbox_center":[87.500000,110.000000,4.726002],"boundingbox_size":[33.000000,28.128967,9.452003]}
EXCLUDE_OBJECT_DEFINE NAME=Pi_Cam_3_Front_1_stl_id_0_copy_0 CENTER=87.500000,110.000000 POLYGON=[[71.00,95.94],[104.00,95.94],[104.00,124.06],[71.00,124.06],[71.00,95.94]]
; plater:{"center":[87.500000,110.000000,0.000000],"boundingbox_center":[87.500000,110.000000,4.726002],"boundingbox_size":[33.000000,28.128967,9.452003]}

M73 P0 R13
M107
;TYPE:Custom
CALCULATE_PA MATERIAL=PLA BOWDEN_LENGTH=6 LAYER_HEIGHT=0.24 NOZZLE_SIZE=0.4 PRINT_SPEED=60
START_PRINT EXTRUDER=220 BED=65
SET_VELOCITY_LIMIT ACCEL=500



M107
G21 ; set units to millimeters
G90 ; use absolute coordinates
M83 ; use relative distances for extrusion
ACTIVATE_EXTRUDER EXTRUDER=extruder
; Filament gcode
M104 S220 T0 ; set temperature
M109 S220 T0 ; set temperature and wait for it to be reached
M190 S65 ; set bed temperature and wait for it to be reached
;LAYER_CHANGE
;Z:0.24
;HEIGHT:0.24
;BEFORE_LAYER_CHANGE
G92 E0.0

G1 E-0.4 F3600
M73 P2 R13
G1 Z0.24 F600000
;AFTER_LAYER_CHANGE
;0.24
SET_VELOCITY_LIMIT ACCEL=5000


CALCULATE_PA MATERIAL=PLA BOWDEN_LENGTH=6.0 LAYER_HEIGHT=0.2 NOZZLE_SIZE=0.4 PRINT_SPEED=60


G92 E0
G1 Z0.4
; printing object Pi_Cam_3_Front (1).stl id:0 copy 0
EXCLUDE_OBJECT_START NAME=Pi_Cam_3_Front_1_stl_id_0_copy_0
G1 X72.71621 Y122.5321
G1 Z0.24
G1 E0.4 F3600
;TYPE:External perimeter
;WIDTH:0.419999
M107
G1 F1800
G1 X103.79 Y122.5321 E1.14254
G1 X103.79 Y97.46797 E0.92157
G1 X71.21 Y97.46797 E1.19792
G1 X71.21 Y122.5321 E0.92157
M73 P3 R13
G1 X72.65621 Y122.5321 E0.05318
M107
;WIPE_START
G1 X72.91621 Y122.18569 F600000
;WIPE_END
G1 X72.71621 Y122.1486
;TYPE:Internal perimeter
;WIDTH:0.449999
M107
G1 F1674.31152
G1 X77.10054 Y122.1486 Z.24 E.17433
G1 F1693.64685
G1 X81.48486 Y122.1486 Z.24 E.17433
G1 F1712.98206
G1 X85.86919 Y122.1486 Z.24 E.17433
G1 F1732.31738
G1 X90.25352 Y122.1486 Z.24 E.17433
G1 F1751.65259
G1 X94.63786 Y122.1486 Z.24 E.17433
G1 F1770.98779
G1 X99.02218 Y122.1486 Z.24 E.17433
G1 F1799.99072
G1 X103.40651 Y122.1486 Z.24 E.17433
G1 X103.40651 Y97.85146 E0.9661
G1 X98.86179 Y97.85146 Z.24 E.18071
G1 X94.31708 Y97.85146 Z.24 E.18071
G1 X89.77236 Y97.85146 Z.24 E.18071
G1 X85.22765 Y97.85146 Z.24 E.18071
G1 X80.68293 Y97.85146 Z.24 E.18071
G1 X76.13821 Y97.85146 Z.24 E.18071
G1 X71.5935 Y97.85146 Z.24 E.18071
G1 X71.59349 Y122.1486 E0.9661
G1 X72.65621 Y122.1486 E.04226
M107
G1 X72.71621 Y121.75011 F600000
M107
G1 F1799.99963
G1 X77.04361 Y121.75011 Z.24 E.17207
G1 X81.37101 Y121.75011 Z.24 E.17207
G1 X85.69841 Y121.75011 Z.24 E.17207
G1 X90.02581 Y121.75011 Z.24 E.17207
G1 X94.35321 Y121.75011 Z.24 E.17207
G1 X98.68061 Y121.75011 Z.24 E.17207
G1 X103.00801 Y121.75011 Z.24 E.17207
G1 X103.00801 Y98.24995 E0.93441
G1 X98.57715 Y98.24995 Z.24 E.17618
G1 X94.14629 Y98.24995 Z.24 E.17618
G1 X89.71543 Y98.24995 Z.24 E.17618
G1 X85.28457 Y98.24995 Z.24 E.17618
G1 X80.85371 Y98.24995 Z.24 E.17618
G1 X76.42285 Y98.24996 Z.24 E.17618
G1 X71.99199 Y98.24996 Z.24 E.17618
G1 F1788.3811
G1 X71.99199 Y102.94999 Z.24 E.18688
G1 F1765.14368
G1 X71.99199 Y107.65002 Z.24 E.18688
G1 F1741.90625
G1 X71.99199 Y112.35005 Z.24 E.18688
G1 F1718.66882
G1 X71.99199 Y117.05008 Z.24 E.18688
G1 F1683.81262
G1 X71.99199 Y121.75011 Z.24 E.18688
G1 F1674.16406
G1 X72.65621 Y121.75011 E.02641
M107
G1 E-0.4 F3600
G1 X72.65621 Y122.14425 F600000
G1 X94.07942 Y119.13884
G1 X94.07942 Y105.99696
M73 P4 R13
G1 X92.06831 Y105.99693
G1 X92.06831 Y106.38478
G1 E0.4 F3600
;TYPE:External perimeter
;WIDTH:0.419999
M107
G1 F1800
G1 X93.50736 Y106.38478 E0.05291
G1 X93.63846 Y106.43957 E0.00522
G1 X93.69161 Y106.56902 E0.00515
G1 X93.69161 Y118.56678 E0.44114
G1 X93.63443 Y118.7002 E0.00534
G1 X93.50736 Y118.75103 E0.00503
G1 X81.50961 Y118.75103 E0.44114
G1 X81.38254 Y118.7002 E0.00503
G1 X81.32536 Y118.56678 E0.00534
G1 X81.32536 Y106.56902 E0.44114
M73 P4 R12
G1 X81.37828 Y106.43979 E0.00513
G1 X81.50961 Y106.38478 E0.00524
G1 X92.00831 Y106.38478 E0.38602
M107
;WIPE_START
G1 X92.26832 Y106.03837 F600000
;WIPE_END
G1 X92.06831 Y106.00128
;TYPE:Internal perimeter
;WIDTH:0.449999
M107
G1 F1685.58533
G1 X93.50736 Y106.00128 E.05722
G1 F1711.07996
G1 X93.77524 Y106.06845 E.01098
G1 F1718.00793
G1 X93.96237 Y106.22947 E.00982
G1 F1726.88953
G1 X94.06733 Y106.47542 E.01063
G1 F1734.12683
G1 X94.0751 Y106.56902 E.00373
G1 F1744.40039
G1 X94.0751 Y110.56828 Z.24 E.15902
G1 F1766.64014
G1 X94.0751 Y114.56753 Z.24 E.15902
G1 F1800
G1 X94.0751 Y118.56678 Z.24 E.15902
G1 F1799.98645
G1 X94.00831 Y118.83395 E.01095
G1 X93.89891 Y118.9779 E.00719
G1 X93.60546 Y119.12598 E0.01307
G1 F1798.08765
G1 X93.50736 Y119.13452 E.00392
G1 F1799.83691
G1 X89.50811 Y119.13452 Z.24 E.15902
G1 X85.50887 Y119.13452 Z.24 E.15902
G1 X81.50961 Y119.13452 Z.24 E.15902
G1 X81.29124 Y119.09085 E0.00885
G1 X81.11806 Y118.9779 E.00822
G1 X80.95571 Y118.69141 E0.01309
G1 F1798.41052
G1 X80.94187 Y118.56678 E.00499
G1 X80.94187 Y106.56902 E0.47705
G1 F1799.56409
G1 X81.00775 Y106.30356 E.01088
G1 X81.16748 Y106.11594 E.0098
G1 X81.41513 Y106.0092 E0.01072
G1 X81.50961 Y106.00128 E.00377
G1 X92.00831 Y106.00128 E0.41745
M107
G1 X92.06831 Y105.60279 F600000
M107
G1 F1799.98621
G1 X93.50736 Y105.60279 E.05722
G1 X93.82162 Y105.65532 E.01267
G1 X94.08849 Y105.79708 E.01202
G1 X94.28174 Y105.99114 E.01089
G1 X94.42177 Y106.25684 E0.01194
G1 X94.4736 Y106.56902 E.01258
G1 X94.4736 Y110.56828 Z.24 E.15902
G1 X94.4736 Y114.56753 Z.24 E.15902
G1 F1800
G1 X94.4736 Y118.56678 Z.24 E.15902
G1 F1799.08521
G1 X94.45003 Y118.77888 E.00849
G1 X94.35992 Y119.02148 E0.01029
G1 X94.17373 Y119.26647 E.01224
G1 X93.87899 Y119.45869 E0.01399
G1 X93.50736 Y119.53302 E.01507
G1 X81.50961 Y119.53302 E0.47705
G1 X81.13798 Y119.45869 E.01507
G1 X80.84324 Y119.26647 E0.01399
G1 X80.65704 Y119.02148 E.01224
G1 X80.56694 Y118.77888 E0.01029
G1 X80.54337 Y118.56678 E.00849
G1 X80.54337 Y114.56753 Z.24 E.15902
G1 X80.54337 Y110.56828 Z.24 E.15902
G1 X80.54337 Y106.56902 Z.24 E.15902
G1 X80.59487 Y106.2578 E0.01254
G1 X80.73411 Y105.99264 E.01191
G1 X80.92735 Y105.79793 E.01091
G1 X81.19462 Y105.65557 E0.01204
G1 X81.50961 Y105.60279 E.0127
G1 X85.00918 Y105.60279 Z.24 E.13915
G1 X88.50874 Y105.60279 Z.24 E.13915
G1 F1800
G1 X92.00831 Y105.60279 Z.24 E.13915
M107
G1 E-0.4 F3600
G1 X102.88098 Y99.18254 F600000
G1 E0.4 F3600
;TYPE:Solid infill
;WIDTH:0.436169
M107
G1 F1862.24915
G1 X102.24678 Y98.54834 E.03457
G1 F1871.19165
G1 X101.68322 Y98.54834 E.02172
G1 F1883.65527
G1 X102.70963 Y99.57475 E.05594
G1 F1895.7063
G1 X102.70963 Y100.1383 E.02172
G1 F1913.22095
G1 X101.11966 Y98.54834 E.08666
G1 F1930.55261
G1 X100.55611 Y98.54834 E.02172
G1 F1953.38184
G1 X102.70963 Y100.70186 E.11738
G1 F1976.20703
G1 X102.70963 Y101.26542 E.02172
G1 F2004.86792
G1 X99.99255 Y98.54834 E.14809
G1 F2033.37927
G1 X99.42899 Y98.54834 E.02172
G1 F2068.22461
G1 X102.70963 Y101.82897 E.17881
G1 F2103.02686
G1 X102.70963 Y102.39253 E.02172
G1 F2125.87988
G1 X100.78754 Y100.47044 Z.24 E.10476
G1 F2182.48242
G1 X98.86544 Y98.54834 Z.24 E.10476
G1 F2186.31421
G1 X98.30188 Y98.54834 E.02172
G1 F2212.96973
G1 X100.50575 Y100.75221 Z.24 E.12012
G1 F2280.61597
G1 X102.70963 Y102.95609 Z.24 E.12012
G1 F2284.59595
G1 X102.70963 Y103.51964 E.02172
G1 F2315.64404
G1 X100.22398 Y101.03399 Z.24 E.13548
G1 F2395.58472
G1 X97.73832 Y98.54834 Z.24 E.13548
G1 F2399.78027
G1 X97.17476 Y98.54834 E.02172
G1 F2435.55029
G1 X99.9422 Y101.31577 Z.24 E.15084
G1 F2529.28296
G1 X102.70963 Y104.0832 Z.24 E.15084
G1 F2533.74707
G1 X102.70963 Y104.64676 E.02172
G1 F2574.93652
G1 X99.66042 Y101.59755 Z.24 E.16619
G1 F2684.26489
G1 X96.61121 Y98.54834 Z.24 E.16619
G1 F2689.03589
G1 X96.04765 Y98.54834 E.02172
G1 F2736.48242
G1 X99.37865 Y101.87933 Z.24 E.18155
G1 F2863.5752
G1 X102.70963 Y105.21031 Z.24 E.18155
G1 F2868.61719
G1 X102.70963 Y105.77387 E.02172
G1 F2895.00903
G1 X100.30112 Y103.36536 Z.24 E.13127
G1 F2937.00537
G1 X97.89261 Y100.95685 Z.24 E.13127
G1 F3000
G1 X95.48409 Y98.54834 Z.24 E.13127
G1 F2999.76978
G1 X94.92054 Y98.54834 E.02172
G1 X102.70963 Y106.33743 E0.42453
M73 P5 R12
G1 X102.70963 Y106.90099 E.02172
G1 X94.35698 Y98.54834 E0.45525
G1 X93.79342 Y98.54834 E.02172
G1 X102.70963 Y107.46454 E0.48597
G1 X102.70963 Y108.0281 E.02172
G1 X93.22987 Y98.54834 E0.51668
G1 X92.66631 Y98.54834 E.02172
G1 X102.70963 Y108.59166 E0.5474
G1 X102.70963 Y109.15521 E.02172
G1 X92.10275 Y98.54834 E0.57811
G1 X91.53919 Y98.54834 E.02172
G1 X102.70963 Y109.71877 E0.60883
G1 X102.70963 Y110.28233 E.02172
G1 X90.97564 Y98.54834 E0.63955
G1 X90.41208 Y98.54834 E.02172
G1 X102.70963 Y110.84589 E0.67026
G1 X102.70963 Y111.40944 E.02172
G1 X89.84852 Y98.54834 E0.70098
G1 X89.28497 Y98.54834 E.02172
G1 X102.70963 Y111.973 E0.73169
G1 X102.70963 Y112.53656 E.02172
G1 X88.72141 Y98.54834 E0.76241
G1 X88.15785 Y98.54834 E.02172
G1 X102.70963 Y113.10012 E0.79313
G1 X102.70963 Y113.66367 E.02172
G1 X87.5943 Y98.54834 E0.82384
G1 X87.03074 Y98.54834 E.02172
G1 X93.83875 Y105.35635 E0.37106
G1 X93.52345 Y105.30441 E.01232
G1 X93.22325 Y105.30441 E.01157
G1 X86.46718 Y98.54834 E0.36823
G1 X85.90362 Y98.54834 E.02172
G1 X92.65969 Y105.30441 E0.36823
G1 X92.09614 Y105.30441 E.02172
G1 X85.34007 Y98.54834 E0.36823
G1 X84.77651 Y98.54834 E.02172
G1 X91.53258 Y105.30441 E0.36823
G1 X90.96902 Y105.30441 E.02172
G1 X84.21295 Y98.54834 E0.36823
G1 X83.6494 Y98.54834 E.02172
G1 X90.40547 Y105.30441 E0.36823
G1 X89.84191 Y105.30441 E.02172
G1 X83.08584 Y98.54834 E0.36823
G1 X82.52228 Y98.54834 E.02172
G1 X89.27835 Y105.30441 E0.36823
G1 X88.7148 Y105.30441 E.02172
G1 X81.95873 Y98.54834 E0.36823
G1 X81.39517 Y98.54834 E.02172
G1 X88.15124 Y105.30441 E0.36823
G1 X87.58768 Y105.30441 E.02172
G1 X80.83161 Y98.54834 E0.36823
G1 X80.26805 Y98.54834 E.02172
G1 X87.02412 Y105.30441 E0.36823
G1 X86.46057 Y105.30441 E.02172
M73 P6 R12
G1 X79.7045 Y98.54834 E0.36823
G1 X79.14094 Y98.54834 E.02172
G1 X85.89701 Y105.30441 E0.36823
G1 X85.33345 Y105.30441 E.02172
G1 X78.57738 Y98.54834 E0.36823
G1 X78.01383 Y98.54834 E.02172
G1 X84.7699 Y105.30441 E0.36823
G1 X84.20634 Y105.30441 E.02172
G1 X77.45027 Y98.54834 E0.36823
G1 X76.88671 Y98.54834 E.02172
G1 X83.64278 Y105.30441 E0.36823
G1 X83.07923 Y105.30441 E.02172
G1 X76.32315 Y98.54834 E0.36823
G1 X75.7596 Y98.54834 E.02172
G1 X82.51567 Y105.30441 E0.36823
G1 X81.95211 Y105.30441 E.02172
G1 X75.19604 Y98.54834 E0.36823
G1 X74.63248 Y98.54834 E.02172
G1 X81.40342 Y105.31928 E0.36904
G1 X81.08679 Y105.37157 E.01237
G1 X80.96743 Y105.44684 E.00544
G1 X74.06893 Y98.54834 E0.37599
G1 X73.50537 Y98.54834 E.02172
G1 X75.87752 Y100.92049 Z.24 E.12929
G1 X78.24967 Y103.29264 Z.24 E.12929
G1 X80.62182 Y105.66479 Z.24 E.12929
G1 X80.39997 Y106.0065 E0.0157
G1 X77.91392 Y103.52045 Z.24 E.1355
G1 X75.42786 Y101.03439 Z.24 E.1355
G1 F3000
G1 X72.94181 Y98.54834 Z.24 E.1355
G1 F2999.79883
G1 X72.37826 Y98.54834 E.02172
G1 X75.00695 Y101.17703 Z.24 E.14327
G1 F2998.92188
G1 X77.63564 Y103.80573 Z.24 E.14328
G1 F2997.84351
G1 X80.26433 Y106.43442 Z.24 E.14327
G1 X80.24499 Y106.5531 E0.00463
G1 F2998.96997
G1 X80.24499 Y106.97863 E.0164
G1 F2999.90625
G1 X77.59344 Y104.32709 Z.24 E.14452
G1 X74.94191 Y101.67555 Z.24 E.14452
G1 F3000
G1 X72.29037 Y99.02401 Z.24 E.14452
G1 F2999.80176
G1 X72.29037 Y99.58756 E.02172
G1 X80.24499 Y107.54218 E0.43356
G1 X80.24499 Y108.10574 E.02172
G1 X72.29037 Y100.15112 E0.43356
G1 X72.29037 Y100.71468 E.02172
G1 X80.24499 Y108.6693 E0.43356
G1 X80.24499 Y109.23285 E.02172
G1 X72.29037 Y101.27824 E0.43356
G1 X72.29037 Y101.84179 E.02172
G1 X80.24499 Y109.79641 E0.43356
G1 X80.24499 Y110.35997 E.02172
G1 X72.29037 Y102.40535 E0.43356
G1 X72.29037 Y102.96891 E.02172
G1 X80.24499 Y110.92352 E0.43356
G1 X80.24499 Y111.48708 E.02172
G1 X72.29037 Y103.53247 E0.43356
G1 X72.29037 Y104.09602 E.02172
G1 X80.24499 Y112.05064 E0.43356
G1 X80.24499 Y112.6142 E.02172
G1 X72.29037 Y104.65958 E0.43356
G1 X72.29037 Y105.22314 E.02172
G1 X80.24499 Y113.17775 E0.43356
G1 X80.24499 Y113.74131 E.02172
G1 X72.29037 Y105.78669 E0.43356
G1 X72.29037 Y106.35025 E.02172
G1 X80.24499 Y114.30487 E0.43356
G1 X80.24499 Y114.86842 E.02172
G1 X72.29037 Y106.91381 E0.43356
G1 X72.29037 Y107.47736 E.02172
G1 X80.24499 Y115.43198 E0.43356
G1 X80.24499 Y115.99554 E.02172
G1 X72.29037 Y108.04092 E0.43356
G1 X72.29037 Y108.60448 E.02172
G1 X80.24499 Y116.5591 E0.43356
M73 P7 R12
G1 X80.24499 Y117.12265 E.02172
G1 X72.29037 Y109.16804 E0.43356
G1 X72.29037 Y109.73159 E.02172
G1 X80.24499 Y117.68621 E0.43356
G1 X80.24499 Y118.24977 E.02172
G1 X72.29037 Y110.29515 E0.43356
G1 X72.29037 Y110.85871 E.02172
G1 X74.95195 Y113.52029 Z.24 E.14507
G1 X77.61354 Y116.18188 Z.24 E.14507
G1 X80.27512 Y118.84346 Z.24 E.14507
G1 X80.39342 Y119.16353 E.01315
G1 X80.63729 Y119.48441 E0.01553
G1 F2997.99438
G1 X81.02318 Y119.73607 E.01776
G1 X81.20388 Y119.77221 E0.0071
G1 F2999.33813
G1 X82.88339 Y121.45173 E.09154
G1 X83.44695 Y121.45173 E.02172
G1 X81.82662 Y119.8314 E0.08831
G1 X82.39017 Y119.8314 E.02172
G1 X84.0105 Y121.45173 E0.08831
G1 X84.57406 Y121.45173 E.02172
G1 X82.95373 Y119.8314 E0.08831
G1 X83.51729 Y119.8314 E.02172
G1 X85.13762 Y121.45173 E0.08831
G1 X85.70118 Y121.45173 E.02172
G1 X84.08085 Y119.8314 E0.08831
G1 X84.6444 Y119.8314 E.02172
G1 X86.26473 Y121.45173 E0.08831
G1 X86.82829 Y121.45173 E.02172
G1 X85.20796 Y119.8314 E0.08831
G1 X85.77152 Y119.8314 E.02172
G1 X87.39185 Y121.45173 E0.08831
G1 X87.9554 Y121.45173 E.02172
G1 X86.33507 Y119.8314 E0.08831
G1 X86.89863 Y119.8314 E.02172
G1 X88.51896 Y121.45173 E0.08831
G1 X89.08252 Y121.45173 E.02172
G1 X87.46219 Y119.8314 E0.08831
G1 X88.02575 Y119.8314 E.02172
G1 X89.64607 Y121.45173 E0.08831
G1 X90.20963 Y121.45173 E.02172
G1 X88.5893 Y119.8314 E0.08831
G1 X89.15286 Y119.8314 E.02172
G1 X90.77319 Y121.45173 E0.08831
G1 X91.33675 Y121.45173 E.02172
G1 X89.71642 Y119.8314 E0.08831
G1 X90.27997 Y119.8314 E.02172
G1 X91.9003 Y121.45173 E0.08831
G1 X92.46386 Y121.45173 E.02172
G1 X90.84353 Y119.8314 E0.08831
G1 X91.40709 Y119.8314 E.02172
G1 X93.02742 Y121.45173 E0.08831
G1 X93.59097 Y121.45173 E.02172
G1 X91.97065 Y119.8314 E0.08831
G1 X92.5342 Y119.8314 E.02172
G1 X94.15453 Y121.45173 E0.08831
G1 X94.71809 Y121.45173 E.02172
G1 X93.09776 Y119.8314 E.08831
G1 X93.52781 Y119.8314 E.01657
G1 X93.63935 Y119.80943 E0.00438
G1 X95.28164 Y121.45173 E.08951
G1 X95.8452 Y121.45173 E.02172
G1 X94.07596 Y119.68249 E.09643
G1 X94.37968 Y119.48441 E0.01397
G1 F2995.33594
G1 X94.40635 Y119.44931 E.0017
G1 F2999.88257
G1 X96.40876 Y121.45173 E.10914
G1 X96.97232 Y121.45173 E.02172
G1 X94.63995 Y119.11936 E.12712
G1 X94.7416 Y118.8457 E.01125
G1 X94.76042 Y118.67628 E0.00657
G1 X97.53587 Y121.45173 E.15127
G1 X98.09943 Y121.45173 E.02172
G1 X94.77198 Y118.12427 E0.18136
G1 X94.77198 Y117.56072 E.02172
G1 X98.66299 Y121.45173 E0.21207
G1 X99.22654 Y121.45173 E.02172
G1 X94.77198 Y116.99716 E0.24279
G1 X94.77198 Y116.4336 E.02172
G1 X99.7901 Y121.45173 E0.27351
G1 X100.35366 Y121.45173 E.02172
G1 X94.77198 Y115.87005 E0.30422
G1 X94.77198 Y115.30649 E.02172
G1 X100.91721 Y121.45173 E0.33494
G1 X101.48077 Y121.45173 E.02172
G1 X94.77198 Y114.74293 E0.36565
G1 X94.77198 Y114.17938 E.02172
G1 X102.04433 Y121.45173 E0.39637
G1 X102.60789 Y121.45173 E.02172
G1 X94.77198 Y113.61582 E0.42709
G1 X94.77198 Y113.05226 E.02172
G1 X102.70963 Y120.98991 E0.43263
G1 X102.70963 Y120.42636 E.02172
G1 X94.77198 Y112.4887 E0.43263
G1 X94.77198 Y111.92515 E.02172
G1 X102.70963 Y119.8628 E0.43263
G1 X102.70963 Y119.29924 E.02172
G1 X94.77198 Y111.36159 E0.43263
G1 X94.77198 Y110.79803 E.02172
