; generated by SuperSlicer 2.5.60.0 on 2024-07-17 at 13:20:53 UTC


;
;

;
;
; 

; external perimeters extrusion width = 0.48mm
; perimeters extrusion width = 0.48mm
; infill extrusion width = 0.48mm
; solid infill extrusion width = 0.48mm
; top infill extrusion width = 0.48mm
; first layer extrusion width = 0.48mm

; object:{"name":"Pi_Zero_2_W_2040_Mount","id":"Pi_Zero_2_W_2040_Mount.stl id:0 copy 0","object_center":[90.000000,92.500000,0.000000],"boundingbox_center":[90.000000,92.500000,4.100000],"boundingbox_size":[67.400002,32.400002,8.200000]}
EXCLUDE_OBJECT_DEFINE NAME=Pi_Zero_2_W_2040_Mount_stl_id_0_copy_0 CENTER=90.000000,92.500000 POLYGON=[[56.30,80.50],[56.31,80.15],[56.36,79.81],[56.43,79.47],[56.53,79.14],[56.65,78.81],[56.81,78.50],[56.98,78.20],[57.19,77.92],[57.41,77.66],[57.66,77.41],[57.92,77.19],[58.20,76.98],[58.50,76.81],[58.81,76.65],[59.14,76.53],[59.47,76.43],[59.81,76.36],[60.15,76.31],[60.50,76.30],[119.50,76.30],[119.85,76.31],[120.19,76.36],[120.53,76.43],[120.86,76.53],[121.19,76.65],[121.50,76.81],[121.80,76.98],[122.08,77.19],[122.34,77.41],[122.59,77.66],[122.81,77.92],[123.02,78.20],[123.19,78.50],[123.35,78.81],[123.47,79.14],[123.57,79.47],[123.64,79.81],[123.69,80.15],[123.70,80.50],[123.70,104.50],[123.69,104.85],[123.64,105.19],[123.57,105.53],[123.47,105.86],[123.35,106.19],[123.19,106.50],[123.02,106.80],[122.81,107.08],[122.59,107.34],[122.34,107.59],[122.08,107.81],[121.80,108.02],[121.50,108.19],[121.19,108.35],[120.86,108.47],[120.53,108.57],[120.19,108.64],[119.85,108.69],[119.50,108.70],[60.50,108.70],[60.15,108.69],[59.81,108.64],[59.47,108.57],[59.14,108.47],[58.81,108.35],[58.50,108.19],[58.20,108.02],[57.92,107.81],[57.66,107.59],[57.41,107.34],[57.19,107.08],[56.98,106.80],[56.81,106.50],[56.65,106.19],[56.53,105.86],[56.43,105.53],[56.36,105.19],[56.31,104.85],[56.30,104.50],[56.30,80.50]]
; Total objects to print: 1
; plater:{"center":[90.000000,92.500000,0.000000],"boundingbox_center":[90.000000,92.500000,4.100000],"boundingbox_size":[67.400002,32.400002,8.200000]}

M107
;TYPE:Custom
START_PRINT EXTRUDER=250 BED=100
G21 ; set units to millimeters
G90 ; use absolute coordinates
M83 ; use relative distances for extrusion
; Filament gcode
FILAMENT_START MATERIAL=ASA COLOR=#368900 VENDOR=123-3D
SET_PRESSURE_ADVANCE ADVANCE=0.062
M104 S250 ; set temperature
M109 S250 ; set temperature and wait for it to be reached
M190 S100 ; set bed temperature and wait for it to be reached
;LAYER_CHANGE
;Z:0.24
;HEIGHT:0.24
G1 E-1 F3600
G1 Z0.24 F60000
G92 E0
M204 S1000
G1 X55.171 Y73.531
G1 E1 F3600
;TYPE:Skirt
;WIDTH:0.48
G1 F2400
G1 X55.728 Y73.142 E0.02672
G1 F2398.47
G1 X56.308 Y72.801 E.02648
G1 X56.9 Y72.511 E0.02593
G1 X57.501 Y72.271 E.02546
G1 X58.331 Y72.021 E0.03407
G1 X58.951 Y71.891 E.02493
G1 X59.588 Y71.806 E.02529
G1 X60.376 Y71.765 E0.03102
G1 X65.314 Y71.765 Z.24 E.19422
G1 X70.251 Y71.765 Z.24 E.19422
G1 X75.189 Y71.765 Z.24 E.19422
G1 X80.127 Y71.765 Z.24 E.19422
G1 X85.064 Y71.765 Z.24 E.19422
G1 X90.002 Y71.765 Z.24 E.19422
G1 X94.94 Y71.765 Z.24 E.19422
G1 X99.877 Y71.765 Z.24 E.19422
G1 X104.815 Y71.765 Z.24 E.19422
G1 F2399.012
G1 X109.753 Y71.765 Z.24 E.19422
G1 X114.69 Y71.765 Z.24 E.19422
G1 X119.628 Y71.765 Z.24 E.19422
G1 X120.373 Y71.802 E0.02933
G1 X121.122 Y71.904 E.02973
G1 F2397.202
G1 X121.71 Y72.031 E.02369
G1 F2399.97
G1 X122.288 Y72.199 E.02368
G1 X122.95 Y72.447 E.02781
G1 X123.631 Y72.769 E0.02962
G1 F2397.835
G1 X124.279 Y73.146 E.0295
G1 X124.892 Y73.579 E0.0295
G1 F2398.178
G1 X125.478 Y74.074 E.03019
G1 F2399.615
G1 X126.018 Y74.618 E.03016
G1 X126.514 Y75.215 E.03053
G1 X126.861 Y75.708 E0.0237
G1 F2396.457
G1 X127.172 Y76.223 E.02368
G1 X127.492 Y76.854 E0.0278
G1 F2395.002
G1 X127.775 Y77.55 E.02958
G1 X127.996 Y78.268 E0.02951
G1 X128.154 Y79.001 E.02952
G1 X128.247 Y79.728 E0.02882
G1 F2398.324
G1 X128.279 Y80.425 E.02746
G1 X128.279 Y104.579 E0.95008
G1 F2399.233
G1 X128.245 Y105.298 E.02833
G1 X128.166 Y105.927 E.02495
G1 X128.026 Y106.613 E.02754
G1 X127.794 Y107.393 E0.03199
G1 X127.56 Y107.994 E.02536
G1 X127.254 Y108.627 E.02765
G1 X126.801 Y109.383 E.03467
G1 X126.443 Y109.877 E0.02399
G1 F2397.474
G1 X126.052 Y110.345 E.02401
G1 F2398.761
G1 X125.386 Y111.011 E.03705
G1 X124.899 Y111.416 E0.02489
G1 F2396.232
G1 X124.396 Y111.778 E.0244
G1 F2399.954
G1 X123.684 Y112.204 E.03263
G1 X123.099 Y112.489 E0.02559
G1 X122.498 Y112.729 E.02545
G1 F2398.396
G1 X121.669 Y112.979 E.03408
G1 F2399.969
G1 X121.049 Y113.109 E.02492
G1 X120.412 Y113.194 E.02528
G1 X119.624 Y113.235 E0.03102
G1 F2398.683
G1 X114.677 Y113.235 Z.24 E.19458
G1 X109.73 Y113.234 Z.24 E.19458
G1 X104.784 Y113.234 Z.24 E.19458
G1 F2399.026
G1 X99.837 Y113.234 Z.24 E.19458
G1 X94.89 Y113.234 Z.24 E.19458
G1 X89.943 Y113.234 Z.24 E.19458
G1 X84.996 Y113.233 Z.24 E.19458
G1 X80.049 Y113.233 Z.24 E.19458
G1 X75.103 Y113.233 Z.24 E.19458
G1 X70.156 Y113.233 Z.24 E.19458
G1 X65.209 Y113.232 Z.24 E.19458
G1 F2400
G1 X60.262 Y113.232 Z.24 E.19458
G1 F2396.564
G1 X59.617 Y113.197 E.02543
G1 X58.971 Y113.112 E0.0256
G1 F2394.61
G1 X58.336 Y112.98 E.02555
G1 X57.709 Y112.8 E0.02565
G1 F2398.242
G1 X56.826 Y112.456 E.03728
G1 X56.273 Y112.18 E0.02429
G1 X55.73 Y111.86 E.0248
G1 X55.168 Y111.468 E0.02695
G1 F2399.927
G1 X54.622 Y111.018 E.02783
G1 F2398.173
G1 X54.044 Y110.449 E.03192
G1 X53.488 Y109.788 E0.03396
G1 F2399.607
G1 X53.098 Y109.228 E.02684
G1 X52.757 Y108.648 E.02647
G1 X52.467 Y108.056 E0.02593
G1 F2397.983
G1 X52.228 Y107.458 E.02535
G1 X52.006 Y106.738 E0.02963
G1 F2399.104
G1 X51.824 Y105.865 E.03507
G1 X51.754 Y105.276 E0.02331
G1 F2395.898
G1 X51.723 Y104.673 E.02378
G1 X51.721 Y80.426 E0.95373
G1 F2399.764
G1 X51.752 Y79.746 E.02678
G1 F2397.281
G1 X51.86 Y78.92 E.03279
G1 X52.009 Y78.25 E0.02697
G1 F2398.807
G1 X52.204 Y77.612 E.02624
G1 X52.44 Y77.006 E.0256
G1 X52.714 Y76.432 E0.02502
G1 X53.171 Y75.66 E.0353
G1 X53.54 Y75.145 E0.02491
G1 X53.945 Y74.659 E.02489
G1 X54.587 Y74.014 E0.03579
G1 F2397.736
G1 X55.124 Y73.569 E.02745
G1 X55.423 Y73.877 F60000
G1 F2400
G1 X55.952 Y73.507 E0.02538
G1 F2399.928
G1 X56.518 Y73.174 E.02582
G1 F2398.691
G1 X57.081 Y72.9 E.02463
G1 X57.652 Y72.672 E0.02417
G1 X58.428 Y72.439 E.03188
G1 F2399.825
G1 X59.031 Y72.312 E.02425
G1 X59.636 Y72.231 E.02402
G1 X60.381 Y72.194 E0.02934
G1 X65.318 Y72.194 Z.24 E.19419
G1 X70.255 Y72.194 Z.24 E.19419
G1 X75.191 Y72.194 Z.24 E.19419
G1 X80.128 Y72.194 Z.24 E.19419
G1 X85.065 Y72.194 Z.24 E.19419
G1 X90.002 Y72.194 Z.24 E.19419
G1 X94.938 Y72.194 Z.24 E.19419
G1 X99.875 Y72.194 Z.24 E.19419
G1 X104.812 Y72.194 Z.24 E.19419
G1 X109.748 Y72.194 Z.24 E.19419
G1 X114.685 Y72.194 Z.24 E.19419
G1 X119.622 Y72.194 Z.24 E.19419
G1 X120.342 Y72.229 E0.02835
G1 F2398.87
G1 X121.039 Y72.324 E.02767
G1 X121.598 Y72.445 E0.02248
G1 F2397.98
G1 X122.161 Y72.608 E.02306
G1 X122.792 Y72.845 E0.0265
G1 X123.439 Y73.152 E.02819
G1 X124.055 Y73.512 E0.02805
G1 X124.637 Y73.923 E.02804
G1 X125.194 Y74.395 E0.02871
G1 F2399.204
G1 X125.707 Y74.913 E.02868
G1 X126.169 Y75.469 E0.02843
G1 F2396.958
G1 X126.498 Y75.936 E.02249
G1 X126.802 Y76.438 E0.02307
G1 F2399.019
G1 X127.105 Y77.039 E.02648
G1 X127.374 Y77.702 E.02815
G1 X127.583 Y78.384 E.02806
G1 X127.733 Y79.082 E0.02807
G1 X127.821 Y79.773 E.0274
G1 X127.85 Y80.43 E0.02586
G1 X127.85 Y85.259 Z.24 E.18994
G1 X127.85 Y90.088 Z.24 E.18994
G1 X127.85 Y94.916 Z.24 E.18994
G1 X127.85 Y99.745 Z.24 E.18994
G1 F2400
G1 X127.85 Y104.574 Z.24 E.18994
G1 F2395.83
G1 X127.817 Y105.269 E.0274
G1 X127.742 Y105.866 E0.02364
G1 F2399.317
G1 X127.612 Y106.501 E.02548
G1 X127.386 Y107.263 E.03127
G1 X127.164 Y107.83 E.02396
G1 F2398.487
G1 X126.882 Y108.415 E.02556
G1 X126.448 Y109.139 E0.03319
G1 F2399.268
G1 X126.11 Y109.608 E.02274
G1 X125.729 Y110.063 E0.02334
G1 F2398.975
G1 X125.104 Y110.688 E.03478
G1 X124.643 Y111.072 E0.0236
G1 X124.153 Y111.424 E.02374
G1 X123.472 Y111.831 E0.0312
G1 F2396.933
G1 X122.919 Y112.1 E.0242
G1 X122.348 Y112.328 E0.02415
G1 F2398.087
G1 X121.554 Y112.566 E.03261
G1 F2399.217
G1 X120.969 Y112.688 E.02352
G1 X120.364 Y112.769 E.02402
G1 X119.619 Y112.806 E0.02934
G1 X114.674 Y112.806 Z.24 E.19451
G1 X109.729 Y112.806 Z.24 E.19451
G1 X104.784 Y112.805 Z.24 E.19451
G1 X99.839 Y112.805 Z.24 E.19451
G1 X94.894 Y112.805 Z.24 E.19451
G1 X89.949 Y112.805 Z.24 E.19451
G1 X85.004 Y112.805 Z.24 E.19451
G1 X80.059 Y112.805 Z.24 E.19451
G1 X75.114 Y112.805 Z.24 E.19451
G1 X70.169 Y112.804 Z.24 E.19451
G1 X65.224 Y112.804 Z.24 E.19451
G1 F2400
G1 X60.279 Y112.804 Z.24 E.19451
G1 F2397.259
G1 X59.664 Y112.771 E.02424
G1 X59.05 Y112.691 E0.02433
G1 X58.446 Y112.566 E.02428
G1 X57.837 Y112.391 E.02495
G1 X57.008 Y112.068 E0.03497
G1 F2399.455
G1 X56.471 Y111.8 E.0236
G1 X55.955 Y111.495 E.02358
G1 X55.421 Y111.121 E.02565
G1 X54.902 Y110.693 E0.02645
G1 X54.351 Y110.151 E.03041
G1 F2398.614
G1 X53.834 Y109.535 E.03165
G1 X53.463 Y109.004 E0.02547
G1 F2397.916
G1 X53.131 Y108.438 E.02582
G1 X52.856 Y107.875 E0.02463
G1 X52.629 Y107.307 E.02407
G1 X52.418 Y106.621 E0.02822
G1 F2398.02
G1 X52.248 Y105.805 E.0328
G1 X52.18 Y105.233 E0.02265
G1 X52.152 Y104.657 E.02269
G1 F2399.824
G1 X52.152 Y99.812 Z.24 E.19059
G1 X52.151 Y94.967 Z.24 E.19059
G1 X52.151 Y90.121 Z.24 E.19059
G1 F2398.769
G1 X52.15 Y85.276 Z.24 E.19059
G1 X52.15 Y80.431 Z.24 E.19059
G1 X52.178 Y79.792 E0.02514
G1 F2397.159
G1 X52.281 Y79.003 E.03132
G1 X52.421 Y78.367 E0.02561
G1 F2399.448
G1 X52.606 Y77.76 E.02496
G1 X52.83 Y77.183 E.02434
G1 X53.097 Y76.625 E0.02432
G1 X53.525 Y75.901 E.03309
G1 F2397.404
G1 X53.874 Y75.413 E.02362
G1 X54.268 Y74.94 E0.0242
G1 F2398.226
G1 X54.883 Y74.324 E.03425
G1 F2399.508
G1 X55.377 Y73.915 E.02522
G1 X55.676 Y74.223 F60000
G1 F2400
G1 X56.191 Y73.863 E0.0247
G1 F2399.141
G1 X56.728 Y73.548 E.02449
G1 F2398.263
G1 X57.261 Y73.289 E.02333
G1 F2399.38
G1 X57.801 Y73.074 E.02287
G1 X58.542 Y72.852 E.03042
G1 X59.111 Y72.733 E0.02285
G1 X59.684 Y72.657 E.02273
G1 X60.387 Y72.622 E.02768
G1 X65.323 Y72.622 Z.24 E.19415
G1 X70.259 Y72.622 Z.24 E.19415
G1 X75.195 Y72.622 Z.24 E.19415
G1 X80.13 Y72.622 Z.24 E.19415
G1 X85.066 Y72.622 Z.24 E.19415
G1 X90.002 Y72.622 Z.24 E.19415
G1 X94.938 Y72.622 Z.24 E.19415
G1 X99.874 Y72.622 Z.24 E.19415
G1 X104.809 Y72.622 Z.24 E.19415
G1 F2398.982
G1 X109.745 Y72.622 Z.24 E.19415
G1 X114.681 Y72.622 Z.24 E.19415
G1 X119.617 Y72.622 Z.24 E.19415
G1 X120.294 Y72.655 E0.02665
G1 F2399.409
G1 X120.957 Y72.745 E.02632
G1 X121.5 Y72.862 E.02185
G1 F2398.148
G1 X122.033 Y73.017 E.02185
G1 F2399.676
G1 X122.632 Y73.243 E.02518
G1 X123.247 Y73.535 E0.02677
G1 X123.83 Y73.877 E.02659
G1 X124.382 Y74.267 E0.02658
G1 F2398.667
G1 X124.91 Y74.715 E.02725
G1 F2399.748
G1 X125.383 Y75.194 E.02648
G1 X125.823 Y75.723 E.02706
G1 X126.144 Y76.177 E.02186
G1 X126.431 Y76.653 E0.02185
G1 X126.719 Y77.224 E.02516
G1 F2397.741
G1 X126.973 Y77.854 E.02674
G1 X127.171 Y78.501 E0.0266
G1 F2399.978
G1 X127.312 Y79.163 E.02661
G1 F2397.785
G1 X127.394 Y79.818 E.02598
G1 X127.422 Y80.435 E0.02429
G1 F2399.605
G1 X127.422 Y85.262 Z.24 E.18986
G1 X127.422 Y90.089 Z.24 E.18986
G1 X127.422 Y94.915 Z.24 E.18986
G1 X127.422 Y99.742 Z.24 E.18986
G1 F2400
G1 X127.422 Y104.569 Z.24 E.18986
G1 F2395.767
G1 X127.39 Y105.24 E.02645
G1 X127.318 Y105.804 E0.02233
G1 F2397.716
G1 X127.199 Y106.388 E.02345
G1 F2398.414
G1 X126.978 Y107.132 E.03054
G1 X126.768 Y107.666 E0.02255
G1 X126.509 Y108.204 E.02349
G1 F2399.811
G1 X126.096 Y108.896 E.03171
G1 F2396.064
G1 X125.767 Y109.35 E.02208
G1 X125.407 Y109.781 E0.02206
G1 F2398.216
G1 X124.822 Y110.365 E.03252
G1 F2399.045
G1 X124.375 Y110.738 E.02291
G1 X123.911 Y111.071 E0.02246
G1 F2398.289
G1 X123.261 Y111.458 E.02977
G1 X122.739 Y111.711 E0.02281
G1 F2399.658
G1 X122.199 Y111.926 E.02286
G1 X121.458 Y112.148 E.03042
G1 X120.889 Y112.267 E0.02285
G1 F2398.52
G1 X120.316 Y112.343 E.02274
G1 X119.613 Y112.378 E0.02768
G1 F2399.356
G1 X114.67 Y112.378 Z.24 E.19444
G1 X109.727 Y112.378 Z.24 E.19444
G1 X104.784 Y112.378 Z.24 E.19444
G1 X99.841 Y112.377 Z.24 E.19444
G1 X94.898 Y112.377 Z.24 E.19444
G1 X89.954 Y112.377 Z.24 E.19444
G1 X85.011 Y112.377 Z.24 E.19444
G1 X80.068 Y112.377 Z.24 E.19444
G1 X75.125 Y112.376 Z.24 E.19444
G1 X70.182 Y112.376 Z.24 E.19444
G1 X65.239 Y112.376 Z.24 E.19444
G1 X60.296 Y112.376 Z.24 E.19444
G1 X59.711 Y112.345 E0.02304
G1 F2398.196
G1 X59.114 Y112.267 E.02369
G1 X58.541 Y112.148 E0.023
G1 F2395.946
G1 X57.965 Y111.982 E.02361
G1 F2399.043
G1 X57.191 Y111.68 E.03268
G1 X56.669 Y111.42 E0.02292
G1 F2396.491
G1 X56.181 Y111.131 E.02233
G1 X55.674 Y110.775 E0.02436
G1 F2399.649
G1 X55.183 Y110.369 E.02506
G1 F2398.651
G1 X54.66 Y109.853 E.02891
G1 F2399.472
G1 X54.18 Y109.281 E.02936
G1 X53.819 Y108.765 E0.02475
G1 F2398.902
G1 X53.504 Y108.228 E.02449
G1 F2395.85
G1 X53.245 Y107.695 E.02334
G1 X53.031 Y107.156 E0.02279
G1 F2398.383
G1 X52.831 Y106.505 E.0268
G1 F2399.262
G1 X52.673 Y105.745 E.03055
G1 F2398.315
G1 X52.606 Y105.19 E.02199
G1 X52.58 Y104.641 E0.02159
G1 F2397.01
G1 X52.58 Y99.8 Z.24 E.19043
G1 X52.579 Y94.959 Z.24 E.19043
G1 F2398.339
G1 X52.579 Y90.117 Z.24 E.19043
G1 F2399.003
G1 X52.578 Y85.276 Z.24 E.19043
G1 F2400
G1 X52.578 Y80.435 Z.24 E.19043
G1 F2399.756
G1 X52.604 Y79.838 E.02351
G1 F2398.669
G1 X52.701 Y79.086 E.02985
G1 X52.834 Y78.484 E.02426
G1 X53.008 Y77.907 E0.02368
G1 F2396.577
G1 X53.22 Y77.361 E.02306
G1 F2398.897
G1 X53.479 Y76.819 E.02363
G1 X53.879 Y76.143 E0.03087
G1 F2395.136
G1 X54.218 Y75.669 E.02295
G1 X54.591 Y75.222 E0.02288
G1 F2399.641
G1 X55.165 Y74.647 E.03194
G1 F2398.521
G1 X55.63 Y74.261 E.02378
G1 X55.929 Y74.569 F60000
G1 F2399.029
G1 X56.429 Y74.219 E.02401
G1 X56.937 Y73.922 E0.02313
G1 F2395.526
G1 X57.441 Y73.678 E.02205
G1 X57.951 Y73.476 E0.02156
G1 F2399.153
G1 X58.639 Y73.269 E.02826
G1 X59.175 Y73.157 E.02155
G1 X59.731 Y73.083 E.02207
G1 X60.392 Y73.051 E0.02602
G1 F2398.969
G1 X65.327 Y73.051 Z.24 E.19412
G1 X70.262 Y73.051 Z.24 E.19412
G1 X75.197 Y73.051 Z.24 E.19412
G1 X80.132 Y73.051 Z.24 E.19412
G1 X85.067 Y73.051 Z.24 E.19412
G1 X90.002 Y73.051 Z.24 E.19412
G1 X94.937 Y73.051 Z.24 E.19412
G1 X99.872 Y73.051 Z.24 E.19412
G1 X104.807 Y73.051 Z.24 E.19412
G1 X109.742 Y73.051 Z.24 E.19412
G1 X114.677 Y73.051 Z.24 E.19412
G1 X119.612 Y73.051 Z.24 E.19412
G1 X120.246 Y73.081 E0.02495
G1 F2395.397
G1 X120.875 Y73.166 E.02499
G1 X121.388 Y73.276 E0.02061
G1 F2394.437
G1 X121.905 Y73.427 E.02121
G1 X122.473 Y73.641 E0.02385
G1 F2395.93
G1 X123.054 Y73.918 E.02535
G1 F2399.401
G1 X123.605 Y74.241 E.02513
G1 X124.126 Y74.611 E.02513
G1 X124.612 Y75.024 E0.02507
G1 F2397.875
G1 X125.06 Y75.475 E.02502
G1 F2399.397
G1 X125.478 Y75.977 E.0257
G1 X125.781 Y76.405 E.02062
G1 X126.06 Y76.867 E0.02121
G1 F2396.784
G1 X126.332 Y77.408 E.02384
G1 F2399.021
G1 X126.572 Y78.005 E.02531
G1 X126.758 Y78.617 E0.02514
G1 X126.891 Y79.243 E.02517
G1 F2397.533
G1 X126.968 Y79.862 E.02456
G1 F2399.864
G1 X126.993 Y80.439 E.02272
G1 X126.993 Y85.264 Z.24 E.18978
G1 X126.993 Y90.089 Z.24 E.18979
G1 X126.993 Y94.913 Z.24 E.18978
G1 X126.993 Y99.738 Z.24 E.18979
G1 X126.993 Y104.563 Z.24 E.18978
G1 X126.962 Y105.211 E0.02551
G1 F2398.334
G1 X126.894 Y105.741 E.02102
G1 X126.785 Y106.275 E0.02142
G1 F2396.756
G1 X126.57 Y107.001 E.0298
G1 X126.372 Y107.501 E0.02114
G1 X126.136 Y107.992 E.02145
G1 F2398.787
G1 X125.743 Y108.652 E.03022
G1 X125.424 Y109.093 E0.02139
G1 F2399.561
G1 X125.084 Y109.498 E.02079
G1 F2396.557
G1 X124.54 Y110.042 E.03029
G1 X124.119 Y110.395 E0.0216
G1 F2399.76
G1 X123.668 Y110.717 E.02179
G1 X123.065 Y111.077 E0.02761
G1 F2395.624
G1 X122.559 Y111.322 E.02214
G1 X122.049 Y111.524 E0.02156
G1 F2399.167
G1 X121.361 Y111.731 E.02826
G1 X120.825 Y111.843 E.02155
G1 X120.269 Y111.917 E.02207
G1 X119.608 Y111.949 E0.02602
G1 X114.667 Y111.949 Z.24 E.19437
G1 X109.725 Y111.949 Z.24 E.19437
G1 X104.784 Y111.949 Z.24 E.19437
G1 X99.843 Y111.949 Z.24 E.19437
G1 X94.901 Y111.949 Z.24 E.19437
G1 X89.96 Y111.949 Z.24 E.19437
G1 X85.019 Y111.948 Z.24 E.19437
G1 X80.077 Y111.948 Z.24 E.19437
