; generated by SuperSlicer 2.5.59.9 on 2024-05-16 at 07:11:23 UTC


;
;

;
;

;
;

;
;

;
;
; 

; external perimeters extrusion width = 0.42mm
; perimeters extrusion width = 0.45mm
; infill extrusion width = 0.45mm
; solid infill extrusion width = 0.45mm
; top infill extrusion width = 0.42mm

; external perimeters extrusion width = 0.42mm
; perimeters extrusion width = 0.45mm
; infill extrusion width = 0.45mm
; solid infill extrusion width = 0.45mm
; top infill extrusion width = 0.42mm

; external perimeters extrusion width = 0.42mm
; perimeters extrusion width = 0.45mm
; infill extrusion width = 0.45mm
; solid infill extrusion width = 0.45mm
; top infill extrusion width = 0.42mm

; object:{"name":"PiCam_v2_-_Housing_rear","id":"PiCam_v2_-_Housing_rear.stl id:0 copy 0","object_center":[30.234950,63.651955,0.000000],"boundingbox_center":[30.234950,63.651955,5.250000],"boundingbox_size":[26.700950,33.450988,10.500000]}
EXCLUDE_OBJECT_DEFINE NAME=PiCam_v2___Housing_rear_stl_id_0_copy_0 CENTER=30.234950,63.651955 POLYGON=[[16.88,47.38],[43.01,46.93],[43.59,79.92],[17.46,80.38],[17.43,78.88],[16.93,49.88],[16.91,48.88],[16.88,47.38]]
; object:{"name":"PiCam_v2_-_Housing_front","id":"PiCam_v2_-_Housing_front.stl id:1 copy 0","object_center":[62.624550,94.843016,0.000000],"boundingbox_center":[62.624550,94.843016,4.726002],"boundingbox_size":[33.000000,28.128998,9.452003]}
EXCLUDE_OBJECT_DEFINE NAME=PiCam_v2___Housing_front_stl_id_1_copy_0 CENTER=62.624550,94.843016 POLYGON=[[46.12,80.78],[79.12,80.78],[79.12,108.91],[46.12,108.91],[46.12,80.78]]
; object:{"name":"PiCam_-_mount_v2","id":"PiCam_-_mount_v2.stl id:2 copy 0","object_center":[41.902347,113.452258,0.000000],"boundingbox_center":[41.902347,113.452258,12.497912],"boundingbox_size":[35.999977,58.999969,24.995825]}
EXCLUDE_OBJECT_DEFINE NAME=PiCam___mount_v2_stl_id_2_copy_0 CENTER=41.902347,113.452258 POLYGON=[[23.90,142.95],[23.90,130.95],[23.90,85.95],[23.95,85.51],[24.10,85.08],[24.34,84.71],[24.66,84.39],[25.03,84.15],[25.46,84.00],[25.90,83.95],[37.90,83.95],[59.90,130.95],[59.90,136.95],[35.90,142.95],[23.90,142.95]]
; plater:{"center":[48.004513,94.939352,0.000000],"boundingbox_center":[48.004513,94.939352,12.497912],"boundingbox_size":[62.240075,96.025781,24.995825]}

M73 P0 R64
M107
;TYPE:Custom
CALCULATE_PA MATERIAL=PLA BOWDEN_LENGTH=6 LAYER_HEIGHT=0.24 NOZZLE_SIZE=0.4 PRINT_SPEED=0
START_PRINT EXTRUDER=210 BED=60
SET_VELOCITY_LIMIT ACCEL=3000



M107
G21 ; set units to millimeters
G90 ; use absolute coordinates
M83 ; use relative distances for extrusion
ACTIVATE_EXTRUDER EXTRUDER=extruder
; Filament gcode
M104 S210 T0 ; set temperature
M109 S210 T0 ; set temperature and wait for it to be reached
M190 S60 ; set bed temperature and wait for it to be reached
;LAYER_CHANGE
;Z:0.24
;HEIGHT:0.24
;BEFORE_LAYER_CHANGE
G92 E0.0

G1 E-0.4 F3600
G1 Z0.16 F360000
G1 Z0.24
;AFTER_LAYER_CHANGE
;0.24
SET_VELOCITY_LIMIT ACCEL=5000


CALCULATE_PA MATERIAL=PLA BOWDEN_LENGTH=6.0 LAYER_HEIGHT=0.2 NOZZLE_SIZE=0.4 PRINT_SPEED=120


G92 E0
G1 Z0.4
G1 X15.26782 Y43.06708
G1 Z0.24
G1 E0.4 F3600
;TYPE:Skirt
;WIDTH:0.45
M107
G1 F2399.97656
G1 X16.38554 Y42.81174 E.04103
G1 X43.79488 Y42.38488 E0.98099
G1 X44.54686 Y42.58605 E.02786
G1 X45.26213 Y42.90742 E0.02806
G1 X45.87724 Y43.33466 E.0268
G1 X46.46347 Y43.89097 E0.02892
G1 X47.13027 Y44.86354 E.0422
G1 X47.42059 Y45.60172 E.02839
G1 X47.57451 Y46.37932 E.02837
G1 F2400
G1 X47.6534 Y50.82777 Z.24 E.15922
G1 F2399.99976
G1 X47.7323 Y55.27623 Z.24 E.15922
G1 X47.81119 Y59.72469 Z.24 E.15922
G1 X47.89009 Y64.17314 Z.24 E.15922
G1 X47.96898 Y68.6216 Z.24 E.15922
G1 X48.04787 Y73.07005 Z.24 E.15922
G1 X48.12677 Y77.51851 Z.24 E.15922
G1 X79.55507 Y77.52211 E1.12469
G1 X80.68162 Y77.76456 E.04124
G1 X81.38785 Y78.08858 E.02781
G1 X82.01939 Y78.52891 E.02755
G1 X82.68604 Y79.19373 E0.03369
G1 X83.19385 Y79.9426 E.03238
G1 X83.5459 Y80.81031 E.03351
G1 X83.70732 Y81.73075 E0.03344
G1 X83.70163 Y86.15656 Z.24 E.15838
G1 X83.69595 Y90.58237 Z.24 E.15838
G1 X83.69025 Y95.00819 Z.24 E.15838
G1 X83.68456 Y99.434 Z.24 E.15838
G1 X83.67888 Y103.85981 Z.24 E.15838
G1 F2400
G1 X83.67319 Y108.28562 Z.24 E.15838
G1 F2399.83423
G1 X83.48367 Y109.07373 E.02901
G1 X83.14183 Y109.84097 E.03006
G1 X82.64451 Y110.53978 E0.03069
G1 X82.05749 Y111.12612 E.02969
G1 X81.41915 Y111.57839 E.028
G1 X80.65566 Y111.93135 E.0301
G1 X79.66977 Y112.15078 E0.03614
G1 X74.81619 Y112.15409 Z.24 E.17369
G1 X69.96262 Y112.15739 Z.24 E.17369
G1 X65.10904 Y112.16071 Z.24 E.17369
G1 X60.25547 Y112.16401 Z.24 E.17369
G1 F2400
G1 X55.40189 Y112.16732 Z.24 E.17369
G1 F2399.85767
G1 X55.48282 Y112.7657 E.02161
G1 X55.48592 Y117.299 Z.24 E.16223
G1 X55.48901 Y121.83228 Z.24 E.16223
G1 X55.49211 Y126.36558 Z.24 E.16223
G1 X60.37116 Y126.37809 E0.1746
G1 X61.33786 Y126.57544 E.03531
G1 X62.31059 Y127.02367 E.03833
G1 X62.88035 Y127.45208 E.02551
G1 X63.43849 Y128.01353 E0.02833
G1 X63.9882 Y128.82536 E.03509
G1 X64.3399 Y129.71974 E.03439
G1 X64.48515 Y130.58604 E0.03143
G1 X64.47492 Y134.06055 Z.24 E.12434
G1 X64.46469 Y137.53506 Z.24 E.12434
G1 X64.30793 Y138.30115 E.02798
G1 X64.06421 Y138.92397 E.02393
G1 X63.72443 Y139.52489 E0.0247
G1 X62.94467 Y140.3954 E.04182
G1 X62.2319 Y140.92533 E0.03178
G1 X61.28963 Y141.34473 E.03691
G1 X60.27545 Y141.53494 E.03693
G1 X56.04519 Y141.53494 Z.24 E.15138
G1 X51.81493 Y141.53494 Z.24 E.15138
G1 X47.58467 Y141.53494 Z.24 E.15138
G1 X43.35442 Y141.53494 Z.24 E.15138
G1 X39.12416 Y141.53494 Z.24 E.15138
G1 X39.115 Y143.48068 E.06963
G1 X38.95766 Y144.27914 E.02912
G1 X38.65078 Y145.04347 E0.02947
G1 X38.17547 Y145.78004 E.03137
G1 X37.43625 Y146.52766 E0.03762
G1 X36.69299 Y147.02901 E.03208
G1 X35.85591 Y147.36858 E.03233
G1 X34.9124 Y147.53494 E.03429
G1 X31.13023 Y147.53494 Z.24 E.13535
G1 X27.34807 Y147.53494 Z.24 E.13535
G1 X23.5659 Y147.53494 Z.24 E.13535
G1 X22.90311 Y147.45043 E0.02391
G1 X22.00253 Y147.14632 E.03402
G1 X21.33455 Y146.77758 E0.0273
G1 X20.41544 Y145.94693 E.04433
G1 X19.74616 Y144.94342 E.04317
G1 X19.44736 Y144.11957 E0.03136
G1 X19.31965 Y143.31487 E.02916
G1 X19.31965 Y138.52373 Z.24 E.17146
G1 X19.31965 Y133.73257 Z.24 E.17145
G1 X19.31966 Y128.94144 Z.24 E.17146
G1 X19.31966 Y124.15029 Z.24 E.17145
G1 X19.31966 Y119.35915 Z.24 E.17146
G1 X19.31966 Y114.568 Z.24 E.17146
G1 X19.31966 Y109.77686 Z.24 E.17145
G1 X19.31966 Y104.98571 Z.24 E.17146
G1 X19.31966 Y100.19456 Z.24 E.17145
G1 X19.31967 Y95.40343 Z.24 E.17146
G1 X19.31967 Y90.61228 Z.24 E.17145
G1 X19.31967 Y85.82114 Z.24 E.17146
G1 X19.43483 Y84.92305 E0.0324
G1 X17.08773 Y84.95995 E.084
G1 X16.2028 Y84.80855 E.03213
G1 X15.42843 Y84.51112 E.02969
G1 X14.78226 Y84.11989 E0.02703
G1 X14.00668 Y83.4089 E.03765
G1 X13.50523 Y82.74038 E.02991
G1 X13.14845 Y81.99516 E.02957
G1 X12.93457 Y81.2309 E.0284
G1 X12.855 Y77.40505 E0.13694
G1 X12.99074 Y76.73032 E.02463
G1 X13.2393 Y76.05643 E0.0257
G1 X13.85816 Y75.09052 E.04105
G1 X14.56504 Y74.38953 E.03563
G1 X15.18223 Y73.97143 E.02668
G1 X15.88972 Y73.65255 E0.02777
G1 X16.7826 Y73.44344 E.03282
G1 X21.52091 Y73.35548 Z.24 E.16959
G1 X26.25923 Y73.26751 Z.24 E.16959
G1 X30.99754 Y73.17954 Z.24 E.16959
G1 X31.05369 Y72.89951 E0.01022
G1 X31.36286 Y72.10359 E.03056
G1 X31.84931 Y71.34516 E0.03224
G1 X32.82328 Y70.39967 E.04858
G1 X33.36335 Y70.07319 E0.02258
G1 X33.9408 Y69.82057 E.02256
G1 X34.80576 Y69.61277 E0.03183
G1 X35.82113 Y69.58393 E.03635
G1 X35.6107 Y57.52864 E0.43147
G1 X34.59495 Y57.53524 E.03635
G1 X33.72325 Y57.35776 E0.03183
G1 X33.13733 Y57.12544 E.02256
G1 X32.58621 Y56.81801 E0.02258
G1 X31.57984 Y55.9071 E.04858
G1 X31.06721 Y55.1661 E0.03224
G1 X30.73045 Y54.38146 E.03056
G1 X30.66505 Y54.10569 E0.01014
G1 X25.98805 Y54.18733 Z.24 E.1674
G1 X21.31105 Y54.26897 Z.24 E.1674
G1 F2400
G1 X16.63405 Y54.35061 Z.24 E.1674
G1 F2399.95044
G1 X15.72535 Y54.20768 E.03292
G1 X14.98282 Y53.93818 E.02827
G1 X14.20851 Y53.47522 E0.03228
G1 X13.44994 Y52.77016 E.03706
G1 X12.90266 Y52.00476 E0.03367
G1 X12.5459 Y51.18816 E.03189
G1 X12.36142 Y50.31547 E.03192
G1 X12.29588 Y47.10695 E.11484
G1 X12.40943 Y46.29484 E0.02934
G1 X12.67838 Y45.50706 E.02979
G1 X13.02589 Y44.86379 E0.02616
G1 X13.99024 Y43.80697 E.0512
G1 X14.59431 Y43.3853 E0.02636
G1 F2397.3374
G1 X15.21357 Y43.09271 E.02451
M107
G1 X15.38228 Y43.45347 F360000
M107
G1 F2400
G1 X15.41704 Y43.43721 E0.00137
G1 F2397.67065
G1 X16.45277 Y43.20506 E.03798
G1 F2399.75903
G1 X20.99725 Y43.13374 Z.24 E.16265
G1 X25.54172 Y43.06243 Z.24 E.16265
G1 X30.08619 Y42.99111 Z.24 E.16265
G1 X34.63067 Y42.91979 Z.24 E.16265
G1 X39.17514 Y42.84848 Z.24 E.16265
G1 F2400
G1 X43.71962 Y42.77716 Z.24 E.16265
G1 F2399.59204
G1 X44.39849 Y42.95626 E.02513
G1 X45.08157 Y43.26317 E.0268
G1 X45.6361 Y43.65227 E0.02424
G1 X46.17342 Y44.16501 E.02658
G1 X46.76771 Y45.03046 E.03757
G1 X47.04305 Y45.73054 E0.02692
G1 X47.17999 Y46.43806 E.02579
G1 X47.73524 Y77.91696 E1.12667
G1 X52.27791 Y77.91748 Z.24 E.16256
G1 X56.82058 Y77.918 Z.24 E.16256
G1 X61.36324 Y77.91852 Z.24 E.16256
G1 X65.90591 Y77.91904 Z.24 E.16256
G1 X70.44858 Y77.91956 Z.24 E.16256
G1 X74.99125 Y77.92008 Z.24 E.16256
G1 X79.53391 Y77.9206 Z.24 E.16256
G1 X80.53638 Y78.13626 E.03669
G1 X81.17591 Y78.42651 E0.02513
G1 X81.7515 Y78.82443 E.02504
G1 X82.36802 Y79.4346 E.03104
G1 X82.8333 Y80.11361 E.02946
G1 X83.15738 Y80.9014 E0.03048
G1 X83.3088 Y81.74807 E.03078
G1 X83.28008 Y108.21643 E0.94719
G1 X83.11157 Y108.92994 E.02624
G1 X82.80483 Y109.62736 E.02727
G1 X82.35084 Y110.26988 E0.02815
G1 X81.78802 Y110.83205 E.02847
G1 X81.20498 Y111.24185 E0.0255
G1 X80.50934 Y111.56007 E.02738
G1 X79.60581 Y111.75688 E0.03309
G1 X74.67355 Y111.75932 Z.24 E.17651
G1 X69.74127 Y111.76175 Z.24 E.17651
G1 X64.80901 Y111.76418 Z.24 E.17651
G1 X59.87674 Y111.76662 Z.24 E.17651
G1 F2400
G1 X54.94447 Y111.76905 Z.24 E.17651
G1 F2399.87305
G1 X55.08434 Y112.77961 E.03651
G1 X55.08752 Y117.44076 Z.24 E.1668
G1 X55.09071 Y122.10191 Z.24 E.1668
G1 X55.09389 Y126.76306 Z.24 E.1668
G1 X60.35045 Y126.77654 E0.18811
G1 X61.19327 Y126.94747 E.03078
G1 X62.08917 Y127.35568 E0.03523
G1 X62.60804 Y127.74339 E.02318
G1 X63.14281 Y128.28133 E0.02714
G1 X63.62604 Y128.99303 E.03078
G1 X63.95064 Y129.80757 E.03138
G1 X64.08662 Y130.60222 E0.02885
G1 X64.07838 Y134.03902 Z.24 E.12299
G1 F2400
G1 X64.07014 Y137.47581 Z.24 E.12299
G1 F2399.53198
G1 X63.93047 Y138.17216 E.02542
G1 X63.69837 Y138.76532 E0.02279
G1 X63.38884 Y139.30891 E.02239
G1 X62.66238 Y140.11341 E0.03879
G1 X62.01289 Y140.59174 E.02887
G1 X61.19223 Y140.95763 E0.03215
G1 X60.25662 Y141.13646 E.03409
G1 X55.95066 Y141.13646 Z.24 E.15409
G1 X51.6447 Y141.13646 Z.24 E.15409
G1 X47.33875 Y141.13644 Z.24 E.15409
G1 X43.03279 Y141.13644 Z.24 E.15409
G1 X38.72683 Y141.13644 Z.24 E.15409
G1 X38.72017 Y143.42366 E0.08185
G1 X38.58033 Y144.14964 E.02646
G1 X38.30466 Y144.84508 E.02677
G1 X37.87653 Y145.51574 E0.02847
G1 X37.19676 Y146.20853 E.03473
G1 X36.48777 Y146.68675 E.0306
G1 X35.72714 Y146.9909 E0.02931
G1 X34.89514 Y147.13644 E.03023
G1 X31.12302 Y147.13644 Z.24 E.13499
G1 X27.35091 Y147.13644 Z.24 E.13499
G1 X23.57879 Y147.13644 Z.24 E.13499
G1 X22.97433 Y147.05784 E0.02181
G1 X22.14846 Y146.77509 E.03124
G1 X21.54824 Y146.44048 E0.02459
G1 X20.73233 Y145.70409 E.03933
G1 X20.11192 Y144.78345 E.03973
G1 X19.83768 Y144.037 E.02846
G1 X19.71815 Y143.29887 E.02676
G1 X19.71816 Y85.83404 E2.05643
G1 X19.88946 Y84.51736 E.04752
G1 X17.10032 Y84.56121 E.09982
G1 X16.291 Y84.41944 E0.0294
G1 X15.58951 Y84.14621 E.02694
G1 X15.00655 Y83.78995 E.02445
G1 X14.31346 Y83.15395 E0.03366
G1 X13.85597 Y82.55014 E.02711
G1 X13.51552 Y81.83905 E0.02821
G1 X13.32533 Y81.14892 E.02562
G1 X13.24997 Y77.46224 E.13196
G1 X13.3783 Y76.82438 E0.02328
G1 X13.60528 Y76.21552 E.02325
G1 X14.155 Y75.35726 E.03647
G1 X14.80514 Y74.70811 E.03288
G1 X15.36198 Y74.32751 E.02414
G1 X16.03597 Y74.02373 E.02646
G1 X16.81117 Y73.84148 E.0285
G1 X31.32919 Y73.57195 E0.51963
M73 P1 R64
G1 X31.4318 Y73.02665 E.01986
G1 X31.72693 Y72.26688 E0.02917
G1 X32.17152 Y71.58071 E.02926
G1 X33.04944 Y70.72854 E.04378
G1 X33.53662 Y70.43227 E0.0204
G1 X34.05293 Y70.20337 E.02021
G1 X34.83825 Y70.01051 E.02894
G1 X36.22644 Y69.97107 E.0497
G1 X36.00226 Y57.12758 E0.45969
G1 X34.61353 Y57.13662 E.0497
G1 X33.82195 Y56.97128 E.02894
G1 X33.29796 Y56.76053 E.02021
G1 X32.80075 Y56.48145 E0.0204
G1 X31.89363 Y55.66044 E.04378
G1 X31.42536 Y54.99021 E.02926
G1 X31.1039 Y54.24119 E.02917
G1 X30.98271 Y53.70159 E0.01979
G1 X26.20338 Y53.78502 Z.24 E.17106
G1 X21.42406 Y53.86844 Z.24 E.17106
G1 F2400
G1 X16.64473 Y53.95187 Z.24 E.17106
G1 F2399.57471
G1 X15.8072 Y53.81723 E.03036
G1 X15.16965 Y53.58571 E0.02427
G1 X14.4641 Y53.16873 E.02933
G1 X13.73626 Y52.49224 E.03556
G1 X13.23991 Y51.79146 E0.03073
G1 X12.9197 Y51.04865 E.02895
G1 X12.75945 Y50.28865 E.0278
G1 X12.69463 Y47.11501 E0.1136
G1 X12.8012 Y46.37016 E.02693
G1 X13.04953 Y45.65306 E.02716
G1 X13.36426 Y45.07564 E0.02353
G1 X14.23641 Y44.12111 E.04627
G1 X14.80835 Y43.72188 E0.02496
G1 X15.32793 Y43.47888 E.02053
M107
G1 X15.49504 Y43.84019 F360000
M107
G1 F2399.83276
G1 X15.56504 Y43.80782 E.00276
G1 X16.47948 Y43.60318 E0.03353
G1 X21.00716 Y43.53092 Z.24 E.16205
G1 X25.53485 Y43.45867 Z.24 E.16205
G1 X30.06253 Y43.38641 Z.24 E.16205
G1 X34.59021 Y43.31415 Z.24 E.16205
G1 X39.1179 Y43.2419 Z.24 E.16205
G1 X43.64558 Y43.16964 Z.24 E.16205
G1 X44.25048 Y43.32663 E0.02236
G1 X44.9005 Y43.61868 E.0255
G1 X45.39341 Y43.96868 E0.02163
G1 X45.88285 Y44.43846 E.02428
G1 X46.4058 Y45.19871 E0.03302
G1 X46.65538 Y45.82469 E.02412
G1 X46.78546 Y46.49679 E.0245
G1 X47.34368 Y78.31541 E1.13883
M73 P1 R63
G1 X51.93926 Y78.31593 Z.24 E.16446
G1 X56.53484 Y78.31646 Z.24 E.16446
G1 X61.13042 Y78.31699 Z.24 E.16446
G1 X65.72601 Y78.31751 Z.24 E.16446
G1 X70.32159 Y78.31804 Z.24 E.16446
G1 X74.91717 Y78.31857 Z.24 E.16446
G1 X79.51275 Y78.31909 Z.24 E.16446
G1 X80.39114 Y78.50796 E0.03215
G1 X80.99495 Y78.78199 E.02373
G1 X81.48449 Y79.12074 E0.0213
G1 X82.05121 Y79.67706 E.02842
G1 X82.47368 Y80.28657 E.02654
G1 X82.76923 Y80.99414 E.02744
G1 X82.91029 Y81.76583 E0.02807
G1 X82.9064 Y86.16273 Z.24 E.15735
G1 X82.90251 Y90.55965 Z.24 E.15734
G1 X82.89862 Y94.95655 Z.24 E.15735
G1 X82.89473 Y99.35345 Z.24 E.15734
G1 X82.89084 Y103.75037 Z.24 E.15734
G1 X82.88695 Y108.14727 Z.24 E.15735
G1 X82.72803 Y108.82021 E0.02474
G1 X82.44896 Y109.44692 E.02455
G1 X82.03638 Y110.02452 E.0254
G1 X81.51964 Y110.53697 E0.02604
G1 X80.99223 Y110.9044 E.023
G1 X80.36471 Y111.18813 E0.02464
G1 X79.54334 Y111.36276 E.03005
G1 X75.36252 Y111.36409 Z.24 E.14962
G1 X71.18169 Y111.36541 Z.24 E.14961
G1 X67.00088 Y111.36674 Z.24 E.14962
G1 F2398.99585
G1 X62.82005 Y111.36806 Z.24 E.14962
G1 X58.63923 Y111.36938 Z.24 E.14961
G1 X54.45841 Y111.37071 Z.24 E.14962
G1 X54.50662 Y111.51644 E0.00549
G1 F2399.20874
G1 X54.68584 Y112.79356 E.04615
G1 X54.68657 Y117.44234 Z.24 E.16636
G1 X54.68731 Y122.09113 Z.24 E.16636
G1 X54.68804 Y126.73991 Z.24 E.16636
G1 X54.72989 Y127.03289 E0.01059
G1 F2395.64355
G1 X54.78354 Y127.10037 E.00309
G1 X54.86048 Y127.13771 E0.00306
G1 F2399.50073
G1 X55.11702 Y127.1667 E.00924
G1 X57.72359 Y127.17085 Z.24 E.09328
G1 X60.33015 Y127.175 Z.24 E.09328
G1 X61.05013 Y127.32003 E0.02628
G1 X61.869 Y127.68852 E.03213
G1 X62.33598 Y128.03494 E.02081
G1 X62.84683 Y128.54883 E.02593
G1 X63.28354 Y129.19783 E0.02799
G1 X63.56165 Y129.89645 E.02691
G1 X63.68809 Y130.61893 E.02625
G1 X63.68175 Y134.0184 Z.24 E.12165
G1 X63.67541 Y137.41789 Z.24 E.12165
G1 X63.55255 Y138.04459 E.02285
G1 X63.34477 Y138.58096 E0.02058
G1 X63.05347 Y139.09256 E.02107
G1 X62.3814 Y139.83012 E.03571
G1 X61.79557 Y140.25702 E0.02594
G1 X61.05257 Y140.58372 E.02905
G1 X60.23796 Y140.73796 E.02967
G1 X38.32887 Y140.73796 E0.78404
G1 X38.3253 Y143.36679 E.09408
G1 X38.19265 Y144.05547 E.0251
G1 X37.94181 Y144.67932 E0.02406
G1 X37.57672 Y145.25243 E.02432
G1 X36.95562 Y145.89065 E0.03187
G1 X36.31958 Y146.32484 E.02756
G1 X35.59853 Y146.61315 E0.02779
G1 X34.87804 Y146.73795 E.02617
