; generated by SuperSlicer 2.5.59.9 on 2024-05-12 at 23:36:22 UTC


;
;

;
;

;
;

;
;

;
;
; 

; external perimeters extrusion width = 0.44mm
; perimeters extrusion width = 0.54mm
; infill extrusion width = 0.45mm
; solid infill extrusion width = 0.45mm
; top infill extrusion width = 0.42mm
; support material extrusion width = 0.36mm

; external perimeters extrusion width = 0.44mm
; perimeters extrusion width = 0.54mm
; infill extrusion width = 0.45mm
; solid infill extrusion width = 0.45mm
; top infill extrusion width = 0.42mm
; support material extrusion width = 0.36mm

; external perimeters extrusion width = 0.44mm
; perimeters extrusion width = 0.54mm
; infill extrusion width = 0.45mm
; solid infill extrusion width = 0.45mm
; top infill extrusion width = 0.42mm
; support material extrusion width = 0.36mm

; external perimeters extrusion width = 0.44mm
; perimeters extrusion width = 0.54mm
; infill extrusion width = 0.45mm
; solid infill extrusion width = 0.45mm
; top infill extrusion width = 0.42mm
; support material extrusion width = 0.36mm

; external perimeters extrusion width = 0.44mm
; perimeters extrusion width = 0.54mm
; infill extrusion width = 0.45mm
; solid infill extrusion width = 0.45mm
; top infill extrusion width = 0.42mm
; support material extrusion width = 0.36mm

; external perimeters extrusion width = 0.44mm
; perimeters extrusion width = 0.54mm
; infill extrusion width = 0.45mm
; solid infill extrusion width = 0.45mm
; top infill extrusion width = 0.42mm
; support material extrusion width = 0.36mm

; object:{"name":"PiCam_-_mount_v2","id":"PiCam_-_mount_v2.stl id:0 copy 0","object_center":[27.976990,44.136378,0.000000],"boundingbox_center":[27.976990,44.136378,12.497912],"boundingbox_size":[35.999977,58.999969,24.995825]}
EXCLUDE_OBJECT_DEFINE NAME=PiCam___mount_v2_stl_id_0_copy_0 CENTER=27.976990,44.136378 POLYGON=[[9.98,73.64],[9.98,16.64],[10.03,16.19],[10.18,15.77],[10.41,15.39],[10.73,15.07],[11.11,14.83],[11.53,14.69],[11.98,14.64],[23.98,14.64],[45.98,61.64],[45.98,67.64],[21.98,73.64],[15.89,73.64],[9.98,73.64]]
; object:{"name":"x-belt-holder-gt2","id":"x-belt-holder-gt2.stl id:1 copy 0","object_center":[36.883699,99.780338,0.000000],"boundingbox_center":[36.883699,99.780338,5.000000],"boundingbox_size":[10.000000,6.800000,10.000000]}
EXCLUDE_OBJECT_DEFINE NAME=x_belt_holder_gt2_stl_id_1_copy_0 CENTER=36.883699,99.780338 POLYGON=[[31.88,96.88],[32.38,96.38],[41.38,96.38],[41.88,96.88],[41.88,102.68],[41.38,103.18],[32.38,103.18],[31.88,102.68],[31.88,96.88]]
; object:{"name":"x-belt-holder-thin-gt2","id":"x-belt-holder-thin-gt2.stl id:2 copy 0","object_center":[32.422094,88.761315,0.000000],"boundingbox_center":[32.422094,88.761315,5.000000],"boundingbox_size":[10.000000,6.200000,10.000000]}
EXCLUDE_OBJECT_DEFINE NAME=x_belt_holder_thin_gt2_stl_id_2_copy_0 CENTER=32.422094,88.761315 POLYGON=[[27.42,86.16],[27.92,85.66],[36.92,85.66],[37.42,86.16],[37.42,91.36],[36.92,91.86],[27.92,91.86],[27.42,91.36],[27.42,86.16]]
; object:{"name":"x-belt-holder-gt2","id":"x-belt-holder-gt2.stl id:3 copy 0","object_center":[20.209198,100.669545,0.000000],"boundingbox_center":[20.209198,100.669545,5.000000],"boundingbox_size":[10.000000,6.800000,10.000000]}
EXCLUDE_OBJECT_DEFINE NAME=x_belt_holder_gt2_stl_id_3_copy_0 CENTER=20.209198,100.669545 POLYGON=[[15.21,97.77],[15.71,97.27],[24.71,97.27],[25.21,97.77],[25.21,103.57],[24.71,104.07],[15.71,104.07],[15.21,103.57],[15.21,97.77]]
; object:{"name":"x-belt-holder-thin-gt2","id":"x-belt-holder-thin-gt2.stl id:4 copy 0","object_center":[14.920575,89.107518,0.000000],"boundingbox_center":[14.920575,89.107518,5.000000],"boundingbox_size":[10.000000,6.200000,10.000000]}
EXCLUDE_OBJECT_DEFINE NAME=x_belt_holder_thin_gt2_stl_id_4_copy_0 CENTER=14.920575,89.107518 POLYGON=[[9.92,86.51],[10.42,86.01],[19.42,86.01],[19.92,86.51],[19.92,91.71],[19.42,92.21],[10.42,92.21],[9.92,91.71],[9.92,86.51]]
; object:{"name":"Pi_Cam_3_Front","id":"Pi_Cam_3_Front.stl id:5 copy 0","object_center":[47.978506,23.804485,0.000000],"boundingbox_center":[47.978506,23.804485,4.726002],"boundingbox_size":[33.000000,28.128967,9.452003]}
EXCLUDE_OBJECT_DEFINE NAME=Pi_Cam_3_Front_stl_id_5_copy_0 CENTER=47.978506,23.804485 POLYGON=[[31.48,9.74],[64.48,9.74],[64.48,37.87],[31.48,37.87],[31.48,9.74]]
; plater:{"center":[37.199540,56.904774,0.000000],"boundingbox_center":[37.199540,56.904774,12.497912],"boundingbox_size":[54.557931,94.329544,24.995825]}

M73 P0 R66
M107
;TYPE:Custom
CALCULATE_PA MATERIAL=ASA BOWDEN_LENGTH=6 LAYER_HEIGHT=0.24 NOZZLE_SIZE=0.4 PRINT_SPEED=60


START_PRINT EXTRUDER=275 BED=105

M107
G21 ; set units to millimeters
G90 ; use absolute coordinates
M83 ; use relative distances for extrusion
ACTIVATE_EXTRUDER EXTRUDER=extruder
; Filament gcode
M104 S275 T0 ; set temperature
M109 S275 T0 ; set temperature and wait for it to be reached
M190 S105 ; set bed temperature and wait for it to be reached
;LAYER_CHANGE
;Z:0.24
;HEIGHT:0.24
;BEFORE_LAYER_CHANGE
G92 E0.0

G1 E-0.4 F3600
G1 Z0.16 F3600000
G1 Z0.24
;AFTER_LAYER_CHANGE
;0.24




CALCULATE_PA MATERIAL=ASA BOWDEN_LENGTH=6.0 LAYER_HEIGHT=0.18 NOZZLE_SIZE=0.4 PRINT_SPEED=60


G92 E0
G1 Z0.4
G1 X6.30964 Y9.22759
G1 Z0.24
G1 E0.4 F3600
;TYPE:Skirt
;WIDTH:0.556504
M107
G1 F1799.97754
G1 X8.53707 Y7.97533 E.12876
G1 X10.95862 Y7.38252 E0.12562
G1 X15.77203 Y7.39431 Z.24 E.24254
G1 X20.58544 Y7.40609 Z.24 E.24254
G1 F1800
G1 X25.39885 Y7.41788 Z.24 E.24254
G1 F1799.93274
G1 X26.93016 Y5.29669 E.13183
G1 X30.60706 Y3.7396 E0.2012
G1 X35.60186 Y3.74248 Z.24 E.25168
G1 X40.59667 Y3.74537 Z.24 E.25168
G1 X45.59147 Y3.74825 Z.24 E.25168
G1 X50.58628 Y3.75114 Z.24 E.25168
G1 X55.58108 Y3.75402 Z.24 E.25168
G1 X60.57588 Y3.75691 Z.24 E.25168
G1 X65.57069 Y3.75979 Z.24 E.25168
G1 X69.669 Y5.87677 E.23243
G1 X71.801 Y10.00442 E0.23409
G1 X71.801 Y14.61201 Z.24 E.23217
G1 X71.801 Y19.21959 Z.24 E.23217
G1 X71.801 Y23.82718 Z.24 E.23217
G1 X71.801 Y28.43477 Z.24 E.23217
G1 X71.801 Y33.04235 Z.24 E.23217
G1 X71.801 Y37.64994 Z.24 E.23217
G1 X69.74673 Y41.65773 E.22693
G1 X65.38682 Y43.86908 E0.24633
G1 X61.15554 Y43.86908 Z.24 E.21321
G1 X56.92427 Y43.86908 Z.24 E.21321
G1 X52.69299 Y43.86908 Z.24 E.21321
G1 X48.46172 Y43.86908 Z.24 E.21321
G1 X44.23044 Y43.86908 Z.24 E.21321
G1 X44.26753 Y47.36047 Z.24 E.17594
G1 X44.30463 Y50.85186 Z.24 E.17594
G1 X44.34172 Y54.34325 Z.24 E.17594
G1 X47.97013 Y54.56188 E0.18316
G1 X51.3669 Y56.65465 E.20104
G1 X53.15082 Y60.06385 E0.19388
G1 X53.2263 Y64.36008 Z.24 E.21652
G1 X53.30179 Y68.6563 Z.24 E.21651
G1 X51.63171 Y72.34564 E0.20406
G1 X49.29268 Y73.65225 Z.24 E.135
G1 X46.95364 Y74.95887 Z.24 E.135
G1 X27.74629 Y74.95886 E0.96784
G1 X27.6481 Y75.78533 E.04194
G1 X26.32868 Y78.27495 E0.14198
G1 X25.28604 Y78.98614 E.0636
G1 X26.8405 Y78.40976 E.08354
G1 X38.07793 Y78.4153 E0.56624
G1 X41.04818 Y79.60614 E.16125
G1 X43.29359 Y81.76123 E0.15682
G1 X44.67894 Y85.07358 E.18092
G1 X44.72729 Y89.98202 E0.24734
G1 X45.66228 Y90.42654 E.05217
G1 X47.5479 Y92.19676 E0.13032
G1 X49.02151 Y95.23277 E.17005
G1 X49.0594 Y99.60724 Z.24 E.22044
G1 X49.09729 Y103.98171 Z.24 E.22044
G1 X48.02008 Y106.68098 E0.14644
G1 X45.97694 Y108.91373 E.1525
G1 X42.35434 Y110.46246 E.19852
G1 X38.72245 Y110.46362 Z.24 E.18301
G1 X35.09056 Y110.46479 Z.24 E.18301
G1 X31.45867 Y110.46595 Z.24 E.18301
G1 X29.3649 Y109.67886 E.11271
G1 X28.89897 Y110.07699 E0.03088
G1 X25.67362 Y111.35025 E.17473
G1 X22.12651 Y111.36461 Z.24 E.17874
G1 X18.57939 Y111.37897 Z.24 E.17874
G1 X15.03228 Y111.39333 Z.24 E.17874
G1 X11.99704 Y110.3806 E.16123
G1 X9.40048 Y108.06007 E0.17547
G1 X7.92584 Y104.5081 E.19379
G1 X7.90682 Y101.70993 Z.24 E.141
G1 F1800
G1 X7.88779 Y98.91176 Z.24 E.141
G1 F1799.96948
G1 X5.85133 Y97.95544 E.11337
G1 X3.76859 Y95.69861 E.15475
G1 X2.61098 Y92.44146 E0.17418
G1 X2.70052 Y88.6331 Z.24 E.19195
G1 X2.79005 Y84.82474 Z.24 E.19196
G1 X4.00766 Y82.16946 E0.14719
G1 X5.88527 Y80.2151 E.13656
G1 X6.61257 Y79.89347 E0.04007
G1 X5.03143 Y79.06851 E.08986
G1 X3.84204 Y76.83399 Z.24 E.12755
G1 X2.65265 Y74.59947 Z.24 E.12756
G1 X2.79583 Y15.00041 E3.00315
G1 X4.1353 Y11.60768 E.1838
G1 X6.26917 Y9.27188 E0.15942
M107
G1 X6.64001 Y9.61421 F3600000
M107
G1 F1796.46533
G1 X6.65372 Y9.59936 E.00102
G1 F1799.94604
G1 X8.69146 Y8.45734 E.11771
G1 X10.9897 Y7.88749 E0.11931
G1 X15.71925 Y7.88297 Z.24 E.23832
G1 X20.4488 Y7.87845 Z.24 E.23832
G1 F1800
G1 X25.17835 Y7.87393 Z.24 E.23832
G1 F1799.9624
G1 X25.58509 Y8.03257 E.022
G1 X27.19423 Y5.73287 E0.14143
G1 X30.65825 Y4.24463 E.18998
G1 X35.63696 Y4.2475 Z.24 E.25087
G1 X40.61566 Y4.25038 Z.24 E.25087
G1 X45.59436 Y4.25325 Z.24 E.25087
G1 X50.57306 Y4.25613 Z.24 E.25087
G1 X55.55177 Y4.259 Z.24 E.25087
G1 X60.53047 Y4.26188 Z.24 E.25087
G1 X65.50917 Y4.26475 Z.24 E.25087
G1 X69.36509 Y6.28761 E0.21941
G1 X71.296 Y10.06436 E.21374
G1 X71.296 Y14.65181 Z.24 E.23116
G1 X71.296 Y19.23925 Z.24 E.23116
G1 X71.296 Y23.8267 Z.24 E.23116
G1 X71.296 Y28.41415 Z.24 E.23116
G1 X71.296 Y33.00159 Z.24 E.23116
G1 X71.296 Y37.58904 Z.24 E.23116
G1 X69.33561 Y41.35384 E0.21388
G1 X65.32785 Y43.36408 E.22593
G1 X61.00629 Y43.36408 Z.24 E.21776
G1 X56.68473 Y43.36408 Z.24 E.21776
G1 X52.36316 Y43.36408 Z.24 E.21776
G1 X48.0416 Y43.36408 Z.24 E.21776
G1 X43.72004 Y43.36408 Z.24 E.21776
G1 X43.76062 Y47.18377 Z.24 E.19248
G1 X43.8012 Y51.00345 Z.24 E.19248
G1 X43.84179 Y54.82314 Z.24 E.19248
G1 X47.75933 Y55.02516 E0.19766
G1 X51.04293 Y57.0482 E.19434
G1 X52.67471 Y60.24191 E.18072
G1 X52.73537 Y64.42451 Z.24 E.21078
G1 X52.79603 Y68.60712 Z.24 E.21078
G1 X51.20666 Y72.06128 E0.19159
G1 X46.88941 Y74.45387 E.24872
G1 X27.28712 Y74.45386 E0.98774
G1 X27.17862 Y75.59276 E.05765
G1 X25.91284 Y77.98118 E0.13621
G1 X22.65305 Y80.08281 E.19544
G1 X23.08996 Y80.26192 E0.02379
G1 X23.46015 Y80.57345 E.02438
G1 X24.19675 Y79.94333 E0.04884
G1 X26.88655 Y78.91479 E.14511
G1 X38.02871 Y78.92028 E0.56144
M73 P1 R66
G1 X40.81252 Y80.05542 E.15149
G1 X42.90499 Y82.08779 E.14699
G1 X44.17445 Y85.1274 E0.16598
G1 X44.19995 Y87.71723 Z.24 E.1305
G1 X44.22546 Y90.30706 Z.24 E.1305
G1 X45.34641 Y90.82266 E0.06217
G1 X47.16879 Y92.53352 E.12595
G1 X48.51702 Y95.29365 E.15479
G1 X48.59188 Y103.93604 E0.4355
G1 X47.56913 Y106.44932 E.13673
G1 X45.72682 Y108.47177 E0.13785
G1 X42.30236 Y109.95748 E.1881
G1 X38.70325 Y109.95863 Z.24 E.18136
G1 X35.10415 Y109.95979 Z.24 E.18135
G1 X31.50504 Y109.96094 Z.24 E.18136
G1 X29.25732 Y109.09641 E.12135
G1 X28.66984 Y109.62478 E0.03981
G1 X25.62383 Y110.84544 E.16535
G1 X15.07204 Y110.88817 E0.5317
G1 X12.20711 Y109.91856 E.15241
G1 X9.84503 Y107.81382 E.15942
G1 X8.41119 Y104.36011 E.18843
G1 X8.3917 Y98.58739 E0.29088
G1 X6.1885 Y97.57617 E.12215
G1 X4.1745 Y95.39383 E.14964
G1 X3.11682 Y92.40627 E.1597
G1 X3.19403 Y88.69629 Z.24 E.18699
G1 X3.27124 Y84.9863 Z.24 E.18699
G1 X4.40168 Y82.48826 E.13816
G1 X6.21288 Y80.60302 E0.13173
G1 X7.84669 Y79.93347 E.08897
G1 X5.43813 Y78.75887 E.13503
G1 X3.1578 Y74.53752 E0.24176
G1 X3.16971 Y69.58019 Z.24 E.2498
G1 X3.18162 Y64.62286 Z.24 E.24979
G1 X3.19353 Y59.66553 Z.24 E.2498
G1 X3.20544 Y54.7082 Z.24 E.24979
G1 X3.21735 Y49.75087 Z.24 E.24979
G1 X3.22925 Y44.79354 Z.24 E.2498
G1 X3.24116 Y39.83621 Z.24 E.24979
G1 X3.25307 Y34.87888 Z.24 E.2498
G1 X3.26498 Y29.92155 Z.24 E.24979
G1 X3.27689 Y24.96422 Z.24 E.2498
G1 X3.2888 Y20.00689 Z.24 E.2498
M73 P1 R65
G1 X3.30071 Y15.04956 Z.24 E.24979
G1 X4.58694 Y11.83828 E.17431
G1 X6.59931 Y9.6583 E0.14949
M107
G1 X6.93517 Y10.02052 F3600000
M107
G1 F1799.94055
G1 X8.90838 Y8.91467 E.11398
G1 X11.08 Y8.38527 E0.11263
G1 X15.76161 Y8.38316 Z.24 E.2359
G1 X20.44321 Y8.38106 Z.24 E.2359
G1 X25.12482 Y8.37895 Z.24 E.2359
G1 X25.76446 Y8.66749 E0.03536
G1 X27.46178 Y6.16711 E.15228
G1 X30.71016 Y4.74965 E.17859
G1 X35.67274 Y4.75252 Z.24 E.25006
G1 X40.63531 Y4.75538 Z.24 E.25006
G1 X45.59789 Y4.75825 Z.24 E.25006
G1 X50.56047 Y4.76112 Z.24 E.25006
G1 X55.52304 Y4.76399 Z.24 E.25006
G1 X60.48562 Y4.76685 Z.24 E.25006
G1 X65.4482 Y4.76972 Z.24 E.25006
G1 X68.95297 Y6.58969 E0.19899
G1 X70.791 Y10.12518 E.20079
G1 X70.791 Y37.52724 E1.38076
G1 X68.9265 Y41.04731 E.20072
G1 X65.26953 Y42.85908 E.20565
G1 X60.85756 Y42.85908 Z.24 E.22232
G1 X56.44558 Y42.85908 Z.24 E.22232
G1 X52.0336 Y42.85908 Z.24 E.22231
G1 X47.62162 Y42.85908 Z.24 E.22232
G1 X43.20965 Y42.85908 Z.24 E.22232
G1 X43.34191 Y55.30698 E0.62727
G1 X47.54944 Y55.48899 E.21221
G1 X50.71776 Y57.44101 E.18752
G1 X52.19713 Y60.4157 E0.1674
G1 X52.24377 Y64.48582 Z.24 E.2051
G1 F1800
G1 X52.29041 Y68.55594 Z.24 E.2051
G1 F1799.94421
G1 X50.78335 Y71.77444 E.17908
G1 X46.82564 Y73.94887 E0.22754
G1 X42.82437 Y73.94887 Z.24 E.20162
G1 X38.8231 Y73.94887 Z.24 E.20162
G1 X34.82183 Y73.94886 Z.24 E.20162
G1 X30.82057 Y73.94886 Z.24 E.20162
G1 X26.8193 Y73.94886 Z.24 E.20162
G1 X26.70803 Y75.40228 E0.07345
G1 X25.49752 Y77.68642 E.13026
G1 X22.17397 Y79.78827 E.19815
G1 X20.48163 Y79.80984 E0.08528
G1 X22.79788 Y80.67615 E.12461
G1 X23.46822 Y81.24027 E.04415
G1 X24.42155 Y80.39773 E.06411
G1 X26.93337 Y79.41981 E0.13582
G1 X30.61513 Y79.42162 Z.24 E.18552
G1 X34.2969 Y79.42343 Z.24 E.18552
G1 F1800
G1 X37.97866 Y79.42525 Z.24 E.18552
G1 F1799.97803
G1 X40.57397 Y80.50316 E.14161
G1 X42.51488 Y82.41241 E.13719
G1 X43.66995 Y85.18118 E.15117
G1 X43.72368 Y90.63615 E0.27488
G1 X45.03159 Y91.21978 E.07217
G1 X46.78995 Y92.87054 E.12153
G1 X48.01253 Y95.3549 E0.13952
G1 X48.0495 Y99.62215 Z.24 E.21503
G1 X48.08646 Y103.88941 Z.24 E.21503
G1 X47.11945 Y106.21549 E0.12693
G1 X45.47449 Y108.03111 E.12345
G1 X42.24964 Y109.4525 E.17758
G1 X31.55234 Y109.45593 E0.53903
G1 X29.14462 Y108.5095 E.13036
G1 X28.4363 Y109.17461 E.04896
G1 X25.57332 Y110.34064 E.15577
G1 X22.08635 Y110.35476 Z.24 E.1757
G1 X18.59937 Y110.36888 Z.24 E.17571
G1 X15.1124 Y110.383 Z.24 E.1757
G1 X12.41854 Y109.45723 E0.14353
G1 X10.28949 Y107.56734 E.14345
G1 X8.8967 Y104.21251 E.18304
G1 X8.8967 Y101.2365 Z.24 E.14996
G1 X8.8967 Y98.2605 Z.24 E.14996
G1 X6.52493 Y97.19611 E0.13099
G1 X4.58055 Y95.08919 E.14447
G1 X3.62255 Y92.37024 E0.14526
G1 X3.68786 Y88.75789 Z.24 E.18206
G1 F1800
G1 X3.75317 Y85.14553 Z.24 E.18205
G1 F1799.92859
G1 X4.79617 Y82.80655 E.12905
G1 X6.53932 Y80.99215 E0.12678
G1 X9.17081 Y79.95394 E.14255
G1 X9.09137 Y79.95495 E0.004
G1 X5.84201 Y78.44515 E.18054
G1 X3.66295 Y74.47472 E.22822
G1 X3.67484 Y69.52677 Z.24 E.24932
G1 X3.68672 Y64.57883 Z.24 E.24932
G1 X3.69861 Y59.63088 Z.24 E.24932
G1 X3.7105 Y54.68294 Z.24 E.24932
G1 X3.72238 Y49.735 Z.24 E.24932
G1 X3.73427 Y44.78705 Z.24 E.24932
G1 X3.74616 Y39.83911 Z.24 E.24932
G1 X3.75804 Y34.89116 Z.24 E.24932
G1 X3.76993 Y29.94322 Z.24 E.24932
G1 X3.78182 Y24.99528 Z.24 E.24932
G1 X3.7937 Y20.04733 Z.24 E.24932
G1 X3.80559 Y15.09939 Z.24 E.24932
G1 X5.03753 Y12.07082 E0.16475
G1 X6.89442 Y10.06456 E.13775
M107
G1 X7.21843 Y10.44048 F3600000
M107
G1 F1799.97876
G1 X9.06189 Y9.39704 E.10674
G1 X11.17024 Y8.88306 E0.10935
G1 X15.80223 Y8.88335 Z.24 E.2334
G1 X20.43422 Y8.88365 Z.24 E.23341
G1 F1800
G1 X25.06621 Y8.88394 Z.24 E.2334
G1 F1799.8822
G1 X25.93983 Y9.31895 E.04918
G1 X27.73287 Y6.5993 E0.16414
G1 X30.76287 Y5.25468 E.16704
G1 X35.70907 Y5.25754 Z.24 E.24923
G1 X40.65527 Y5.26039 Z.24 E.24924
G1 X45.60147 Y5.26325 Z.24 E.24923
G1 X50.54766 Y5.26611 Z.24 E.24923
G1 X55.49387 Y5.26897 Z.24 E.24923
G1 X60.44006 Y5.27182 Z.24 E.24924
G1 X65.38626 Y5.27468 Z.24 E.24923
G1 X68.64833 Y6.99985 E0.18594
G1 X70.28601 Y10.18542 E.18049
G1 X70.28601 Y37.46444 E1.37457
G1 X68.51964 Y40.73789 E.18743
G1 X65.2119 Y42.35408 E.18551
G1 X60.68907 Y42.35408 Z.24 E.22791
G1 X56.16624 Y42.35408 Z.24 E.2279
G1 X51.6434 Y42.35408 Z.24 E.22791
G1 X47.12057 Y42.35408 Z.24 E.2279
G1 X42.59774 Y42.35408 Z.24 E.22791
G1 X42.77891 Y43.29177 E0.04812
G1 X42.79903 Y47.45937 Z.24 E.21001
G1 X42.81915 Y51.62696 Z.24 E.21
G1 F1800
G1 X42.83926 Y55.79456 Z.24 E.21001
G1 F1799.9624
G1 X47.34042 Y55.95336 E.22695
G1 X50.39125 Y57.833 E0.18056
G1 X51.71798 Y60.58469 E.15393
G1 X51.75146 Y64.54369 Z.24 E.1995
