; generated by PrusaSlicer 2.7.4+MacOS-arm64 on 2024-05-18 at 19:50:13 UTC


;
;

;
;

;
;

;
;

;
;
; 

; external perimeters extrusion width = 0.45mm
; perimeters extrusion width = 0.45mm
; infill extrusion width = 0.45mm
; solid infill extrusion width = 0.45mm
; top infill extrusion width = 0.40mm

M73 P0 R22

EXCLUDE_OBJECT_DEFINE NAME='PiZeroDIN2' CENTER=90.003,110.000 POLYGON=[[61.257,95.009],[62.027,95.154],[62.519,95.347],[63.178,95.760],[63.733,96.313],[64.031,96.750],[64.342,97.462],[64.560,98.685],[64.724,99.180],[65.036,99.737],[65.380,100.141],[65.840,100.509],[66.346,100.777],[66.925,100.946],[67.481,101.000],[112.752,100.991],[113.307,100.892],[113.866,100.680],[114.448,100.297],[114.819,99.925],[115.190,99.366],[115.371,98.931],[115.589,97.716],[115.847,96.981],[116.264,96.318],[117.021,95.613],[117.721,95.242],[118.719,95.011],[119.522,95.039],[120.492,95.334],[121.381,95.934],[122.031,96.750],[122.412,97.721],[122.490,98.762],[122.279,99.725],[121.775,100.633],[121.028,101.353],[119.937,101.940],[119.362,102.397],[118.862,103.075],[118.580,103.816],[118.500,104.500],[118.509,115.730],[118.719,116.622],[119.199,117.424],[119.743,117.931],[121.234,118.806],[121.775,119.367],[122.153,119.981],[122.412,120.721],[122.500,121.500],[122.412,122.279],[122.153,123.019],[121.870,123.504],[121.381,124.066],[120.945,124.410],[120.279,124.758],[119.755,124.918],[119.000,125.000],[118.461,124.958],[117.709,124.753],[117.028,124.392],[116.619,124.066],[115.969,123.250],[115.655,122.532],[115.355,121.026],[115.083,120.442],[114.791,120.042],[114.350,119.626],[113.866,119.320],[113.307,119.107],[112.752,119.009],[67.481,119.000],[66.789,119.081],[66.134,119.320],[65.553,119.703],[65.181,120.075],[64.810,120.634],[64.629,121.069],[64.411,122.286],[64.150,123.025],[63.566,123.881],[62.972,124.392],[62.274,124.760],[61.262,124.990],[60.475,124.960],[59.481,124.653],[58.619,124.066],[57.968,123.249],[57.588,122.279],[57.510,121.238],[57.734,120.243],[58.238,119.350],[58.980,118.642],[60.063,118.060],[60.638,117.603],[61.138,116.925],[61.420,116.184],[61.500,115.500],[61.491,104.270],[61.281,103.378],[60.759,102.527],[60.083,101.952],[58.818,101.236],[58.088,100.441],[57.742,99.779],[57.588,99.279],[57.510,98.239],[57.655,97.469],[57.847,96.981],[58.263,96.319],[58.619,95.934],[59.248,95.470],[59.721,95.242],[60.478,95.039]]

;TYPE:Custom
CALCULATE_PA MATERIAL=PLA BOWDEN_LENGTH=6 LAYER_HEIGHT=0.24 NOZZLE_SIZE=0.4 PRINT_SPEED=0


START_PRINT EXTRUDER=210 BED=65
G21 ; set units to millimeters
G90 ; use absolute coordinates
M83 ; use relative distances for extrusion
; Filament gcode
M107
;LAYER_CHANGE
;Z:0.24
;HEIGHT:0.24
G1 E-.4 F3600
G1 Z.24 F540000
G1 X54.95 Y88.281
G1 Z.24
G1 E.4 F3600
;TYPE:Skirt/Brim
;WIDTH:0.45
G1 F2399.541
G1 X55.231 Y88.106 E.01185
G1 X56.277 Y87.591 E.04172
G1 X57.386 Y87.176 E.04237
G1 X58.529 Y86.872 E.04233
G1 X59.687 Y86.689 E.04195
G1 X60.859 Y86.614 E.04203
G1 X62.064 Y86.659 E.04315
G1 X63.672 Y86.917 E.05828
G1 X64.993 Y87.304 E.04926
G1 X66.049 Y87.738 E.04086
G1 X67.01 Y88.248 E.03893
G1 X67.91 Y88.827 E.0383
G1 X69.158 Y89.854 E.05784
G1 X70.025 Y90.763 E.04495
G1 X70.741 Y91.687 E.04183
G1 X71.317 Y92.612 E.039
G1 X108.692 Y92.606 E1.3375
G1 X109.179 Y91.804 E.03358
G1 X109.969 Y90.77 E.04657
G1 X110.854 Y89.843 E.04586
G1 X111.839 Y89.012 E.04612
G1 X112.849 Y88.328 E.04365
G1 X113.862 Y87.78 E.04122
G1 X114.949 Y87.325 E.04217
G1 X116.094 Y86.975 E.04285
G1 X117.505 Y86.707 E.0514
G1 X118.842 Y86.615 E.04796
G1 X120.177 Y86.671 E.04782
G1 X121.449 Y86.868 E.04606
G1 X122.689 Y87.199 E.04593
G1 X124.175 Y87.801 E.05738
G1 X125.107 Y88.303 E.03788
G1 X126.167 Y89.017 E.04574
G1 X127.008 Y89.715 E.03911
G1 X127.793 Y90.499 E.0397
G1 X128.601 Y91.492 E.04581
G1 X129.319 Y92.598 E.04719
G1 X129.849 Y93.641 E.04187
G1 X130.274 Y94.733 E.04193
G1 X130.633 Y96.053 E.04895
G1 X130.849 Y97.571 E.05487
G1 X130.887 Y98.483 E.03267
G1 X130.852 Y99.422 E.03363
G1 X130.637 Y100.927 E.0544
G1 X130.269 Y102.283 E.05028
G1 X129.852 Y103.349 E.04096
G1 X129.325 Y104.385 E.0416
G1 X128.531 Y105.604 E.05206
G1 X127.834 Y106.452 E.03928
G1 X126.891 Y107.372 E.04715
G1 X126.896 Y112.616 E.18766
G1 X127.696 Y113.395 E.03996
G1 X128.484 Y114.335 E.04389
G1 X129.205 Y115.403 E.04611
G1 X129.801 Y116.54 E.04594
G1 X130.24 Y117.631 E.04208
G1 X130.577 Y118.815 E.04405
G1 X130.796 Y120.024 E.04397
G1 X130.885 Y121.805 E.06381
G1 X130.808 Y122.873 E.03832
G1 X130.636 Y123.934 E.03846
G1 X130.208 Y125.464 E.05685
G1 X129.79 Y126.489 E.03961
G1 X129.277 Y127.474 E.03974
G1 X128.664 Y128.422 E.0404
G1 X127.963 Y129.309 E.04046
G1 X127.019 Y130.275 E.04833
G1 X125.966 Y131.132 E.04859
G1 X124.94 Y131.797 E.04375
G1 X123.727 Y132.407 E.04859
G1 X122.467 Y132.87 E.04804
G1 X121.192 Y133.184 E.04699
G1 X120.151 Y133.327 E.0376
G1 X119.043 Y133.387 E.03971
G1 X117.509 Y133.294 E.055
G1 X116.205 Y133.054 E.04745
G1 X115.029 Y132.704 E.04391
G1 X114.007 Y132.288 E.03949
G1 X113.06 Y131.793 E.03824
G1 X111.898 Y131.033 E.04969
G1 X110.817 Y130.123 E.05057
G1 X109.95 Y129.207 E.04513
G1 X109.226 Y128.266 E.04249
G1 X108.682 Y127.394 E.03678
G1 X104.011 Y127.393 Z.24 E.16714
G1 X99.341 Y127.393 Z.24 E.16714
G1 X94.671 Y127.392 Z.24 E.16714
G1 X90 Y127.391 Z.24 E.16714
G1 X85.329 Y127.39 Z.24 E.16714
G1 X80.659 Y127.389 Z.24 E.16714
G1 X75.989 Y127.389 Z.24 E.16714
G1 X71.318 Y127.388 Z.24 E.16714
G1 X70.703 Y128.367 E.04137
G1 X69.928 Y129.348 E.04474
G1 X69.028 Y130.265 E.04598
G1 X68.054 Y131.068 E.04517
G1 X66.975 Y131.776 E.04618
G1 X65.737 Y132.401 E.04963
G1 X64.71 Y132.793 E.03934
G1 X63.667 Y133.085 E.03876
G1 X62.324 Y133.313 E.04875
G1 X61.024 Y133.387 E.0466
G1 X59.723 Y133.319 E.04662
G1 X58.5 Y133.122 E.04433
G1 X57.31 Y132.801 E.04411
G1 X55.828 Y132.2 E.05723
G1 X54.922 Y131.715 E.03678
G1 X53.846 Y130.993 E.04637
G1 X52.794 Y130.102 E.04933
G1 X52.147 Y129.434 E.03328
G1 X51.55 Y128.714 E.03347
G1 X50.748 Y127.515 E.05162
G1 X50.188 Y126.44 E.04338
G1 X49.736 Y125.3 E.04389
G1 X49.398 Y124.085 E.04513
G1 X49.194 Y122.89 E.04338
G1 X49.113 Y121.586 E.04675
G1 X49.176 Y120.281 E.04675
G1 X49.387 Y118.961 E.04784
G1 X49.746 Y117.672 E.04788
G1 X50.256 Y116.414 E.04858
G1 X50.889 Y115.248 E.04748
G1 X51.616 Y114.204 E.04553
G1 X52.368 Y113.327 E.04134
G1 X53.111 Y112.613 E.03688
G1 X53.107 Y107.391 E.18687
G1 X52.351 Y106.655 E.03776
G1 X51.65 Y105.84 E.03847
G1 X50.802 Y104.608 E.05352
G1 X50.086 Y103.211 E.05618
G1 X49.724 Y102.262 E.03635
G1 X49.45 Y101.301 E.03576
G1 X49.191 Y99.863 E.05229
G1 X49.113 Y98.535 E.04761
G1 X49.177 Y97.259 E.04572
G1 X49.352 Y96.128 E.04096
G1 X49.642 Y94.995 E.04185
G1 X50.038 Y93.901 E.04164
G1 X50.538 Y92.852 E.04159
G1 X51.612 Y91.206 E.07033
G1 X52.451 Y90.24 E.04579
G1 X53.306 Y89.439 E.04193
G1 X54.234 Y88.727 E.04186
G1 X54.899 Y88.313 E.02803
G1 X54.899 Y88.313 F540000
G1 X55.109 Y88.651
G1 F2400
G1 X55.433 Y88.45 E.01364
G1 F2399.779
G1 X56.444 Y87.953 E.04031
G1 X57.516 Y87.553 E.04095
G1 X58.621 Y87.26 E.04091
G1 X59.74 Y87.084 E.04054
G1 X60.874 Y87.012 E.04066
G1 X62.037 Y87.057 E.04165
G1 X63.595 Y87.309 E.05648
G1 X64.871 Y87.684 E.04759
G1 X65.888 Y88.103 E.03936
G1 X66.802 Y88.587 E.03701
G1 X67.666 Y89.143 E.03677
G1 X68.878 Y90.138 E.05612
G1 X69.717 Y91.015 E.04343
G1 X70.419 Y91.923 E.04107
G1 X71.096 Y93.01 E.04583
G1 X75.824 Y93.009 Z.24 E.16918
G1 X80.551 Y93.008 Z.24 E.16918
G1 X85.279 Y93.008 Z.24 E.16918
G1 X90.007 Y93.007 Z.24 E.16918
G1 X94.734 Y93.006 Z.24 E.16918
G1 X99.462 Y93.006 Z.24 E.16918
G1 X104.189 Y93.005 Z.24 E.16918
G1 X108.917 Y93.004 Z.24 E.16918
G1 X109.502 Y92.037 E.04044
G1 X110.265 Y91.037 E.04501
G1 X111.12 Y90.14 E.04435
G1 X112.072 Y89.336 E.04459
G1 X113.064 Y88.663 E.0429
G1 X114.043 Y88.136 E.03979
G1 X115.075 Y87.703 E.04005
G1 X116.2 Y87.359 E.0421
G1 X117.544 Y87.104 E.04895
G1 X118.837 Y87.013 E.04639
G1 X120.127 Y87.066 E.0462
G1 X121.357 Y87.256 E.04454
G1 X122.56 Y87.576 E.04455
G1 X124.006 Y88.163 E.05585
G1 X124.893 Y88.639 E.03602
G1 X125.921 Y89.33 E.04433
G1 X126.747 Y90.015 E.0384
G1 X127.503 Y90.774 E.03834
G1 X128.285 Y91.735 E.04434
G1 X128.979 Y92.806 E.04567
G1 X129.489 Y93.812 E.04036
G1 X129.892 Y94.848 E.03978
G1 X130.242 Y96.13 E.04756
G1 X130.452 Y97.608 E.05342
G1 X130.488 Y98.491 E.03163
G1 X130.454 Y99.396 E.03241
G1 X130.244 Y100.858 E.05286
G1 X129.888 Y102.168 E.04858
G1 X129.485 Y103.194 E.03945
G1 X128.985 Y104.176 E.03943
G1 X128.203 Y105.378 E.05132
G1 X127.544 Y106.179 E.03712
G1 X126.492 Y107.186 E.05211
G1 X126.495 Y109.997 Z.24 E.10061
G1 X126.498 Y112.809 Z.24 E.10061
G1 X127.397 Y113.659 E.04427
G1 X128.16 Y114.567 E.04244
G1 X128.857 Y115.598 E.04454
G1 X129.443 Y116.716 E.04517
G1 X129.86 Y117.751 E.03993
G1 X130.187 Y118.896 E.04261
G1 X130.402 Y120.082 E.04313
G1 X130.486 Y121.788 E.06112
G1 X130.411 Y122.835 E.03756
G1 X130.245 Y123.859 E.03712
G1 X129.834 Y125.324 E.05445
G1 X129.432 Y126.313 E.0382
G1 X128.937 Y127.266 E.03843
G1 X128.334 Y128.197 E.03969
G1 X127.657 Y129.054 E.03908
G1 X126.742 Y129.988 E.04679
G1 X125.723 Y130.815 E.04696
G1 X124.733 Y131.457 E.04223
G1 X123.558 Y132.046 E.04704
G1 X122.341 Y132.492 E.04638
G1 X121.107 Y132.795 E.04547
G1 X120.121 Y132.93 E.03561
G1 X119.055 Y132.988 E.0382
G1 X117.568 Y132.899 E.05331
G1 X116.308 Y132.669 E.04584
G1 X115.152 Y132.325 E.04316
G1 X114.183 Y131.93 E.03745
G1 X113.27 Y131.454 E.03685
G1 X112.127 Y130.706 E.04888
G1 X111.083 Y129.825 E.04889
G1 X110.259 Y128.956 E.04286
G1 X109.548 Y128.031 E.04175
G1 X108.904 Y126.996 E.04362
G1 X104.178 Y126.995 Z.24 E.16912
G1 X99.452 Y126.994 Z.24 E.16912
G1 X94.727 Y126.994 Z.24 E.16912
G1 X90.001 Y126.993 Z.24 E.16911
G1 X85.275 Y126.992 Z.24 E.16912
G1 X80.549 Y126.992 Z.24 E.16912
G1 X75.824 Y126.991 Z.24 E.16912
G1 F2400
G1 X71.098 Y126.99 Z.24 E.16912
G1 F2399.726
G1 X70.384 Y128.129 E.04811
G1 X69.636 Y129.077 E.04321
G1 X68.751 Y129.979 E.04522
G1 X67.809 Y130.753 E.04363
G1 X66.786 Y131.426 E.04382
G1 X65.567 Y132.041 E.04886
G1 X64.577 Y132.418 E.03791
G1 X63.57 Y132.698 E.0374
G1 X62.29 Y132.916 E.04647
G1 X61.033 Y132.988 E.04506
G1 X59.776 Y132.924 E.04504
G1 X58.594 Y132.734 E.04284
G1 X57.439 Y132.423 E.0428
G1 X55.997 Y131.839 E.05567
G1 X55.136 Y131.378 E.03495
G1 X54.095 Y130.681 E.04483
G1 X53.073 Y129.818 E.04787
G1 X52.439 Y129.162 E.03265
G1 X51.864 Y128.467 E.03228
G1 X51.085 Y127.303 E.05012
G1 X50.546 Y126.265 E.04186
G1 F2400
G1 X50.111 Y125.163 E.0424
G1 F2399.801
G1 X49.785 Y123.988 E.04364
G1 X49.589 Y122.833 E.04192
G1 X49.512 Y121.594 E.04442
G1 X49.571 Y120.332 E.04521
G1 X49.774 Y119.056 E.04624
G1 X50.12 Y117.81 E.04628
G1 X50.611 Y116.594 E.04693
G1 X51.223 Y115.466 E.04592
G1 X51.925 Y114.455 E.04405
G1 X52.665 Y113.594 E.04063
G1 X53.509 Y112.783 E.04189
G1 X53.507 Y109.988 Z.24 E.10002
G1 X53.506 Y107.193 Z.24 E.10002
G1 X52.648 Y106.388 E.0421
G1 X51.959 Y105.588 E.03778
G1 X51.138 Y104.394 E.05185
G1 X50.446 Y103.039 E.05445
G1 X50.105 Y102.145 E.03424
G1 X49.84 Y101.22 E.03443
G1 X49.588 Y99.828 E.05062
G1 X49.512 Y98.544 E.04603
G1 X49.575 Y97.289 E.04497
G1 X49.744 Y96.199 E.03947
G1 X50.02 Y95.121 E.03982
G1 X50.402 Y94.063 E.04025
G1 X50.879 Y93.058 E.03981
G1 X51.938 Y91.435 E.06935
G1 X52.731 Y90.524 E.04322
G1 X53.556 Y89.749 E.04051
G1 X54.469 Y89.049 E.04117
G1 X55.058 Y88.683 E.02482
G1 X55.058 Y88.683 F540000
G1 X55.268 Y89.021
G1 F2400
G1 X55.634 Y88.794 E.01541
G1 F2399.56
G1 X56.61 Y88.315 E.03891
G1 X57.646 Y87.93 E.03955
G1 X58.713 Y87.648 E.03949
G1 X59.792 Y87.479 E.03908
G1 X60.889 Y87.411 E.03933
G1 X62.009 Y87.455 E.04011
G1 X63.519 Y87.7 E.05474
G1 X64.729 Y88.056 E.04514
G1 X65.71 Y88.46 E.03797
M73 P1 R22
G1 X66.593 Y88.927 E.03575
G1 X67.441 Y89.472 E.03607
G1 X68.616 Y90.438 E.05443
G1 X69.421 Y91.283 E.04176
G1 X70.086 Y92.142 E.03888
G1 X70.843 Y93.409 E.05282
G1 X75.63 Y93.408 Z.24 E.17132
G1 X80.418 Y93.408 Z.24 E.17132
G1 X85.205 Y93.407 Z.24 E.17132
G1 X89.993 Y93.406 Z.24 E.17132
G1 X94.78 Y93.405 Z.24 E.17132
G1 X99.567 Y93.404 Z.24 E.17132
G1 X104.355 Y93.404 Z.24 E.17132
G1 X109.142 Y93.403 Z.24 E.17132
G1 X109.826 Y92.269 E.04739
G1 X110.562 Y91.303 E.04346
G1 X111.385 Y90.437 E.04275
G1 X112.321 Y89.647 E.04383
G1 X113.279 Y88.999 E.04139
G1 X114.223 Y88.491 E.03836
G1 X115.201 Y88.081 E.03795
G1 X116.306 Y87.744 E.04134
G1 X117.584 Y87.501 E.04655
G1 X118.854 Y87.412 E.04556
G1 X120.078 Y87.462 E.04384
G1 X121.265 Y87.643 E.04297
G1 X122.431 Y87.953 E.04318
G1 X123.838 Y88.524 E.05434
G1 X124.679 Y88.976 E.03417
G1 X125.674 Y89.643 E.04287
G1 X126.471 Y90.304 E.03705
G1 X127.214 Y91.048 E.03763
G1 X127.968 Y91.978 E.04284
G1 X128.638 Y93.014 E.04415
G1 X129.121 Y93.966 E.0382
G1 X129.511 Y94.963 E.03831
G1 X129.851 Y96.208 E.04618
G1 X130.056 Y97.646 E.05198
G1 X130.09 Y98.499 E.03055
G1 X130.057 Y99.37 E.03119
G1 X129.851 Y100.789 E.05131
G1 X129.506 Y102.052 E.04685
G1 X129.117 Y103.039 E.03796
G1 X128.645 Y103.968 E.03729
G1 X127.888 Y105.133 E.04972
G1 X127.253 Y105.907 E.03583
G1 X126.58 Y106.593 E.03439
G1 X126.093 Y107 E.02271
G1 X126.096 Y110.001 Z.24 E.10737
G1 X126.1 Y113.001 Z.24 E.10738
G1 X127.112 Y113.938 E.04935
G1 X127.848 Y114.815 E.04097
G1 X128.51 Y115.793 E.04226
G1 X129.086 Y116.892 E.0444
G1 X129.486 Y117.889 E.03844
G1 X129.801 Y118.996 E.04119
G1 X130.007 Y120.14 E.0416
G1 X130.088 Y121.772 E.05847
G1 X130.016 Y122.78 E.03616
G1 X129.853 Y123.784 E.0364
G1 X129.461 Y125.185 E.05206
G1 X129.074 Y126.138 E.03681
G1 X128.597 Y127.058 E.03709
G1 X128.016 Y127.958 E.03834
G1 X127.351 Y128.798 E.03834
G1 X126.466 Y129.701 E.04525
G1 X125.481 Y130.499 E.04537
G1 X124.526 Y131.116 E.04069
G1 X123.39 Y131.684 E.04545
G1 X122.214 Y132.113 E.0448
G1 X121.023 Y132.405 E.04388
G1 X120.09 Y132.532 E.0337
G1 X119.067 Y132.59 E.03667
G1 X117.604 Y132.502 E.05245
G1 X116.391 Y132.279 E.04414
G1 X115.293 Y131.952 E.041
G1 X114.359 Y131.573 E.03607
G1 X113.463 Y131.105 E.03617
G1 X112.355 Y130.379 E.0474
G1 X111.364 Y129.543 E.0464
G1 X110.569 Y128.705 E.04134
G1 X109.87 Y127.796 E.04104
G1 X109.161 Y126.597 E.04985
G1 X70.84 Y126.591 E1.37135
G1 X70.064 Y127.89 E.05415
G1 X69.33 Y128.822 E.04245
G1 X68.474 Y129.692 E.04368
G1 X67.564 Y130.439 E.04213
G1 X66.596 Y131.075 E.04145
G1 X65.397 Y131.68 E.04806
G1 X64.444 Y132.042 E.03648
G1 X63.473 Y132.311 E.03606
G1 X62.256 Y132.519 E.04418
G1 X61.043 Y132.59 E.04348
G1 X59.828 Y132.528 E.04354
G1 X58.687 Y132.346 E.04135
G1 X57.567 Y132.046 E.04149
G1 X56.165 Y131.478 E.05413
G1 X55.349 Y131.041 E.03313
G1 X54.343 Y130.369 E.04329
G1 X53.352 Y129.534 E.04637
G1 X52.741 Y128.902 E.03146
G1 X52.177 Y128.221 E.03164
G1 X51.423 Y127.091 E.04861
G1 X50.905 Y126.091 E.0403
G1 X50.485 Y125.027 E.04094
G1 X50.172 Y123.892 E.04213
G1 X49.983 Y122.778 E.04044
G1 X49.91 Y121.58 E.04295
G1 X49.966 Y120.384 E.04285
G1 X50.161 Y119.152 E.04464
G1 X50.494 Y117.949 E.04467
G1 X50.967 Y116.773 E.04536
G1 X51.557 Y115.684 E.04432
G1 X52.235 Y114.707 E.04256
G1 X52.948 Y113.874 E.03924
G1 X53.908 Y112.984 E.04685
G1 X53.906 Y109.993 Z.24 E.10702
G1 X53.904 Y107.003 Z.24 E.10702
G1 X52.932 Y106.109 E.04726
G1 X52.269 Y105.337 E.03642
G1 X51.474 Y104.179 E.05027
G1 X50.806 Y102.868 E.05265
G1 X50.48 Y102.011 E.03281
G1 X50.23 Y101.139 E.03246
G1 X49.985 Y99.791 E.04903
G1 X49.91 Y98.553 E.04438
G1 X49.972 Y97.32 E.04418
G1 X50.136 Y96.27 E.03803
G1 X50.404 Y95.229 E.03847
G1 X50.767 Y94.225 E.03821
G1 X51.22 Y93.265 E.03799
G1 X52.264 Y91.665 E.06837
G1 X53.011 Y90.808 E.04068
G1 X53.822 Y90.046 E.03982
G1 X54.703 Y89.371 E.03972
G1 X55.217 Y89.053 E.02163
G1 X55.217 Y89.053 F540000
G1 X55.427 Y89.391
G1 F2400
G1 X55.819 Y89.147 E.01652
G1 F2399.667
G1 X56.777 Y88.678 E.03817
G1 X57.775 Y88.307 E.0381
G1 X58.804 Y88.036 E.03808
G1 X59.844 Y87.875 E.03766
G1 X60.903 Y87.809 E.03797
G1 X61.981 Y87.852 E.03861
G1 X63.442 Y88.091 E.05298
G1 X64.587 Y88.429 E.04272
G1 X65.532 Y88.816 E.03654
G1 X66.385 Y89.267 E.03453
G1 X67.216 Y89.8 E.03533
G1 X68.353 Y90.738 E.05275
G1 X69.125 Y91.55 E.04009
G1 X69.753 Y92.361 E.03671
G1 X70.377 Y93.364 E.04227
