; generated by PrusaSlicer 2.7.4+MacOS-arm64 on 2024-05-18 at 20:58:17 UTC


;
;

;
;

;
;

;
;

;
;
; 

; external perimeters extrusion width = 0.45mm
; perimeters extrusion width = 0.45mm
; infill extrusion width = 0.45mm
; solid infill extrusion width = 0.45mm
; top infill extrusion width = 0.40mm

M73 P0 R20

EXCLUDE_OBJECT_DEFINE NAME='PiZeroDIN2' CENTER=90.252,55.240 POLYGON=[[61.506,40.250],[62.276,40.394],[62.768,40.587],[63.427,41.000],[63.982,41.553],[64.280,41.990],[64.591,42.702],[64.809,43.925],[64.973,44.420],[65.285,44.977],[65.629,45.381],[66.089,45.749],[66.595,46.017],[67.175,46.186],[67.730,46.240],[113.001,46.231],[113.556,46.133],[114.115,45.920],[114.696,45.537],[115.068,45.165],[115.439,44.606],[115.620,44.171],[115.838,42.957],[116.096,42.221],[116.513,41.558],[117.270,40.854],[117.970,40.482],[118.968,40.251],[119.771,40.279],[120.741,40.574],[121.630,41.174],[122.280,41.990],[122.661,42.961],[122.739,44.002],[122.528,44.965],[122.024,45.873],[121.277,46.593],[120.186,47.180],[119.611,47.637],[119.111,48.316],[118.829,49.056],[118.749,49.740],[118.758,60.970],[118.968,61.862],[119.448,62.664],[119.992,63.171],[121.483,64.046],[122.024,64.607],[122.402,65.222],[122.661,65.961],[122.749,66.740],[122.661,67.519],[122.402,68.259],[122.119,68.744],[121.630,69.306],[121.194,69.650],[120.528,69.998],[120.004,70.158],[119.249,70.240],[118.710,70.198],[117.958,69.993],[117.277,69.632],[116.868,69.306],[116.218,68.490],[115.904,67.772],[115.604,66.267],[115.332,65.682],[115.040,65.282],[114.600,64.867],[114.115,64.560],[113.556,64.348],[113.001,64.249],[67.730,64.240],[67.038,64.321],[66.383,64.560],[65.802,64.943],[65.430,65.315],[65.059,65.874],[64.878,66.309],[64.660,67.526],[64.399,68.265],[63.815,69.121],[63.221,69.632],[62.523,70.000],[61.511,70.230],[60.724,70.201],[59.730,69.894],[58.868,69.306],[58.217,68.489],[57.837,67.519],[57.759,66.479],[57.983,65.483],[58.487,64.590],[59.229,63.882],[60.312,63.301],[60.887,62.843],[61.387,62.165],[61.669,61.424],[61.749,60.740],[61.740,49.510],[61.530,48.618],[61.008,47.768],[60.332,47.192],[59.067,46.477],[58.337,45.682],[57.991,45.019],[57.837,44.519],[57.759,43.479],[57.904,42.709],[58.096,42.222],[58.512,41.559],[58.868,41.174],[59.497,40.710],[59.970,40.482],[60.724,40.280]]

;TYPE:Custom
CALCULATE_PA MATERIAL=PLA BOWDEN_LENGTH=6 LAYER_HEIGHT=0.24 NOZZLE_SIZE=0.4 PRINT_SPEED=0


START_PRINT EXTRUDER=210 BED=65
G21 ; set units to millimeters
G90 ; use absolute coordinates
M83 ; use relative distances for extrusion
; Filament gcode
M107
;LAYER_CHANGE
;Z:0.24
;HEIGHT:0.24
G1 E-.4 F3600
G1 Z.24 F360000
G1 X54.996 Y38.907
G1 Z.24
G1 E.4 F3600
;TYPE:Skirt/Brim
;WIDTH:0.45
G1 F2399.886
G1 X55.511 Y38.307 E.0283
G1 X56.085 Y37.759 E.0284
G1 X56.71 Y37.272 E.02835
G1 X57.399 Y36.839 E.02912
G1 X58.12 Y36.484 E.02876
G1 X58.859 Y36.209 E.02822
G1 X59.633 Y36.005 E.02864
G1 X60.417 Y35.886 E.02838
G1 X61.226 Y35.838 E.029
G1 X62.021 Y35.875 E.02848
G1 X63.144 Y36.068 E.04078
G1 X63.85 Y36.279 E.02637
G1 X64.547 Y36.559 E.02688
G1 X65.812 Y37.288 E.05225
G1 X66.706 Y38.025 E.04146
G1 X67.241 Y38.588 E.02779
G1 X67.709 Y39.189 E.02726
G1 X68.184 Y39.952 E.03216
G1 X68.562 Y40.747 E.0315
G1 X68.927 Y41.837 E.04114
G1 X73.667 Y41.836 Z.24 E.16964
G1 X78.408 Y41.836 Z.24 E.16964
G1 X83.148 Y41.835 Z.24 E.16964
G1 X87.888 Y41.834 Z.24 E.16964
G1 X92.629 Y41.834 Z.24 E.16964
G1 X97.369 Y41.833 Z.24 E.16964
G1 X102.109 Y41.832 Z.24 E.16964
G1 X106.85 Y41.832 Z.24 E.16964
G1 X111.59 Y41.831 Z.24 E.16964
G1 X111.929 Y40.762 E.04013
G1 X112.257 Y40.058 E.02779
G1 X112.721 Y39.287 E.0322
G1 X113.259 Y38.586 E.03162
G1 X113.858 Y37.962 E.03095
G1 X114.533 Y37.4 E.03143
G1 X115.219 Y36.942 E.02952
G1 X115.83 Y36.616 E.02478
G1 X116.483 Y36.338 E.0254
G1 X117.321 Y36.079 E.03139
G1 X118.263 Y35.9 E.03431
G1 X119.228 Y35.838 E.0346
G1 X120.037 Y35.877 E.02898
G1 X120.847 Y36.001 E.02932
G1 X121.657 Y36.214 E.02997
G1 X122.73 Y36.649 E.04143
G1 X123.345 Y36.984 E.02506
G1 X123.952 Y37.39 E.02613
G1 X124.625 Y37.948 E.03129
G1 X125.14 Y38.472 E.02629
G1 X125.62 Y39.067 E.02736
G1 X126.16 Y39.907 E.03574
G1 X126.71 Y41.136 E.04818
G1 X126.973 Y42.074 E.03486
G1 X127.13 Y43.178 E.03991
G1 X127.124 Y44.393 E.04348
G1 X126.967 Y45.437 E.03778
G1 X126.714 Y46.333 E.03332
G1 X126.158 Y47.571 E.04857
G1 X125.573 Y48.48 E.03868
G1 X124.658 Y49.498 E.04898
G1 X123.865 Y50.154 E.03683
G1 X123.153 Y50.613 E.03032
G1 X123.158 Y55.247 Z.24 E.16583
G1 X123.163 Y59.881 Z.24 E.16583
G1 X123.785 Y60.269 E.02623
G1 X124.525 Y60.861 E.03391
G1 X125.018 Y61.339 E.02457
G1 X125.546 Y61.967 E.02936
G1 X126.013 Y62.654 E.02973
G1 X126.47 Y63.534 E.03548
G1 X126.74 Y64.224 E.02652
G1 X126.95 Y64.981 E.02811
G1 X127.1 Y65.836 E.03106
G1 X127.15 Y66.886 E.03762
G1 X127.099 Y67.649 E.02737
G1 X126.971 Y68.418 E.0279
G1 X126.719 Y69.318 E.03345
G1 X126.432 Y70.036 E.02767
G1 X126.087 Y70.701 E.02681
G1 X125.662 Y71.356 E.02794
G1 X125.158 Y71.987 E.0289
G1 X124.514 Y72.633 E.03264
G1 X123.804 Y73.197 E.03245
G1 X123.13 Y73.624 E.02855
G1 X122.377 Y73.997 E.03007
G1 X121.608 Y74.281 E.02934
G1 X120.745 Y74.5 E.03186
G1 X119.278 Y74.642 E.05274
G1 X118.243 Y74.578 E.03711
G1 X117.404 Y74.424 E.03053
G1 X116.594 Y74.182 E.03025
G1 X115.926 Y73.91 E.02581
G1 X115.32 Y73.593 E.02447
G1 X114.506 Y73.06 E.03482
G1 X113.802 Y72.465 E.03299
G1 X113.23 Y71.86 E.02979
G1 X112.742 Y71.223 E.02872
G1 X112.33 Y70.557 E.02803
G1 X111.98 Y69.842 E.02849
G1 X111.588 Y68.65 E.0449
G1 X106.848 Y68.649 Z.24 E.16963
G1 X102.108 Y68.648 Z.24 E.16963
G1 X97.367 Y68.648 Z.24 E.16963
G1 X92.627 Y68.647 Z.24 E.16963
G1 X87.887 Y68.646 Z.24 E.16963
G1 X83.147 Y68.645 Z.24 E.16963
G1 X78.406 Y68.645 Z.24 E.16963
G1 X73.666 Y68.644 Z.24 E.16963
G1 F2400
G1 X68.926 Y68.643 Z.24 E.16963
G1 F2399.904
G1 X68.566 Y69.725 E.04081
G1 X68.165 Y70.56 E.03315
G1 X67.714 Y71.284 E.03052
G1 X67.197 Y71.943 E.02997
G1 X66.585 Y72.567 E.03128
G1 X65.909 Y73.122 E.0313
G1 X65.2 Y73.584 E.03028
G1 X64.315 Y74.023 E.03535
G1 X63.072 Y74.43 E.04681
G1 X62.196 Y74.585 E.03184
G1 X61.29 Y74.642 E.03249
G1 X60.461 Y74.603 E.0297
G1 X59.651 Y74.479 E.02932
G1 X58.841 Y74.267 E.02996
G1 X57.77 Y73.832 E.04137
G1 X57.176 Y73.51 E.02418
G1 X56.57 Y73.108 E.02602
G1 X55.831 Y72.493 E.03441
G1 X54.939 Y71.498 E.04782
G1 X54.379 Y70.646 E.03649
G1 X54.049 Y69.996 E.02609
G1 X53.784 Y69.334 E.02552
G1 X53.516 Y68.366 E.03594
G1 X53.392 Y67.586 E.02826
G1 X53.347 Y66.745 E.03014
G1 X53.393 Y65.892 E.03057
G1 X53.538 Y65.011 E.03195
G1 X53.781 Y64.157 E.03177
G1 X54.117 Y63.337 E.03171
G1 X54.53 Y62.58 E.03086
G1 X54.996 Y61.909 E.02924
G1 X55.516 Y61.302 E.0286
G1 X56.06 Y60.78 E.02698
G1 X56.656 Y60.31 E.02716
G1 X57.346 Y59.866 E.02936
G1 X57.343 Y55.233 Z.24 E.16579
G1 F2400
G1 X57.34 Y50.6 Z.24 E.1658
G1 F2399.942
G1 X56.698 Y50.2 E.02707
G1 X55.985 Y49.63 E.03267
G1 X55.479 Y49.139 E.02523
G1 X55.03 Y48.615 E.02469
G1 X54.498 Y47.847 E.03343
G1 X53.976 Y46.83 E.04091
G1 X53.568 Y45.586 E.04685
G1 X53.389 Y44.567 E.03702
G1 X53.347 Y43.76 E.02892
G1 X53.385 Y42.959 E.0287
G1 X53.502 Y42.183 E.02808
G1 X53.7 Y41.406 E.02869
G1 X53.965 Y40.674 E.02786
G1 X54.302 Y39.97 E.02793
G1 F2392.619
G1 X54.963 Y38.958 E.04326
G1 X54.963 Y38.958 F360000
G1 X55.295 Y39.174
G1 F2400
G1 X55.307 Y39.156 E.00077
G1 F2392.915
G1 X55.794 Y38.587 E.0268
G1 F2399.886
G1 X56.338 Y38.067 E.02693
G1 X56.931 Y37.604 E.02692
G1 X57.585 Y37.191 E.02768
G1 X58.269 Y36.853 E.0273
G1 X58.989 Y36.586 E.02748
G1 X59.703 Y36.397 E.02643
G1 X60.45 Y36.283 E.02704
G1 X61.218 Y36.237 E.02753
G1 X61.99 Y36.273 E.02766
G1 X63.042 Y36.453 E.03819
G1 X63.727 Y36.658 E.02559
G1 X64.389 Y36.925 E.02554
G1 X65.588 Y37.617 E.04954
G1 X66.443 Y38.324 E.0397
G1 X66.945 Y38.855 E.02615
G1 X67.388 Y39.425 E.02583
G1 X67.84 Y40.153 E.03067
G1 X68.189 Y40.887 E.02908
G1 X68.479 Y41.736 E.03211
G1 X68.594 Y42.236 E.01836
G1 X111.902 Y42.229 E1.54981
G1 X112.075 Y41.539 E.02546
G1 X112.301 Y40.905 E.02409
G1 X112.613 Y40.236 E.02642
G1 X113.056 Y39.503 E.03065
G1 X113.554 Y38.853 E.0293
G1 X114.123 Y38.261 E.02938
G1 X114.763 Y37.725 E.02987
G1 X115.416 Y37.289 E.0281
G1 X116.01 Y36.971 E.02411
G1 X116.629 Y36.709 E.02405
G1 X117.406 Y36.468 E.02911
G1 X118.325 Y36.294 E.03347
G1 X119.241 Y36.237 E.03284
G1 X120.007 Y36.275 E.02745
G1 X120.775 Y36.393 E.02781
G1 X121.529 Y36.591 E.0279
G1 X122.559 Y37.009 E.03978
G1 X123.705 Y37.704 E.04796
G1 X124.363 Y38.248 E.03055
G1 X124.848 Y38.744 E.02483
G1 X125.291 Y39.291 E.02519
G1 X125.819 Y40.113 E.03496
G1 X126.329 Y41.254 E.04472
G1 X126.582 Y42.153 E.03342
G1 X126.733 Y43.213 E.03832
G1 X126.726 Y44.364 E.04119
G1 X126.58 Y45.341 E.03535
G1 X126.34 Y46.195 E.03175
G1 X125.807 Y47.382 E.04656
G1 X125.244 Y48.254 E.03714
G1 X124.396 Y49.198 E.04541
G1 X123.621 Y49.839 E.03599
G1 X122.754 Y50.367 E.03633
G1 X122.764 Y60.103 E.34841
G1 X123.545 Y60.588 E.0329
G1 X124.268 Y61.166 E.03312
G1 X124.732 Y61.618 E.02318
G1 X125.222 Y62.2 E.02723
G1 X125.677 Y62.868 E.02892
G1 X126.111 Y63.708 E.03384
G1 X126.365 Y64.359 E.02501
G1 X126.559 Y65.059 E.02599
G1 X126.705 Y65.892 E.03026
G1 X126.752 Y66.871 E.03507
G1 X126.702 Y67.613 E.02661
G1 X126.58 Y68.341 E.02642
G1 X126.345 Y69.18 E.03118
G1 X126.065 Y69.879 E.02695
G1 X125.738 Y70.509 E.0254
G1 X125.334 Y71.131 E.02654
G1 X124.854 Y71.729 E.02744
G1 X124.241 Y72.342 E.03102
G1 X123.565 Y72.878 E.03087
G1 X122.926 Y73.281 E.02704
G1 X122.228 Y73.627 E.02788
G1 F2400
G1 X121.499 Y73.898 E.02783
G1 X120.677 Y74.107 E.03035
G1 X119.29 Y74.243 E.04987
G1 F2399.88
G1 X118.302 Y74.184 E.03542
G1 X117.507 Y74.039 E.02892
G1 X116.718 Y73.803 E.02947
G1 X115.514 Y73.244 E.0475
G1 X114.753 Y72.748 E.03251
G1 X114.083 Y72.182 E.03139
G1 X113.539 Y71.609 E.02827
G1 X113.075 Y71.005 E.02726
G1 X112.684 Y70.373 E.0266
G1 X112.344 Y69.678 E.02769
G1 X112.03 Y68.785 E.03387
G1 X111.905 Y68.251 E.01963
G1 X68.595 Y68.244 E1.54988
G1 X68.477 Y68.753 E.0187
G1 X68.193 Y69.584 E.03143
G1 X67.811 Y70.377 E.0315
G1 X67.382 Y71.064 E.02898
G1 X66.891 Y71.688 E.02841
G1 X66.308 Y72.28 E.02973
G1 X65.682 Y72.794 E.02899
G1 X65.012 Y73.232 E.02865
G1 X64.166 Y73.653 E.03382
G1 X62.973 Y74.044 E.04493
G1 X62.138 Y74.191 E.03034
G1 X61.277 Y74.243 E.03087
G1 X60.491 Y74.206 E.02816
G1 X59.723 Y74.087 E.02781
G1 X58.969 Y73.889 E.0279
G1 X57.94 Y73.472 E.03973
G1 X56.816 Y72.794 E.04697
G1 X56.108 Y72.207 E.03291
G1 X55.254 Y71.253 E.04582
G1 X54.719 Y70.436 E.03495
G1 X54.165 Y69.217 E.04792
G1 X53.903 Y68.271 E.03513
G1 X53.787 Y67.535 E.02666
G1 X53.745 Y66.736 E.02863
G1 X53.79 Y65.925 E.02907
G1 X53.929 Y65.088 E.03036
G1 X54.161 Y64.278 E.03015
G1 X54.472 Y63.517 E.02942
G1 X54.864 Y62.798 E.02931
G1 X55.306 Y62.16 E.02778
G1 X55.812 Y61.568 E.02787
G1 X56.315 Y61.087 E.02491
G1 X56.895 Y60.629 E.02645
G1 X57.744 Y60.114 E.03553
G1 X57.741 Y55.246 Z.24 E.1742
G1 X57.738 Y50.378 Z.24 E.1742
G1 X56.938 Y49.882 E.03368
G1 X56.242 Y49.325 E.0319
G1 X55.352 Y48.379 E.04648
G1 X54.833 Y47.631 E.03258
G1 X54.336 Y46.66 E.03904
G1 X53.954 Y45.488 E.04411
G1 X53.784 Y44.511 E.03549
G1 X53.746 Y43.75 E.02727
G1 X53.781 Y43.008 E.02658
G1 X53.89 Y42.271 E.02666
G1 X54.078 Y41.532 E.02729
G1 X54.329 Y40.837 E.02644
G1 X54.656 Y40.154 E.0271
M73 P1 R20
G1 X55.263 Y39.225 E.03971
G1 X55.263 Y39.225 F360000
G1 X55.595 Y39.441
G1 F2396.543
G1 X55.619 Y39.405 E.00155
G1 F2399.9
G1 X56.077 Y38.868 E.02526
G1 X56.592 Y38.374 E.02554
G1 X57.153 Y37.935 E.02549
G1 X57.772 Y37.544 E.0262
G1 X58.418 Y37.223 E.02581
G1 X59.101 Y36.968 E.02609
G1 X59.775 Y36.789 E.02496
G1 X60.483 Y36.68 E.02563
G1 X61.231 Y36.635 E.02682
G1 X61.959 Y36.67 E.02608
G1 X62.939 Y36.838 E.03558
G1 X63.587 Y37.031 E.0242
G1 X64.23 Y37.291 E.02482
G1 X65.363 Y37.947 E.04685
G1 X66.179 Y38.623 E.03792
G1 X66.648 Y39.121 E.02448
G1 X67.066 Y39.661 E.02444
G1 X67.495 Y40.353 E.02914
G1 X67.816 Y41.027 E.02672
G1 X68.099 Y41.854 E.03128
G1 X68.276 Y42.634 E.02862
G1 X73.161 Y42.633 Z.24 E.1748
G1 X78.045 Y42.632 Z.24 E.1748
G1 X82.93 Y42.632 Z.24 E.1748
G1 X87.814 Y42.631 Z.24 E.1748
G1 X92.699 Y42.63 Z.24 E.1748
G1 X97.583 Y42.629 Z.24 E.1748
G1 X102.468 Y42.629 Z.24 E.1748
G1 X107.352 Y42.628 Z.24 E.1748
G1 F2400
M73 P1 R19
G1 X112.237 Y42.627 Z.24 E.1748
G1 F2399.862
G1 X112.454 Y41.664 E.03533
G1 X112.673 Y41.048 E.0234
G1 X112.97 Y40.415 E.02502
G1 X113.391 Y39.719 E.02911
G1 X113.864 Y39.105 E.02774
G1 X114.387 Y38.559 E.02706
G1 X115.01 Y38.038 E.02906
G1 X115.629 Y37.626 E.02661
G1 X116.174 Y37.334 E.02213
G1 X116.758 Y37.086 E.02271
G1 X117.492 Y36.857 E.02752
G1 X118.363 Y36.69 E.03174
G1 X119.234 Y36.635 E.03123
G1 X119.957 Y36.67 E.0259
G1 X120.685 Y36.781 E.02635
G1 X121.402 Y36.969 E.02653
G1 X122.376 Y37.363 E.0376
G1 X123.475 Y38.029 E.04599
G1 X124.1 Y38.548 E.02907
G1 X124.962 Y39.516 E.04638
G1 X125.467 Y40.301 E.0334
G1 X125.955 Y41.392 E.04277
G1 X126.191 Y42.231 E.03119
G1 X126.336 Y43.248 E.03676
G1 X126.329 Y44.336 E.03894
G1 X126.193 Y45.246 E.03293
G1 X125.966 Y46.058 E.03017
G1 X125.455 Y47.194 E.04458
G1 X124.929 Y48.009 E.03471
G1 X124.118 Y48.912 E.04343
G1 X123.396 Y49.51 E.03355
G1 X122.355 Y50.122 E.04321
G1 X122.359 Y53.536 Z.24 E.12216
G1 X122.362 Y56.949 Z.24 E.12216
G1 F2400
G1 X122.366 Y60.363 Z.24 E.12216
G1 F2399.809
G1 X123.306 Y60.907 E.03887
G1 X123.998 Y61.459 E.03168
G1 X124.434 Y61.882 E.02174
G1 X124.91 Y62.449 E.02649
G1 X125.34 Y63.082 E.02738
G1 X125.752 Y63.881 E.03217
G1 X125.989 Y64.493 E.02349
G1 X126.168 Y65.138 E.02395
G1 X126.31 Y65.949 E.02946
G1 X126.354 Y66.856 E.0325
G1 X126.307 Y67.557 E.02514
G1 X126.188 Y68.265 E.02569
G1 X125.971 Y69.042 E.02887
G1 X125.699 Y69.721 E.02618
G1 X125.389 Y70.316 E.02401
G1 X125.016 Y70.889 E.02447
G1 X124.55 Y71.471 E.02668
G1 X123.968 Y72.052 E.02943
G1 X123.326 Y72.559 E.02927
G1 X122.723 Y72.938 E.02549
G1 X122.079 Y73.257 E.02572
G1 X121.389 Y73.515 E.02636
G1 X120.609 Y73.714 E.02881
G1 X119.301 Y73.845 E.04704
G1 X118.362 Y73.79 E.03366
G1 X117.59 Y73.649 E.02808
G1 X116.842 Y73.425 E.02794
G1 X115.708 Y72.896 E.04478
G1 X115 Y72.435 E.03023
G1 X114.364 Y71.9 E.02974
G1 X113.835 Y71.343 E.02749
G1 X113.408 Y70.786 E.02512
G1 X113.037 Y70.189 E.02515
G1 X112.707 Y69.514 E.02689
G1 X112.41 Y68.664 E.03222
G1 X112.223 Y67.853 E.02978
G1 X107.34 Y67.852 Z.24 E.17474
G1 X102.457 Y67.851 Z.24 E.17474
G1 X97.574 Y67.851 Z.24 E.17474
G1 X92.691 Y67.85 Z.24 E.17474
G1 X87.809 Y67.849 Z.24 E.17474
G1 X82.926 Y67.848 Z.24 E.17474
G1 X78.043 Y67.848 Z.24 E.17474
G1 X73.16 Y67.847 Z.24 E.17474
G1 X68.277 Y67.846 Z.24 E.17474
G1 X68.096 Y68.634 E.02893
G1 X67.82 Y69.444 E.03062
G1 X67.457 Y70.194 E.02982
G1 X67.05 Y70.843 E.02741
G1 X66.585 Y71.432 E.02685
G1 X66.032 Y71.993 E.02819
G1 X65.454 Y72.467 E.02675
G1 X64.823 Y72.881 E.02701
G1 X63.998 Y73.292 E.03298
G1 X62.893 Y73.653 E.0416
G1 X62.102 Y73.794 E.02875
G1 X61.284 Y73.845 E.02933
G1 X60.541 Y73.81 E.02662
G1 X59.813 Y73.699 E.02635
G1 X59.096 Y73.511 E.02653
G1 X58.123 Y73.118 E.03755
G1 X57.062 Y72.48 E.0443
G1 X56.386 Y71.921 E.03139
G1 X55.581 Y71.025 E.0431
G1 X55.069 Y70.246 E.03336
G1 X54.539 Y69.08 E.04583
G1 X54.291 Y68.176 E.03355
G1 X54.182 Y67.484 E.02507
G1 X54.144 Y66.726 E.02716
G1 X54.187 Y65.958 E.02753
G1 X54.32 Y65.166 E.02874
G1 X54.541 Y64.399 E.02856
G1 X54.828 Y63.698 E.02711
G1 X55.198 Y63.015 E.0278
G1 X55.615 Y62.411 E.02627
G1 X56.096 Y61.849 E.02647
G1 X56.569 Y61.393 E.02351
G1 X57.134 Y60.948 E.02574
G1 X58.143 Y60.359 E.04181
G1 X58.141 Y56.946 Z.24 E.12215
G1 X58.139 Y53.532 Z.24 E.12215
G1 X58.137 Y50.119 Z.24 E.12215
G1 X57.159 Y49.55 E.04049
G1 X56.512 Y49.032 E.02966
G1 X55.661 Y48.127 E.04446
G1 X55.181 Y47.438 E.03005
G1 X54.705 Y46.509 E.03735
G1 X54.345 Y45.409 E.04142
G1 X54.181 Y44.478 E.03383
G1 X54.144 Y43.758 E.0258
G1 X54.176 Y43.056 E.02515
G1 X54.283 Y42.34 E.02591
G1 X54.462 Y41.64 E.02586
G1 X54.7 Y40.983 E.02501
G1 X55.01 Y40.338 E.02561
G1 F2398.862
G1 X55.562 Y39.492 E.03615
G1 X55.562 Y39.492 F360000
G1 X55.895 Y39.709
G1 F2400
G1 X55.93 Y39.654 E.00233
G1 F2398.283
