; generated by PrusaSlicer 2.7.2+MacOS-arm64 on 2024-05-18 at 19:18:24 UTC


;
;

;
;

;
;

;
;

;
;
; 

; external perimeters extrusion width = 0.45mm
; perimeters extrusion width = 0.45mm
; infill extrusion width = 0.45mm
; solid infill extrusion width = 0.45mm
; top infill extrusion width = 0.40mm
; first layer extrusion width = 0.48mm

M73 P0 R16

EXCLUDE_OBJECT_DEFINE NAME='PiZeroDIN2' CENTER=90.003,110.000 POLYGON=[[61.257,95.009],[62.027,95.154],[62.519,95.347],[63.178,95.760],[63.733,96.313],[64.031,96.750],[64.342,97.462],[64.560,98.685],[64.724,99.180],[65.036,99.737],[65.380,100.141],[65.840,100.509],[66.346,100.777],[66.925,100.946],[67.481,101.000],[112.752,100.991],[113.307,100.892],[113.866,100.680],[114.448,100.297],[114.819,99.925],[115.190,99.366],[115.371,98.931],[115.589,97.716],[115.847,96.981],[116.264,96.318],[117.021,95.613],[117.721,95.242],[118.719,95.011],[119.522,95.039],[120.492,95.334],[121.381,95.934],[122.031,96.750],[122.412,97.721],[122.490,98.762],[122.279,99.725],[121.775,100.633],[121.028,101.353],[119.937,101.940],[119.362,102.397],[118.862,103.075],[118.580,103.816],[118.500,104.500],[118.509,115.730],[118.719,116.622],[119.199,117.424],[119.743,117.931],[121.234,118.806],[121.775,119.367],[122.153,119.981],[122.412,120.721],[122.500,121.500],[122.412,122.279],[122.153,123.019],[121.870,123.504],[121.381,124.066],[120.945,124.410],[120.279,124.758],[119.755,124.918],[119.000,125.000],[118.461,124.958],[117.709,124.753],[117.028,124.392],[116.619,124.066],[115.969,123.250],[115.655,122.532],[115.355,121.026],[115.083,120.442],[114.791,120.042],[114.350,119.626],[113.866,119.320],[113.307,119.107],[112.752,119.009],[67.481,119.000],[66.789,119.081],[66.134,119.320],[65.553,119.703],[65.181,120.075],[64.810,120.634],[64.629,121.069],[64.411,122.286],[64.150,123.025],[63.566,123.881],[62.972,124.392],[62.274,124.760],[61.262,124.990],[60.475,124.960],[59.481,124.653],[58.619,124.066],[57.968,123.249],[57.588,122.279],[57.510,121.238],[57.734,120.243],[58.238,119.350],[58.980,118.642],[60.063,118.060],[60.638,117.603],[61.138,116.925],[61.420,116.184],[61.500,115.500],[61.491,104.270],[61.281,103.378],[60.759,102.527],[60.083,101.952],[58.818,101.236],[58.088,100.441],[57.742,99.779],[57.588,99.279],[57.510,98.239],[57.655,97.469],[57.847,96.981],[58.263,96.319],[58.619,95.934],[59.248,95.470],[59.721,95.242],[60.478,95.039]]

;TYPE:Custom
CALCULATE_PA MATERIAL=PLA BOWDEN_LENGTH=6 LAYER_HEIGHT=0.24 NOZZLE_SIZE=0.4 PRINT_SPEED=85


START_PRINT EXTRUDER=210 BED=65
G21 ; set units to millimeters
G90 ; use absolute coordinates
M83 ; use relative distances for extrusion
; Filament gcode
M107
;LAYER_CHANGE
;Z:0.24
;HEIGHT:0.24
G1 E-.4 F2400
EXCLUDE_OBJECT_START NAME='PiZeroDIN2'
G1 Z.64 F540000
G1 X64.38 Y120.391
G1 Z.24
G1 E.4 F2400
;TYPE:External perimeter
;WIDTH:0.479999
G1 X64.201 Y120.736 E.01496
G1 X64.03 Y121.31 E.02305
G1 X63.936 Y122.005 E.02699
G1 X63.748 Y122.648 E.02578
G1 X63.425 Y123.229 E.02558
G1 X63.054 Y123.658 E.02182
G1 X62.525 Y124.059 E.02554
G1 X61.99 Y124.301 E.02259
G1 X61.461 Y124.435 E.021
G1 X60.96 Y124.466 E.01932
G1 X60.424 Y124.423 E.02069
G1 X59.786 Y124.22 E.02576
G1 X59.293 Y123.94 E.02182
G1 X58.794 Y123.502 E.02555
G1 X58.405 Y122.963 E.02558
G1 X58.175 Y122.444 E.02184
G1 X58.036 Y121.795 E.02554
G1 X58.044 Y121.133 E.02548
G1 X58.183 Y120.557 E.0228
G1 X58.399 Y120.053 E.0211
G1 X58.702 Y119.615 E.02049
G1 X59.11 Y119.206 E.02223
G1 X59.582 Y118.886 E.02194
G1 X60.266 Y118.532 E.02964
G1 X60.821 Y118.14 E.02615
G1 X61.325 Y117.596 E.02854
G1 X61.71 Y116.939 E.0293
G1 X61.921 Y116.305 E.02571
G1 X62.02 Y115.501 E.03117
G1 X62.02 Y104.825 E.41081
G1 X61.997 Y104.278 E.02107
G1 X61.899 Y103.623 E.02548
G1 X61.684 Y103.002 E.02529
G1 X61.288 Y102.353 E.02926
G1 X60.761 Y101.804 E.02928
G1 X60.266 Y101.468 E.02302
G1 X59.278 Y100.931 E.04327
G1 X58.845 Y100.556 E.02204
G1 X58.443 Y100.027 E.02557
G1 X58.168 Y99.423 E.02554
G1 X58.044 Y98.869 E.02185
G1 X58.036 Y98.205 E.02555
G1 X58.175 Y97.556 E.02554
G1 X58.405 Y97.037 E.02184
G1 X58.794 Y96.498 E.02558
G1 X59.293 Y96.06 E.02555
G1 X59.786 Y95.78 E.02182
G1 X60.421 Y95.578 E.02564
G1 X60.986 Y95.522 E.02185
G1 X61.646 Y95.592 E.02554
G1 X62.274 Y95.807 E.02554
G1 X62.762 Y96.098 E.02186
G1 X63.25 Y96.548 E.02554
G1 X63.625 Y97.094 E.02549
G1 X63.871 Y97.709 E.02549
G1 X64.037 Y98.723 E.03954
G1 X64.236 Y99.359 E.02564
G1 X64.602 Y100.024 E.02921
G1 X65.11 Y100.6 E.02955
G1 X65.626 Y100.989 E.02487
G1 X66.114 Y101.242 E.02115
G1 X66.701 Y101.432 E.02374
G1 X67.48 Y101.52 E.03017
G1 X112.56 Y101.517 E1.73467
G1 X113.302 Y101.431 E.02874
G1 X114.025 Y101.18 E.02945
G1 X114.676 Y100.78 E.0294
G1 X115.109 Y100.366 E.02305
G1 X115.303 Y100.137 E.01155
G1 X115.597 Y99.705 E.02011
G1 X115.826 Y99.169 E.02243
G1 X115.989 Y98.59 E.02315
G1 X116.083 Y97.9 E.0268
G1 X116.251 Y97.353 E.02202
G1 X116.574 Y96.773 E.02555
G1 X117.017 Y96.279 E.02553
G1 X117.474 Y95.942 E.02185
G1 X118.08 Y95.667 E.02561
G1 X118.636 Y95.544 E.02191
G1 X119.144 Y95.531 E.01955
G1 X119.669 Y95.599 E.02037
G1 X120.211 Y95.778 E.02196
G1 X120.785 Y96.116 E.02563
G1 X121.206 Y96.498 E.02187
G1 X121.509 Y96.906 E.01956
G1 X121.756 Y97.374 E.02036
G1 X121.922 Y97.922 E.02203
G1 X121.978 Y98.488 E.02189
G1 X121.907 Y99.149 E.02558
G1 X121.691 Y99.777 E.02555
G1 X121.4 Y100.264 E.02183
G1 X121.054 Y100.639 E.01963
G1 X120.741 Y100.895 E.01556
G1 X120.272 Y101.19 E.02132
G1 X119.76 Y101.451 E.02211
G1 X119.211 Y101.827 E.02561
G1 X118.842 Y102.205 E.02033
G1 X118.447 Y102.75 E.0259
G1 X118.177 Y103.342 E.02504
G1 X118.04 Y103.868 E.02092
G1 X117.98 Y104.499 E.02439
G1 X117.98 Y115.164 E.41039
G1 X118.004 Y115.735 E.02199
G1 X118.068 Y116.279 E.02108
G1 X118.316 Y116.998 E.02927
G1 X118.712 Y117.647 E.02926
G1 X119.254 Y118.206 E.02996
G1 X119.859 Y118.613 E.02806
G1 X120.365 Y118.854 E.02157
G1 X120.812 Y119.147 E.02057
G1 X121.202 Y119.506 E.0204
G1 X121.592 Y120.049 E.02573
G1 X121.849 Y120.653 E.02526
G1 X121.957 Y121.209 E.02179
G1 X121.964 Y121.795 E.02255
G1 X121.825 Y122.444 E.02554
G1 X121.595 Y122.963 E.02184
G1 X121.206 Y123.502 E.02558
G1 X120.707 Y123.94 E.02555
G1 X120.214 Y124.22 E.02182
G1 X119.579 Y124.422 E.02564
G1 X119.014 Y124.478 E.02185
G1 X118.354 Y124.408 E.02554
G1 X117.726 Y124.193 E.02554
G1 X117.238 Y123.902 E.02186
G1 X116.75 Y123.452 E.02554
G1 X116.422 Y122.975 E.02228
G1 X116.19 Y122.442 E.02237
G1 X116.091 Y122.055 E.01537
G1 X115.963 Y121.277 E.03034
G1 X115.759 Y120.631 E.02607
G1 X115.398 Y119.976 E.02878
G1 X114.893 Y119.402 E.02942
G1 X114.275 Y118.951 E.02944
G1 X113.575 Y118.643 E.02943
G1 X112.871 Y118.499 E.02765
G1 X112.52 Y118.48 E.01353
G1 X67.444 Y118.483 E1.73452
G1 X66.701 Y118.568 E.02878
G1 X66.04 Y118.794 E.02688
G1 X65.577 Y119.045 E.02027
G1 X65.059 Y119.45 E.0253
G1 X64.564 Y120.035 E.02949
G1 X64.407 Y120.338 E.01313
;WIPE_START
G1 F432000
G1 X64.38 Y120.391 E-.00031
G1 X64.201 Y120.736 E-.00205
G1 X64.03 Y121.31 E-.00316
G1 X63.936 Y122.005 E-.0037
G1 X63.748 Y122.648 E-.00354
G1 X63.425 Y123.229 E-.00351
G1 X63.054 Y123.658 E-.00299
G1 X62.525 Y124.059 E-.0035
G1 X61.99 Y124.301 E-.0031
G1 X61.461 Y124.435 E-.00288
G1 X60.96 Y124.466 E-.00265
G1 X60.424 Y124.423 E-.00284
G1 X59.786 Y124.22 E-.00353
G1 X59.293 Y123.94 E-.00299
G1 X58.794 Y123.502 E-.0035
G1 X58.405 Y122.963 E-.00351
G1 X58.175 Y122.444 E-.003
G1 X58.036 Y121.795 E-.0035
G1 X58.044 Y121.133 E-.00349
G1 X58.183 Y120.557 E-.00313
G1 X58.399 Y120.053 E-.00289
G1 X58.702 Y119.615 E-.00281
G1 X59.11 Y119.206 E-.00305
G1 X59.582 Y118.886 E-.00301
G1 X60.266 Y118.532 E-.00406
G1 X60.821 Y118.14 E-.00359
G1 X61.325 Y117.596 E-.00391
G1 X61.71 Y116.939 E-.00402
G1 X61.921 Y116.305 E-.00353
G1 X62.02 Y115.501 E-.00428
G1 X62.02 Y104.825 E-.05635
G1 X61.997 Y104.278 E-.00289
G1 X61.899 Y103.623 E-.0035
G1 X61.684 Y103.002 E-.00347
G1 X61.288 Y102.353 E-.00401
G1 X60.761 Y101.804 E-.00402
G1 X60.266 Y101.468 E-.00316
G1 X59.278 Y100.931 E-.00593
G1 X58.845 Y100.556 E-.00302
G1 X58.443 Y100.027 E-.00351
G1 X58.168 Y99.423 E-.0035
G1 X58.044 Y98.869 E-.003
G1 X58.036 Y98.205 E-.0035
G1 X58.175 Y97.556 E-.0035
G1 X58.405 Y97.037 E-.003
G1 X58.794 Y96.498 E-.00351
G1 X59.293 Y96.06 E-.0035
G1 X59.786 Y95.78 E-.00299
G1 X60.421 Y95.578 E-.00352
G1 X60.986 Y95.522 E-.003
G1 X61.646 Y95.592 E-.0035
G1 X62.274 Y95.807 E-.0035
G1 X62.762 Y96.098 E-.003
G1 X63.25 Y96.548 E-.0035
G1 X63.625 Y97.094 E-.0035
G1 X63.871 Y97.709 E-.0035
G1 X64.037 Y98.723 E-.00542
G1 X64.236 Y99.359 E-.00352
G1 X64.602 Y100.024 E-.00401
G1 X65.11 Y100.6 E-.00405
G1 X65.626 Y100.989 E-.00341
G1 X66.114 Y101.242 E-.0029
G1 X66.701 Y101.432 E-.00326
G1 X67.48 Y101.52 E-.00414
G1 X92.089 Y101.518 E-.12988
;WIPE_END
G1 Z.64 F540000
G1 X117.691 Y120.801
G1 Z.24
G1 E.4 F2400
G1 X117.709 Y120.759 E.00176
G1 X117.933 Y120.462 E.01431
G1 X118.203 Y120.241 E.01343
G1 X118.589 Y120.072 E.01621
G1 X118.933 Y120.013 E.01343
G1 X119.305 Y120.043 E.01436
G1 X119.658 Y120.165 E.01437
G1 X119.969 Y120.37 E.01433
G1 X120.259 Y120.717 E.0174
G1 X120.4 Y121.001 E.0122
G1 X120.48 Y121.34 E.0134
G1 X120.473 Y121.713 E.01436
G1 X120.374 Y122.073 E.01437
G1 X120.188 Y122.397 E.01438
G1 X119.872 Y122.699 E.01682
G1 X119.609 Y122.858 E.01183
G1 X119.252 Y122.967 E.01436
G1 X118.88 Y122.984 E.01433
G1 X118.514 Y122.907 E.01439
G1 X118.161 Y122.727 E.01525
G1 X117.897 Y122.499 E.01342
G1 X117.683 Y122.193 E.01437
G1 X117.552 Y121.844 E.01434
G1 X117.512 Y121.473 E.01436
G1 X117.565 Y121.104 E.01434
G1 X117.668 Y120.856 E.01033
G1 X117.668 Y120.856 F540000
G1 X117.284 Y120.649
;TYPE:Perimeter
G1 F2399.96
G1 X117.55 Y120.249 E.01848
G1 X117.976 Y119.878 E.02174
G1 F2400
G1 X118.485 Y119.655 E.02138
G1 F2399.496
G1 X118.96 Y119.585 E.01848
;WIDTH:0.521644
G1 F2189.755
G1 X119.126 Y119.582 E.00701
;WIDTH:0.563289
G1 F2016.632
G1 X119.291 Y119.579 E.00758
;WIDTH:0.604933
G1 F1867.001
G1 X119.457 Y119.576 E.00825
G1 F1872.666
G1 X119.915 Y119.759 E.02451
;WIDTH:0.583062
G1 F1959.017
G1 X120.317 Y120.044 E.02352
;WIDTH:0.577581
G1 F1988.78
G1 X120.638 Y120.417 E.02325
;WIDTH:0.582437
G1 F1980.326
G1 X120.864 Y120.881 E.02461
G1 F1989.991
G1 X120.957 Y121.34 E.02233
;WIDTH:0.576391
G1 F2022.25
G1 X120.934 Y121.832 E.02322
;WIDTH:0.576974
G1 F2030.581
G1 X120.792 Y122.303 E.02321
G1 F2040.201
G1 X120.536 Y122.723 E.02321
;WIDTH:0.583416
G1 F2025.71
G1 X120.13 Y123.105 E.02663
G1 F2027.631
G1 X119.757 Y123.312 E.02038
;WIDTH:0.577838
G1 F2041.088
G1 X119.282 Y123.443 E.02329
;WIDTH:0.577549
G1 F2032.08
G1 X118.791 Y123.451 E.0232
;WIDTH:0.575208
G1 F2031.021
G1 X118.312 Y123.338 E.02315
;WIDTH:0.582412
G1 F1993.939
G1 X117.856 Y123.097 E.02459
G1 F1984.526
G1 X117.51 Y122.78 E.02237
;WIDTH:0.57967
G1 F1985.221
G1 X117.239 Y122.369 E.02335
;WIDTH:0.576855
G1 F1986.15
G1 X117.079 Y121.904 E.0232
;WIDTH:0.600649
G1 F1890.86
G1 X117.027 Y121.412 E.0244
G1 F1884.308
G1 X117.113 Y121.157 E.01327
;WIDTH:0.560433
G1 F2026.922
G1 X117.199 Y120.903 E.01226
;WIDTH:0.520216
G1 F2197.256
G1 X117.265 Y120.706 E.00874
;WIPE_START
G1 F432000
G1 X117.284 Y120.649 E-.00032
G1 X117.55 Y120.249 E-.00254
G1 X117.976 Y119.878 E-.00298
G1 X118.485 Y119.655 E-.00293
G1 X118.96 Y119.585 E-.00253
G1 X119.126 Y119.582 E-.00088
G1 X119.291 Y119.579 E-.00087
G1 X119.457 Y119.576 E-.00088
G1 X119.915 Y119.759 E-.0026
G1 X120.317 Y120.044 E-.0026
G1 X120.638 Y120.417 E-.0026
G1 X120.864 Y120.881 E-.00272
G1 X120.957 Y121.34 E-.00247
G1 X120.934 Y121.832 E-.0026
G1 X120.792 Y122.303 E-.0026
G1 X120.536 Y122.723 E-.0026
G1 X120.13 Y123.105 E-.00294
G1 X119.757 Y123.312 E-.00225
G1 X119.282 Y123.443 E-.0026
G1 X118.791 Y123.451 E-.00259
G1 X118.312 Y123.338 E-.0026
G1 X117.856 Y123.097 E-.00272
G1 X117.51 Y122.78 E-.00248
G1 X117.239 Y122.369 E-.0026
G1 X117.079 Y121.904 E-.0026
G1 X117.027 Y121.412 E-.00261
G1 X117.113 Y121.157 E-.00142
G1 X117.199 Y120.903 E-.00142
G1 X117.265 Y120.706 E-.0011
;WIPE_END
G1 E-.33535 F2400
G1 Z.64 F540000
G1 X117.281 Y120.713
G1 X115.015 Y111.76
G1 X115.165 Y111.382
G1 Z.24
G1 E.4 F2400
;TYPE:External perimeter
;WIDTH:0.479999
G1 X114.872 Y111.238 E.01256
G1 X114.589 Y110.995 E.01435
G1 X114.375 Y110.689 E.01437
G1 X114.244 Y110.339 E.01438
G1 X114.204 Y109.968 E.01436
G1 X114.258 Y109.598 E.01439
G1 X114.406 Y109.246 E.01469
G1 X114.626 Y108.957 E.01398
G1 X114.917 Y108.724 E.01434
G1 X115.258 Y108.571 E.01438
G1 X115.625 Y108.508 E.01433
G1 X115.997 Y108.538 E.01436
G1 X116.351 Y108.661 E.01442
G1 X116.669 Y108.872 E.01469
G1 X116.912 Y109.142 E.01398
G1 X117.086 Y109.472 E.01436
G1 X117.172 Y109.835 E.01435
G1 X117.165 Y110.208 E.01436
G1 X117.066 Y110.568 E.01437
G1 X116.88 Y110.893 E.01441
G1 X116.612 Y111.165 E.01469
G1 X116.301 Y111.353 E.01398
M73 P1 R16
G1 X115.945 Y111.462 E.01433
G1 X115.462 Y111.458 E.01859
G1 X115.22 Y111.405 E.00953
;WIPE_START
G1 F432000
G1 X115.165 Y111.382 E-.00031
G1 X114.872 Y111.238 E-.00172
G1 X114.589 Y110.995 E-.00197
G1 X114.375 Y110.689 E-.00197
G1 X114.244 Y110.339 E-.00197
G1 X114.204 Y109.968 E-.00197
G1 X114.258 Y109.598 E-.00197
G1 X114.406 Y109.246 E-.00202
G1 X114.626 Y108.957 E-.00192
G1 X114.917 Y108.724 E-.00197
G1 X115.258 Y108.571 E-.00197
G1 X115.625 Y108.508 E-.00197
G1 X115.997 Y108.538 E-.00197
G1 X116.351 Y108.661 E-.00198
G1 X116.669 Y108.872 E-.00201
G1 X116.912 Y109.142 E-.00192
G1 X117.086 Y109.472 E-.00197
G1 X117.172 Y109.835 E-.00197
G1 X117.165 Y110.208 E-.00197
G1 X117.066 Y110.568 E-.00197
G1 X116.88 Y110.893 E-.00198
G1 X116.612 Y111.165 E-.00202
G1 X116.301 Y111.353 E-.00192
G1 X115.945 Y111.462 E-.00196
G1 X115.462 Y111.458 E-.00255
G1 X115.22 Y111.405 E-.00131
;WIPE_END
G1 E-.35077 F2400
G1 Z.64 F540000
G1 X115.071 Y111.782
G1 X115.107 Y111.797
G1 X115.337 Y111.856
G1 X115.573 Y111.886
G1 X115.811 Y111.886
G1 X116.047 Y111.856
G1 X116.277 Y111.797
G1 X116.498 Y111.709
G1 X116.707 Y111.595
G1 X116.899 Y111.455
G1 X117.073 Y111.292
G1 X117.188 Y111.082
G1 X117.275 Y110.866
G1 X117.341 Y110.648
G1 X117.386 Y110.43
G1 X117.413 Y110.213
G1 X117.415 Y110.173
G1 X117.421 Y109.995
G1 X117.415 Y109.818
G1 X117.413 Y109.778
G1 X117.404 Y109.697
G1 X117.566 Y109.679
G1 Z.24
G1 E.4 F2400
;TYPE:Perimeter
;WIDTH:0.450724
G1 X117.571 Y110.263 E.02094
;WIPE_START
G1 F432000
G1 X117.566 Y109.679 E-.00308
;WIPE_END
G1 E-.39692 F2400
G1 Z.64 F540000
G1 X117.727 Y109.664
G1 X117.599 Y108.767
G1 X117.577 Y108.274
G1 X117.577 Y104.483
G1 X117.593 Y104.148
G1 X117.608 Y104.009
G1 X117.645 Y103.783
G1 X117.669 Y103.654
G1 X117.701 Y103.532
G1 X117.762 Y103.311
G1 X117.805 Y103.184
G1 X117.889 Y102.971
G1 X117.941 Y102.849
G1 X117.999 Y102.738
G1 X118.104 Y102.535
G1 X118.175 Y102.421
G1 X118.302 Y102.23
G1 X118.38 Y102.121
G1 X120.015 Y100.099
G1 X120.207 Y99.959
G1 X120.381 Y99.797
G1 X120.532 Y99.613
G1 X120.66 Y99.413
G1 X120.761 Y99.197
G1 X120.835 Y98.971
G1 X120.879 Y98.737
G1 X120.894 Y98.5
G1 X120.879 Y98.263
G1 X120.835 Y98.029
G1 X120.761 Y97.803
G1 X120.684 Y97.639
G1 X120.31 Y97.816
G1 Z.24
G1 E.4 F2400
;TYPE:External perimeter
;WIDTH:0.479999
G1 X120.394 Y97.977 E.00699
G1 X120.48 Y98.34 E.01435
G1 X120.451 Y98.8 E.01774
G1 X120.358 Y99.102 E.01216
G1 X120.188 Y99.397 E.0131
G1 X119.928 Y99.664 E.01434
G1 X119.609 Y99.858 E.01437
G1 X119.252 Y99.967 E.01436
G1 X118.862 Y99.98 E.01502
G1 X118.514 Y99.907 E.01368
G1 X118.18 Y99.742 E.01434
G1 X117.861 Y99.45 E.01664
G1 X117.683 Y99.193 E.01203
G1 X117.564 Y98.895 E.01235
G1 X117.512 Y98.473 E.01636
G1 X117.565 Y98.104 E.01434
G1 X117.709 Y97.759 E.01439
G1 X117.997 Y97.409 E.01744
G1 X118.225 Y97.229 E.01118
G1 X118.566 Y97.076 E.01438
G1 X118.933 Y97.013 E.01433
G1 X119.305 Y97.043 E.01436
G1 X119.658 Y97.165 E.01437
G1 X119.969 Y97.37 E.01433
G1 X120.255 Y97.71 E.0171
G1 X120.282 Y97.762 E.00225
G1 X120.282 Y97.762 F540000
G1 X120.143 Y96.923
;TYPE:Perimeter
;WIDTH:0.576891
G1 F1955.008
G1 X120.317 Y97.044 E.01
;WIDTH:0.578893
G1 F1954.291
G1 X120.639 Y97.417 E.02334
G1 F1964.059
G1 X120.856 Y97.859 E.02332
;WIDTH:0.577284
G1 F1979.368
G1 X120.957 Y98.34 E.02321
