; generated by PrusaSlicer 2.7.4+MacOS-arm64 on 2024-05-18 at 19:45:41 UTC


;
;

;
;

;
;

;
;

;
;
; 

; external perimeters extrusion width = 0.45mm
; perimeters extrusion width = 0.45mm
; infill extrusion width = 0.45mm
; solid infill extrusion width = 0.45mm
; top infill extrusion width = 0.40mm
; first layer extrusion width = 0.48mm

M73 P0 R24

EXCLUDE_OBJECT_DEFINE NAME='PiZeroDIN2' CENTER=90.003,110.000 POLYGON=[[61.257,95.009],[62.027,95.154],[62.519,95.347],[63.178,95.760],[63.733,96.313],[64.031,96.750],[64.342,97.462],[64.560,98.685],[64.724,99.180],[65.036,99.737],[65.380,100.141],[65.840,100.509],[66.346,100.777],[66.925,100.946],[67.481,101.000],[112.752,100.991],[113.307,100.892],[113.866,100.680],[114.448,100.297],[114.819,99.925],[115.190,99.366],[115.371,98.931],[115.589,97.716],[115.847,96.981],[116.264,96.318],[117.021,95.613],[117.721,95.242],[118.719,95.011],[119.522,95.039],[120.492,95.334],[121.381,95.934],[122.031,96.750],[122.412,97.721],[122.490,98.762],[122.279,99.725],[121.775,100.633],[121.028,101.353],[119.937,101.940],[119.362,102.397],[118.862,103.075],[118.580,103.816],[118.500,104.500],[118.509,115.730],[118.719,116.622],[119.199,117.424],[119.743,117.931],[121.234,118.806],[121.775,119.367],[122.153,119.981],[122.412,120.721],[122.500,121.500],[122.412,122.279],[122.153,123.019],[121.870,123.504],[121.381,124.066],[120.945,124.410],[120.279,124.758],[119.755,124.918],[119.000,125.000],[118.461,124.958],[117.709,124.753],[117.028,124.392],[116.619,124.066],[115.969,123.250],[115.655,122.532],[115.355,121.026],[115.083,120.442],[114.791,120.042],[114.350,119.626],[113.866,119.320],[113.307,119.107],[112.752,119.009],[67.481,119.000],[66.789,119.081],[66.134,119.320],[65.553,119.703],[65.181,120.075],[64.810,120.634],[64.629,121.069],[64.411,122.286],[64.150,123.025],[63.566,123.881],[62.972,124.392],[62.274,124.760],[61.262,124.990],[60.475,124.960],[59.481,124.653],[58.619,124.066],[57.968,123.249],[57.588,122.279],[57.510,121.238],[57.734,120.243],[58.238,119.350],[58.980,118.642],[60.063,118.060],[60.638,117.603],[61.138,116.925],[61.420,116.184],[61.500,115.500],[61.491,104.270],[61.281,103.378],[60.759,102.527],[60.083,101.952],[58.818,101.236],[58.088,100.441],[57.742,99.779],[57.588,99.279],[57.510,98.239],[57.655,97.469],[57.847,96.981],[58.263,96.319],[58.619,95.934],[59.248,95.470],[59.721,95.242],[60.478,95.039]]

;TYPE:Custom
CALCULATE_PA MATERIAL=PLA BOWDEN_LENGTH=6 LAYER_HEIGHT=0.24 NOZZLE_SIZE=0.4 PRINT_SPEED=85


START_PRINT EXTRUDER=210 BED=65
G21 ; set units to millimeters
G90 ; use absolute coordinates
M83 ; use relative distances for extrusion
; Filament gcode
M107
;LAYER_CHANGE
;Z:0.24
;HEIGHT:0.24
G1 E-.4 F2400
G1 Z.64 F540000
G1 X54.71 Y88.179
G1 Z.24
G1 E.4 F2400
;TYPE:Skirt/Brim
;WIDTH:0.48
G1 F2399.828
G1 X55.178 Y87.888 E.02121
G1 X56.263 Y87.362 E.0464
G1 X57.388 Y86.948 E.04613
G1 X58.536 Y86.65 E.04564
G1 X59.7 Y86.47 E.04532
G1 X60.888 Y86.397 E.0458
G1 X62.081 Y86.443 E.04594
G1 X63.709 Y86.704 E.06345
G1 X65.081 Y87.106 E.05501
G1 X66.155 Y87.549 E.04471
G1 X67.123 Y88.063 E.04217
G1 X68.044 Y88.657 E.04217
G1 X69.296 Y89.687 E.06238
G1 X70.184 Y90.615 E.04942
G1 X70.914 Y91.557 E.04586
G1 X71.432 Y92.395 E.03791
G1 X76.074 Y92.394 Z.24 E.17862
G1 X80.716 Y92.394 Z.24 E.17862
G1 X85.358 Y92.393 Z.24 E.17862
G1 X90 Y92.393 Z.24 E.17862
G1 X94.642 Y92.392 Z.24 E.17862
G1 X99.284 Y92.391 Z.24 E.17862
G1 X103.926 Y92.391 Z.24 E.17862
G1 X108.568 Y92.39 Z.24 E.17862
G1 X109.023 Y91.648 E.03349
G1 X109.833 Y90.596 E.05109
G1 X110.724 Y89.668 E.0495
G1 X111.721 Y88.83 E.05012
G1 X112.724 Y88.15 E.04663
G1 X113.793 Y87.573 E.04674
G1 X114.89 Y87.116 E.04573
G1 X116.06 Y86.76 E.04706
G1 X117.5 Y86.49 E.05638
G1 X118.877 Y86.398 E.0531
G1 X120.216 Y86.457 E.05157
G1 X121.512 Y86.66 E.05048
G1 X122.758 Y86.994 E.04964
G1 X124.254 Y87.599 E.0621
G1 X125.203 Y88.108 E.04144
G1 X126.313 Y88.856 E.05151
G1 X127.166 Y89.565 E.04268
G1 X127.96 Y90.361 E.04326
G1 X128.782 Y91.374 E.0502
G1 X129.498 Y92.476 E.05057
G1 X130.05 Y93.56 E.04681
G1 X130.483 Y94.677 E.0461
G1 X130.845 Y96.01 E.05315
G1 X131.066 Y97.559 E.06021
G1 X131.103 Y98.49 E.03585
G1 X131.068 Y99.436 E.03643
G1 X130.853 Y100.949 E.0588
G1 X130.478 Y102.342 E.05551
G1 X130.06 Y103.414 E.04428
G1 X129.503 Y104.509 E.04727
G1 X128.692 Y105.751 E.05708
G1 X128.004 Y106.587 E.04166
G1 X127.106 Y107.473 E.04854
G1 X127.108 Y109.999 Z.24 E.09722
G1 F2400
G1 X127.11 Y112.526 Z.24 E.09722
G1 F2399.949
G1 X127.886 Y113.282 E.04169
G1 X128.677 Y114.232 E.04757
G1 X129.406 Y115.318 E.05033
G1 X130.003 Y116.46 E.04959
G1 X130.445 Y117.563 E.04572
G1 X130.78 Y118.733 E.04683
G1 X131.011 Y119.995 E.04937
G1 X131.101 Y121.807 E.06981
G1 X131.024 Y122.888 E.0417
G1 X130.852 Y123.96 E.04178
G1 X130.413 Y125.531 E.06277
G1 X129.991 Y126.571 E.04319
G1 X129.471 Y127.572 E.04341
G1 X128.831 Y128.56 E.0453
G1 X128.088 Y129.495 E.04596
G1 X127.108 Y130.486 E.05363
G1 X126.008 Y131.368 E.05425
G1 X124.978 Y132.025 E.04701
G1 X123.754 Y132.631 E.05256
G1 X122.467 Y133.096 E.05266
G1 X121.245 Y133.394 E.0484
G1 X120.153 Y133.544 E.04241
G1 X118.959 Y133.603 E.046
G1 X117.418 Y133.5 E.05943
G1 X116.15 Y133.263 E.04964
G1 X114.97 Y132.912 E.04737
G1 X113.932 Y132.492 E.04309
G1 X112.958 Y131.984 E.04227
G1 X111.798 Y131.228 E.05328
G1 X110.681 Y130.291 E.0561
G1 X109.794 Y129.359 E.04951
G1 X109.053 Y128.395 E.04679
G1 X108.562 Y127.61 E.03563
G1 X103.922 Y127.609 Z.24 E.17856
G1 X99.281 Y127.609 Z.24 E.17856
G1 X94.641 Y127.608 Z.24 E.17856
G1 X90.001 Y127.607 Z.24 E.17856
G1 X85.361 Y127.607 Z.24 E.17856
G1 X80.721 Y127.606 Z.24 E.17856
G1 X76.08 Y127.606 Z.24 E.17856
G1 X71.44 Y127.605 Z.24 E.17856
G1 X70.878 Y128.495 E.0405
G1 X70.078 Y129.506 E.04961
G1 X69.167 Y130.431 E.04996
G1 X68.178 Y131.245 E.04929
G1 X67.081 Y131.965 E.05049
G1 X65.837 Y132.594 E.05364
G1 X64.789 Y132.995 E.04318
G1 X63.733 Y133.292 E.04221
G1 X62.371 Y133.526 E.05318
G1 X61.031 Y133.603 E.05165
G1 X59.713 Y133.535 E.05078
G1 X58.453 Y133.333 E.0491
G1 X57.239 Y133.005 E.04839
G1 X55.749 Y132.402 E.06185
G1 X54.812 Y131.901 E.04089
G1 X53.726 Y131.173 E.05031
G1 X52.644 Y130.259 E.0545
G1 X51.996 Y129.589 E.03587
G1 X51.397 Y128.87 E.03601
G1 X50.574 Y127.646 E.05676
G1 X49.998 Y126.545 E.04781
G1 X49.534 Y125.379 E.04829
G1 X49.185 Y124.126 E.05005
G1 X48.977 Y122.905 E.04766
G1 X48.897 Y121.406 E.05776
G1 X48.966 Y120.199 E.04652
G1 X49.172 Y118.931 E.04943
G1 X49.541 Y117.603 E.05304
G1 X50.066 Y116.309 E.05374
G1 X50.72 Y115.111 E.05252
G1 X51.477 Y114.03 E.05078
G1 X52.223 Y113.165 E.04395
G1 X52.894 Y112.518 E.03587
G1 X52.89 Y107.475 E.19405
G1 X52.202 Y106.812 E.03677
G1 X51.471 Y105.962 E.04314
G1 X50.587 Y104.67 E.06024
G1 X49.886 Y103.293 E.05946
G1 X49.52 Y102.335 E.03946
G1 X49.23 Y101.313 E.04088
G1 X48.973 Y99.866 E.05655
G1 X48.897 Y98.548 E.0508
G1 X48.959 Y97.268 E.04931
G1 X49.133 Y96.118 E.04476
G1 X49.429 Y94.95 E.04637
G1 X49.84 Y93.815 E.04645
G1 X50.361 Y92.724 E.04652
G1 X51.423 Y91.097 E.07476
G1 X52.298 Y90.087 E.05142
G1 X53.153 Y89.285 E.04511
G1 X54.09 Y88.563 E.04552
G1 X54.659 Y88.21 E.02577
G1 X54.659 Y88.21 F540000
G1 X54.884 Y88.573
G1 F2400
G1 X55.375 Y88.269 E.02222
G1 F2399.806
G1 X56.422 Y87.76 E.0448
G1 X57.507 Y87.36 E.0445
G1 X58.612 Y87.071 E.04395
G1 X59.756 Y86.895 E.04454
G1 X60.903 Y86.825 E.04422
G1 X62.051 Y86.871 E.04421
G1 X63.627 Y87.125 E.06143
G1 X64.949 Y87.513 E.05302
G1 X65.982 Y87.941 E.04303
G1 X66.899 Y88.428 E.03995
G1 X67.782 Y88.996 E.0404
G1 X68.996 Y89.993 E.06045
G1 X69.852 Y90.887 E.04763
G1 X70.568 Y91.81 E.04495
G1 X71.193 Y92.824 E.04584
G1 X75.895 Y92.823 Z.24 E.18093
G1 X80.597 Y92.823 Z.24 E.18093
G1 X85.299 Y92.822 Z.24 E.18093
G1 X90.001 Y92.822 Z.24 E.18093
G1 X94.702 Y92.821 Z.24 E.18093
G1 X99.404 Y92.82 Z.24 E.18093
G1 X104.106 Y92.82 Z.24 E.18093
G1 X108.808 Y92.819 Z.24 E.18093
G1 X109.37 Y91.9 E.04145
G1 X110.15 Y90.884 E.04929
G1 X111.008 Y89.989 E.04771
G1 X111.97 Y89.179 E.04839
G1 X112.956 Y88.511 E.04583
G1 X113.987 Y87.956 E.04506
G1 X115.025 Y87.523 E.04328
G1 X116.174 Y87.174 E.04621
G1 X117.542 Y86.916 E.05357
G1 X118.87 Y86.826 E.05122
G1 X120.162 Y86.882 E.04976
G1 X121.413 Y87.077 E.04872
G1 X122.62 Y87.399 E.04807
G1 X124.073 Y87.987 E.06032
G1 X124.972 Y88.47 E.03927
G1 X126.047 Y89.192 E.04983
G1 X126.884 Y89.888 E.04189
G1 X127.648 Y90.656 E.04168
G1 X128.442 Y91.634 E.04847
G1 X129.133 Y92.7 E.04888
G1 X129.654 Y93.725 E.04424
G1 X130.073 Y94.8 E.0444
G1 X130.424 Y96.093 E.05156
G1 X130.639 Y97.599 E.05854
G1 X130.675 Y98.499 E.03466
G1 X130.64 Y99.409 E.03504
G1 X130.431 Y100.875 E.05698
G1 X130.067 Y102.218 E.05354
G1 X129.665 Y103.248 E.04255
G1 X129.138 Y104.285 E.04476
G1 X128.34 Y105.507 E.05616
G1 X127.692 Y106.294 E.03923
G1 X126.678 Y107.273 E.05424
G1 X126.682 Y112.707 E.2091
G1 X127.564 Y113.565 E.04735
G1 X128.328 Y114.48 E.04587
G1 X129.044 Y115.547 E.04945
G1 X129.618 Y116.649 E.04781
G1 X130.037 Y117.691 E.04322
G1 X130.365 Y118.841 E.04602
G1 X130.584 Y120.031 E.04656
G1 X130.673 Y121.79 E.06777
G1 X130.597 Y122.848 E.04082
G1 X130.431 Y123.88 E.04022
G1 X130.012 Y125.381 E.05997
G1 X129.606 Y126.382 E.04157
G1 X129.105 Y127.348 E.04187
G1 X128.488 Y128.302 E.04372
G1 X127.775 Y129.202 E.04418
G1 X126.83 Y130.16 E.05178
G1 X125.768 Y131.013 E.05242
G1 X124.777 Y131.646 E.04525
G1 X123.597 Y132.232 E.0507
G1 X122.354 Y132.683 E.05088
G1 X121.154 Y132.975 E.04752
G1 X120.122 Y133.117 E.04009
G1 X118.974 Y133.175 E.04423
G1 X117.484 Y133.077 E.05746
G1 X116.261 Y132.849 E.04787
G1 X115.102 Y132.505 E.04652
G1 X114.12 Y132.107 E.04077
G1 X113.183 Y131.619 E.04065
G1 X112.043 Y130.876 E.05236
G1 X110.966 Y129.971 E.05413
G1 X110.127 Y129.089 E.04684
G1 X109.399 Y128.142 E.04596
G1 X108.8 Y127.181 E.04357
G1 X104.101 Y127.18 Z.24 E.18084
G1 X99.401 Y127.18 Z.24 E.18084
G1 X94.701 Y127.179 Z.24 E.18084
G1 X90.002 Y127.178 Z.24 E.18084
G1 X85.303 Y127.178 Z.24 E.18084
G1 X80.603 Y127.177 Z.24 E.18084
G1 X75.904 Y127.177 Z.24 E.18084
G1 F2400
G1 X71.204 Y127.176 Z.24 E.18084
G1 F2399.952
G1 X70.534 Y128.238 E.04832
G1 X69.764 Y129.214 E.04784
G1 X68.886 Y130.108 E.04822
G1 X67.933 Y130.894 E.04753
G1 X66.877 Y131.588 E.04862
G1 X65.654 Y132.206 E.05273
G1 X64.645 Y132.591 E.04156
G1 X63.629 Y132.876 E.0406
G1 X62.334 Y133.099 E.05056
G1 X61.041 Y133.175 E.04984
G1 X59.769 Y133.11 E.04901
G1 X58.554 Y132.916 E.04735
G1 X57.377 Y132.599 E.0469
G1 X55.93 Y132.014 E.06006
G1 X55.041 Y131.538 E.0388
G1 X53.993 Y130.838 E.0485
G1 X52.944 Y129.953 E.05281
G1 X52.32 Y129.308 E.03453
G1 X51.734 Y128.604 E.03525
G1 X50.936 Y127.417 E.05504
G1 X50.383 Y126.357 E.04601
G1 X49.937 Y125.232 E.04657
G1 X49.601 Y124.022 E.04832
G1 X49.402 Y122.846 E.0459
G1 X49.325 Y121.395 E.05591
G1 X49.394 Y120.235 E.04472
G1 X49.588 Y119.034 E.04681
G1 X49.943 Y117.752 E.05119
G1 X50.448 Y116.503 E.05184
G1 X51.078 Y115.347 E.05066
G1 X51.809 Y114.301 E.0491
G1 X52.541 Y113.453 E.04311
G1 X53.322 Y112.701 E.04172
G1 X53.32 Y109.996 Z.24 E.10407
G1 X53.318 Y107.292 Z.24 E.10407
G1 X52.52 Y106.525 E.04259
G1 X51.803 Y105.692 E.04229
G1 X50.963 Y104.463 E.05728
G1 X50.282 Y103.129 E.05763
G1 X49.929 Y102.208 E.03795
G1 X49.65 Y101.228 E.03921
G1 X49.397 Y99.804 E.05565
G1 X49.325 Y98.535 E.04891
G1 X49.386 Y97.301 E.04754
G1 X49.555 Y96.193 E.04313
G1 X49.842 Y95.066 E.04475
G1 X50.231 Y93.99 E.04403
G1 X50.728 Y92.946 E.04449
G1 X51.774 Y91.343 E.07365
G1 X52.599 Y90.392 E.04845
G1 X53.438 Y89.605 E.04427
G1 X54.342 Y88.91 E.04388
G1 X54.833 Y88.605 E.02224
G1 X54.833 Y88.605 F540000
G1 X55.058 Y88.968
G1 F2399.933
G1 X55.573 Y88.649 E.02331
G1 X56.58 Y88.158 E.04311
G1 X57.626 Y87.772 E.0429
G1 X58.689 Y87.493 E.04229
G1 X59.792 Y87.322 E.04295
G1 X60.897 Y87.254 E.0426
G1 X62.021 Y87.298 E.04328
G1 X63.545 Y87.545 E.05941
G1 X64.796 Y87.914 E.05019
G1 X65.79 Y88.324 E.04138
G1 X66.69 Y88.803 E.03923
G1 X67.539 Y89.349 E.03884
G1 X68.713 Y90.316 E.05853
G1 X69.534 Y91.175 E.04572
G1 X70.222 Y92.063 E.04323
G1 X70.953 Y93.252 E.05371
G1 X109.049 Y93.247 E1.46593
G1 X109.717 Y92.152 E.04936
M73 P1 R24
G1 X110.468 Y91.172 E.04751
G1 X111.31 Y90.293 E.04684
G1 X112.237 Y89.514 E.04659
G1 X113.187 Y88.872 E.04412
G1 X114.18 Y88.338 E.04339
G1 X115.16 Y87.93 E.04085
G1 X116.287 Y87.587 E.04533
G1 X117.584 Y87.343 E.05078
G1 X118.864 Y87.255 E.04937
G1 X120.108 Y87.308 E.04791
G1 X121.314 Y87.494 E.04696
G1 X122.482 Y87.805 E.04651
G1 X123.892 Y88.376 E.05854
G1 X124.743 Y88.831 E.03713
G1 X125.782 Y89.529 E.04816
G1 X126.588 Y90.198 E.04031
G1 X127.337 Y90.95 E.04084
G1 X128.102 Y91.895 E.04679
G1 X128.767 Y92.923 E.04711
G1 X129.268 Y93.91 E.04259
G1 X129.663 Y94.924 E.04187
G1 X130.004 Y96.177 E.04997
G1 X130.212 Y97.639 E.05682
G1 X130.246 Y98.507 E.03343
G1 X130.213 Y99.381 E.03366
G1 X130.009 Y100.801 E.0552
G1 X129.657 Y102.094 E.05157
G1 X129.27 Y103.082 E.04083
G1 X128.772 Y104.061 E.04227
G1 X128.001 Y105.244 E.05434
G1 X127.379 Y106.001 E.0377
G1 X126.706 Y106.689 E.03703
G1 X126.249 Y107.074 E.02299
G1 X126.251 Y109.997 Z.24 E.1125
G1 F2400
G1 X126.253 Y112.921 Z.24 E.1125
G1 F2399.939
G1 X127.242 Y113.848 E.05216
G1 X127.992 Y114.746 E.04502
G1 X128.669 Y115.756 E.04679
G1 X129.233 Y116.837 E.04692
G1 X129.635 Y117.84 E.04158
G1 X129.95 Y118.948 E.04433
G1 X130.159 Y120.094 E.04483
G1 X130.245 Y121.773 E.06469
G1 X130.173 Y122.789 E.03919
G1 X130.01 Y123.8 E.03941
G1 X129.61 Y125.232 E.05721
G1 X129.221 Y126.194 E.03993
G1 X128.739 Y127.124 E.04031
G1 X128.146 Y128.045 E.04215
G1 X127.461 Y128.91 E.04246
G1 X126.552 Y129.834 E.04988
G1 X125.527 Y130.658 E.05061
G1 X124.575 Y131.268 E.04351
G1 X123.439 Y131.834 E.04884
G1 X122.24 Y132.269 E.04908
G1 X121.064 Y132.557 E.04659
G1 X120.091 Y132.689 E.03778
G1 X118.989 Y132.746 E.04246
G1 X117.549 Y132.653 E.05553
G1 X116.372 Y132.435 E.04606
G1 X115.234 Y132.097 E.04568
G1 X114.309 Y131.722 E.03841
G1 X113.408 Y131.254 E.03907
G1 X112.288 Y130.525 E.05142
G1 X111.251 Y129.651 E.05219
G1 X110.46 Y128.818 E.0442
G1 X109.745 Y127.889 E.04511
G1 X109.063 Y126.753 E.05099
G1 X70.936 Y126.748 E1.46712
G1 X70.191 Y127.982 E.05547
G1 X69.45 Y128.922 E.04606
G1 X68.588 Y129.799 E.04732
G1 X67.67 Y130.555 E.04576
G1 X66.673 Y131.211 E.04592
G1 X65.471 Y131.819 E.05183
G1 X64.502 Y132.187 E.03989
G1 X63.524 Y132.46 E.03907
G1 X62.297 Y132.672 E.04791
G1 X61.051 Y132.746 E.04803
G1 X59.825 Y132.685 E.04723
G1 X58.654 Y132.499 E.04562
G1 X57.516 Y132.194 E.04534
G1 X56.111 Y131.625 E.05833
G1 X55.27 Y131.176 E.03668
G1 X54.26 Y130.502 E.04672
G1 X53.245 Y129.647 E.05107
G1 X52.633 Y129.016 E.03383
G1 X52.07 Y128.339 E.03388
G1 X51.299 Y127.189 E.05328
G1 X50.768 Y126.169 E.04425
G1 X50.34 Y125.085 E.04485
G1 X50.017 Y123.919 E.04656
G1 X49.827 Y122.787 E.04417
G1 X49.754 Y121.385 E.05402
G1 X49.821 Y120.272 E.04291
G1 X50.004 Y119.137 E.04424
G1 X50.345 Y117.901 E.04934
G1 X50.83 Y116.697 E.04995
G1 X51.436 Y115.582 E.04883
G1 X52.14 Y114.573 E.04734
G1 X52.859 Y113.74 E.04234
G1 X53.751 Y112.909 E.04691
G1 X53.749 Y109.993 Z.24 E.11219
G1 X53.747 Y107.078 Z.24 E.11219
G1 X52.826 Y106.225 E.0483
G1 X52.136 Y105.422 E.04074
G1 X51.324 Y104.233 E.0554
G1 X50.669 Y102.945 E.0556
G1 X50.333 Y102.064 E.03628
G1 X50.07 Y101.141 E.03693
G1 X49.824 Y99.766 E.05375
G1 X49.754 Y98.545 E.04706
G1 X49.814 Y97.333 E.04669
G1 X49.977 Y96.268 E.04146
G1 X50.249 Y95.201 E.04237
G1 X50.623 Y94.164 E.04242
G1 X51.095 Y93.168 E.04241
G1 X52.125 Y91.59 E.07251
G1 X52.901 Y90.696 E.04555
G1 X53.708 Y89.938 E.0426
G1 X54.595 Y89.256 E.04305
G1 X55.007 Y89 E.01866
G1 X55.007 Y89 F540000
G1 X55.233 Y89.363
G1 F2399.438
G1 X55.771 Y89.029 E.02437
G1 X56.739 Y88.556 E.04146
G1 X57.745 Y88.184 E.04127
G1 X58.766 Y87.915 E.04063
G1 X59.828 Y87.749 E.04136
G1 X60.912 Y87.682 E.04179
G1 X61.99 Y87.726 E.04152
G1 X63.463 Y87.966 E.05743
G1 X64.643 Y88.314 E.04734
G1 X65.598 Y88.708 E.03975
G1 X66.466 Y89.168 E.0378
G1 X67.296 Y89.703 E.038
G1 X68.431 Y90.638 E.05659
G1 X69.217 Y91.462 E.04382
G1 X69.865 Y92.299 E.04073
