; generated by SuperSlicer 2.5.59.8 on 2024-03-16 at 01:49:37 UTC


;
;

;
;

;
;

;
;

;
;
; 

; external perimeters extrusion width = 0.40mm
; perimeters extrusion width = 0.40mm
; infill extrusion width = 0.40mm
; solid infill extrusion width = 0.40mm
; top infill extrusion width = 0.40mm

; external perimeters extrusion width = 0.40mm
; perimeters extrusion width = 0.40mm
; infill extrusion width = 0.40mm
; solid infill extrusion width = 0.40mm
; top infill extrusion width = 0.40mm

; external perimeters extrusion width = 0.40mm
; perimeters extrusion width = 0.40mm
; infill extrusion width = 0.40mm
; solid infill extrusion width = 0.40mm
; top infill extrusion width = 0.40mm

; external perimeters extrusion width = 0.40mm
; perimeters extrusion width = 0.40mm
; infill extrusion width = 0.40mm
; solid infill extrusion width = 0.40mm
; top infill extrusion width = 0.40mm

; object:{"name":"plus_only_bed_raiser_1","id":"plus_only_bed_raiser_1.stl id:0 copy 0","object_center":[25.953826,89.170448,0.000000],"boundingbox_center":[25.953826,89.170448,5.000000],"boundingbox_size":[40.000000,20.000153,10.000000]}
EXCLUDE_OBJECT_DEFINE NAME=plus_only_bed_raiser_1_stl_id_0_copy_0 CENTER=25.953826,89.170448 POLYGON=[[5.95,84.55],[6.14,83.16],[6.67,81.86],[7.53,80.75],[8.64,79.89],[9.94,79.35],[11.33,79.17],[40.57,79.17],[41.97,79.35],[43.26,79.89],[44.38,80.75],[45.23,81.86],[45.77,83.16],[45.95,84.55],[45.95,93.79],[45.77,95.18],[45.23,96.48],[44.38,97.59],[43.26,98.45],[41.97,98.99],[40.57,99.17],[11.33,99.17],[9.94,98.99],[8.64,98.45],[7.53,97.59],[6.67,96.48],[6.14,95.18],[5.95,93.79],[5.95,84.55]]
; object:{"name":"plus_only_bed_raiser_2","id":"plus_only_bed_raiser_2.stl id:1 copy 0","object_center":[24.976142,158.454180,0.000000],"boundingbox_center":[24.976142,158.454180,5.000000],"boundingbox_size":[40.000000,20.000153,10.000000]}
EXCLUDE_OBJECT_DEFINE NAME=plus_only_bed_raiser_2_stl_id_1_copy_0 CENTER=24.976142,158.454180 POLYGON=[[4.98,153.83],[5.16,152.44],[5.70,151.14],[6.55,150.03],[7.67,149.17],[8.96,148.64],[10.36,148.45],[39.60,148.45],[40.99,148.64],[42.29,149.17],[43.40,150.03],[44.26,151.14],[44.79,152.44],[44.98,153.83],[44.98,163.07],[44.79,164.47],[44.26,165.76],[43.40,166.88],[42.29,167.73],[40.99,168.27],[39.60,168.45],[10.36,168.45],[8.96,168.27],[7.67,167.73],[6.55,166.88],[5.70,165.76],[5.16,164.47],[4.98,163.07],[4.98,153.83]]
; object:{"name":"plus_only_bed_raiser_3","id":"plus_only_bed_raiser_3.stl id:2 copy 0","object_center":[27.031933,111.560393,0.000000],"boundingbox_center":[27.031933,111.560393,5.000000],"boundingbox_size":[40.000000,20.000153,10.000000]}
EXCLUDE_OBJECT_DEFINE NAME=plus_only_bed_raiser_3_stl_id_2_copy_0 CENTER=27.031933,111.560393 POLYGON=[[7.03,106.94],[7.22,105.55],[7.75,104.25],[8.61,103.14],[9.72,102.28],[11.02,101.74],[12.41,101.56],[41.65,101.56],[43.04,101.74],[44.34,102.28],[45.46,103.14],[46.31,104.25],[46.85,105.55],[47.03,106.94],[47.03,116.18],[46.85,117.57],[46.31,118.87],[45.46,119.98],[44.34,120.84],[43.04,121.38],[41.65,121.56],[12.41,121.56],[11.02,121.38],[9.72,120.84],[8.61,119.98],[7.75,118.87],[7.22,117.57],[7.03,116.18],[7.03,106.94]]
; object:{"name":"plus_only_bed_raiser_4","id":"plus_only_bed_raiser_4.stl id:3 copy 0","object_center":[24.365196,133.384174,0.000000],"boundingbox_center":[24.365196,133.384174,5.000000],"boundingbox_size":[40.000000,20.000153,10.000000]}
EXCLUDE_OBJECT_DEFINE NAME=plus_only_bed_raiser_4_stl_id_3_copy_0 CENTER=24.365196,133.384174 POLYGON=[[4.37,128.76],[4.55,127.37],[5.09,126.07],[5.94,124.96],[7.06,124.10],[8.35,123.57],[9.75,123.38],[38.98,123.38],[40.38,123.57],[41.68,124.10],[42.79,124.96],[43.64,126.07],[44.18,127.37],[44.37,128.76],[44.37,138.00],[44.18,139.40],[43.64,140.69],[42.79,141.81],[41.68,142.66],[40.38,143.20],[38.98,143.38],[9.75,143.38],[8.35,143.20],[7.06,142.66],[5.94,141.81],[5.09,140.69],[4.55,139.40],[4.37,138.00],[4.37,128.76]]
; plater:{"center":[25.698565,123.812314,0.000000],"boundingbox_center":[25.698565,123.812314,5.000000],"boundingbox_size":[42.666737,89.283884,10.000000]}

M73 P0 R86
M107
;TYPE:Custom
CALCULATE_PA MATERIAL=PLA BOWDEN_LENGTH=6 LAYER_HEIGHT=0.24 NOZZLE_SIZE=0.4 PRINT_SPEED=95


START_PRINT EXTRUDER=210 BED=65

M107
G21 ; set units to millimeters
G90 ; use absolute coordinates
M83 ; use relative distances for extrusion
; Filament gcode
M104 S210 ; set temperature
M109 S210 ; set temperature and wait for it to be reached
M190 S65 ; set bed temperature and wait for it to be reached
;LAYER_CHANGE
;Z:0.24
;HEIGHT:0.24
;BEFORE_LAYER_CHANGE
G92 E0.0

G1 E-1.5 F3000
G1 Z0.2 F3600000
G1 Z0.24
;AFTER_LAYER_CHANGE
;0.24




CALCULATE_PA MATERIAL=PLA BOWDEN_LENGTH=6.0 LAYER_HEIGHT=0.2 NOZZLE_SIZE=0.4 PRINT_SPEED=95


G92 E0
G1 Z0.44
G1 X10.397 Y74.672
G1 Z0.24
G1 E1.5 F3000
;TYPE:Skirt
;WIDTH:0.4
M107
G1 F2400
G1 X11.268 Y74.551 E0.0306
G1 X40.656 Y74.552 E1.0219
G1 X42.566 Y74.79 E0.06694
G1 X43.501 Y75.044 E0.03368
G1 X45.624 Y75.992 E0.08086
G1 X47.432 Y77.375 E0.07914
G1 X47.94 Y77.912 E0.0257
G1 X49.319 Y79.825 E0.08201
G1 X50.169 Y81.882 E0.07741
G1 X50.336 Y82.569 E0.02457
G1 X50.567 Y84.391 E0.06387
G1 X50.58 Y93.751 E0.32546
G1 X50.314 Y95.888 E0.07489
G1 X50.093 Y96.685 E0.02876
M73 P0 R85
G1 X49.395 Y98.357 E0.063
G1 X48.987 Y99.058 E0.02821
G1 X48.458 Y99.725 E0.02958
G1 X48.911 Y100.177 E0.02226
G1 X50.21 Y101.89 E0.07476
G1 X51.186 Y104.09 E0.08368
G1 X51.391 Y104.84 E0.02704
G1 X51.658 Y106.981 E0.07501
G1 X51.651 Y116.247 E0.32222
G1 X51.415 Y118.159 E0.06697
G1 X51.241 Y118.867 E0.02537
G1 X50.494 Y120.703 E0.06893
G1 X50.153 Y121.316 E0.02438
G1 X48.62 Y123.253 E0.08589
G1 X47.692 Y123.97 E0.0408
G1 X48.553 Y126.013 E0.07709
G1 X48.747 Y126.78 E0.0275
G1 X48.98 Y128.626 E0.0647
G1 X48.985 Y138.056 E0.32792
G1 X48.698 Y140.235 E0.07641
G1 X48.501 Y140.906 E0.02434
G1 X47.773 Y142.639 E0.06533
G1 X47.377 Y143.302 E0.02687
G1 X46.061 Y144.97 E0.07387
G1 X45.169 Y145.674 E0.03952
G1 X46.256 Y146.485 E0.04716
G1 X46.895 Y147.115 E0.03122
G1 X48.226 Y148.907 E0.07762
G1 X49.114 Y150.939 E0.07712
G1 X49.344 Y151.775 E0.03015
G1 X49.602 Y153.875 E0.07356
G1 X49.602 Y163.036 E0.31857
G1 X49.331 Y165.198 E0.07577
G1 X49.15 Y165.868 E0.02413
G1 X48.448 Y167.578 E0.06429
G1 X48.033 Y168.306 E0.02914
G1 X46.485 Y170.224 E0.08569
G1 X44.409 Y171.77 E0.09002
G1 X41.977 Y172.752 E0.09121
G1 X39.565 Y173.08 E0.08464
G1 X10.233 Y173.07 E1.01997
G1 X7.545 Y172.631 E0.09469
G1 X5.172 Y171.551 E0.09067
G1 X3.152 Y169.907 E0.09055
G1 X1.621 Y167.816 E0.09012
G1 X0.693 Y165.511 E0.08641
G1 X0.354 Y163.106 E0.08446
G1 X0.355 Y153.794 E0.32381
G1 X0.661 Y151.515 E0.07995
G1 X1.871 Y148.662 E0.10774
G1 X3.392 Y146.758 E0.08476
G1 X4.176 Y146.152 E0.03446
G1 X2.732 Y145.032 E0.06355
G1 X1.113 Y142.928 E0.09233
G1 X0.121 Y140.581 E0.08859
G1 X-0.257 Y138.037 E0.08943
G1 X-0.256 Y128.715 E0.32414
G1 X0.104 Y126.247 E0.08676
G1 X1.174 Y123.736 E0.09488
G1 X2.62 Y121.848 E0.08271
G1 X3.716 Y120.979 E0.04865
G1 X3.656 Y120.884 E0.00391
G1 X2.797 Y118.794 E0.07857
G1 X2.423 Y116.394 E0.08446
G1 X2.411 Y106.895 E0.33032
G1 X2.804 Y104.304 E0.09111
G1 X3.751 Y102.067 E0.08447
G1 X4.564 Y100.983 E0.04713
G1 X4.092 Y100.583 E0.0215
G1 X2.68 Y98.678 E0.08246
G1 X1.622 Y96.042 E0.09878
G1 X1.332 Y93.817 E0.07802
G1 X1.333 Y84.502 E0.32391
G1 X1.741 Y81.862 E0.0929
G1 X2.768 Y79.514 E0.0891
G1 X4.418 Y77.426 E0.09255
G1 X6.546 Y75.84 E0.09228
G1 X8.945 Y74.874 E0.08993
G1 X10.337 Y74.681 E0.04888
M107
G1 X10.386 Y75.025 F3600000
M107
G1 F2400
G1 X11.28 Y74.899 E0.03142
G1 X40.645 Y74.9 E1.0211
G1 X42.511 Y75.134 E0.06538
G1 X43.372 Y75.368 E0.03102
G1 X45.429 Y76.282 E0.07827
G1 X47.189 Y77.625 E0.07698
G1 X47.664 Y78.125 E0.02401
G1 X49.005 Y79.977 E0.07949
G1 X49.834 Y81.978 E0.07531
G1 X49.991 Y82.623 E0.02308
G1 X50.22 Y84.424 E0.06315
G1 X50.231 Y93.74 E0.32394
G1 X49.97 Y95.832 E0.0733
G1 X49.767 Y96.56 E0.02631
G1 X49.078 Y98.212 E0.06222
G1 X48.706 Y98.851 E0.02572
G1 X47.972 Y99.777 E0.04107
G1 X48.17 Y99.929 E0.00868
G1 X48.641 Y100.398 E0.0231
G1 X49.9 Y102.05 E0.07223
G1 X50.862 Y104.22 E0.08252
G1 X51.047 Y104.896 E0.02438
G1 X51.309 Y106.991 E0.07344
G1 X51.304 Y116.215 E0.32073
G1 X51.07 Y118.105 E0.06624
G1 X50.906 Y118.771 E0.02385
G1 X50.184 Y120.544 E0.06656
G1 X49.871 Y121.111 E0.02252
G1 X48.36 Y123.02 E0.08464
G1 X47.216 Y123.896 E0.05011
G1 X47.392 Y124.149 E0.01072
G1 X48.219 Y126.112 E0.07406
G1 X48.402 Y126.835 E0.02594
G1 X48.631 Y128.637 E0.06318
G1 X48.637 Y138.045 E0.32714
G1 X48.36 Y140.15 E0.07383
G1 X48.176 Y140.781 E0.02284
G1 X47.457 Y142.492 E0.06455
G1 X47.084 Y143.113 E0.02519
G1 X45.801 Y144.738 E0.07198
G1 X44.594 Y145.68 E0.05323
G1 X46.038 Y146.757 E0.06261
G1 X46.64 Y147.354 E0.02949
G1 X47.935 Y149.099 E0.07555
G1 X48.79 Y151.067 E0.07462
G1 X48.999 Y151.831 E0.02754
G1 X49.253 Y153.885 E0.072
G1 X49.253 Y163.025 E0.31782
G1 X48.987 Y165.142 E0.0742
G1 X48.816 Y165.766 E0.02247
G1 X48.13 Y167.435 E0.06278
G1 X47.738 Y168.121 E0.02747
G1 X46.228 Y169.988 E0.08347
G1 X44.219 Y171.477 E0.08696
G1 X41.908 Y172.41 E0.08666
G1 X39.553 Y172.732 E0.08265
G1 X10.247 Y172.722 E1.01907
G1 X7.668 Y172.304 E0.09084
G1 X5.374 Y171.266 E0.08755
G1 X3.42 Y169.682 E0.08746
G1 X1.935 Y167.665 E0.08708
G1 X1.035 Y165.441 E0.08345
G1 X0.702 Y163.093 E0.08244
G1 X0.703 Y153.805 E0.32298
G1 X1.003 Y151.584 E0.07793
G1 X2.158 Y148.861 E0.10286
G1 X3.651 Y146.992 E0.08319
G1 X4.748 Y146.153 E0.04804
G1 X2.994 Y144.801 E0.07702
G1 X1.425 Y142.771 E0.08921
G1 X0.45 Y140.466 E0.08703
G1 X0.091 Y138.024 E0.08581
G1 X0.093 Y128.728 E0.32326
G1 X0.446 Y126.319 E0.08466
G1 X1.464 Y123.931 E0.09028
G1 X2.884 Y122.077 E0.08119
G1 X4.19 Y121.05 E0.05779
G1 X3.971 Y120.734 E0.01335
G1 X3.128 Y118.681 E0.07719
G1 X2.769 Y116.354 E0.08185
G1 X2.759 Y106.908 E0.32849
G1 X3.134 Y104.42 E0.08748
G1 X4.063 Y102.223 E0.08296
G1 X5.043 Y100.928 E0.05645
G1 X4.36 Y100.359 E0.03091
G1 X2.973 Y98.489 E0.08096
G1 X1.965 Y95.975 E0.09419
G1 X1.68 Y93.806 E0.07608
G1 X1.681 Y84.515 E0.32306
G1 X2.07 Y81.98 E0.08919
G1 X3.056 Y79.712 E0.08599
G1 X4.645 Y77.692 E0.0894
G1 X6.698 Y76.155 E0.08915
G1 X9.015 Y75.217 E0.08693
G1 X10.326 Y75.033 E0.04605
M107
G1 X10.375 Y75.377 F3600000
M107
G1 F2400
G1 X11.293 Y75.248 E0.03224
G1 X40.634 Y75.249 E1.0203
G1 X42.455 Y75.478 E0.06382
G1 X43.243 Y75.692 E0.02838
G1 X45.234 Y76.571 E0.07569
G1 X46.946 Y77.875 E0.07483
G1 X47.389 Y78.34 E0.02233
G1 X48.691 Y80.13 E0.07696
G1 X49.499 Y82.074 E0.07321
G1 X49.647 Y82.676 E0.02157
G1 X49.873 Y84.457 E0.06242
G1 X49.883 Y93.729 E0.32242
G1 X49.626 Y95.776 E0.07171
G1 X49.441 Y96.436 E0.02386
G1 X48.771 Y98.047 E0.06067
G1 X48.425 Y98.645 E0.024
G1 X47.479 Y99.839 E0.05298
G1 X47.933 Y100.185 E0.01987
G1 X48.372 Y100.618 E0.02144
G1 X49.61 Y102.245 E0.07109
G1 X50.537 Y104.348 E0.07993
G1 X50.708 Y104.975 E0.02259
G1 X50.961 Y107.002 E0.07103
G1 X50.957 Y116.183 E0.31924
G1 X50.725 Y118.052 E0.0655
G1 X50.57 Y118.675 E0.02232
G1 X49.873 Y120.386 E0.06424
G1 X49.589 Y120.907 E0.02064
G1 X48.101 Y122.786 E0.08336
G1 X46.735 Y123.823 E0.05962
G1 X47.079 Y124.302 E0.02049
G1 X47.884 Y126.211 E0.07203
G1 X48.058 Y126.889 E0.02436
G1 X48.284 Y128.67 E0.06243
G1 X48.288 Y138.034 E0.3256
G1 X48.021 Y140.066 E0.07127
G1 X47.851 Y140.655 E0.02133
G1 X47.14 Y142.345 E0.06376
G1 X46.791 Y142.924 E0.02349
G1 X45.541 Y144.505 E0.0701
G1 X43.975 Y145.72 E0.06892
G1 X44.212 Y145.829 E0.00907
G1 X45.819 Y147.029 E0.06975
G1 X46.385 Y147.591 E0.02775
G1 X47.643 Y149.29 E0.07349
G1 X48.465 Y151.194 E0.07211
G1 X48.66 Y151.91 E0.02582
G1 X48.905 Y153.896 E0.06959
G1 X48.905 Y163.014 E0.31706
G1 X48.642 Y165.086 E0.07262
G1 X48.483 Y165.663 E0.0208
G1 X47.812 Y167.292 E0.06128
G1 X47.442 Y167.936 E0.02581
G1 X46.002 Y169.721 E0.07977
G1 X44.067 Y171.162 E0.08389
G1 X41.839 Y172.068 E0.08363
G1 X39.542 Y172.383 E0.08065
G1 X10.261 Y172.373 E1.01818
G1 X7.79 Y171.976 E0.08702
G1 X5.575 Y170.98 E0.08444
G1 X3.687 Y169.457 E0.08437
G1 X2.25 Y167.514 E0.08404
G1 X1.377 Y165.37 E0.08047
G1 X1.051 Y163.081 E0.08041
G1 X1.052 Y153.817 E0.32214
G1 X1.345 Y151.654 E0.0759
G1 X2.445 Y149.06 E0.09798
G1 X3.91 Y147.226 E0.08161
G1 X5.368 Y146.12 E0.06363
G1 X5.151 Y146.022 E0.0083
G1 X3.255 Y144.57 E0.08302
G1 X1.737 Y142.614 E0.0861
G1 X0.792 Y140.393 E0.08394
G1 X0.44 Y138.012 E0.0837
G1 X0.441 Y128.741 E0.32237
G1 X0.787 Y126.392 E0.08255
G1 X1.754 Y124.126 E0.08569
G1 X3.147 Y122.307 E0.07966
G1 X4.667 Y121.119 E0.06707
G1 X4.286 Y120.583 E0.02286
G1 X3.458 Y118.568 E0.07578
G1 X3.116 Y116.315 E0.07923
G1 X3.108 Y106.92 E0.32668
G1 X3.463 Y104.535 E0.08384
G1 X4.376 Y102.379 E0.08143
G1 X5.523 Y100.873 E0.06584
G1 X4.627 Y100.135 E0.04037
G1 X3.267 Y98.299 E0.07944
G1 X2.308 Y95.908 E0.0896
G1 X2.029 Y93.794 E0.07413
G1 X2.03 Y84.528 E0.3222
G1 X2.399 Y82.098 E0.08549
G1 X3.344 Y79.909 E0.08289
G1 X4.873 Y77.956 E0.08626
G1 X6.85 Y76.469 E0.08602
G1 X9.085 Y75.559 E0.08391
G1 X10.315 Y75.386 E0.04321
M107
G1 X10.364 Y75.73 F3600000
M107
G1 F2400
G1 X11.305 Y75.596 E0.03305
G1 X40.623 Y75.597 E1.01949
G1 X42.4 Y75.823 E0.06226
G1 X43.115 Y76.016 E0.02576
G1 X45.039 Y76.861 E0.0731
G1 X46.704 Y78.126 E0.0727
G1 X47.115 Y78.555 E0.02064
G1 X48.377 Y80.283 E0.07441
G1 X49.164 Y82.171 E0.07112
G1 X49.302 Y82.73 E0.02005
G1 X49.526 Y84.49 E0.06168
G1 X49.534 Y93.719 E0.3209
G1 X49.281 Y95.719 E0.07011
G1 X49.115 Y96.312 E0.02143
G1 X48.463 Y97.883 E0.05914
G1 X48.144 Y98.438 E0.02227
G1 X46.984 Y99.902 E0.06492
G1 X47.696 Y100.441 E0.03106
G1 X48.118 Y100.858 E0.02061
G1 X49.32 Y102.439 E0.06909
G1 X50.213 Y104.476 E0.07733
G1 X50.368 Y105.054 E0.0208
G1 X50.612 Y107.013 E0.06865
G1 X50.61 Y116.151 E0.31774
G1 X50.381 Y117.999 E0.06476
G1 X50.235 Y118.578 E0.02078
G1 X49.554 Y120.245 E0.0626
G1 X49.29 Y120.726 E0.01909
G1 X47.841 Y122.552 E0.08106
G1 X46.252 Y123.751 E0.06924
G1 X46.765 Y124.456 E0.03033
G1 X47.55 Y126.31 E0.07
G1 X47.714 Y126.944 E0.02276
G1 X47.937 Y128.703 E0.06166
G1 X47.94 Y138.022 E0.32406
G1 X47.683 Y139.982 E0.06872
G1 X47.525 Y140.529 E0.01981
G1 X46.824 Y142.199 E0.06296
G1 X46.511 Y142.716 E0.02102
G1 X45.281 Y144.272 E0.06898
G1 X43.4 Y145.723 E0.0826
G1 X43.263 Y145.787 E0.00524
G1 X44.019 Y146.12 E0.02872
G1 X45.601 Y147.3 E0.06864
G1 X46.113 Y147.81 E0.02511
G1 X47.331 Y149.447 E0.07094
G1 X48.14 Y151.32 E0.07097
G1 X48.32 Y151.989 E0.02408
G1 X48.556 Y153.907 E0.0672
G1 X48.556 Y163.003 E0.31631
G1 X48.298 Y165.029 E0.07103
G1 X48.15 Y165.559 E0.01912
G1 X47.494 Y167.149 E0.0598
G1 X47.147 Y167.75 E0.02414
G1 X45.745 Y169.485 E0.07759
G1 X43.915 Y170.848 E0.07933
G1 X41.77 Y171.725 E0.08059
G1 X39.53 Y172.035 E0.07864
G1 X10.275 Y172.025 E1.01728
G1 X7.911 Y171.649 E0.08321
G1 X5.776 Y170.695 E0.08132
G1 X3.953 Y169.232 E0.08128
G1 X2.564 Y167.361 E0.081
G1 X1.719 Y165.3 E0.07748
G1 X1.399 Y163.069 E0.07837
G1 X1.4 Y153.829 E0.3213
G1 X1.687 Y151.724 E0.07386
G1 X2.732 Y149.259 E0.09311
G1 X4.168 Y147.461 E0.08002
G1 X5.995 Y146.085 E0.07951
G1 X6.077 Y146.044 E0.0032
G1 X5.345 Y145.732 E0.02768
G1 X3.485 Y144.307 E0.08148
G1 X2.026 Y142.419 E0.08297
G1 X1.121 Y140.278 E0.08083
G1 X0.788 Y137.999 E0.08008
G1 X0.79 Y128.754 E0.32148
G1 X1.129 Y126.465 E0.08044
G1 X2.043 Y124.32 E0.0811
G1 X3.41 Y122.537 E0.07813
G1 X5.146 Y121.188 E0.07645
G1 X4.6 Y120.432 E0.03242
G1 X3.788 Y118.455 E0.07433
G1 X3.462 Y116.276 E0.0766
G1 X3.456 Y106.933 E0.32489
G1 X3.793 Y104.651 E0.08021
G1 X4.688 Y102.535 E0.07989
G1 X6.006 Y100.816 E0.0753
G1 X4.894 Y99.91 E0.04988
G1 X3.56 Y98.11 E0.07791
G1 X2.65 Y95.84 E0.08502
G1 X2.377 Y93.783 E0.07217
G1 X2.378 Y84.541 E0.32135
G1 X2.728 Y82.215 E0.08182
G1 X3.632 Y80.106 E0.07979
G1 X5.101 Y78.221 E0.08311
G1 X7.003 Y76.783 E0.08289
G1 X9.155 Y75.901 E0.08087
G1 X10.304 Y75.738 E0.04037
M107
G1 X10.353 Y76.082 F3600000
M107
G1 F2400
G1 X11.317 Y75.945 E0.03385
G1 X40.59 Y75.944 E1.01792
G1 X42.344 Y76.167 E0.06146
G1 X42.987 Y76.34 E0.02317
G1 X44.845 Y77.151 E0.0705
G1 X46.462 Y78.378 E0.07057
G1 X46.841 Y78.77 E0.01895
G1 X48.063 Y80.436 E0.07186
