; generated by SuperSlicer 2.5.59.8 on 2024-03-16 at 02:08:38 UTC


;
;

;
;

;
;

;
;

;
;
; 

; external perimeters extrusion width = 0.40mm
; perimeters extrusion width = 0.40mm
; infill extrusion width = 0.40mm
; solid infill extrusion width = 0.40mm
; top infill extrusion width = 0.40mm

; external perimeters extrusion width = 0.40mm
; perimeters extrusion width = 0.40mm
; infill extrusion width = 0.40mm
; solid infill extrusion width = 0.40mm
; top infill extrusion width = 0.40mm

; external perimeters extrusion width = 0.40mm
; perimeters extrusion width = 0.40mm
; infill extrusion width = 0.40mm
; solid infill extrusion width = 0.40mm
; top infill extrusion width = 0.40mm

; external perimeters extrusion width = 0.40mm
; perimeters extrusion width = 0.40mm
; infill extrusion width = 0.40mm
; solid infill extrusion width = 0.40mm
; top infill extrusion width = 0.40mm

; object:{"name":"plus_only_bed_raiser_1","id":"plus_only_bed_raiser_1.stl id:0 copy 0","object_center":[43.037834,97.193306,0.000000],"boundingbox_center":[43.037834,97.193306,5.000000],"boundingbox_size":[40.000000,20.000153,10.000000]}
EXCLUDE_OBJECT_DEFINE NAME=plus_only_bed_raiser_1_stl_id_0_copy_0 CENTER=43.037834,97.193306 POLYGON=[[23.04,92.57],[23.22,91.18],[23.76,89.88],[24.61,88.77],[25.73,87.91],[27.03,87.38],[28.42,87.19],[57.66,87.19],[59.05,87.38],[60.35,87.91],[61.46,88.77],[62.32,89.88],[62.85,91.18],[63.04,92.57],[63.04,101.81],[62.85,103.21],[62.32,104.50],[61.46,105.62],[60.35,106.47],[59.05,107.01],[57.66,107.19],[28.42,107.19],[27.03,107.01],[25.73,106.47],[24.61,105.62],[23.76,104.50],[23.22,103.21],[23.04,101.81],[23.04,92.57]]
; object:{"name":"plus_only_bed_raiser_2","id":"plus_only_bed_raiser_2.stl id:1 copy 0","object_center":[43.037834,123.193458,0.000000],"boundingbox_center":[43.037834,123.193458,5.000000],"boundingbox_size":[40.000000,20.000153,10.000000]}
EXCLUDE_OBJECT_DEFINE NAME=plus_only_bed_raiser_2_stl_id_1_copy_0 CENTER=43.037834,123.193458 POLYGON=[[23.04,118.57],[23.22,117.18],[23.76,115.88],[24.61,114.77],[25.73,113.91],[27.03,113.38],[28.42,113.19],[57.66,113.19],[59.05,113.38],[60.35,113.91],[61.46,114.77],[62.32,115.88],[62.85,117.18],[63.04,118.57],[63.04,127.81],[62.85,129.21],[62.32,130.50],[61.46,131.62],[60.35,132.47],[59.05,133.01],[57.66,133.19],[28.42,133.19],[27.03,133.01],[25.73,132.47],[24.61,131.62],[23.76,130.50],[23.22,129.21],[23.04,127.81],[23.04,118.57]]
; object:{"name":"plus_only_bed_raiser_3","id":"plus_only_bed_raiser_3.stl id:2 copy 0","object_center":[89.037834,97.193306,0.000000],"boundingbox_center":[89.037834,97.193306,5.000000],"boundingbox_size":[40.000000,20.000153,10.000000]}
EXCLUDE_OBJECT_DEFINE NAME=plus_only_bed_raiser_3_stl_id_2_copy_0 CENTER=89.037834,97.193306 POLYGON=[[69.04,92.57],[69.22,91.18],[69.76,89.88],[70.61,88.77],[71.73,87.91],[73.03,87.38],[74.42,87.19],[103.66,87.19],[105.05,87.38],[106.35,87.91],[107.46,88.77],[108.32,89.88],[108.85,91.18],[109.04,92.57],[109.04,101.81],[108.85,103.21],[108.32,104.50],[107.46,105.62],[106.35,106.47],[105.05,107.01],[103.66,107.19],[74.42,107.19],[73.03,107.01],[71.73,106.47],[70.61,105.62],[69.76,104.50],[69.22,103.21],[69.04,101.81],[69.04,92.57]]
; object:{"name":"plus_only_bed_raiser_4","id":"plus_only_bed_raiser_4.stl id:3 copy 0","object_center":[89.037834,123.193459,0.000000],"boundingbox_center":[89.037834,123.193459,5.000000],"boundingbox_size":[40.000000,20.000153,10.000000]}
EXCLUDE_OBJECT_DEFINE NAME=plus_only_bed_raiser_4_stl_id_3_copy_0 CENTER=89.037834,123.193459 POLYGON=[[69.04,118.57],[69.22,117.18],[69.76,115.88],[70.61,114.77],[71.73,113.91],[73.03,113.38],[74.42,113.19],[103.66,113.19],[105.05,113.38],[106.35,113.91],[107.46,114.77],[108.32,115.88],[108.85,117.18],[109.04,118.57],[109.04,127.81],[108.85,129.21],[108.32,130.50],[107.46,131.62],[106.35,132.47],[105.05,133.01],[103.66,133.19],[74.42,133.19],[73.03,133.01],[71.73,132.47],[70.61,131.62],[69.76,130.50],[69.22,129.21],[69.04,127.81],[69.04,118.57]]
; plater:{"center":[66.037834,110.193383,0.000000],"boundingbox_center":[66.037834,110.193383,5.000000],"boundingbox_size":[86.000000,46.000306,10.000000]}

M73 P0 R123
M107
;TYPE:Custom
CALCULATE_PA MATERIAL=PLA BOWDEN_LENGTH=6 LAYER_HEIGHT=0.24 NOZZLE_SIZE=0.4 PRINT_SPEED=95


START_PRINT EXTRUDER=260 BED=95

M107
G21 ; set units to millimeters
G90 ; use absolute coordinates
M83 ; use relative distances for extrusion
; Filament gcode
M104 S260 ; set temperature
M109 S260 ; set temperature and wait for it to be reached
M190 S95 ; set bed temperature and wait for it to be reached
;LAYER_CHANGE
;Z:0.24
;HEIGHT:0.24
;BEFORE_LAYER_CHANGE
G92 E0.0

G1 E-1.5 F3000
G1 Z0.2 F3600000
G1 Z0.24
;AFTER_LAYER_CHANGE
;0.24




CALCULATE_PA MATERIAL=PLA BOWDEN_LENGTH=6.0 LAYER_HEIGHT=0.2 NOZZLE_SIZE=0.4 PRINT_SPEED=95


G92 E0
G1 Z0.44
G1 X25.859 Y82.943
G1 Z0.24
G1 E1.5 F3000
;TYPE:Skirt
;WIDTH:0.4
M107
G1 F2400
G1 X28.422 Y82.569 E0.09005
G1 X57.693 Y82.572 E1.01785
G1 X59.645 Y82.812 E0.06838
G1 X60.477 Y83.029 E0.02992
G1 X62.585 Y83.943 E0.07988
G1 X64.335 Y85.239 E0.07571
G1 X64.973 Y85.874 E0.0313
G1 X66.024 Y87.277 E0.06096
G1 X67.521 Y85.431 E0.08264
G1 X69.558 Y83.904 E0.08853
G1 X71.903 Y82.931 E0.08828
G1 X74.397 Y82.571 E0.08763
G1 X103.671 Y82.57 E1.01795
G1 X105.646 Y82.812 E0.06916
G1 X106.578 Y83.064 E0.03357
G1 X108.621 Y83.964 E0.07765
G1 X110.397 Y85.293 E0.07712
G1 X111.01 Y85.917 E0.03041
G1 X112.329 Y87.717 E0.0776
G1 X113.203 Y89.754 E0.0771
G1 X113.42 Y90.589 E0.02997
G1 X113.66 Y92.55 E0.06873
G1 X113.664 Y101.775 E0.32078
G1 X113.382 Y103.991 E0.07767
G1 X113.196 Y104.651 E0.02384
G1 X112.509 Y106.319 E0.06274
G1 X112.046 Y107.116 E0.03202
G1 X110.548 Y108.962 E0.0827
G1 X108.924 Y110.19 E0.07077
G1 X110.336 Y111.24 E0.06119
G1 X111.007 Y111.914 E0.03306
G1 X112.286 Y113.643 E0.0748
G1 X113.202 Y115.754 E0.07999
G1 X113.42 Y116.589 E0.03002
G1 X113.662 Y118.593 E0.0702
G1 X113.661 Y127.821 E0.32087
G1 X113.381 Y129.995 E0.07625
G1 X113.188 Y130.673 E0.0245
G1 X112.497 Y132.343 E0.06286
G1 X112.044 Y133.119 E0.03124
G1 X110.513 Y134.995 E0.08419
G1 X108.551 Y136.464 E0.08524
G1 X106.215 Y137.444 E0.08806
G1 X103.653 Y137.818 E0.09006
G1 X74.214 Y137.803 E1.02369
G1 X71.699 Y137.397 E0.08855
G1 X69.316 Y136.34 E0.09067
G1 X67.282 Y134.717 E0.09048
G1 X66.056 Y133.1 E0.07059
G1 X64.481 Y135.026 E0.08651
G1 X62.473 Y136.508 E0.0868
G1 X60.17 Y137.456 E0.0866
G1 X57.677 Y137.816 E0.08759
G1 X28.268 Y137.808 E1.02261
G1 X25.746 Y137.411 E0.0888
G1 X23.397 Y136.389 E0.08905
G1 X21.38 Y134.817 E0.08892
G1 X19.798 Y132.759 E0.09026
G1 X18.791 Y130.384 E0.08972
G1 X18.416 Y127.846 E0.08921
G1 X18.418 Y118.51 E0.32463
G1 X18.722 Y116.255 E0.07911
G1 X19.934 Y113.399 E0.10789
G1 X21.519 Y111.433 E0.08783
G1 X23.139 Y110.206 E0.07067
G1 X21.251 Y108.685 E0.0843
G1 X19.774 Y106.717 E0.08558
G1 X18.779 Y104.34 E0.08959
G1 X18.416 Y101.846 E0.08766
G1 X18.422 Y92.46 E0.32636
G1 X18.76 Y90.118 E0.08229
G1 X19.885 Y87.481 E0.09969
G1 X21.487 Y85.464 E0.08959
G1 X23.519 Y83.927 E0.08858
G1 X25.804 Y82.967 E0.08619
M107
;WIPE_START
G1 F2880000
G1 X23.519 Y83.927 E-0.00245
G1 X21.487 Y85.464 E-0.00252
G1 X19.885 Y87.481 E-0.00255
G1 X18.76 Y90.118 E-0.00284
G1 X18.422 Y92.46 E-0.00234
G1 X18.416 Y101.846 E-0.00929
G1 X18.779 Y104.34 E-0.00249
G1 X19.774 Y106.717 E-0.00255
G1 X21.251 Y108.685 E-0.00244
G1 X23.139 Y110.206 E-0.0024
G1 X21.519 Y111.433 E-0.00201
G1 X19.934 Y113.399 E-0.0025
G1 X18.722 Y116.255 E-0.00307
G1 X18.418 Y118.51 E-0.00225
G1 X18.416 Y127.846 E-0.00924
G1 X18.791 Y130.384 E-0.00254
G1 X19.798 Y132.759 E-0.00255
G1 X21.38 Y134.817 E-0.00257
G1 X23.397 Y136.389 E-0.00253
G1 X25.746 Y137.411 E-0.00253
G1 X28.268 Y137.808 E-0.00253
G1 X57.677 Y137.816 E-0.0291
G1 X60.17 Y137.456 E-0.00249
G1 X62.473 Y136.508 E-0.00246
G1 X64.481 Y135.026 E-0.00247
G1 X66.056 Y133.1 E-0.00246
G1 X67.282 Y134.717 E-0.00201
G1 X69.316 Y136.34 E-0.00257
G1 X71.699 Y137.397 E-0.00258
G1 X74.214 Y137.803 E-0.00252
G1 X103.653 Y137.818 E-0.02913
G1 X106.215 Y137.444 E-0.00256
G1 X108.551 Y136.464 E-0.00251
G1 X110.513 Y134.995 E-0.00243
G1 X112.044 Y133.119 E-0.0024
G1 X112.497 Y132.343 E-0.00089
G1 X113.188 Y130.673 E-0.00179
G1 X113.381 Y129.995 E-0.0007
G1 X113.661 Y127.821 E-0.00217
G1 X113.662 Y118.593 E-0.00913
G1 X113.42 Y116.589 E-0.002
G1 X113.202 Y115.754 E-0.00085
G1 X112.286 Y113.643 E-0.00228
G1 X111.007 Y111.914 E-0.00213
G1 X110.336 Y111.24 E-0.00094
G1 X108.924 Y110.19 E-0.00174
G1 X110.548 Y108.962 E-0.00201
G1 X112.046 Y107.116 E-0.00235
G1 X112.509 Y106.319 E-0.00091
G1 X113.196 Y104.651 E-0.00179
G1 X113.382 Y103.991 E-0.00068
G1 X113.664 Y101.775 E-0.00221
G1 X113.66 Y92.55 E-0.00913
G1 X113.42 Y90.589 E-0.00196
G1 X113.203 Y89.754 E-0.00085
G1 X112.329 Y87.717 E-0.00219
G1 X111.01 Y85.917 E-0.00221
G1 X110.397 Y85.293 E-0.00087
G1 X108.621 Y83.964 E-0.00219
G1 X106.578 Y83.064 E-0.00221
G1 X105.646 Y82.812 E-0.00096
G1 X103.671 Y82.57 E-0.00197
G1 X74.397 Y82.571 E-0.02897
G1 X71.903 Y82.931 E-0.00249
G1 X69.558 Y83.904 E-0.00251
G1 X67.521 Y85.431 E-0.00252
G1 X66.024 Y87.277 E-0.00235
G1 X64.973 Y85.874 E-0.00173
G1 X64.335 Y85.239 E-0.00089
G1 X62.585 Y83.943 E-0.00215
G1 X60.477 Y83.029 E-0.00227
G1 X59.645 Y82.812 E-0.00085
G1 X57.693 Y82.572 E-0.00195
G1 X28.422 Y82.569 E-0.02897
G1 X25.859 Y82.943 E-0.00256
;WIPE_END
G1 E-1.20678 F3000
G1 Z0.44 F3600000
G1 X62.32 Y110.194
G1 Z0.24
G1 E1.5 F3000
M107
G1 F2400
G1 X62.374 Y110.163 E0.00215
G1 X62.419 Y110.134 E0.00187
G1 X64.205 Y108.804 E0.07744
G1 X64.246 Y108.769 E0.00189
G1 X64.301 Y108.716 E0.00264
G1 X64.338 Y108.676 E0.00189
G1 X65.73 Y106.959 E0.07686
G1 X65.746 Y106.938 E0.00092
G1 X65.772 Y106.9 E0.00162
G1 X65.79 Y106.872 E0.00115
G1 X66.03 Y106.462 E0.01652
G1 X66.074 Y106.539 E0.0031
G1 X66.104 Y106.585 E0.00191
G1 X67.501 Y108.437 E0.08066
G1 X67.537 Y108.479 E0.00194
G1 X67.592 Y108.535 E0.00271
G1 X67.633 Y108.572 E0.00194
G1 X69.459 Y110.015 E0.08091
G1 X69.504 Y110.047 E0.00194
G1 X69.581 Y110.092 E0.00311
G1 X69.621 Y110.113 E0.00155
G1 X69.778 Y110.181 E0.00594
G1 X69.698 Y110.226 E0.00318
G1 X69.652 Y110.256 E0.00189
G1 X67.831 Y111.621 E0.07912
G1 X67.79 Y111.656 E0.0019
G1 X67.735 Y111.709 E0.00266
G1 X67.698 Y111.75 E0.0019
G1 X66.257 Y113.543 E0.08
G1 X66.23 Y113.583 E0.00167
G1 X66.187 Y113.655 E0.00293
G1 X66.165 Y113.698 E0.00167
G1 X66.054 Y113.959 E0.00987
G1 X66.026 Y113.895 E0.00244
G1 X66.008 Y113.859 E0.00141
G1 X65.968 Y113.788 E0.00282
G1 X65.94 Y113.746 E0.00176
G1 X64.744 Y112.144 E0.0695
G1 X64.725 Y112.12 E0.00109
G1 X64.696 Y112.086 E0.00153
G1 X64.674 Y112.063 E0.00109
G1 X64.168 Y111.557 E0.02492
G1 X64.144 Y111.535 E0.00111
G1 X64.11 Y111.506 E0.00156
G1 X64.091 Y111.49 E0.00089
G1 X62.448 Y110.27 E0.07115
G1 X62.414 Y110.247 E0.00141
G1 X62.372 Y110.223 E0.00167
M107
;WIPE_START
G1 F2880000
G1 X62.405 Y110.242 E-0.00004
G1 X62.414 Y110.247 E-0.00001
G1 X62.439 Y110.264 E-0.00003
G1 X62.448 Y110.27 E-0.00001
G1 X64.085 Y111.486 E-0.00202
G1 X64.091 Y111.49 E-0.00001
G1 X64.105 Y111.502 E-0.00002
G1 X64.11 Y111.506 E-0.00001
G1 X64.144 Y111.535 E-0.00004
G1 X64.149 Y111.539 E-0.00001
G1 X64.163 Y111.552 E-0.00002
G1 X64.168 Y111.557 E-0.00001
G1 X64.674 Y112.063 E-0.00071
G1 X64.679 Y112.068 E-0.00001
G1 X64.692 Y112.082 E-0.00002
G1 X64.696 Y112.086 E-0.00001
G1 X64.725 Y112.12 E-0.00004
G1 X64.729 Y112.124 E-0.00001
G1 X64.74 Y112.139 E-0.00002
G1 X64.744 Y112.144 E-0.00001
G1 X65.94 Y113.746 E-0.00198
G1 X65.945 Y113.754 E-0.00001
G1 X65.962 Y113.78 E-0.00003
G1 X65.968 Y113.788 E-0.00001
G1 X66.003 Y113.85 E-0.00007
G1 X66.008 Y113.859 E-0.00001
G1 X66.022 Y113.886 E-0.00003
G1 X66.026 Y113.895 E-0.00001
G1 X66.054 Y113.959 E-0.00007
G1 X66.16 Y113.709 E-0.00027
G1 X66.165 Y113.698 E-0.00001
G1 X66.181 Y113.666 E-0.00004
G1 X66.187 Y113.655 E-0.00001
G1 X66.23 Y113.583 E-0.00008
G1 X66.237 Y113.573 E-0.00001
G1 X66.257 Y113.543 E-0.00004
G1 X66.265 Y113.533 E-0.00001
G1 X67.698 Y111.75 E-0.00226
G1 X67.705 Y111.741 E-0.00001
G1 X67.727 Y111.717 E-0.00003
G1 X67.735 Y111.709 E-0.00001
G1 X67.79 Y111.656 E-0.00008
G1 X67.798 Y111.649 E-0.00001
G1 X67.823 Y111.627 E-0.00003
G1 X67.831 Y111.621 E-0.00001
G1 X69.652 Y110.256 E-0.00225
G1 X69.661 Y110.25 E-0.00001
G1 X69.688 Y110.232 E-0.00003
G1 X69.698 Y110.226 E-0.00001
G1 X69.764 Y110.188 E-0.00008
G1 X69.774 Y110.183 E-0.00001
G1 X69.778 Y110.181 E-0
G1 X69.621 Y110.113 E-0.00017
G1 X69.611 Y110.108 E-0.00001
G1 X69.581 Y110.092 E-0.00003
G1 X69.571 Y110.087 E-0.00001
G1 X69.504 Y110.047 E-0.00008
G1 X69.495 Y110.041 E-0.00001
G1 X69.468 Y110.022 E-0.00003
G1 X69.459 Y110.015 E-0.00001
G1 X67.633 Y108.572 E-0.0023
G1 X67.625 Y108.565 E-0.00001
G1 X67.6 Y108.543 E-0.00003
G1 X67.592 Y108.535 E-0.00001
G1 X67.537 Y108.479 E-0.00008
G1 X67.53 Y108.471 E-0.00001
G1 X67.508 Y108.446 E-0.00003
G1 X67.501 Y108.437 E-0.00001
G1 X66.104 Y106.585 E-0.0023
G1 X66.098 Y106.576 E-0.00001
G1 X66.079 Y106.549 E-0.00003
G1 X66.074 Y106.539 E-0.00001
G1 X66.035 Y106.472 E-0.00008
G1 X66.03 Y106.463 E-0.00001
G1 X66.03 Y106.462 E-0
G1 X65.79 Y106.872 E-0.00047
G1 X65.786 Y106.877 E-0.00001
G1 X65.776 Y106.894 E-0.00002
G1 X65.772 Y106.9 E-0.00001
G1 X65.746 Y106.938 E-0.00005
G1 X65.742 Y106.943 E-0.00001
G1 X65.73 Y106.959 E-0.00002
G1 X65.726 Y106.965 E-0.00001
G1 X64.338 Y108.676 E-0.00218
G1 X64.331 Y108.684 E-0.00001
G1 X64.309 Y108.708 E-0.00003
G1 X64.301 Y108.716 E-0.00001
G1 X64.246 Y108.769 E-0.00008
G1 X64.238 Y108.776 E-0.00001
G1 X64.213 Y108.797 E-0.00003
G1 X64.205 Y108.804 E-0.00001
G1 X62.419 Y110.134 E-0.0022
G1 X62.41 Y110.14 E-0.00001
G1 X62.383 Y110.158 E-0.00003
G1 X62.374 Y110.163 E-0.00001
G1 X62.32 Y110.194 E-0.00006
;WIPE_END
G1 E-1.47889 F3000
G1 Z0.44 F3600000
G1 X66.034 Y132.451
G1 Z0.24
G1 E1.5 F3000
M107
G1 F2400
G1 X65.751 Y132.931 E0.01939
G1 X64.256 Y134.759 E0.0821
G1 X62.32 Y136.194 E0.08381
G1 X60.057 Y137.126 E0.08509
G1 X57.64 Y137.469 E0.0849
G1 X28.282 Y137.459 E1.02086
G1 X25.822 Y137.07 E0.08661
G1 X23.557 Y136.079 E0.08597
G1 X21.613 Y134.556 E0.08588
G1 X20.089 Y132.565 E0.08719
G1 X19.121 Y130.269 E0.08665
G1 X18.764 Y127.833 E0.0856
G1 X18.767 Y118.522 E0.32378
G1 X19.064 Y116.325 E0.07708
G1 X20.22 Y113.599 E0.10297
G1 X21.777 Y111.668 E0.08624
G1 X23.672 Y110.241 E0.0825
G1 X23.8 Y110.181 E0.00491
G1 X23.478 Y110.031 E0.01234
G1 X21.517 Y108.458 E0.08741
G1 X20.065 Y106.525 E0.08406
G1 X19.121 Y104.268 E0.08508
G1 X18.764 Y101.833 E0.08558
G1 X18.768 Y92.497 E0.32464
G1 X19.089 Y90.234 E0.07949
G1 X20.196 Y87.64 E0.09807
G1 X21.746 Y85.698 E0.08638
G1 X23.711 Y84.218 E0.08555
G1 X25.973 Y83.273 E0.08525
G1 X28.434 Y82.918 E0.08647
G1 X57.661 Y82.919 E1.0163
G1 X59.59 Y83.156 E0.0676
G1 X60.376 Y83.362 E0.02824
G1 X62.428 Y84.255 E0.0778
G1 X64.098 Y85.495 E0.07235
G1 X64.701 Y86.093 E0.02954
G1 X65.954 Y87.765 E0.07266
G1 X66.055 Y87.982 E0.0083
G1 X66.247 Y87.555 E0.01628
G1 X67.748 Y85.697 E0.08306
G1 X69.713 Y84.217 E0.08552
G1 X71.975 Y83.273 E0.08524
G1 X74.435 Y82.918 E0.08643
G1 X103.64 Y82.918 E1.01554
G1 X105.591 Y83.156 E0.06836
G1 X106.45 Y83.388 E0.03093
G1 X108.428 Y84.255 E0.07512
G1 X110.158 Y85.547 E0.07506
G1 X110.736 Y86.133 E0.02865
G1 X112.016 Y87.873 E0.07509
G1 X112.869 Y89.855 E0.07505
G1 X113.075 Y90.643 E0.0283
G1 X113.312 Y92.582 E0.06795
G1 X113.315 Y101.765 E0.3193
G1 X113.043 Y103.91 E0.07519
G1 X112.87 Y104.528 E0.02232
G1 X112.191 Y106.176 E0.06197
G1 X111.767 Y106.907 E0.02938
G1 X110.291 Y108.726 E0.08148
G1 X108.4 Y110.148 E0.08228
G1 X108.303 Y110.195 E0.00373
G1 X108.428 Y110.255 E0.00483
G1 X110.118 Y111.512 E0.07323
G1 X110.735 Y112.132 E0.0304
G1 X111.975 Y113.801 E0.0723
G1 X112.869 Y115.855 E0.0779
G1 X113.075 Y116.643 E0.02832
G1 X113.314 Y118.604 E0.06869
G1 X113.314 Y127.787 E0.31934
G1 X113.037 Y129.938 E0.0754
G1 X112.856 Y130.568 E0.02278
G1 X112.18 Y132.199 E0.06141
G1 X111.75 Y132.931 E0.02953
G1 X110.257 Y134.758 E0.08204
G1 X108.36 Y136.172 E0.08228
G1 X106.101 Y137.114 E0.08508
G1 X103.64 Y137.469 E0.08647
