; generated by SuperSlicer 2.5.59 on 2024-02-13 at 04:33:59 UTC


;
;

;
;
; 

; external perimeters extrusion width = 0.56mm
; perimeters extrusion width = 0.56mm
; infill extrusion width = 0.56mm
; solid infill extrusion width = 0.56mm
; top infill extrusion width = 0.56mm
; first layer extrusion width = 0.56mm


M73 P0 R15
;TYPE:Custom
CALCULATE_PA MATERIAL=PLA BOWDEN_LENGTH=6 LAYER_HEIGHT=0.2 NOZZLE_SIZE=0.4 PRINT_SPEED=50
START_PRINT EXTRUDER=225 BED=60 CHAMBER=0 FILAMENT=PLA
; Filament gcode
;_TOOLCHANGE 0
M107
;LAYER_CHANGE
;Z:0.2
;HEIGHT:0.2
;print_cfg variables
SET_GCODE_VARIABLE MACRO=_printcfg VARIABLE=material_type VALUE="'PLA'"
SET_GCODE_VARIABLE MACRO=_printcfg VARIABLE=material_color VALUE=16726422
SET_GCODE_VARIABLE MACRO=_printcfg VARIABLE=layer_count VALUE=23
SET_GCODE_VARIABLE MACRO=_printcfg VARIABLE=layer_num VALUE=0
SET_GCODE_VARIABLE MACRO=_printcfg VARIABLE=layer_z VALUE=0.2
G1 Z0.2 F180000
;print_cfg variables
SET_GCODE_VARIABLE MACRO=_printcfg VARIABLE=material_type VALUE="'PLA'"
SET_GCODE_VARIABLE MACRO=_printcfg VARIABLE=material_color VALUE=16726422
SET_GCODE_VARIABLE MACRO=_printcfg VARIABLE=layer_count VALUE=23
SET_GCODE_VARIABLE MACRO=_printcfg VARIABLE=layer_num VALUE=0
SET_GCODE_VARIABLE MACRO=_printcfg VARIABLE=layer_z VALUE=0.2

; Increment layer in Klipper
SET_PRINT_STATS_INFO TOTAL_LAYER=23 CURRENT_LAYER=0
_BEGIN_LAYER
M73 P2 R14
G1 E-2 F2400
M204 S1500
G1 Z1 F180000
G1 X28.376 Y42.353
G1 Z0.2
G1 E0 F3600
;TYPE:Skirt
;WIDTH:0.48
M107
G1 F1200
G1 X17.355 Y53.377 E0.60334
G1 X16.679 Y54.309 E0.64792
G1 X16.284 Y55.961 E0.71366
G1 X16.284 Y169.039 E5.09039
G1 X16.466 Y170.176 E5.13498
G1 X17.355 Y171.623 E5.20072
M73 P3 R14
G1 X28.376 Y182.647 E5.80405
G1 X29.309 Y183.323 E5.84866
G1 X30.961 Y183.718 E5.9144
G1 X144.039 Y183.718 E10.29114
G1 X145.177 Y183.536 E10.33575
G1 X146.624 Y182.647 E10.40148
G1 X157.645 Y171.623 E11.00482
G1 X158.321 Y170.691 E11.04941
G1 X158.716 Y169.039 E11.11514
G1 X158.716 Y55.961 E15.49188
M73 P4 R14
G1 X158.534 Y54.824 E15.53646
G1 X157.645 Y53.377 E15.6022
G1 X146.624 Y42.353 E16.20554
G1 X145.691 Y41.677 E16.25015
G1 X144.039 Y41.282 E16.31588
G1 X30.961 Y41.282 E20.69262
M73 P5 R14
G1 X29.823 Y41.464 E20.73723
G1 X28.376 Y42.353 E20.80297
M107
G1 X28.685 Y42.662 F180000
M107
G1 F1200
G1 X17.664 Y53.686 E21.4063
G1 X17.115 Y54.419 E21.44174
G1 X16.721 Y55.961 E21.50337
G1 X16.721 Y169.039 E25.8801
G1 X16.852 Y169.945 E25.91554
G1 X17.664 Y171.314 E25.97716
G1 X28.685 Y182.338 E26.5805
M73 P6 R14
G1 X29.419 Y182.887 E26.61596
G1 X30.961 Y183.28 E26.67759
G1 X144.039 Y183.28 E31.05432
G1 X144.946 Y183.15 E31.08978
G1 X146.315 Y182.338 E31.15141
G1 X157.336 Y171.314 E31.75474
G1 X157.885 Y170.581 E31.79018
G1 X158.279 Y169.039 E31.8518
G1 X158.279 Y55.961 E36.22854
M73 P7 R14
G1 X158.148 Y55.055 E36.26398
G1 X157.336 Y53.686 E36.3256
G1 X146.315 Y42.662 E36.92894
G1 X145.581 Y42.113 E36.9644
G1 X144.039 Y41.72 E37.02602
G1 X30.961 Y41.72 E41.40276
M73 P8 R13
G1 X30.054 Y41.85 E41.43822
G1 X28.685 Y42.662 E41.49984
M107
G92 E0
;WIPE_START
G1 F144000
G1 X30.054 Y41.85 E-0.02521
G1 X30.961 Y41.72 E-0.03971
G1 X144.039 Y41.72 E-1.83011
G1 X145.581 Y42.113 E-1.85532
G1 X146.315 Y42.662 E-1.86982
G1 X147.662 Y44.01 E-1.9
;WIPE_END
G1 E-2 F2400
G1 Z1 F180000
G1 X28.779 Y157.59
G1 Z0.2
G1 E0 F3600
;WIDTH:0.56292
M107
G1 F1200
G1 X38.661 Y157.582 E0.45505
G1 X39.368 Y157.739 E0.48837
G1 X40.072 Y158.029 E0.52347
G1 X40.86 Y158.569 E0.56742
G1 X41.43 Y159.139 E0.60454
G1 X41.857 Y159.725 E0.63797
G1 X42.217 Y160.504 E0.67745
G1 X42.397 Y161.172 E0.70931
G1 X42.44 Y171.426 E1.18151
G1 X42.303 Y172.227 E1.21891
G1 X41.976 Y173.063 E1.26026
G1 X41.485 Y173.794 E1.30081
G1 X40.795 Y174.487 E1.34583
G1 X40.12 Y174.944 E1.38339
G1 X39.334 Y175.273 E1.42261
G1 X38.489 Y175.435 E1.46223
G1 X34.792 Y175.439 E1.63249
G1 X33.756 Y176.469 E1.69976
G1 X33.092 Y176.926 E1.7369
G1 X32.411 Y177.227 E1.77116
G1 X31.703 Y177.404 E1.80478
G1 X30.414 Y177.427 E1.86413
G1 X29.641 Y177.269 E1.90049
G1 X28.913 Y176.972 E1.93667
G1 X28.122 Y176.43 E1.98083
G1 X23.563 Y171.871 E2.27773
G1 X22.997 Y171.023 E2.32466
G1 X22.761 Y170.446 E2.35339
G1 X22.607 Y169.85 E2.38172
G1 X22.587 Y168.371 E2.44986
G1 X22.747 Y167.672 E2.48287
G1 X23.042 Y166.969 E2.51795
G1 X23.527 Y166.252 E2.5578
G1 X24.56 Y165.213 E2.62529
G1 X24.564 Y161.525 E2.79512
G1 X24.711 Y160.722 E2.83272
G1 X25.025 Y159.936 E2.87169
G1 X25.599 Y159.107 E2.91814
G1 X26.466 Y158.308 E2.97239
G1 X26.989 Y158 E3.00037
G1 X27.552 Y157.764 E3.02848
G1 X28.27 Y157.591 E3.06246
G1 X28.779 Y157.59 E3.08593
M107
G1 X28.78 Y158.103 F180000
M107
G1 F1200
G1 X38.577 Y158.096 E3.53706
G1 X39.233 Y158.241 E3.568
G1 X39.847 Y158.499 E3.59867
G1 X40.509 Y158.953 E3.63565
G1 X41.047 Y159.492 E3.67071
G1 X41.421 Y160.009 E3.70009
G1 X41.735 Y160.699 E3.735
G1 X41.886 Y161.272 E3.76228
G1 X41.92 Y171.405 E4.22888
G1 X41.796 Y172.11 E4.26186
G1 X41.503 Y172.844 E4.29823
G1 X41.069 Y173.481 E4.33374
G1 X40.447 Y174.1 E4.37418
G1 X39.852 Y174.497 E4.40708
G1 X39.16 Y174.782 E4.44154
G1 X38.464 Y174.915 E4.47418
G1 X34.577 Y174.919 E4.65318
G1 X33.406 Y176.083 E4.72922
G1 X32.82 Y176.483 E4.7619
G1 X32.224 Y176.741 E4.79178
G1 X31.607 Y176.892 E4.82103
G1 X30.488 Y176.911 E4.87259
G1 X29.814 Y176.778 E4.90422
G1 X29.136 Y176.501 E4.93796
G1 X28.473 Y176.046 E4.975
G1 X23.949 Y171.521 E5.26962
G1 X23.468 Y170.801 E5.30952
G1 X23.26 Y170.298 E5.33457
G1 X23.118 Y169.75 E5.36062
G1 X23.101 Y168.454 E5.4203
G1 X23.236 Y167.852 E5.44873
G1 X23.512 Y167.194 E5.48157
G1 X23.913 Y166.601 E5.51452
G1 X25.08 Y165.428 E5.59075
M73 P9 R13
G1 X25.08 Y161.593 E5.76734
G1 X25.204 Y160.89 E5.80021
G1 X25.497 Y160.156 E5.83659
G1 X25.974 Y159.468 E5.87514
G1 X26.754 Y158.742 E5.92422
G1 X27.238 Y158.457 E5.95006
G1 X27.732 Y158.252 E5.9747
G1 X28.36 Y158.104 E6.00442
G1 X28.78 Y158.103 E6.02374
M107
G1 X28.78 Y158.617 F180000
M107
G1 F1200
G1 X38.495 Y158.61 E6.47108
G1 X39.054 Y158.73 E6.49743
G1 X39.621 Y158.968 E6.52574
G1 X40.158 Y159.338 E6.55576
G1 X40.664 Y159.844 E6.58874
G1 X40.982 Y160.29 E6.61395
G1 X41.251 Y160.891 E6.64428
G1 X41.374 Y161.37 E6.66703
G1 X41.4 Y171.382 E7.12809
G1 X41.289 Y171.99 E7.15656
G1 X41.032 Y172.621 E7.18792
G1 X40.656 Y173.165 E7.21839
G1 X40.1 Y173.712 E7.25428
G1 X39.588 Y174.048 E7.28248
G1 X38.989 Y174.29 E7.31223
G1 X38.439 Y174.395 E7.33801
G1 X34.362 Y174.399 E7.52576
G1 X33.057 Y175.697 E7.61051
G1 X32.55 Y176.037 E7.63863
G1 X32.041 Y176.254 E7.66413
G1 X31.514 Y176.38 E7.68906
G1 X30.562 Y176.396 E7.73293
G1 X29.94 Y176.273 E7.7621
G1 X29.361 Y176.031 E7.791
G1 X28.824 Y175.661 E7.82104
G1 X24.335 Y171.171 E8.1134
G1 X23.938 Y170.578 E8.14626
G1 X23.747 Y170.116 E8.16927
G1 X23.63 Y169.652 E8.19131
G1 X23.616 Y168.535 E8.24276
G1 X23.725 Y168.031 E8.26652
G1 X23.981 Y167.419 E8.29706
G1 X24.299 Y166.951 E8.32311
G1 X25.6 Y165.642 E8.4081
G1 X25.6 Y161.616 E8.59348
G1 X25.711 Y161.01 E8.62189
G1 X25.968 Y160.379 E8.65325
G1 X26.35 Y159.828 E8.68413
G1 X27.045 Y159.174 E8.72805
G1 X27.454 Y158.93 E8.74999
G1 X27.911 Y158.741 E8.77277
G1 X28.448 Y158.617 E8.79816
G1 X28.78 Y158.617 E8.81343
M107
G1 X28.78 Y159.131 F180000
M107
G1 F1200
G1 X38.416 Y159.125 E9.25713
G1 X38.876 Y159.22 E9.27878
G1 X39.395 Y159.437 E9.30469
G1 X39.807 Y159.722 E9.32774
G1 X40.281 Y160.196 E9.35861
G1 X40.542 Y160.568 E9.37952
G1 X40.766 Y161.08 E9.40526
G1 X40.862 Y161.464 E9.42351
G1 X40.88 Y171.359 E9.87913
G1 X40.783 Y171.867 E9.90295
G1 X40.563 Y172.395 E9.92932
G1 X40.274 Y172.811 E9.95266
G1 X39.754 Y173.322 E9.98621
G1 X39.328 Y173.597 E10.00956
G1 X38.821 Y173.797 E10.03467
G1 X38.414 Y173.875 E10.05373
G1 X34.109 Y173.879 E10.25197
G1 X34.012 Y174.014 E10.25964
G1 X32.744 Y175.281 E10.34217
G1 X32.323 Y175.569 E10.36565
G1 X31.858 Y175.767 E10.38892
G1 X31.424 Y175.867 E10.40944
G1 X30.632 Y175.88 E10.44592
G1 X30.115 Y175.783 E10.47012
G1 X29.586 Y175.562 E10.49651
G1 X29.175 Y175.277 E10.51956
G1 X24.721 Y170.822 E10.80967
G1 X24.409 Y170.355 E10.83549
G1 X24.235 Y169.936 E10.85642
G1 X24.142 Y169.557 E10.87438
G1 X24.131 Y168.613 E10.91786
G1 X24.214 Y168.209 E10.93686
G1 X24.451 Y167.644 E10.96504
G1 X24.684 Y167.3 E10.98418
G1 X25.986 Y165.991 E11.06922
G1 X26.12 Y165.894 E11.07682
G1 X26.12 Y161.641 E11.27267
G1 X26.217 Y161.133 E11.29646
G1 X26.437 Y160.605 E11.32283
G1 X26.728 Y160.186 E11.34631
G1 X27.338 Y159.605 E11.38511
G1 X27.671 Y159.403 E11.40303
G1 X28.089 Y159.23 E11.42388
G1 X28.534 Y159.131 E11.44486
G1 X28.78 Y159.131 E11.4562
M107
G1 X28.78 Y159.645 F180000
M107
G1 F1200
G1 X38.388 Y159.645 E11.89861
G1 X38.741 Y159.722 E11.91527
G1 X39.166 Y159.905 E11.93656
G1 X39.455 Y160.106 E11.95279
G1 X39.896 Y160.547 E11.98151
G1 X40.099 Y160.841 E11.99796
G1 X40.279 Y161.263 E12.0191
G1 X40.349 Y161.555 E12.03292
G1 X40.36 Y171.333 E12.48318
G1 X40.279 Y171.738 E12.50219
G1 X40.095 Y172.166 E12.52363
G1 X39.892 Y172.458 E12.54
G1 X39.409 Y172.933 E12.57121
G1 X39.111 Y173.124 E12.58752
G1 X38.694 Y173.293 E12.60823
G1 X38.388 Y173.355 E12.62261
G1 X33.835 Y173.36 E12.83228
G1 X33.627 Y173.664 E12.84923
G1 X32.395 Y174.896 E12.92946
G1 X32.055 Y175.122 E12.94825
G1 X31.678 Y175.278 E12.96705
G1 X31.387 Y175.348 E12.98083
G1 X30.651 Y175.359 E13.01472
G1 X30.244 Y175.278 E13.03387
G1 X29.816 Y175.095 E13.0553
G1 X29.526 Y174.893 E13.07154
G1 X25.106 Y170.472 E13.35941
G1 X24.88 Y170.133 E13.3782
G1 X24.724 Y169.756 E13.397
G1 X24.654 Y169.465 E13.41077
G1 X24.646 Y168.685 E13.44666
G1 X24.705 Y168.382 E13.46089
G1 X24.898 Y167.91 E13.48438
G1 X25.071 Y167.649 E13.4988
G1 X26.338 Y166.375 E13.58153
G1 X26.64 Y166.168 E13.59839
G1 X26.64 Y161.667 E13.80567
G1 X26.721 Y161.262 E13.82467
G1 X26.905 Y160.834 E13.84611
G1 X27.108 Y160.542 E13.86249
G1 X27.635 Y160.033 E13.89623
M73 P10 R13
G1 X27.889 Y159.876 E13.91
G1 X28.266 Y159.72 E13.9288
G1 X28.616 Y159.645 E13.94526
G1 X28.78 Y159.645 E13.95283
M107
G1 X28.78 Y160.16 F180000
M107
G1 F1200
G1 X38.359 Y160.165 E14.39392
G1 X38.558 Y160.21 E14.40333
G1 X38.936 Y160.372 E14.42227
G1 X39.103 Y160.489 E14.43168
G1 X39.511 Y160.897 E14.4582
G1 X39.652 Y161.109 E14.46995
G1 X39.79 Y161.442 E14.48655
G1 X39.835 Y161.641 E14.49596
G1 X39.84 Y171.308 E14.9411
G1 X39.79 Y171.558 E14.95285
G1 X39.628 Y171.936 E14.97179
G1 X39.511 Y172.103 E14.9812
G1 X39.064 Y172.543 E15.01006
G1 X38.891 Y172.652 E15.01947
G1 X38.558 Y172.79 E15.03607
G1 X38.359 Y172.835 E15.04548
G1 X33.491 Y172.84 E15.26961
G1 X33.383 Y173.102 E15.28266
G1 X33.241 Y173.314 E15.29441
G1 X32.045 Y174.51 E15.37229
G1 X31.833 Y174.652 E15.38405
G1 X31.5 Y174.789 E15.40064
G1 X31.3 Y174.834 E15.41006
G1 X30.674 Y174.839 E15.43891
G1 X30.424 Y174.789 E15.45066
G1 X30.046 Y174.627 E15.4696
G1 X29.878 Y174.51 E15.47902
G1 X25.492 Y170.123 E15.76468
G1 X25.35 Y169.91 E15.77644
G1 X25.213 Y169.577 E15.79303
G1 X25.168 Y169.378 E15.80244
G1 X25.163 Y168.751 E15.8313
G1 X25.198 Y168.55 E15.84071
G1 X25.351 Y168.168 E15.85965
G1 X25.46 Y167.995 E15.86907
G1 X26.688 Y166.76 E15.94929
G1 X26.901 Y166.618 E15.96105
G1 X27.16 Y166.511 E15.97397
G1 X27.16 Y161.692 E16.19587
G1 X27.21 Y161.442 E16.20762
G1 X27.372 Y161.064 E16.22656
G1 X27.489 Y160.897 E16.23597
G1 X27.936 Y160.457 E16.26483
G1 X28.109 Y160.348 E16.27424
G1 X28.442 Y160.21 E16.29084
G1 X28.692 Y160.16 E16.30259
G1 X28.78 Y160.16 E16.30664
M107
G1 X28.78 Y160.68 F180000
M107
G1 F1200
G1 X38.282 Y160.68 E16.74421
G1 X38.383 Y160.7 E16.74892
G1 X38.669 Y160.818 E16.76317
G1 X38.754 Y160.875 E16.76788
G1 X39.125 Y161.246 E16.79204
G1 X39.182 Y161.331 E16.79676
G1 X39.3 Y161.617 E16.811
G1 X39.32 Y161.718 E16.81572
G1 X39.32 Y171.282 E17.25616
G1 X39.3 Y171.383 E17.26088
G1 X39.182 Y171.669 E17.27512
G1 X39.125 Y171.754 E17.27984
G1 X38.754 Y172.125 E17.304
G1 X38.669 Y172.182 E17.30872
G1 X38.383 Y172.3 E17.32296
G1 X38.282 Y172.32 E17.32768
G1 X33.051 Y172.32 E17.56859
G1 X33.051 Y172.493 E17.57654
G1 X33.031 Y172.593 E17.58126
G1 X32.912 Y172.879 E17.5955
G1 X32.855 Y172.964 E17.60022
G1 X31.696 Y174.124 E17.67575
G1 X31.61 Y174.181 E17.68047
G1 X31.325 Y174.299 E17.69471
G1 X31.224 Y174.319 E17.69943
G1 X30.699 Y174.319 E17.72359
G1 X30.599 Y174.299 E17.72831
G1 X30.313 Y174.181 E17.74255
G1 X30.228 Y174.124 E17.74727
G1 X25.878 Y169.773 E18.03058
G1 X25.821 Y169.688 E18.0353
G1 X25.703 Y169.402 E18.04954
G1 X25.683 Y169.302 E18.05426
G1 X25.683 Y168.777 E18.07842
G1 X25.703 Y168.676 E18.08314
G1 X25.821 Y168.391 E18.09738
G1 X25.878 Y168.306 E18.1021
G1 X27.038 Y167.146 E18.17763
G1 X27.123 Y167.089 E18.18234
G1 X27.409 Y166.971 E18.19659
G1 X27.509 Y166.951 E18.2013
G1 X27.68 Y166.951 E18.20916
G1 X27.68 Y161.718 E18.45013
G1 X27.7 Y161.617 E18.45484
G1 X27.818 Y161.331 E18.46909
G1 X27.875 Y161.246 E18.4738
G1 X28.246 Y160.875 E18.49797
G1 X28.331 Y160.818 E18.50268
G1 X28.617 Y160.7 E18.51692
G1 X28.718 Y160.68 E18.52164
G1 X28.78 Y160.68 E18.52451
M107
G1 X28.78 Y161.2 F180000
M107
G1 F1200
G1 X38.231 Y161.2 E18.95973
G1 X38.422 Y161.279 E18.96925
G1 X38.721 Y161.578 E18.9887
G1 X38.8 Y161.769 E18.99822
G1 X38.8 Y171.231 E19.43395
G1 X38.721 Y171.422 E19.44347
G1 X38.422 Y171.721 E19.46292
G1 X38.231 Y171.8 E19.47244
G1 X32.423 Y171.8 E19.73988
G1 X32.452 Y171.828 E19.74172
G1 X32.531 Y172.019 E19.75124
G1 X32.531 Y172.442 E19.77069
G1 X32.452 Y172.633 E19.78021
G1 X31.364 Y173.72 E19.85103
G1 X31.173 Y173.799 E19.86055
G1 X30.751 Y173.799 E19.88
G1 X30.56 Y173.72 E19.88952
G1 X26.282 Y169.442 E20.16812
G1 X26.203 Y169.25 E20.17765
G1 X26.203 Y168.828 E20.19709
G1 X26.282 Y168.637 E20.20662
G1 X27.369 Y167.55 E20.27743
G1 X27.561 Y167.471 E20.28696
G1 X27.983 Y167.471 E20.3064
G1 X28.174 Y167.55 E20.31593
G1 X28.2 Y167.576 E20.31762
G1 X28.2 Y161.769 E20.58503
G1 X28.279 Y161.578 E20.59455
G1 X28.578 Y161.279 E20.614
G1 X28.769 Y161.2 E20.62352
G1 X28.78 Y161.2 E20.62404
M107
G1 X28.872 Y161.72 F180000
M107
G1 F1200
G1 X38.128 Y161.72 E21.05024
G1 X38.28 Y161.872 E21.06015
G1 X38.28 Y171.128 E21.48635
G1 X38.128 Y171.28 E21.49627
G1 X31.168 Y171.28 E21.81675
G1 X32.011 Y172.123 E21.87162
G1 X32.011 Y172.338 E21.88154
G1 X31.07 Y173.279 E21.94283
G1 X30.854 Y173.279 E21.95275
G1 X26.723 Y169.147 E22.22182
M73 P11 R13
G1 X26.723 Y168.932 E22.23174
G1 X27.664 Y167.991 E22.29303
G1 X27.879 Y167.991 E22.30294
G1 X28.72 Y168.831 E22.35769
G1 X28.72 Y161.872 E22.67815
G1 X28.872 Y161.72 E22.68807
M107
G92 E0
;WIPE_START
G1 F144000
G1 X28.72 Y161.872 E-0.00341
G1 X28.72 Y168.831 E-0.1136
G1 X27.879 Y167.991 E-0.13242
G1 X27.664 Y167.991 E-0.13583
G1 X26.723 Y168.932 E-0.1569
G1 X26.723 Y169.147 E-0.16031
G1 X30.854 Y173.279 E-0.25283
G1 X31.07 Y173.279 E-0.25624
G1 X32.011 Y172.338 E-0.27732
G1 X32.011 Y172.123 E-0.28073
G1 X31.168 Y171.28 E-0.29959
G1 X38.128 Y171.28 E-0.40979
G1 X38.28 Y171.128 E-0.4132
G1 X38.28 Y161.872 E-0.55974
G1 X38.128 Y161.72 E-0.56315
G1 X28.872 Y161.72 E-0.70969
;WIPE_END
G1 E-2 F2400
G1 Z1 F180000
G1 X132.56 Y161.72
G1 Z0.2
G1 E0 F3600
M107
G1 F1200
G1 X132.56 Y161.564 E0.00717
G1 X132.76 Y160.563 E0.0542
G1 X133.01 Y159.967 E0.08395
G1 X133.371 Y159.384 E0.11551
G1 X134.109 Y158.598 E0.16517
G1 X134.686 Y158.165 E0.19839
G1 X135.506 Y157.78 E0.24011
G1 X136.398 Y157.577 E0.28222
G1 X146.594 Y157.575 E0.75175
G1 X147.291 Y157.715 E0.78451
G1 X147.985 Y157.985 E0.81876
G1 X148.736 Y158.465 E0.85981
G1 X149.689 Y159.461 E0.92331
G1 X150 Y159.989 E0.95152
G1 X150.241 Y160.565 E0.98025
G1 X150.44 Y161.564 E1.02718
G1 X150.44 Y165.216 E1.19532
G1 X151.545 Y166.34 E1.26791
G1 X151.985 Y167.022 E1.30526
G1 X152.257 Y167.688 E1.33841
G1 X152.411 Y168.367 E1.37049
G1 X152.433 Y169.487 E1.42205
G1 X152.3 Y170.249 E1.4577
G1 X152.016 Y170.994 E1.49438
G1 X151.624 Y171.639 E1.52914
G1 X146.873 Y176.436 E1.84006
G1 X146.023 Y177.004 E1.88715
G1 X145.445 Y177.241 E1.91588
G1 X144.85 Y177.395 E1.94421
G1 X143.37 Y177.415 E2.01235
G1 X142.671 Y177.255 E2.04536
G1 X141.969 Y176.96 E2.08044
G1 X141.252 Y176.476 E2.12029
G1 X140.209 Y175.439 E2.188
G1 X136.403 Y175.424 E2.36325
G1 X135.56 Y175.239 E2.40299
