; generated by SuperSlicer 2.5.59.8 on 2024-04-20 at 19:28:54 UTC


;
;

;
;

;
;

;
;

;
;
; 

; external perimeters extrusion width = 0.40mm
; perimeters extrusion width = 0.40mm
; infill extrusion width = 0.40mm
; solid infill extrusion width = 0.40mm
; top infill extrusion width = 0.40mm

; object:{"name":"rear_inlet_single_5015","id":"rear_inlet_single_5015.stl id:0 copy 0","object_center":[87.500000,110.000000,0.000000],"boundingbox_center":[87.500000,110.000000,11.227232],"boundingbox_size":[57.200001,66.500000,22.454464]}
EXCLUDE_OBJECT_DEFINE NAME=rear_inlet_single_5015_stl_id_0_copy_0 CENTER=87.500000,110.000000 POLYGON=[[58.90,132.95],[58.97,132.33],[65.50,77.75],[66.50,76.75],[108.50,76.75],[109.50,77.75],[116.03,132.33],[116.10,132.95],[116.10,140.25],[116.03,140.84],[115.84,141.40],[115.52,141.92],[115.09,142.37],[114.56,142.74],[113.96,143.02],[113.31,143.19],[112.64,143.25],[62.36,143.25],[61.69,143.19],[61.04,143.02],[60.44,142.74],[59.91,142.37],[59.48,141.92],[59.16,141.40],[58.97,140.84],[58.90,140.25],[58.90,132.95]]
; plater:{"center":[87.500000,110.000000,0.000000],"boundingbox_center":[87.500000,110.000000,11.227232],"boundingbox_size":[57.200001,66.500000,22.454464]}

M73 P0 R78
M107
;TYPE:Custom
CALCULATE_PA MATERIAL=ABS BOWDEN_LENGTH=6 LAYER_HEIGHT=0.24 NOZZLE_SIZE=0.4 PRINT_SPEED=95


START_PRINT EXTRUDER=275 BED=100

M107
G21 ; set units to millimeters
G90 ; use absolute coordinates
M83 ; use relative distances for extrusion
ACTIVATE_EXTRUDER EXTRUDER=extruder
; Filament gcode
M104 S275 T0 ; set temperature
M109 S275 T0 ; set temperature and wait for it to be reached
M190 S100 ; set bed temperature and wait for it to be reached
;LAYER_CHANGE
;Z:0.24
;HEIGHT:0.24
;BEFORE_LAYER_CHANGE
G92 E0.0

G1 E-1.5 F3000
G1 Z0.2 F3600000
G1 Z0.24
;AFTER_LAYER_CHANGE
;0.24




CALCULATE_PA MATERIAL=ABS BOWDEN_LENGTH=6.0 LAYER_HEIGHT=0.2 NOZZLE_SIZE=0.4 PRINT_SPEED=95


G92 E0
G1 Z0.44
G1 X57.649 Y65.174
G1 Z0.24
G1 E1.5 F3000
;TYPE:Skirt
;WIDTH:0.4
M107
G1 F2400
G1 X61.496 Y63.062 E0.15261
G1 X65.479 Y62.202 E0.1417
G1 X79.191 Y62.211 E0.47679
G1 X82.847 Y62.978 E0.12991
G1 X85.014 Y63.963 E0.08276
G1 X85.424 Y63.711 E0.01674
G1 X87.656 Y62.811 E0.08369
G1 X90.7 Y62.227 E0.10776
G1 X110.281 Y62.286 E0.68091
G1 X113.853 Y63.194 E0.12815
G1 X117.119 Y65 E0.12976
G1 X120.384 Y68.057 E0.15557
G1 X122.846 Y71.895 E0.15853
G1 X123.979 Y76.05 E0.14978
G1 X124.055 Y119.369 E1.50631
G1 X124.577 Y119.764 E0.02278
G1 X127.095 Y122.48 E0.12879
G1 X128.847 Y125.358 E0.11718
G1 X130.021 Y128.526 E0.11746
G1 X130.594 Y132.477 E0.13883
G1 X130.556 Y141.287 E0.30635
G1 X130.181 Y143.99 E0.09488
G1 X129.379 Y146.614 E0.09542
G1 X127.519 Y150.074 E0.13662
G1 X124.538 Y153.39 E0.15504
G1 X120.815 Y155.882 E0.15579
G1 X117.838 Y157.051 E0.11121
G1 X115.428 Y157.591 E0.08586
G1 X112.958 Y157.809 E0.08624
G1 X61.977 Y157.807 E1.77275
G1 X59.554 Y157.589 E0.08459
G1 X56.604 Y156.873 E0.10558
G1 X52.332 Y154.817 E0.16484
G1 X50.001 Y152.978 E0.10326
G1 X47.991 Y150.773 E0.10374
G1 X45.958 Y147.393 E0.13716
G1 X44.867 Y144.2 E0.11734
G1 X44.407 Y140.738 E0.12144
G1 X44.409 Y132.455 E0.28803
G1 X44.792 Y129.304 E0.11038
G1 X45.927 Y125.842 E0.12667
G1 X47.753 Y122.689 E0.1267
G1 X50.212 Y119.952 E0.12794
G1 X50.937 Y119.384 E0.03205
G1 X50.937 Y76.979 E1.47455
G1 X51.799 Y72.778 E0.14912
G1 X53.698 Y69.204 E0.14072
G1 X57.607 Y65.217 E0.19417
M107
G1 X57.855 Y65.461 F3600000
M107
G1 F2400
G1 X57.879 Y65.436 E0.00119
G1 X61.641 Y63.38 E0.14907
G1 X65.497 Y62.551 E0.13716
G1 X79.172 Y62.56 E0.47552
G1 X82.756 Y63.315 E0.12736
G1 X85.039 Y64.358 E0.08727
G1 X85.568 Y64.028 E0.02167
G1 X87.771 Y63.141 E0.08258
G1 X90.716 Y62.575 E0.10427
G1 X110.217 Y62.629 E0.67811
G1 X113.704 Y63.51 E0.12509
G1 X116.897 Y65.269 E0.12674
G1 X120.103 Y68.264 E0.15258
G1 X122.517 Y72.012 E0.15503
G1 X123.63 Y76.074 E0.14645
G1 X123.706 Y119.543 E1.51156
G1 X124.332 Y120.013 E0.02721
G1 X126.806 Y122.676 E0.12642
G1 X128.541 Y125.525 E0.11598
G1 X129.688 Y128.629 E0.11507
G1 X130.246 Y132.488 E0.13559
G1 X130.208 Y141.274 E0.3055
G1 X129.838 Y143.928 E0.09318
G1 X129.051 Y146.495 E0.09338
G1 X127.222 Y149.891 E0.13411
G1 X124.326 Y153.113 E0.15064
G1 X120.67 Y155.564 E0.15309
G1 X117.748 Y156.714 E0.10916
G1 X115.364 Y157.249 E0.08499
G1 X112.95 Y157.461 E0.08424
G1 X61.985 Y157.458 E1.77221
G1 X59.599 Y157.243 E0.08333
G1 X56.738 Y156.551 E0.10234
G1 X52.533 Y154.532 E0.16221
G1 X50.228 Y152.713 E0.10209
G1 X48.26 Y150.551 E0.10165
G1 X46.282 Y147.262 E0.13346
G1 X45.21 Y144.137 E0.1149
G1 X44.755 Y140.727 E0.11963
G1 X44.758 Y132.465 E0.28726
G1 X45.136 Y129.363 E0.10868
G1 X46.252 Y125.968 E0.12426
G1 X48.045 Y122.88 E0.12419
G1 X50.46 Y120.197 E0.12552
G1 X51.286 Y119.555 E0.03637
G1 X51.286 Y76.997 E1.47987
M73 P0 R77
G1 X52.119 Y72.919 E0.14471
G1 X53.964 Y69.43 E0.13724
G1 X57.813 Y65.504 E0.19121
M107
G1 X58.062 Y65.748 F3600000
M107
G1 F2400
G1 X58.11 Y65.699 E0.00238
G1 X61.786 Y63.698 E0.14551
G1 X65.516 Y62.899 E0.13264
G1 X79.154 Y62.908 E0.47425
G1 X82.666 Y63.652 E0.12482
G1 X84.819 Y64.63 E0.08226
G1 X85.035 Y64.772 E0.00897
G1 X85.713 Y64.346 E0.02785
G1 X87.886 Y63.471 E0.08145
G1 X90.732 Y62.924 E0.10077
G1 X110.152 Y62.973 E0.67532
G1 X113.556 Y63.826 E0.12203
G1 X116.675 Y65.539 E0.12372
G1 X119.822 Y68.472 E0.1496
G1 X122.188 Y72.131 E0.15152
G1 X123.282 Y76.098 E0.1431
G1 X123.358 Y119.719 E1.51682
G1 X124.088 Y120.262 E0.03163
G1 X126.518 Y122.873 E0.12404
G1 X128.22 Y125.662 E0.11361
G1 X129.354 Y128.733 E0.11384
G1 X129.897 Y132.5 E0.13234
G1 X129.859 Y141.261 E0.30464
G1 X129.495 Y143.866 E0.09147
G1 X128.723 Y146.376 E0.09134
G1 X126.925 Y149.707 E0.13161
G1 X124.114 Y152.836 E0.14625
G1 X120.524 Y155.247 E0.15038
G1 X117.659 Y156.377 E0.1071
G1 X115.321 Y156.902 E0.08331
G1 X112.943 Y157.112 E0.08304
G1 X61.993 Y157.11 E1.77167
G1 X59.643 Y156.897 E0.08207
G1 X56.872 Y156.229 E0.09911
G1 X52.734 Y154.246 E0.15957
G1 X50.476 Y152.468 E0.09993
G1 X48.53 Y150.329 E0.10055
G1 X46.606 Y147.132 E0.12977
G1 X45.553 Y144.073 E0.11246
G1 X45.104 Y140.715 E0.11782
G1 X45.106 Y132.476 E0.28649
G1 X45.48 Y129.422 E0.10698
G1 X46.577 Y126.095 E0.12184
G1 X48.337 Y123.07 E0.12167
G1 X50.709 Y120.442 E0.12311
G1 X51.634 Y119.726 E0.0407
G1 X51.634 Y77.014 E1.48521
G1 X52.439 Y73.06 E0.14033
G1 X54.231 Y69.656 E0.13375
G1 X58.02 Y65.79 E0.18824
M107
G1 X58.269 Y66.034 F3600000
M107
G1 F2400
G1 X58.341 Y65.961 E0.00355
G1 X61.93 Y64.017 E0.14194
G1 X65.534 Y63.248 E0.12814
G1 X79.135 Y63.257 E0.47297
G1 X82.574 Y63.989 E0.12226
G1 X84.662 Y64.941 E0.07978
G1 X85.029 Y65.188 E0.01539
G1 X85.858 Y64.663 E0.03411
G1 X88 Y63.8 E0.08032
G1 X90.747 Y63.272 E0.09728
G1 X110.089 Y63.316 E0.67255
G1 X113.409 Y64.143 E0.11897
G1 X116.453 Y65.809 E0.12069
G1 X119.542 Y68.679 E0.14662
G1 X121.86 Y72.25 E0.14802
G1 X122.934 Y76.122 E0.13974
G1 X123.01 Y119.895 E1.52211
M73 P1 R77
G1 X123.844 Y120.511 E0.03606
G1 X126.23 Y123.07 E0.12164
G1 X127.914 Y125.829 E0.11241
G1 X129.021 Y128.836 E0.11144
G1 X129.549 Y132.511 E0.1291
G1 X129.511 Y141.247 E0.30379
G1 X129.157 Y143.777 E0.08881
G1 X128.395 Y146.258 E0.09026
G1 X126.628 Y149.523 E0.1291
G1 X123.902 Y152.558 E0.14188
G1 X120.379 Y154.93 E0.14767
G1 X117.569 Y156.04 E0.10505
G1 X115.279 Y156.556 E0.08163
G1 X112.935 Y156.764 E0.08183
G1 X62.001 Y156.761 E1.77113
G1 X59.687 Y156.551 E0.0808
G1 X57.006 Y155.906 E0.09589
G1 X52.934 Y153.96 E0.15693
G1 X50.703 Y152.203 E0.09875
G1 X48.799 Y150.107 E0.09845
G1 X46.929 Y147.001 E0.1261
G1 X45.896 Y144.01 E0.11002
G1 X45.452 Y140.704 E0.116
G1 X45.455 Y132.487 E0.28572
G1 X45.824 Y129.482 E0.10528
G1 X46.888 Y126.254 E0.11817
G1 X48.629 Y123.261 E0.12041
G1 X50.957 Y120.687 E0.12068
G1 X51.983 Y119.897 E0.04503
G1 X51.983 Y77.032 E1.49057
G1 X52.759 Y73.199 E0.13596
G1 X54.498 Y69.882 E0.13024
G1 X58.227 Y66.077 E0.18526
M107
G1 X58.476 Y66.321 F3600000
M107
G1 F2400
G1 X58.571 Y66.224 E0.00473
G1 X62.073 Y64.335 E0.13836
G1 X65.552 Y63.596 E0.12366
G1 X79.117 Y63.605 E0.4717
G1 X82.483 Y64.326 E0.11969
G1 X84.503 Y65.252 E0.07729
G1 X85.023 Y65.605 E0.02186
G1 X86.003 Y64.98 E0.04042
G1 X88.115 Y64.13 E0.07917
G1 X90.764 Y63.621 E0.09379
G1 X110.025 Y63.659 E0.66979
G1 X113.261 Y64.459 E0.11592
G1 X116.232 Y66.079 E0.11766
G1 X119.261 Y68.888 E0.14364
G1 X121.531 Y72.369 E0.14451
G1 X122.585 Y76.146 E0.13637
G1 X122.662 Y120.071 E1.52741
G1 X123.601 Y120.761 E0.0405
G1 X125.942 Y123.266 E0.11924
G1 X127.593 Y125.965 E0.11001
G1 X128.688 Y128.939 E0.1102
G1 X129.2 Y132.522 E0.12586
G1 X129.162 Y141.234 E0.30293
G1 X128.814 Y143.714 E0.08709
G1 X128.067 Y146.138 E0.08821
G1 X126.332 Y149.339 E0.1266
G1 X123.689 Y152.282 E0.13753
G1 X120.233 Y154.613 E0.14497
G1 X117.479 Y155.703 E0.10298
G1 X115.214 Y156.214 E0.08075
G1 X112.927 Y156.415 E0.07981
G1 X62.009 Y156.413 E1.77059
G1 X59.731 Y156.205 E0.07954
G1 X57.139 Y155.584 E0.09268
G1 X53.134 Y153.674 E0.15428
G1 X50.951 Y151.958 E0.09657
G1 X49.069 Y149.886 E0.09735
G1 X47.252 Y146.869 E0.12244
G1 X46.239 Y143.946 E0.10758
G1 X45.801 Y140.692 E0.11418
G1 X45.803 Y132.498 E0.28494
G1 X46.167 Y129.541 E0.10358
G1 X47.213 Y126.381 E0.11575
G1 X48.921 Y123.453 E0.11789
G1 X51.204 Y120.933 E0.11824
G1 X52.331 Y120.069 E0.04938
G1 X52.331 Y77.049 E1.49595
G1 X53.079 Y73.339 E0.1316
G1 X54.764 Y70.108 E0.12672
G1 X58.434 Y66.364 E0.18228
M107
G1 X58.683 Y66.608 F3600000
M107
G1 F2400
G1 X58.802 Y66.487 E0.0059
G1 X62.216 Y64.654 E0.13476
G1 X65.57 Y63.945 E0.1192
G1 X79.098 Y63.954 E0.47043
G1 X82.355 Y64.65 E0.1158
G1 X84.344 Y65.562 E0.07611
G1 X85.017 Y66.024 E0.02835
G1 X86.148 Y65.297 E0.04676
G1 X88.229 Y64.459 E0.07801
G1 X90.78 Y63.969 E0.09031
G1 X109.963 Y64.003 E0.66705
G1 X113.115 Y64.776 E0.11287
G1 X116.012 Y66.35 E0.11463
G1 X118.982 Y69.096 E0.14067
G1 X121.203 Y72.489 E0.141
G1 X122.237 Y76.171 E0.13298
G1 X122.314 Y120.249 E1.53273
G1 X123.357 Y121.011 E0.04494
G1 X125.654 Y123.464 E0.11684
G1 X127.271 Y126.102 E0.10761
G1 X128.354 Y129.043 E0.10897
G1 X128.852 Y132.534 E0.12262
G1 X128.814 Y141.221 E0.30208
G1 X128.471 Y143.652 E0.08538
G1 X127.739 Y146.019 E0.08616
G1 X126.035 Y149.155 E0.1241
G1 X123.476 Y152.005 E0.13319
G1 X120.087 Y154.296 E0.14226
G1 X117.389 Y155.366 E0.10092
G1 X115.171 Y155.868 E0.07906
G1 X112.92 Y156.067 E0.07861
G1 X62.017 Y156.064 E1.77004
G1 X59.775 Y155.859 E0.07828
G1 X57.272 Y155.261 E0.08948
G1 X53.334 Y153.389 E0.15163
G1 X51.178 Y151.693 E0.09538
G1 X49.338 Y149.664 E0.09524
G1 X47.575 Y146.738 E0.1188
G1 X46.582 Y143.882 E0.10513
G1 X46.149 Y140.68 E0.11235
G1 X46.152 Y132.508 E0.28416
G1 X46.511 Y129.601 E0.10186
G1 X47.538 Y126.508 E0.11333
G1 X49.213 Y123.644 E0.11536
G1 X51.452 Y121.179 E0.11581
G1 X52.68 Y120.242 E0.05372
G1 X52.68 Y77.066 E1.50134
G1 X53.4 Y73.478 E0.12727
G1 X55.031 Y70.333 E0.12319
G1 X58.641 Y66.651 E0.1793
M107
G1 X58.89 Y66.895 F3600000
M107
G1 F2400
G1 X59.032 Y66.75 E0.00706
G1 X62.359 Y64.973 E0.13115
G1 X65.588 Y64.293 E0.11475
G1 X79.08 Y64.302 E0.46916
G1 X82.227 Y64.975 E0.11191
G1 X84.185 Y65.873 E0.07491
G1 X85.01 Y66.443 E0.03486
G1 X86.294 Y65.614 E0.05313
G1 X88.344 Y64.789 E0.07685
G1 X90.796 Y64.318 E0.08682
G1 X109.9 Y64.346 E0.66432
G1 X112.969 Y65.093 E0.10982
G1 X115.791 Y66.62 E0.11158
G1 X118.729 Y69.338 E0.13917
G1 X120.896 Y72.657 E0.13785
G1 X121.888 Y76.195 E0.12777
G1 X121.965 Y120.427 E1.53807
G1 X123.115 Y121.261 E0.04939
G1 X125.366 Y123.661 E0.11443
G1 X126.95 Y126.239 E0.1052
G1 X128.021 Y129.146 E0.10772
G1 X128.503 Y132.545 E0.11938
G1 X128.466 Y141.207 E0.30123
G1 X128.128 Y143.589 E0.08365
G1 X127.411 Y145.899 E0.08411
G1 X125.739 Y148.97 E0.1216
G1 X123.263 Y151.728 E0.12887
G1 X119.94 Y153.979 E0.13955
G1 X117.299 Y155.029 E0.09885
G1 X115.129 Y155.522 E0.07737
G1 X112.912 Y155.718 E0.07739
G1 X62.025 Y155.716 E1.7695
G1 X59.819 Y155.513 E0.07702
G1 X57.405 Y154.939 E0.08629
G1 X53.534 Y153.102 E0.14898
G1 X51.426 Y151.448 E0.09318
G1 X49.608 Y149.443 E0.09414
G1 X47.899 Y146.606 E0.11516
G1 X46.925 Y143.818 E0.10268
G1 X46.498 Y140.669 E0.11051
G1 X46.5 Y132.519 E0.28338
G1 X46.855 Y129.661 E0.10014
G1 X47.863 Y126.635 E0.1109
G1 X49.504 Y123.836 E0.11284
G1 X51.699 Y121.425 E0.11337
G1 X53.028 Y120.414 E0.05808
G1 X53.028 Y77.083 E1.50676
G1 X53.721 Y73.616 E0.12296
G1 X55.299 Y70.558 E0.11964
G1 X58.848 Y66.938 E0.1763
M107
G1 X59.097 Y67.182 F3600000
M107
G1 F2400
G1 X59.262 Y67.013 E0.00821
G1 X62.5 Y65.292 E0.12752
G1 X65.606 Y64.642 E0.11032
G1 X79.061 Y64.651 E0.46789
G1 X82.099 Y65.3 E0.10802
G1 X84.026 Y66.183 E0.07371
G1 X85.003 Y66.862 E0.04138
G1 X86.439 Y65.931 E0.05952
G1 X88.458 Y65.118 E0.07568
G1 X90.812 Y64.666 E0.08334
G1 X109.838 Y64.69 E0.6616
G1 X112.823 Y65.411 E0.10678
G1 X115.571 Y66.891 E0.10853
G1 X118.449 Y69.547 E0.13618
G1 X120.568 Y72.777 E0.13435
G1 X121.54 Y76.219 E0.12437
G1 X121.617 Y120.605 E1.54342
G1 X122.872 Y121.512 E0.05384
G1 X125.079 Y123.859 E0.11202
G1 X126.629 Y126.375 E0.10278
G1 X127.687 Y129.249 E0.10647
G1 X128.155 Y132.556 E0.11614
G1 X128.117 Y141.194 E0.30037
G1 X127.785 Y143.526 E0.08192
G1 X127.084 Y145.779 E0.08205
G1 X125.443 Y148.786 E0.1191
G1 X123.05 Y151.452 E0.12457
G1 X119.794 Y153.662 E0.13685
G1 X117.208 Y154.692 E0.09678
G1 X115.063 Y155.179 E0.07649
G1 X112.904 Y155.37 E0.07537
G1 X62.033 Y155.367 E1.76895
G1 X59.864 Y155.167 E0.07575
G1 X57.538 Y154.616 E0.08312
G1 X53.734 Y152.816 E0.14632
G1 X51.653 Y151.183 E0.09199
G1 X49.877 Y149.221 E0.09202
G1 X48.222 Y146.474 E0.11155
G1 X47.268 Y143.753 E0.10023
G1 X46.846 Y140.657 E0.10867
G1 X46.849 Y132.53 E0.28259
G1 X47.199 Y129.722 E0.09842
G1 X48.187 Y126.763 E0.10847
G1 X49.795 Y124.028 E0.11031
G1 X51.945 Y121.672 E0.11093
G1 X53.377 Y120.588 E0.06244
G1 X53.377 Y77.1 E1.51218
G1 X54.042 Y73.753 E0.11867
G1 X55.566 Y70.783 E0.11607
G1 X59.055 Y67.224 E0.1733
M107
G1 X59.303 Y67.468 F3600000
M107
G1 F2400
G1 X59.492 Y67.276 E0.00936
G1 X62.642 Y65.612 E0.12387
G1 X65.623 Y64.99 E0.10592
G1 X79.043 Y64.999 E0.46663
G1 X81.971 Y65.625 E0.10413
G1 X83.866 Y66.493 E0.0725
G1 X84.996 Y67.283 E0.04792
G1 X86.585 Y66.248 E0.06593
G1 X88.573 Y65.448 E0.07451
G1 X90.828 Y65.015 E0.07986
G1 X109.777 Y65.033 E0.65891
G1 X112.678 Y65.729 E0.10374
G1 X115.351 Y67.162 E0.10547
G1 X118.17 Y69.756 E0.13321
G1 X120.24 Y72.898 E0.13084
G1 X121.191 Y76.244 E0.12095
G1 X121.269 Y120.784 E1.54878
G1 X122.63 Y121.763 E0.05831
G1 X124.792 Y124.057 E0.10961
G1 X126.308 Y126.512 E0.10035
G1 X127.354 Y129.352 E0.10522
G1 X127.806 Y132.567 E0.1129
G1 X127.769 Y141.18 E0.29952
G1 X127.442 Y143.463 E0.08018
G1 X126.756 Y145.659 E0.07999
G1 X125.147 Y148.601 E0.11661
G1 X122.836 Y151.175 E0.12029
G1 X119.647 Y153.346 E0.13414
G1 X117.118 Y154.355 E0.0947
G1 X115.021 Y154.833 E0.07478
G1 X112.897 Y155.021 E0.07415
G1 X62.041 Y155.019 E1.7684
G1 X59.908 Y154.821 E0.07449
G1 X57.67 Y154.293 E0.07995
G1 X53.934 Y152.53 E0.14365
G1 X51.88 Y150.918 E0.09079
G1 X50.147 Y149 E0.08989
G1 X48.544 Y146.341 E0.10796
G1 X47.611 Y143.689 E0.09778
G1 X47.195 Y140.645 E0.10682
G1 X47.197 Y132.541 E0.2818
G1 X47.542 Y129.782 E0.09669
G1 X48.512 Y126.891 E0.10602
G1 X50.086 Y124.221 E0.10779
G1 X52.192 Y121.919 E0.10849
G1 X53.725 Y120.761 E0.06681
G1 X53.725 Y77.117 E1.51763
G1 X54.363 Y73.89 E0.1144
G1 X55.833 Y71.008 E0.11249
G1 X59.261 Y67.511 E0.17029
M107
G1 X59.51 Y67.755 F3600000
M107
G1 F2400
G1 X59.722 Y67.54 E0.0105
G1 X62.782 Y65.932 E0.12021
G1 X65.641 Y65.339 E0.10153
G1 X79.024 Y65.348 E0.46538
G1 X81.843 Y65.949 E0.10024
G1 X83.707 Y66.804 E0.07128
G1 X84.989 Y67.704 E0.05448
G1 X86.731 Y66.565 E0.07236
G1 X88.687 Y65.778 E0.07333
G1 X90.845 Y65.363 E0.07638
G1 X109.716 Y65.377 E0.65622
G1 X112.534 Y66.047 E0.10071
G1 X115.132 Y67.434 E0.10241
G1 X117.891 Y69.966 E0.13024
G1 X119.913 Y73.02 E0.12734
M73 P2 R77
G1 X120.843 Y76.269 E0.11751
G1 X120.921 Y120.963 E1.55414
G1 X122.388 Y122.015 E0.06277
G1 X124.505 Y124.256 E0.10719
G1 X125.987 Y126.649 E0.0979
G1 X127.021 Y129.455 E0.10396
M73 P2 R76
G1 X127.458 Y132.578 E0.10966
G1 X127.42 Y141.167 E0.29866
G1 X127.099 Y143.399 E0.07844
