; generated by PrusaSlicer 2.7.2+MacOS-arm64 on 2024-03-08 at 18:03:40 UTC


;
;

;
;

;
;

;
;

;
;
; 

; external perimeters extrusion width = 0.45mm
; perimeters extrusion width = 0.45mm
; infill extrusion width = 0.45mm
; solid infill extrusion width = 0.45mm
; top infill extrusion width = 0.40mm

M73 P0 R19

EXCLUDE_OBJECT_DEFINE NAME='Relay_Din_Mount_slotted_stl' CENTER=85.222,111.777 POLYGON=[[91.200,78.979],[91.200,85.229],[91.700,85.729],[96.970,85.729],[97.201,85.497],[96.300,84.596],[96.300,84.179],[97.600,84.179],[98.800,85.379],[98.800,88.496],[97.250,90.046],[95.650,90.046],[95.300,89.696],[95.300,88.996],[86.452,88.996],[85.952,89.496],[85.950,94.954],[86.657,95.247],[90.425,91.479],[90.425,90.479],[91.425,89.479],[93.200,89.479],[94.200,90.479],[94.200,93.996],[91.200,96.996],[91.200,115.979],[94.200,118.979],[94.200,123.979],[95.300,123.979],[95.300,123.479],[96.300,122.479],[96.800,122.479],[96.800,126.996],[95.800,127.996],[91.700,127.996],[91.200,128.496],[91.200,134.996],[88.200,137.993],[82.600,137.993],[82.200,137.592],[82.200,144.021],[76.200,144.021],[76.200,115.433],[79.200,115.433],[79.200,94.021],[76.200,94.020],[76.200,86.822],[82.200,86.821],[82.200,95.479],[84.200,93.479],[84.200,77.979],[86.200,75.979],[88.200,75.979]]

;TYPE:Custom
CALCULATE_PA MATERIAL=PLA BOWDEN_LENGTH=6 LAYER_HEIGHT=0.2 NOZZLE_SIZE=0.4 PRINT_SPEED=70


START_PRINT EXTRUDER=230 BED=65
G21 ; set units to millimeters
G90 ; use absolute coordinates
M83 ; use relative distances for extrusion
; Filament gcode
M107
;LAYER_CHANGE
;Z:0.2
;HEIGHT:0.2
G1 E-1 F3000
EXCLUDE_OBJECT_START NAME='Relay_Din_Mount_slotted_stl'
G1 Z.2 F60000
G1 X84.675 Y99.931
G1 Z.2
G1 E1 F3000
;TYPE:Perimeter
;WIDTH:0.45
G1 F1800
G1 X88.725 Y101.609 E.16323
G1 X88.725 Y117.004 E.57321
G1 X91.725 Y120.004 E.15797
G1 X91.725 Y124.395 E.16349
G1 X90.617 Y125.504 E.05837
G1 X89.117 Y125.504 E.05585
G1 X88.725 Y125.895 E.02061
G1 X88.725 Y127.563 E.06211
G1 X84.675 Y131.614 E.21328
G1 X84.675 Y99.991 E1.17744
G1 X84.675 Y99.991 F60000
G1 X85.082 Y100.54
G1 F1800
G1 X88.318 Y101.881 E.13042
G1 X88.318 Y117.172 E.56934
G1 X91.318 Y120.172 E.15797
G1 X91.318 Y124.227 E.15098
G1 X90.448 Y125.097 E.04581
G1 X88.948 Y125.097 E.05585
G1 X88.318 Y125.727 E.03317
G1 X88.318 Y127.395 E.06211
G1 X85.082 Y130.631 E.1704
G1 X85.082 Y100.6 E1.11816
G1 X85.082 Y100.6 F60000
G1 X85.489 Y101.149
;TYPE:External perimeter
G1 F1800
G1 X87.911 Y102.153 E.09762
G1 X87.911 Y117.341 E.56551
G1 X90.911 Y120.341 E.15797
G1 X90.911 Y124.058 E.1384
G1 X90.279 Y124.69 E.03328
G1 X88.779 Y124.69 E.05585
G1 X87.911 Y125.558 E.04571
G1 X87.911 Y127.226 E.06211
G1 X85.489 Y129.649 E.12756
G1 X85.489 Y101.209 E1.05893
;WIPE_START
G1 F48000
G1 X85.489 Y101.149 E-.00356
G1 X87.911 Y102.153 E-.15567
G1 X87.911 Y116.313 E-.84077
;WIPE_END
G1 X88.297 Y116.313 F60000
G1 X88.297 Y101.895
G1 X81.161 Y97.987
G1 E1 F3000
;TYPE:Perimeter
G1 F1800
G1 X84.911 Y94.237 E.19746
G1 X84.911 Y95.648 E.05254
G1 X86.901 Y96.472 E.0802
G1 X91.464 Y91.909 E.24027
G1 X91.464 Y90.909 E.03723
G1 X91.855 Y90.518 E.02059
G1 X92.77 Y90.518 E.03407
G1 X93.161 Y90.909 E.02059
G1 X93.161 Y93.548 E.09826
G1 X90.161 Y96.548 E.15797
G1 X90.161 Y116.409 E.7395
G1 X93.161 Y119.409 E.15797
G1 X93.161 Y125.018 E.20884
G1 X95.761 Y125.018 E.09681
G1 X95.761 Y126.548 E.05697
G1 X95.37 Y126.94 E.02061
G1 X91.27 Y126.94 E.15266
G1 X90.161 Y128.048 E.05837
G1 X90.161 Y134.548 E.24202
G1 X89.031 Y135.678 E.0595
G1 X83.139 Y135.678 E.21938
G1 X82.679 Y135.027 E.02968
G1 X81.161 Y135.508 E.05929
G1 X81.161 Y140.212 E.17515
G1 X77.239 Y140.211 E.14603
G1 X77.239 Y118.713 E.80045
G1 X80.239 Y118.713 E.1117
M73 P1 R19
G1 X80.239 Y90.629 E1.04567
G1 X81.161 Y90.63 E.03433
G1 X81.161 Y97.927 E.27169
G1 E-1 F3000
G1 X81.161 Y97.927 F60000
G1 X84.811 Y93.732
G1 X84.811 Y82.839
G1 X86.103 Y79.267
G1 X85.675 Y79.267
G1 E1 F3000
G1 F1800
G1 X85.675 Y78.453 E.03031
G1 X88.175 Y78.453 E.09308
G1 X89.725 Y80.004 E.08164
G1 X89.725 Y87.004 E.26064
G1 X85.675 Y87.004 E.1508
G1 X85.675 Y79.327 E.28584
G1 X85.675 Y79.327 F60000
G1 X86.082 Y79.267
G1 F1800
G1 X86.082 Y78.86 E.01515
G1 X88.006 Y78.86 E.07164
G1 X89.318 Y80.172 E.06909
G1 X89.318 Y86.597 E.23923
G1 X86.082 Y86.597 E.12049
G1 X86.082 Y79.327 E.27069
G1 X86.082 Y79.327 F60000
G1 X86.489 Y79.267
;TYPE:External perimeter
G1 F1800
G1 X87.838 Y79.267 E.05023
G1 X88.911 Y80.341 E.05653
G1 X88.911 Y86.19 E.21778
G1 X86.489 Y86.19 E.09018
G1 X86.489 Y79.327 E.25553
;WIPE_START
G1 F48000
G1 X86.489 Y79.267 E-.00356
G1 X87.838 Y79.267 E-.0801
G1 X88.911 Y80.341 E-.09014
G1 X88.911 Y86.19 E-.34728
G1 X86.489 Y86.19 E-.14381
G1 X86.489 Y80.546 E-.33511
;WIPE_END
G1 X86.103 Y80.546 F60000
G1 X86.103 Y83.07
G1 X85.542 Y89.025
G1 X85.239 Y88.722
G1 E1 F3000
;TYPE:Perimeter
G1 F1800
G1 X85.239 Y78.409 E.38399
G1 X86.63 Y77.018 E.07325
G1 X87.77 Y77.018 E.04245
G1 X90.157 Y79.405 E.12569
G1 X90.161 Y85.659 E.23286
G1 X91.27 Y86.768 E.0584
G1 X97.401 Y86.768 E.22828
G1 X97.761 Y86.408 E.01896
G1 X97.761 Y88.048 E.06106
G1 X96.82 Y88.99 E.04958
G1 X96.339 Y88.99 E.01791
G1 X96.339 Y87.94 E.0391
G1 X86.021 Y87.94 E.38418
G1 X85.282 Y88.679 E.03891
G1 E-1 F3000
G1 X85.282 Y88.679 F60000
G1 X85.585 Y88.982
G1 X84.811 Y78.232
G1 X84.811 Y93.732
G1 X81.568 Y97.005
G1 E1 F3000
G1 F1800
G1 X84.832 Y93.741 E.17187
G1 X84.832 Y78.24 E.57716
G1 X86.462 Y76.611 E.0858
G1 X87.938 Y76.611 E.05496
G1 X90.564 Y79.236 E.13825
G1 X90.568 Y85.491 E.2329
G1 X91.438 Y86.361 E.04581
G1 X97.232 Y86.361 E.21573
G1 X98.06 Y85.533 E.0436
G1 X98.168 Y85.641 E.00569
G1 X98.168 Y88.217 E.09591
G1 X96.988 Y89.397 E.06213
G1 X95.932 Y89.397 E.03932
G1 X95.932 Y88.347 E.0391
G1 X86.19 Y88.347 E.36273
G1 X85.32 Y89.217 E.04581
G1 X85.318 Y95.376 E.22932
G1 X86.805 Y95.992 E.05993
G1 X91.057 Y91.741 E.22387
G1 X91.057 Y90.741 E.03723
G1 X91.687 Y90.111 E.03317
G1 X92.938 Y90.111 E.04658
G1 X93.568 Y90.741 E.03317
G1 X93.568 Y93.717 E.11081
G1 X90.568 Y96.717 E.15797
G1 X90.568 Y116.241 E.72695
G1 X93.568 Y119.241 E.15797
G1 X93.568 Y124.611 E.19994
G1 X95.932 Y124.611 E.08802
G1 X95.932 Y123.741 E.03239
G1 X96.168 Y123.505 E.01243
G1 X96.168 Y126.717 E.11959
G1 X95.538 Y127.347 E.03317
G1 X91.438 Y127.347 E.15266
G1 X90.568 Y128.217 E.04581
G1 X90.568 Y134.717 E.24202
G1 X89.2 Y136.085 E.07203
M73 P2 R19
G1 X82.928 Y136.085 E.23353
G1 X82.518 Y135.505 E.02645
G1 X81.568 Y135.806 E.03711
G1 X81.568 Y140.619 E.17921
G1 X76.832 Y140.618 E.17634
G1 X76.832 Y118.306 E.83076
G1 X79.832 Y118.306 E.1117
G1 X79.832 Y90.618 E1.03093
G1 X76.832 Y90.623 E.1117
G1 X76.832 Y90.219 E.01504
G1 X81.568 Y90.223 E.17634
G1 X81.568 Y96.945 E.25028
G1 X81.568 Y96.945 F60000
G1 X81.975 Y96.022
;TYPE:External perimeter
G1 F1800
G1 X84.425 Y93.572 E.12901
G1 X84.425 Y78.072 E.57712
G1 X86.293 Y76.204 E.09836
G1 X88.107 Y76.204 E.06754
G1 X90.971 Y79.068 E.15081
G1 X90.975 Y85.322 E.23286
G1 X91.607 Y85.954 E.03328
G1 X97.063 Y85.954 E.20315
G1 X97.528 Y85.489 E.02449
G1 X96.525 Y84.485 E.05284
G1 X96.525 Y84.404 E.00302
G1 X97.507 Y84.404 E.03656
G1 X98.575 Y85.472 E.05624
G1 X98.575 Y88.386 E.1085
G1 X97.157 Y89.804 E.07467
G1 X95.743 Y89.804 E.05265
G1 X95.525 Y89.586 E.01148
G1 X95.525 Y88.754 E.03098
G1 X86.358 Y88.754 E.34132
G1 X85.727 Y89.385 E.03323
G1 X85.725 Y95.104 E.21294
G1 X86.71 Y95.512 E.0397
G1 X90.65 Y91.572 E.20747
G1 X90.65 Y90.572 E.03723
G1 X91.518 Y89.704 E.04571
G1 X93.107 Y89.704 E.05916
G1 X93.975 Y90.572 E.04571
G1 X93.975 Y93.886 E.12339
G1 X90.975 Y96.886 E.15797
G1 X90.975 Y116.072 E.71437
G1 X93.975 Y119.072 E.15797
G1 X93.975 Y124.204 E.19108
G1 X95.525 Y124.204 E.05771
G1 X95.525 Y123.572 E.02353
G1 X96.393 Y122.704 E.04571
G1 X96.575 Y122.704 E.00678
G1 X96.575 Y126.886 E.15571
G1 X95.707 Y127.754 E.04571
G1 X91.607 Y127.754 E.15266
G1 X90.975 Y128.386 E.03328
G1 X90.975 Y134.886 E.24202
G1 X89.368 Y136.492 E.08459
G1 X82.717 Y136.492 E.24764
G1 X82.357 Y135.983 E.02321
G1 X81.975 Y136.104 E.01492
G1 X81.975 Y141.026 E.18326
G1 X76.425 Y141.025 E.20665
G1 X76.425 Y117.899 E.86107
G1 X79.425 Y117.899 E.1117
G1 X79.425 Y91.025 E1.00062
G1 X76.425 Y91.031 E.1117
G1 X76.425 Y89.812 E.04539
G1 X81.975 Y89.817 E.20665
G1 X81.975 Y95.962 E.2288
;WIPE_START
G1 F48000
G1 X81.975 Y96.022 E-.00356
G1 X84.425 Y93.572 E-.20572
G1 X84.425 Y80.254 E-.79072
;WIPE_END
G1 X84.811 Y80.254 F60000
G1 X85.34 Y93.162
G1 X85.34 Y93.785
G1 X85.075 Y93.785
G1 E1 F3000
;TYPE:Gap fill
;WIDTH:0.123302
G1 F1800
G1 X85.076 Y89.173 E.03391
G1 E-1 F3000
G1 X85.076 Y89.173 F60000
G1 X84.811 Y89.173
G1 X85.339 Y95.362
G1 X86.8 Y95.967
M73 P3 R19
G1 X93.589 Y90.732
G1 X93.589 Y91.221
G1 X93.039 Y91.221
G1 E1 F3000
;TYPE:Solid infill
;WIDTH:0.452513
G1 F1800
G1 X92.641 Y90.823 E.02109
G1 X92.062 Y90.823 E.02169
G1 X92.856 Y91.617 E.04207
G1 X92.856 Y92.196 E.02169
G1 X91.769 Y91.11 E.05756
G1 X91.769 Y91.689 E.02169
G1 X92.856 Y92.775 E.05756
G1 X92.856 Y93.354 E.02169
G1 X91.653 Y92.152 E.06371
G1 X91.363 Y92.442 E.01536
G1 X92.6 Y93.678 E.06551
G1 X92.31 Y93.967 E.01534
G1 X91.074 Y92.731 E.06549
G1 X90.784 Y93.021 E.01536
G1 X92.02 Y94.257 E.06549
G1 X91.731 Y94.547 E.01534
G1 X90.495 Y93.31 E.06551
G1 X90.205 Y93.6 E.01536
G1 X91.441 Y94.836 E.06549
G1 X91.151 Y95.126 E.01536
G1 X89.915 Y93.89 E.06549
G1 X89.626 Y94.179 E.01531
G1 X90.862 Y95.416 E.06551
G1 X90.572 Y95.705 E.01534
G1 X89.336 Y94.469 E.06549
G1 X89.046 Y94.759 E.01536
G1 X90.283 Y95.995 E.06551
G1 X89.993 Y96.284 E.01534
G1 X88.757 Y95.048 E.06549
G1 X88.467 Y95.338 E.01536
G1 X89.856 Y96.726 E.07356
G1 X89.856 Y97.305 E.02169
G1 X88.178 Y95.628 E.08888
G1 X87.888 Y95.917 E.01534
G1 X89.856 Y97.885 E.10427
G1 X89.856 Y98.464 E.02169
G1 X87.598 Y96.207 E.11961
G1 X87.309 Y96.496 E.01531
G1 X89.856 Y99.043 E.13494
G1 X89.856 Y99.622 E.02169
G1 X87.019 Y96.786 E.15028
G1 X86.972 Y96.833 E.00249
G1 X86.143 Y96.489 E.03363
G1 X89.856 Y100.202 E.19672
G1 X89.856 Y100.781 E.02169
G1 X85.153 Y96.079 E.24915
G1 X84.606 Y95.852 E.02219
G1 X84.606 Y95.531 E.01203
G1 X84.327 Y95.253 E.01476
G1 X84.038 Y95.542 E.01531
G1 X89.856 Y101.36 E.30825
G1 X89.856 Y101.939 E.02169
G1 X83.748 Y95.832 E.32358
G1 X83.458 Y96.122 E.01536
G1 X89.856 Y102.519 E.33895
G1 X89.856 Y103.098 E.02169
G1 X89.031 Y102.273 E.04371
G1 X89.031 Y102.852 E.02169
G1 X89.856 Y103.677 E.04371
G1 X89.856 Y104.257 E.02173
G1 X89.031 Y103.432 E.04371
G1 X89.031 Y104.011 E.02169
G1 X89.856 Y104.836 E.04371
G1 X89.856 Y105.415 E.02169
G1 X89.031 Y104.59 E.04371
G1 X89.031 Y105.169 E.02169
G1 X89.856 Y105.994 E.04371
G1 X89.856 Y106.574 E.02173
G1 X89.031 Y105.749 E.04371
G1 X89.031 Y106.328 E.02169
G1 X89.856 Y107.153 E.04371
G1 X89.856 Y107.732 E.02169
G1 X89.031 Y106.907 E.04371
G1 X89.031 Y107.486 E.02169
G1 X89.856 Y108.311 E.04371
G1 X89.856 Y108.891 E.02173
G1 X89.031 Y108.066 E.04371
G1 X89.031 Y108.645 E.02169
G1 X89.856 Y109.47 E.04371
G1 X89.856 Y110.049 E.02169
G1 X89.031 Y109.224 E.04371
G1 X89.031 Y109.803 E.02169
G1 X89.856 Y110.628 E.04371
G1 X89.856 Y111.208 E.02173
G1 X89.031 Y110.383 E.04371
G1 X89.031 Y110.962 E.02169
G1 X89.856 Y111.787 E.04371
G1 X89.856 Y112.366 E.02169
G1 X89.031 Y111.541 E.04371
G1 X89.031 Y112.12 E.02169
G1 X89.856 Y112.945 E.04371
G1 X89.856 Y113.525 E.02173
G1 X89.031 Y112.7 E.04371
G1 X89.031 Y113.279 E.02169
G1 X89.856 Y114.104 E.04371
G1 X89.856 Y114.683 E.02169
G1 X89.031 Y113.858 E.04371
G1 X89.031 Y114.437 E.02169
G1 X89.856 Y115.262 E.04371
G1 X89.856 Y115.842 E.02173
G1 X89.031 Y115.017 E.04371
G1 X89.031 Y115.596 E.02169
G1 X89.856 Y116.421 E.04371
G1 X89.856 Y116.536 E.00431
G1 X92.856 Y119.536 E.15894
G1 X92.856 Y120 E.01738
G1 X89.031 Y116.175 E.20265
G1 X89.031 Y116.754 E.02169
G1 X92.856 Y120.579 E.20265
G1 X92.856 Y121.159 E.02173
G1 X92.031 Y120.334 E.04371
G1 X92.031 Y120.913 E.02169
G1 X92.856 Y121.738 E.04371
G1 X92.856 Y122.317 E.02169
G1 X92.031 Y121.492 E.04371
G1 X92.031 Y122.071 E.02169
G1 X92.856 Y122.896 E.04371
G1 X92.856 Y123.476 E.02173
G1 X92.031 Y122.651 E.04371
G1 X92.031 Y123.23 E.02169
G1 X92.856 Y124.055 E.04371
G1 X92.856 Y124.634 E.02169
G1 X91.848 Y123.626 E.05341
G1 E-1 F3000
G1 X91.848 Y123.626 F60000
G1 X95.099 Y125.14
G1 E1 F3000
G1 F1800
G1 X95.456 Y125.496 E.01889
G1 X95.456 Y126.076 E.02173
G1 X94.703 Y125.323 E.0399
G1 X94.124 Y125.323 E.02169
G1 X95.339 Y126.538 E.06437
G1 X95.243 Y126.634 E.00509
G1 X94.856 Y126.634 E.0145
G1 X93.362 Y125.14 E.07915
G1 E-1 F3000
G1 X93.362 Y125.14 F60000
G1 X94.46 Y126.818
G1 E1 F3000
G1 F1800
G1 X92.031 Y124.388 E.12872
G1 X92.031 Y124.522 E.00502
G1 X91.808 Y124.745 E.01181
G1 X93.697 Y126.634 E.10008
G1 X93.118 Y126.634 E.02169
G1 X91.518 Y125.034 E.08477
G1 X91.229 Y125.324 E.01534
G1 X92.539 Y126.634 E.06941
G1 X91.96 Y126.634 E.02169
G1 X90.939 Y125.614 E.05407
G1 X90.743 Y125.81 E.01038
G1 X90.555 Y125.81 E.00704
G1 X91.38 Y126.634 E.04368
G1 X91.143 Y126.634 E.00888
G1 X90.972 Y126.805 E.00906
G1 X89.976 Y125.81 E.05274
G1 X89.397 Y125.81 E.02169
G1 X90.682 Y127.095 E.06808
G1 X90.393 Y127.385 E.01534
G1 X89.031 Y126.022 E.07219
G1 X89.031 Y126.602 E.02173
G1 X90.103 Y127.674 E.0568
G1 X89.856 Y127.922 E.01311
G1 X89.856 Y128.006 E.00315
G1 X89.031 Y127.181 E.04371
G1 X89.031 Y127.69 E.01907
G1 X88.995 Y127.725 E.00188
G1 X89.856 Y128.585 E.04559
G1 X89.856 Y129.164 E.02169
G1 X88.706 Y128.015 E.0609
G1 X88.416 Y128.304 E.01534
G1 X89.856 Y129.744 E.07629
G1 X89.856 Y130.323 E.02169
G1 X88.127 Y128.594 E.09161
G1 X87.837 Y128.883 E.01534
G1 X89.856 Y130.902 E.10697
G1 X89.856 Y131.481 E.02169
G1 X87.547 Y129.173 E.12231
G1 X87.258 Y129.463 E.01534
G1 X89.856 Y132.061 E.13765
G1 X89.856 Y132.64 E.02169
G1 X86.968 Y129.752 E.15301
G1 X86.678 Y130.042 E.01536
G1 X89.856 Y133.219 E.16835
G1 X89.856 Y133.798 E.02169
G1 X86.389 Y130.332 E.18366
G1 X86.099 Y130.621 E.01534
G1 X89.856 Y134.378 E.19905
G1 X89.856 Y134.422 E.00165
G1 X89.588 Y134.689 E.01417
G1 X85.81 Y130.911 E.20016
G1 X85.52 Y131.2 E.01534
G1 X89.298 Y134.979 E.20019
G1 X89.009 Y135.269 E.01534
G1 X85.23 Y131.49 E.20022
G1 X84.941 Y131.78 E.01534
G1 X88.717 Y135.556 E.20006
G1 E-1 F3000
G1 X88.717 Y136.107 F60000
G1 X91.297 Y124.218
G1 X91.297 Y120.181
G1 X88.297 Y117.181
G1 X88.297 Y101.895
G1 X87.676 Y101.638
G1 X87.887 Y101.13
G1 E1 F3000
G1 F1800
G1 X83.169 Y96.411 E.24999
G1 X82.879 Y96.701 E.01536
G1 X86.56 Y100.381 E.195
G1 X85.57 Y99.971 E.04014
G1 X82.59 Y96.991 E.15788
M73 P4 R19
G1 X82.3 Y97.28 E.01534
G1 X84.581 Y99.562 E.12088
G1 X84.369 Y99.474 E.0086
G1 X84.369 Y99.929 E.01705
G1 X82.01 Y97.57 E.12498
G1 X81.721 Y97.859 E.01531
G1 X84.369 Y100.508 E.14032
G1 X84.369 Y101.087 E.02169
G1 X81.302 Y98.019 E.16252
G1 E-1 F3000
G1 X81.302 Y98.019 F60000
G1 X81.039 Y91.385
G1 E1 F3000
G1 F1800
G1 X80.589 Y90.935 E.02384
G1 X80.544 Y90.935 E.00169
G1 X80.544 Y91.47 E.02004
G1 X80.856 Y91.781 E.0165
G1 X80.856 Y92.36 E.02169
G1 X80.544 Y92.049 E.0165
G1 X80.544 Y92.628 E.02169
G1 X80.856 Y92.94 E.01653
G1 X80.856 Y93.519 E.02169
G1 X80.544 Y93.208 E.0165
G1 X80.544 Y93.787 E.02169
G1 X80.856 Y94.098 E.0165
G1 X80.856 Y94.677 E.02169
G1 X80.544 Y94.366 E.0165
G1 X80.544 Y94.945 E.02169
G1 X80.856 Y95.257 E.01653
G1 X80.856 Y95.836 E.02169
G1 X80.544 Y95.525 E.0165
G1 X80.544 Y96.104 E.02169
G1 X80.856 Y96.415 E.0165
G1 X80.856 Y96.994 E.02169
G1 X80.544 Y96.683 E.0165
G1 X80.544 Y97.262 E.02169
G1 X81.039 Y97.757 E.02623
G1 X81.039 Y97.757 F60000
G1 X80.361 Y97.658
G1 F1800
G1 X84.369 Y101.667 E.21238
G1 X84.369 Y102.246 E.02169
G1 X80.544 Y98.421 E.20265
G1 X80.544 Y99 E.02169
G1 X84.369 Y102.825 E.20265
G1 X84.369 Y103.404 E.02169
G1 X80.544 Y99.579 E.20265
G1 X80.544 Y100.159 E.02173
G1 X84.369 Y103.984 E.20265
G1 X84.369 Y104.563 E.02169
G1 X80.544 Y100.738 E.20265
G1 X80.544 Y101.317 E.02169
G1 X84.369 Y105.142 E.20265
G1 X84.369 Y105.721 E.02169
G1 X80.544 Y101.896 E.20265
G1 X80.544 Y102.476 E.02173
G1 X84.369 Y106.301 E.20265
G1 X84.369 Y106.88 E.02169
G1 X80.544 Y103.055 E.20265
G1 X80.544 Y103.634 E.02169
G1 X84.369 Y107.459 E.20265
G1 X84.369 Y108.038 E.02169
G1 X80.544 Y104.213 E.20265
