; generated by SuperSlicer 2.5.59.10 on 2024-05-25 at 17:10:28 UTC


;
;

;
;
; 

; external perimeters extrusion width = 0.42mm
; perimeters extrusion width = 0.45mm
; infill extrusion width = 0.45mm
; solid infill extrusion width = 0.45mm
; top infill extrusion width = 0.42mm

; object:{"name":"Relay Din Mount slotted","id":"Relay Din Mount slotted.stl id:0 copy 0","object_center":[90.000000,100.000000,0.000000],"boundingbox_center":[90.000000,100.000000,3.600000],"boundingbox_size":[22.600000,68.042679,7.200001]}
EXCLUDE_OBJECT_DEFINE NAME=Relay_Din_Mount_slotted_stl_id_0_copy_0 CENTER=90.000000,100.000000 POLYGON=[[78.70,76.82],[86.70,67.98],[88.70,65.98],[90.70,65.98],[100.10,74.18],[101.30,75.38],[101.30,78.50],[99.30,117.00],[93.70,125.00],[84.70,134.02],[78.70,134.02],[78.70,76.82]]
; plater:{"center":[90.000000,100.000000,0.000000],"boundingbox_center":[90.000000,100.000000,3.600000],"boundingbox_size":[22.600000,68.042679,7.200001]}

M107
;TYPE:Custom
START_PRINT EXTRUDER=260 BED=105
M107
G21 ; set units to millimeters
G90 ; use absolute coordinates
M83 ; use relative distances for extrusion
ACTIVATE_EXTRUDER EXTRUDER=extruder
; Filament gcode
FILAMENT_START MATERIAL=ASA COLOR=#368900 VENDOR=123-3D
SET_PRESSURE_ADVANCE ADVANCE=0.06175
M104 S260 T0 ; set temperature
M109 S260 T0 ; set temperature and wait for it to be reached
M190 S105 ; set bed temperature and wait for it to be reached
;LAYER_CHANGE
;Z:0.2
;HEIGHT:0.2
G1 E-0.4 F3900
G1 Z0.2 F90000
G92 E0
M204 S750
G1 X79.001 Y71.454
G1 E0.4 F3900
;TYPE:Skirt
;WIDTH:0.8
M107
G1 F2400
G1 X76.194 Y74.557 E0.25284
G1 F2398.461
G1 X75.716 Y75.24 E.0504
G1 X75.321 Y76.824 E0.09862
G1 F2389.87
G1 X75.321 Y81.59 Z.2 E.28803
G1 F2371.492
G1 X75.321 Y86.356 Z.2 E.28803
G1 F2353.114
G1 X75.321 Y91.122 Z.2 E.28803
G1 F2334.736
G1 X75.321 Y95.888 Z.2 E.28803
G1 F2316.357
G1 X75.321 Y100.654 Z.2 E.28803
G1 F2297.979
G1 X75.321 Y105.421 Z.2 E.28803
G1 F2279.601
G1 X75.321 Y110.187 Z.2 E.28803
G1 F2261.223
G1 X75.321 Y114.953 Z.2 E.28803
G1 F2242.844
G1 X75.321 Y119.719 Z.2 E.28803
G1 F2224.466
G1 X75.321 Y124.485 Z.2 E.28803
G1 F2206.088
G1 X75.321 Y129.251 Z.2 E.28803
G1 F2178.521
G1 X75.321 Y134.017 Z.2 E.28803
G1 F2169.207
G1 X75.902 Y135.911 E.11973
G1 F2152.059
G1 X77.116 Y137.001 E.09862
G1 F2138.276
G1 X78.7 Y137.396 E.09862
G1 F2116.392
G1 X81.7 Y137.396 Z.2 E.1813
G1 F2075.705
G1 X84.7 Y137.396 Z.2 E.1813
G1 F2071.877
G1 X85.696 Y137.245 E.06086
G1 F2059.212
G1 X87.093 Y136.402 E.09862
G1 F2033.169
G1 X90.218 Y133.243 Z.2 E.26853
G1 F1995.055
G1 X93.343 Y130.085 Z.2 E.26853
G1 F1937.884
G1 X96.468 Y126.926 Z.2 E.26853
G1 F1918.002
G1 X99.268 Y122.926 Z.2 E.29507
G1 F1858.231
G1 X102.068 Y118.926 Z.2 E.29507
G1 F1851.523
G1 X102.674 Y117.163 E.11262
G1 F1825.758
G1 X102.924 Y112.351 Z.2 E.29123
G1 F1790.486
G1 X103.174 Y107.538 Z.2 E.29123
G1 F1755.214
G1 X103.424 Y102.726 Z.2 E.29123
G1 F1719.942
G1 X103.674 Y97.913 Z.2 E.29123
G1 F1684.67
G1 X103.924 Y93.101 Z.2 E.29123
G1 F1649.398
G1 X104.174 Y88.288 Z.2 E.29123
G1 F1614.126
G1 X104.424 Y83.476 Z.2 E.29123
G1 F1561.218
G1 X104.674 Y78.663 Z.2 E.29123
G1 F1549.999
G1 X104.679 Y75.379 E.1985
G1 F1536.858
G1 X104.53 Y74.388 E.06053
G1 F1526.967
G1 X103.689 Y72.99 E.09862
G1 F1516.454
G1 X102.489 Y71.79 E.10256
G1 F1497.554
G1 X99.3 Y69.004 Z.2 E.25591
G1 F1470.775
G1 X96.11 Y66.219 Z.2 E.25591
G1 F1430.606
G1 X92.921 Y63.433 Z.2 E.25591
G1 F1423.464
G1 X90.7 Y62.6 E.14334
G1 F1409.987
G1 X88.7 Y62.6 E.12087
G1 F1401.454
G1 X87.709 Y62.749 E.06054
G1 F1392.678
G1 X86.311 Y63.59 E.09862
G1 F1379.145
G1 X84.194 Y65.712 E.18116
G1 F1359.297
G1 X81.618 Y68.561 Z.2 E.23213
G1 F1325.896
G1 X79.041 Y71.41 Z.2 E.23213
M107
G1 E-0.4 F3900
; printing object Relay Din Mount slotted.stl id:0 copy 0
EXCLUDE_OBJECT_START NAME=Relay_Din_Mount_slotted_stl_id_0_copy_0
G1 X94.798 Y81.812 F90000
G1 E0.4 F3900
;TYPE:Internal perimeter
;WIDTH:0.606644
M107
G1 F1784.16
G1 X94.743 Y82.027 E.00996
M107
;WIDTH:0.641694
M107
G1 F1670.152
G1 X94.688 Y82.241 E.01058
G1 F1669.052
G1 X94.288 Y82.829 E.03399
G1 F1651.011
G1 X91.913 Y85.205 E.16054
G1 F1619.94
G1 X91.849 Y85.248 E.00372
M107
;WIDTH:0.603356
M107
G1 F1762.203
G1 X91.784 Y85.292 E.00348
M107
;WIDTH:0.565017
M107
G1 F1858.446
G1 X91.72 Y85.335 E.00324
M107
;WIDTH:0.526678
M107
G1 F2021.09
G1 X91.655 Y85.378 E.00301
M107
;WIDTH:0.488339
M107
G1 F2210.159
G1 X91.59 Y85.422 E.00277
M107
;WIDTH:0.449999
M107
G1 F2375.711
G1 X91.526 Y85.465 E.00253
G1 X90.558 Y86.424 E0.04425
G1 F2399.422
G1 X90.078 Y86.824 E.0203
G1 F2394.401
G1 X89.717 Y86.986 E.01288
G1 X89.309 Y87.068 E0.01351
G1 F2396.782
G1 X88.883 Y87.052 E.01386
G1 X88.472 Y86.937 E0.01386
G1 F2398.601
G1 X87.739 Y86.633 E.0258
G1 X87.206 Y86.291 E.02059
G1 X86.887 Y85.87 E0.01715
G1 F2399.31
G1 X85.953 Y86.805 E.04293
G1 X85.729 Y86.994 E0.00952
G1 F2396.618
G1 X85.459 Y87.154 E.01021
G1 X85.023 Y87.299 E0.01493
G1 F2397.143
G1 X84.51 Y87.324 E.01671
G1 F2398.12
G1 X83.847 Y87.129 E.02246
G1 X83.523 Y86.839 E0.01411
G1 F2396.676
G1 X83.523 Y91.01 Z.2 E.13554
G1 X83.523 Y95.181 Z.2 E.13554
G1 F2397.097
G1 X83.523 Y99.353 Z.2 E.13554
G1 X83.523 Y103.524 Z.2 E.13554
G1 X83.523 Y107.695 Z.2 E.13554
G1 X83.477 Y108.099 E0.0132
G1 F2394.928
G1 X83.347 Y108.473 E.01288
G1 X83.149 Y108.795 E0.01227
G1 F2396.714
G1 X82.908 Y109.052 E.01146
G1 F2398.251
G1 X82.646 Y109.242 E.01052
G1 X82.095 Y109.458 E0.01921
G1 F2399.55
G1 X81.721 Y109.497 E.01221
G1 X80.523 Y109.497 E.03893
G1 X80.523 Y114.479 Z.2 E.16191
G1 X80.523 Y119.462 Z.2 E.16191
G1 X80.523 Y124.445 Z.2 E.1619
G1 X80.523 Y129.427 Z.2 E.16191
G1 X82.877 Y129.427 E0.07647
G1 X82.877 Y126.253 E.10315
G1 F2396.33
G1 X82.952 Y125.737 E.01696
G1 X83.161 Y125.281 E0.01628
G1 F2398.133
G1 X83.459 Y124.926 E.01506
G1 X83.797 Y124.682 E0.01354
G1 F2399.713
G1 X84.392 Y124.462 E.02061
G1 F2398.682
G1 X84.95 Y124.428 E.01817
G1 X85.292 Y124.495 E0.01132
G1 X85.635 Y124.637 E.01206
G1 X85.924 Y124.894 E0.01255
G1 F2397.242
G1 X88.565 Y124.894 Z.2 E.08583
G1 F2399.515
G1 X91.206 Y124.894 Z.2 E.08583
G1 X91.877 Y124.224 E0.03081
G1 X91.878 Y121.283 Z.2 E.09556
G1 F2400
G1 X91.879 Y118.342 Z.2 E.09556
M107
;WIDTH:0.492264
M107
G1 F2176.123
G1 X91.881 Y118.214 E.00459
M107
;WIDTH:0.534528
M107
G1 F1987.554
G1 X91.883 Y118.086 E.00503
M107
;WIDTH:0.576792
M107
G1 F1832.468
G1 X91.885 Y117.958 E.00546
G1 F1826.01
G1 X91.801 Y118.054 E.00546
M107
;WIDTH:0.534528
M107
G1 F1992.26
G1 X91.717 Y118.151 E.00503
M107
;WIDTH:0.492264
M107
G1 F2181.138
G1 X91.633 Y118.248 E.00459
M107
;WIDTH:0.449999
M107
G1 F2399.794
G1 X89.466 Y120.431 E.09995
G1 X89.19 Y120.658 E0.01161
G1 X88.906 Y120.812 E.0105
G1 F2395.739
G1 X88.504 Y120.932 E.01364
G1 X88.192 Y120.959 E0.01015
G1 F2393.95
G1 X87.828 Y120.922 E.0119
G1 X87.483 Y120.814 E0.01174
G1 F2399.217
G1 X87.159 Y120.633 E.01206
G1 X86.894 Y120.407 E.01132
G1 F2396.039
G1 X86.574 Y119.949 E.01817
G1 X86.418 Y119.468 E0.0164
G1 F2397.027
G1 X86.39 Y119.157 E.01015
G1 X86.39 Y91.454 E0.90021
G1 F2399.408
G1 X86.442 Y91.027 E.01398
G1 X86.588 Y90.635 E0.01359
G1 F2394.222
G1 X86.805 Y90.304 E.01288
G1 X87.145 Y89.987 E0.01508
G1 F2398.813
G1 X87.626 Y89.744 E.0175
G1 F2393.465
G1 X88.045 Y89.658 E.01392
G1 X88.472 Y89.674 E0.01386
G1 F2394.135
G1 X88.882 Y89.789 E.01386
G1 F2398.338
G1 X90.897 Y90.624 E.07089
G1 X91.413 Y90.95 E0.01981
G1 F2394.895
G1 X91.839 Y91.524 E.02325
G1 X91.877 Y91.692 E0.00559
G1 F2382.213
G1 X91.877 Y86.97 E.15346
G1 F2360.344
G1 X92.003 Y86.307 E.02194
G1 F2358.897
G1 X92.053 Y86.2 E.00383
M107
;WIDTH:0.487982
M107
G1 F2153.833
G1 X92.103 Y86.093 E.00419
M107
;WIDTH:0.525964
M107
G1 F1979.272
G1 X92.152 Y85.986 E.00454
M107
;WIDTH:0.563947
M107
G1 F1839.173
G1 X92.202 Y85.879 E.0049
M107
;WIDTH:0.601929
M107
G1 F1711.768
G1 X92.252 Y85.772 E.00526
M107
;WIDTH:0.639911
M107
G1 F1516.509
G1 X92.301 Y85.665 E.00562
M107
;WIDTH:0.640803
M107
G1 F1498.404
G1 X94.781 Y83.184 E.16742
G1 F1479.02
G1 X94.79 Y82.037 E.05476
M107
;WIDTH:0.606644
M107
G1 F1571.895
G1 X94.796 Y81.872 E.00739
M107
G1 E-0.4 F3900
G1 X88.141 Y76.887 F90000
G1 E0.4 F3900
;WIDTH:0.499028
M107
G1 F1923.617
G1 X88.141 Y77.824 E.03414
M107
M107
G1 F1913.335
G1 X88.448 Y77.627 E.0133
G1 F1912.376
G1 X88.547 Y77.594 E.0038
M107
;WIDTH:0.537336
M107
G1 F1762.979
G1 X88.646 Y77.561 E.00412
M107
;WIDTH:0.575643
M107
G1 F1634.52
G1 X88.745 Y77.528 E.00444
M107
;WIDTH:0.613951
M107
G1 F1531.614
G1 X88.844 Y77.494 E.00475
M107
;WIDTH:0.652258
M107
G1 F1429.909
G1 X88.943 Y77.461 E.00507
G1 F1427.472
G1 X88.851 Y77.412 E.00507
M107
;WIDTH:0.613951
M107
G1 F1522.554
G1 X88.759 Y77.363 E.00475
M107
;WIDTH:0.575643
M107
G1 F1627.88
G1 X88.667 Y77.314 E.00444
M107
;WIDTH:0.537336
M107
G1 F1753.395
G1 X88.575 Y77.265 E.00412
M107
;WIDTH:0.499028
M107
G1 F1899.25
G1 X88.483 Y77.216 E.0038
G1 F1900.449
G1 X88.184 Y76.928 E.0151
M107
G1 E-0.4 F3900
G1 X91.231 Y68.494 F90000
G1 E0.4 F3900
;WIDTH:0.424186
M107
G1 F2272.474
G1 X91.057 Y68.343 E.00699
M107
;WIDTH:0.464918
M107
G1 F2038.739
G1 X90.884 Y68.193 E.00773
M107
;WIDTH:0.505649
M107
G1 F1861.333
G1 X90.71 Y68.043 E.00848
M107
;WIDTH:0.54638
M107
G1 F1708.491
G1 X90.537 Y67.892 E.00922
M107
;WIDTH:0.587111
M107
G1 F1575.734
G1 X90.085 Y67.463 E.02706
G1 F1568.462
G1 X89.315 Y67.463 E.03345
G1 F1560.724
G1 X88.658 Y68.121 E.04039
G1 F1551.122
G1 X89.192 Y68.008 E.02375
G1 F1545.903
G1 X90.253 Y68.008 E.0461
G1 F1543.653
G1 X90.449 Y68.105 E.00948
M107
;WIDTH:0.54638
M107
G1 F1659.456
G1 X90.644 Y68.202 E.00877
M107
;WIDTH:0.505649
M107
G1 F1810.284
G1 X90.84 Y68.299 E.00806
M107
;WIDTH:0.464918
M107
G1 F1977.819
G1 X91.035 Y68.397 E.00735
M107
;WIDTH:0.424186
M107
G1 F2184.772
G1 X91.177 Y68.467 E.00482
M107
G1 E-0.4 F3900
G1 X98.801 Y77.522 F90000
G1 E0.4 F3900
;WIDTH:0.389861
M107
G1 F2399.775
G1 X99.17 Y77.808 E.01293
G1 X99.26 Y77.983 E.00545
G1 F2397.008
G1 X99.507 Y77.736 E.00967
G1 X99.507 Y77.51 E0.00624
G1 F2396.7
G1 X98.861 Y77.521 E.01789
M107
G1 E-0.4 F3900
G1 X91.467 Y77.46 F90000
G1 E0.4 F3900
;WIDTH:0.653814
M107
G1 F1363.379
G1 X91.555 Y77.478 E.00438
M107
;WIDTH:0.613051
M107
G1 F1462.665
G1 X91.644 Y77.495 E.00412
M107
;WIDTH:0.572288
M107
G1 F1574.336
G1 X91.733 Y77.512 E.00383
M107
;WIDTH:0.531525
M107
G1 F1708.72
G1 X91.822 Y77.529 E.00353
M107
;WIDTH:0.490762
M107
G1 F1859.172
G1 X91.911 Y77.545 E.00324
M107
;WIDTH:0.449999
M107
G1 F2055.172
G1 X92 Y77.562 E.00294
G1 F2076.681
G1 X94.91 Y77.561 Z.2 E.09459
G1 F2150.026
G1 X97.821 Y77.56 Z.2 E.09459
G1 F2157.708
G1 X98.433 Y77.704 E.02041
G1 F2163.003
G1 X98.883 Y78.052 E.01851
G1 F2178.39
G1 X99.169 Y78.607 E.02027
G1 F2190.517
G1 X99.884 Y77.892 E.03286
G1 F2207.807
G1 X99.884 Y76.977 E.02973
G1 F2220.753
G1 X99.479 Y77.145 E.01424
G1 F2247.507
G1 X96.835 Y77.146 Z.2 E.08591
G1 F2319.548
G1 X94.191 Y77.148 Z.2 E.08591
G1 F2325.506
G1 X93.637 Y77.03 E.0184
G1 F2335.047
G1 X93.205 Y76.736 E.01698
G1 F2346.77
G1 X92.692 Y76.224 E.02355
G1 F2350.94
G1 X92.591 Y76.101 E.00518
G1 F2347.447
G1 X92.576 Y76.259 E.00518
G1 F2364.775
G1 X92.366 Y76.763 E.01774
G1 F2377.112
G1 X91.902 Y77.196 E.02061
G1 F2366.948
G1 X91.83 Y77.24 E.00276
M107
;WIDTH:0.490762
M107
G1 F2171.825
G1 X91.757 Y77.284 E.00304
M107
;WIDTH:0.531525
M107
G1 F1996.759
G1 X91.684 Y77.328 E.00331
M107
;WIDTH:0.572288
M107
G1 F1823.109
G1 X91.612 Y77.372 E.00359
M107
;WIDTH:0.613051
M107
G1 F1709.005
G1 X91.539 Y77.416 E.00387
M107
;WIDTH:0.653814
M107
G1 F1624.011
G1 X91.518 Y77.429 E.00118
M107
G1 X92.831 Y76.982 F90000
;WIDTH:0.662116
M107
G1 F1581.323
G1 X92.753 Y76.982 E.00383
G1 F1562.198
G1 X92.715 Y77.049 E.00383
G1 X92.753 Y77.116 E.00383
G1 F1583.25
G1 X92.831 Y77.116 E.00383
G1 F1563.967
G1 X92.869 Y77.049 E.00383
M107
G1 E-0.4 F3900
G1 X98.809 Y79.02 F90000
G1 E0.4 F3900
;WIDTH:0.449999
M107
G1 F2397.183
G1 X99.332 Y79.02 E.01699
G1 F2399.95
G1 X100.291 Y78.061 E.04406
G1 F2393.948
G1 X100.291 Y76.335 E.05607
G1 X100.177 Y76.449 E0.00521
G1 F2392.414
G1 X99.479 Y76.738 E.02456
G1 X94.191 Y76.738 E0.17183
G1 F2397.936
G1 X93.799 Y76.657 E.01302
G1 F2398.729
G1 X93.443 Y76.399 E.01429
G1 F2399.329
G1 X92.98 Y75.936 E.02126
G1 F2392.438
G1 X92.857 Y75.786 E.00631
G1 X92.768 Y75.599 E0.00671
M107
;WIDTH:0.503546
M107
G1 F2110.948
G1 X92.679 Y75.413 E.0076
G1 F2114.246
G1 X92.669 Y75.238 E.00646
G1 F2120.498
G1 X92.674 Y72.616 Z.2 E.09641
G1 X92.68 Y69.994 Z.2 E.09641
M107
;WIDTH:0.449999
M107
G1 F2400
G1 X92.691 Y69.397 E0.0194
G1 F2399.801
G1 X90.282 Y66.988 E.1107
G1 X89.118 Y66.988 E.03782
G1 X87.709 Y68.397 E0.06474
G1 X87.72 Y68.934 E.01746
M107
;WIDTH:0.494185
M107
G1 F2165.491
G1 X87.72 Y72.639 Z.2 E.13345
G1 F2164.784
G1 X87.72 Y76.343 Z.2 E.13345
M107
;WIDTH:0.449999
M107
G1 F2400
G1 X87.709 Y78.826 E0.08068
M107
M107
G1 F2396.563
G1 X88.244 Y78.259 E.02534
G1 X88.599 Y78.031 E0.01368
G1 F2395.838
G1 X88.943 Y77.97 E.01136
G1 X97.821 Y77.97 E0.28851
G1 F2396.989
G1 X98.254 Y78.069 E.01444
G1 X98.573 Y78.317 E0.01311
G1 F2393.819
G1 X98.78 Y78.717 E.01465
G1 X98.803 Y78.96 E0.00792
M107
G1 E-0.4 F3900
G1 X88.487 Y68.797 F90000
G1 E0.4 F3900
M107
G1 F2398.49
G1 X88.792 Y68.568 E.01239
G1 F2395.919
G1 X89.192 Y68.483 E.01331
G1 F2398.442
G1 X90.253 Y68.483 E.03448
G1 X90.952 Y68.773 E0.02456
G1 F2395.237
G1 X91.98 Y69.81 E.04747
G1 X92.099 Y70.118 E0.01071
M107
;WIDTH:0.494184
M107
G1 F2159.664
G1 X92.217 Y70.425 E.01187
G1 F2165.597
G1 X92.212 Y73.019 Z.2 E.09342
G1 F2163.661
G1 X92.206 Y75.612 Z.2 E.09342
M107
;WIDTH:0.449999
M107
G1 F2400
G1 X92.176 Y76.18 E0.01847
G1 F2397.984
G1 X92.028 Y76.537 E.01256
G1 X91.699 Y76.843 E0.01459
G1 F2398.045
G1 X91.378 Y76.959 E.0111
G1 F2390.398
G1 X91.208 Y76.974 E.00557
G1 X89.192 Y76.974 E0.06549
G1 F2396.633
G1 X88.85 Y76.913 E.01131
G1 F2398.045
G1 X88.699 Y76.842 E.00543
G1 F2396.363
G1 X88.357 Y76.513 E.01542
G1 X88.275 Y76.337 E0.00629
M107
;WIDTH:0.503546
M107
G1 F2111.808
G1 X88.193 Y76.162 E.00712
G1 F2125.948
G1 X88.183 Y75.986 E.00646
G1 F2121.934
G1 X88.183 Y72.729 Z.2 E.11979
G1 F2127.807
G1 X88.183 Y69.471 Z.2 E.11979
M107
;WIDTH:0.494185
M107
G1 F2170.935
G1 X88.31 Y69.152 E.01236
M107
;WIDTH:0.449999
M107
G1 F2398.486
G1 X88.439 Y68.833 E.01119
M107
G1 X89.154 Y68.919 F90000
M107
G1 F2400
G1 X89.428 Y68.89 E0.00895
G1 F2396.416
G1 X90.253 Y68.89 E.02683
G1 X90.664 Y69.06 E0.01444
G1 F2399.354
G1 X91.618 Y70.015 E.04385
G1 F2396.738
G1 X91.788 Y70.425 E.01444
G1 F2399.479
G1 X91.788 Y73.206 Z.2 E.09035
G1 F2397.917
G1 X91.788 Y75.986 Z.2 E.09035
G1 X91.69 Y76.31 E0.01099
G1 F2398.167
G1 X91.497 Y76.49 E.00858
G1 F2399.513
G1 X91.208 Y76.567 E.00972
G1 F2387.511
G1 X89.192 Y76.567 E.06549
G1 F2371.144
G1 X88.902 Y76.489 E.00976
G1 F2364.741
G1 X88.701 Y76.296 E.00906
G1 F2362.762
G1 X88.612 Y75.986 E.01047
G1 F2327.19
G1 X88.612 Y72.729 Z.2 E.10586
G1 F2237.436
G1 X88.612 Y69.471 Z.2 E.10586
G1 F2235.527
G1 X88.782 Y69.06 E.01444
G1 F2225.927
G1 X88.957 Y68.94 E.0069
G1 F2217.276
G1 X89.094 Y68.926 E.00449
M107
G1 X89.192 Y69.282 F90000
;TYPE:External perimeter
;WIDTH:0.419999
M107
G1 F2400
G1 X90.253 Y69.282 E0.03194
G1 X90.387 Y69.338 E0.00434
G1 X91.341 Y70.292 E0.04062
G1 X91.396 Y70.425 E0.00434
G1 X91.396 Y75.986 E0.16739
G1 X91.364 Y76.091 E0.0033
G1 X91.24 Y76.172 E0.00445
G1 X89.192 Y76.175 E0.06164
G1 X89.098 Y76.15 E0.00294
G1 X89.007 Y76.019 E0.0048
G1 X89.004 Y69.471 E0.19709
G1 X89.059 Y69.338 E0.00434
G1 X89.137 Y69.305 E0.00254
M107
;WIPE_START
M204 S1500
G1 X89.345 Y68.913 F90000
;WIPE_END
M204 S750
G1 X88.122 Y68.568
;TYPE:Internal perimeter
;WIDTH:0.461524
M107
G1 F2166.676
G1 X88.204 Y68.482 E.00395
M107
G1 E-0.4 F3900
G1 X91.231 Y68.494 F90000
G1 E0.4 F3900
;WIDTH:0.424186
M107
G1 F2382.336
G1 X92.292 Y69.562 E.04583
M107
G1 E-0.4 F3900
G1 X91.466 Y77.461 F90000
G1 E0.4 F3900
;WIDTH:0.653814
M107
G1 F1494.029
G1 X91.337 Y77.466 E.00631
M107
;WIDTH:0.631302
M107
G1 F1565.384
G1 X88.943 Y77.461 E.11245
M107
G1 E-0.4 F3900
G1 X93.682 Y116.065 F90000
G1 E0.4 F3900
;WIDTH:0.64025
M107
G1 F1627.512
G1 X93.664 Y116.084 E.00119
G1 F1561.066
G1 X93.595 Y116.156 E.00473
M107
M107
G1 F1557.027
