; generated by SuperSlicer 2.5.59.9 on 2024-05-04 at 15:03:08 UTC


;
;

;
;

;
;

;
;

;
;
; 

; external perimeters extrusion width = 0.40mm
; perimeters extrusion width = 0.40mm
; infill extrusion width = 0.40mm
; solid infill extrusion width = 0.40mm
; top infill extrusion width = 0.40mm

; external perimeters extrusion width = 0.40mm
; perimeters extrusion width = 0.40mm
; infill extrusion width = 0.40mm
; solid infill extrusion width = 0.40mm
; top infill extrusion width = 0.40mm

; external perimeters extrusion width = 0.40mm
; perimeters extrusion width = 0.40mm
; infill extrusion width = 0.40mm
; solid infill extrusion width = 0.40mm
; top infill extrusion width = 0.40mm

; external perimeters extrusion width = 0.40mm
; perimeters extrusion width = 0.40mm
; infill extrusion width = 0.40mm
; solid infill extrusion width = 0.40mm
; top infill extrusion width = 0.40mm

; external perimeters extrusion width = 0.40mm
; perimeters extrusion width = 0.40mm
; infill extrusion width = 0.40mm
; solid infill extrusion width = 0.40mm
; top infill extrusion width = 0.40mm

; external perimeters extrusion width = 0.40mm
; perimeters extrusion width = 0.40mm
; infill extrusion width = 0.40mm
; solid infill extrusion width = 0.40mm
; top infill extrusion width = 0.40mm

; external perimeters extrusion width = 0.40mm
; perimeters extrusion width = 0.40mm
; infill extrusion width = 0.40mm
; solid infill extrusion width = 0.40mm
; top infill extrusion width = 0.40mm

; external perimeters extrusion width = 0.40mm
; perimeters extrusion width = 0.40mm
; infill extrusion width = 0.40mm
; solid infill extrusion width = 0.40mm
; top infill extrusion width = 0.40mm

; external perimeters extrusion width = 0.40mm
; perimeters extrusion width = 0.40mm
; infill extrusion width = 0.40mm
; solid infill extrusion width = 0.40mm
; top infill extrusion width = 0.40mm

; external perimeters extrusion width = 0.40mm
; perimeters extrusion width = 0.40mm
; infill extrusion width = 0.40mm
; solid infill extrusion width = 0.40mm
; top infill extrusion width = 0.40mm

; external perimeters extrusion width = 0.40mm
; perimeters extrusion width = 0.40mm
; infill extrusion width = 0.40mm
; solid infill extrusion width = 0.40mm
; top infill extrusion width = 0.40mm

; external perimeters extrusion width = 0.40mm
; perimeters extrusion width = 0.40mm
; infill extrusion width = 0.40mm
; solid infill extrusion width = 0.40mm
; top infill extrusion width = 0.40mm

; external perimeters extrusion width = 0.40mm
; perimeters extrusion width = 0.40mm
; infill extrusion width = 0.40mm
; solid infill extrusion width = 0.40mm
; top infill extrusion width = 0.40mm

; external perimeters extrusion width = 0.40mm
; perimeters extrusion width = 0.40mm
; infill extrusion width = 0.40mm
; solid infill extrusion width = 0.40mm
; top infill extrusion width = 0.40mm

; external perimeters extrusion width = 0.40mm
; perimeters extrusion width = 0.40mm
; infill extrusion width = 0.40mm
; solid infill extrusion width = 0.40mm
; top infill extrusion width = 0.40mm

; external perimeters extrusion width = 0.40mm
; perimeters extrusion width = 0.40mm
; infill extrusion width = 0.40mm
; solid infill extrusion width = 0.40mm
; top infill extrusion width = 0.40mm

; external perimeters extrusion width = 0.40mm
; perimeters extrusion width = 0.40mm
; infill extrusion width = 0.40mm
; solid infill extrusion width = 0.40mm
; top infill extrusion width = 0.40mm

; external perimeters extrusion width = 0.40mm
; perimeters extrusion width = 0.40mm
; infill extrusion width = 0.40mm
; solid infill extrusion width = 0.40mm
; top infill extrusion width = 0.40mm

; external perimeters extrusion width = 0.40mm
; perimeters extrusion width = 0.40mm
; infill extrusion width = 0.40mm
; solid infill extrusion width = 0.40mm
; top infill extrusion width = 0.40mm

; external perimeters extrusion width = 0.40mm
; perimeters extrusion width = 0.40mm
; infill extrusion width = 0.40mm
; solid infill extrusion width = 0.40mm
; top infill extrusion width = 0.40mm

; external perimeters extrusion width = 0.40mm
; perimeters extrusion width = 0.40mm
; infill extrusion width = 0.40mm
; solid infill extrusion width = 0.40mm
; top infill extrusion width = 0.40mm

; external perimeters extrusion width = 0.40mm
; perimeters extrusion width = 0.40mm
; infill extrusion width = 0.40mm
; solid infill extrusion width = 0.40mm
; top infill extrusion width = 0.40mm

; external perimeters extrusion width = 0.40mm
; perimeters extrusion width = 0.40mm
; infill extrusion width = 0.40mm
; solid infill extrusion width = 0.40mm
; top infill extrusion width = 0.40mm

; external perimeters extrusion width = 0.40mm
; perimeters extrusion width = 0.40mm
; infill extrusion width = 0.40mm
; solid infill extrusion width = 0.40mm
; top infill extrusion width = 0.40mm

; external perimeters extrusion width = 0.40mm
; perimeters extrusion width = 0.40mm
; infill extrusion width = 0.40mm
; solid infill extrusion width = 0.40mm
; top infill extrusion width = 0.40mm

; external perimeters extrusion width = 0.40mm
; perimeters extrusion width = 0.40mm
; infill extrusion width = 0.40mm
; solid infill extrusion width = 0.40mm
; top infill extrusion width = 0.40mm

; external perimeters extrusion width = 0.40mm
; perimeters extrusion width = 0.40mm
; infill extrusion width = 0.40mm
; solid infill extrusion width = 0.40mm
; top infill extrusion width = 0.40mm

; external perimeters extrusion width = 0.40mm
; perimeters extrusion width = 0.40mm
; infill extrusion width = 0.40mm
; solid infill extrusion width = 0.40mm
; top infill extrusion width = 0.40mm

; external perimeters extrusion width = 0.40mm
; perimeters extrusion width = 0.40mm
; infill extrusion width = 0.40mm
; solid infill extrusion width = 0.40mm
; top infill extrusion width = 0.40mm

; external perimeters extrusion width = 0.40mm
; perimeters extrusion width = 0.40mm
; infill extrusion width = 0.40mm
; solid infill extrusion width = 0.40mm
; top infill extrusion width = 0.40mm

; external perimeters extrusion width = 0.40mm
; perimeters extrusion width = 0.40mm
; infill extrusion width = 0.40mm
; solid infill extrusion width = 0.40mm
; top infill extrusion width = 0.40mm

; external perimeters extrusion width = 0.40mm
; perimeters extrusion width = 0.40mm
; infill extrusion width = 0.40mm
; solid infill extrusion width = 0.40mm
; top infill extrusion width = 0.40mm

; external perimeters extrusion width = 0.40mm
; perimeters extrusion width = 0.40mm
; infill extrusion width = 0.40mm
; solid infill extrusion width = 0.40mm
; top infill extrusion width = 0.40mm

; external perimeters extrusion width = 0.40mm
; perimeters extrusion width = 0.40mm
; infill extrusion width = 0.40mm
; solid infill extrusion width = 0.40mm
; top infill extrusion width = 0.40mm

; external perimeters extrusion width = 0.40mm
; perimeters extrusion width = 0.40mm
; infill extrusion width = 0.40mm
; solid infill extrusion width = 0.40mm
; top infill extrusion width = 0.40mm

; external perimeters extrusion width = 0.40mm
; perimeters extrusion width = 0.40mm
; infill extrusion width = 0.40mm
; solid infill extrusion width = 0.40mm
; top infill extrusion width = 0.40mm

; external perimeters extrusion width = 0.40mm
; perimeters extrusion width = 0.40mm
; infill extrusion width = 0.40mm
; solid infill extrusion width = 0.40mm
; top infill extrusion width = 0.40mm

; external perimeters extrusion width = 0.40mm
; perimeters extrusion width = 0.40mm
; infill extrusion width = 0.40mm
; solid infill extrusion width = 0.40mm
; top infill extrusion width = 0.40mm

; external perimeters extrusion width = 0.40mm
; perimeters extrusion width = 0.40mm
; infill extrusion width = 0.40mm
; solid infill extrusion width = 0.40mm
; top infill extrusion width = 0.40mm

; external perimeters extrusion width = 0.40mm
; perimeters extrusion width = 0.40mm
; infill extrusion width = 0.40mm
; solid infill extrusion width = 0.40mm
; top infill extrusion width = 0.40mm

; external perimeters extrusion width = 0.40mm
; perimeters extrusion width = 0.40mm
; infill extrusion width = 0.40mm
; solid infill extrusion width = 0.40mm
; top infill extrusion width = 0.40mm

; external perimeters extrusion width = 0.40mm
; perimeters extrusion width = 0.40mm
; infill extrusion width = 0.40mm
; solid infill extrusion width = 0.40mm
; top infill extrusion width = 0.40mm

; external perimeters extrusion width = 0.40mm
; perimeters extrusion width = 0.40mm
; infill extrusion width = 0.40mm
; solid infill extrusion width = 0.40mm
; top infill extrusion width = 0.40mm

; external perimeters extrusion width = 0.40mm
; perimeters extrusion width = 0.40mm
; infill extrusion width = 0.40mm
; solid infill extrusion width = 0.40mm
; top infill extrusion width = 0.40mm

; external perimeters extrusion width = 0.40mm
; perimeters extrusion width = 0.40mm
; infill extrusion width = 0.40mm
; solid infill extrusion width = 0.40mm
; top infill extrusion width = 0.40mm

; external perimeters extrusion width = 0.40mm
; perimeters extrusion width = 0.40mm
; infill extrusion width = 0.40mm
; solid infill extrusion width = 0.40mm
; top infill extrusion width = 0.40mm

; external perimeters extrusion width = 0.40mm
; perimeters extrusion width = 0.40mm
; infill extrusion width = 0.40mm
; solid infill extrusion width = 0.40mm
; top infill extrusion width = 0.40mm

; external perimeters extrusion width = 0.40mm
; perimeters extrusion width = 0.40mm
; infill extrusion width = 0.40mm
; solid infill extrusion width = 0.40mm
; top infill extrusion width = 0.40mm

; object:{"name":"retraction_calibration","id":"retraction_calibration id:0 copy 0","object_center":[108.623934,43.600858,0.000000],"boundingbox_center":[108.623934,43.600858,7.700000],"boundingbox_size":[26.805401,26.806400,15.400000]}
EXCLUDE_OBJECT_DEFINE NAME=retraction_calibration_id_0_copy_0 CENTER=108.623934,43.600858 POLYGON=[[95.22,32.97],[95.24,32.69],[95.24,32.68],[95.29,32.40],[95.37,32.12],[95.37,32.11],[95.47,31.86],[95.59,31.61],[95.61,31.58],[95.74,31.38],[95.90,31.16],[95.91,31.16],[96.10,30.96],[96.28,30.81],[96.33,30.76],[96.59,30.59],[96.71,30.53],[96.86,30.45],[97.15,30.34],[97.19,30.33],[97.46,30.26],[97.71,30.22],[97.77,30.21],[98.09,30.20],[119.31,30.20],[119.54,30.22],[119.60,30.23],[119.88,30.28],[120.11,30.35],[120.15,30.36],[120.41,30.46],[120.64,30.58],[120.66,30.59],[120.89,30.75],[120.94,30.78],[121.05,30.88],[121.21,31.02],[121.41,31.25],[121.59,31.49],[121.60,31.51],[121.74,31.76],[121.86,32.05],[121.87,32.09],[121.95,32.35],[122.00,32.66],[122.01,32.72],[122.03,32.99],[122.02,54.28],[122.01,54.51],[122.00,54.57],[121.94,54.86],[121.88,55.09],[121.87,55.13],[121.76,55.39],[121.64,55.62],[121.63,55.64],[121.48,55.87],[121.44,55.92],[121.35,56.03],[121.21,56.18],[120.98,56.39],[120.73,56.57],[120.71,56.58],[120.46,56.71],[120.17,56.83],[120.14,56.85],[119.87,56.92],[119.56,56.98],[119.50,56.99],[119.24,57.00],[98.32,57.00],[97.76,56.99],[97.71,56.98],[97.18,56.87],[97.13,56.86],[96.65,56.64],[96.61,56.62],[96.22,56.35],[96.19,56.32],[95.86,55.98],[95.83,55.95],[95.57,55.55],[95.55,55.52],[95.36,55.08],[95.35,55.03],[95.25,54.56],[95.24,54.52],[95.22,54.03],[95.22,32.97]]
; object:{"name":"retraction_calibration","id":"retraction_calibration id:1 copy 0","object_center":[108.623934,115.404587,0.000000],"boundingbox_center":[108.623934,115.404587,7.700000],"boundingbox_size":[26.805401,26.806400,15.400000]}
EXCLUDE_OBJECT_DEFINE NAME=retraction_calibration_id_1_copy_0 CENTER=108.623934,115.404587 POLYGON=[[95.22,104.78],[95.24,104.49],[95.24,104.48],[95.29,104.20],[95.37,103.93],[95.37,103.91],[95.47,103.66],[95.59,103.41],[95.61,103.39],[95.74,103.18],[95.90,102.97],[95.91,102.96],[96.10,102.77],[96.28,102.61],[96.33,102.57],[96.59,102.40],[96.71,102.33],[96.86,102.26],[97.15,102.14],[97.19,102.13],[97.46,102.06],[97.71,102.02],[97.77,102.02],[98.09,102.00],[119.31,102.00],[119.54,102.02],[119.60,102.03],[119.88,102.08],[120.11,102.15],[120.15,102.16],[120.41,102.27],[120.64,102.39],[120.66,102.40],[120.89,102.55],[120.94,102.59],[121.05,102.68],[121.21,102.82],[121.41,103.05],[121.59,103.30],[121.60,103.32],[121.74,103.57],[121.86,103.85],[121.87,103.89],[121.95,104.15],[122.00,104.47],[122.01,104.53],[122.03,104.79],[122.02,126.09],[122.01,126.32],[122.00,126.38],[121.94,126.66],[121.88,126.89],[121.87,126.93],[121.76,127.19],[121.64,127.42],[121.63,127.44],[121.48,127.67],[121.44,127.72],[121.35,127.83],[121.21,127.99],[120.98,128.19],[120.73,128.37],[120.71,128.38],[120.46,128.52],[120.17,128.64],[120.14,128.65],[119.87,128.73],[119.56,128.78],[119.50,128.79],[119.24,128.81],[98.32,128.80],[97.76,128.79],[97.71,128.79],[97.18,128.67],[97.13,128.66],[96.65,128.44],[96.61,128.42],[96.22,128.15],[96.19,128.12],[95.86,127.79],[95.83,127.75],[95.57,127.36],[95.55,127.32],[95.36,126.88],[95.35,126.84],[95.25,126.36],[95.24,126.32],[95.22,125.83],[95.22,104.78]]
; object:{"name":"retraction_calibration","id":"retraction_calibration id:2 copy 0","object_center":[38.996521,79.516697,0.000000],"boundingbox_center":[38.996521,79.516697,7.700000],"boundingbox_size":[26.805401,26.806400,15.400000]}
EXCLUDE_OBJECT_DEFINE NAME=retraction_calibration_id_2_copy_0 CENTER=38.996521,79.516697 POLYGON=[[25.59,68.89],[25.61,68.60],[25.62,68.60],[25.66,68.31],[25.74,68.04],[25.74,68.03],[25.84,67.78],[25.96,67.53],[25.98,67.50],[26.11,67.29],[26.28,67.08],[26.28,67.08],[26.47,66.88],[26.65,66.72],[26.70,66.68],[26.96,66.51],[27.08,66.44],[27.23,66.37],[27.52,66.26],[27.56,66.24],[27.83,66.18],[28.08,66.14],[28.14,66.13],[28.47,66.11],[49.68,66.12],[49.91,66.13],[49.97,66.14],[50.25,66.20],[50.49,66.26],[50.52,66.28],[50.78,66.38],[51.01,66.50],[51.03,66.51],[51.26,66.66],[51.31,66.70],[51.43,66.79],[51.58,66.93],[51.78,67.16],[51.96,67.41],[51.97,67.43],[52.11,67.68],[52.23,67.97],[52.24,68.00],[52.32,68.27],[52.38,68.58],[52.38,68.64],[52.40,68.90],[52.40,90.20],[52.38,90.43],[52.37,90.49],[52.32,90.77],[52.25,91.01],[52.24,91.04],[52.13,91.30],[52.01,91.53],[52.00,91.55],[51.85,91.78],[51.82,91.83],[51.72,91.95],[51.58,92.10],[51.35,92.30],[51.10,92.48],[51.09,92.49],[50.83,92.63],[50.55,92.75],[50.51,92.76],[50.25,92.84],[49.93,92.90],[49.88,92.90],[49.61,92.92],[28.69,92.91],[28.13,92.90],[28.08,92.90],[27.55,92.79],[27.51,92.77],[27.02,92.56],[26.98,92.53],[26.59,92.26],[26.56,92.24],[26.23,91.90],[26.20,91.86],[25.94,91.47],[25.92,91.43],[25.74,90.99],[25.72,90.95],[25.62,90.48],[25.61,90.43],[25.60,89.94],[25.59,68.89]]
; plater:{"center":[73.810227,79.502723,0.000000],"boundingbox_center":[73.810227,79.502723,7.700000],"boundingbox_size":[96.432814,98.610129,15.400000]}

M73 P0 R33
M107
;TYPE:Custom
CALCULATE_PA MATERIAL=ASA BOWDEN_LENGTH=6 LAYER_HEIGHT=0.24 NOZZLE_SIZE=0.4 PRINT_SPEED=95%


START_PRINT EXTRUDER=250 BED=105

M107
G21 ; set units to millimeters
G90 ; use absolute coordinates
M83 ; use relative distances for extrusion
ACTIVATE_EXTRUDER EXTRUDER=extruder
; Filament gcode
M104 S250 T0 ; set temperature
M109 S250 T0 ; set temperature and wait for it to be reached
M190 S105 ; set bed temperature and wait for it to be reached
;LAYER_CHANGE
;Z:0.2
;HEIGHT:0.2
;BEFORE_LAYER_CHANGE
G92 E0.0

G1 E-1.5 F3000
G1 Z0.4 F3600000
;AFTER_LAYER_CHANGE
;0.2




CALCULATE_PA MATERIAL=ASA BOWDEN_LENGTH=6.0 LAYER_HEIGHT=0.2 NOZZLE_SIZE=0.4 PRINT_SPEED=0.9025


G92 E0
M104 S270 T0 ; set temperature
; printing object retraction_calibration id:0 copy 0
EXCLUDE_OBJECT_START NAME=retraction_calibration_id_0_copy_0
M73 P1 R33
G1 X99.28642 Y35.93601
G1 Z0.2
G1 E1.5 F3000
;TYPE:Internal perimeter
;WIDTH:0.399999
M107
G1 X99.51386 Y35.87295 E0.00718
G1 X99.95969 Y35.64287 E0.01527
G1 X100.34904 Y35.32646 E0.01527
G1 X100.66545 Y34.93711 E0.01527
G1 X100.89553 Y34.49128 E0.01527
G1 X101.0503 Y33.93304 E0.01763
G1 X101.13667 Y33.81291 E0.0045
G1 X101.07191 Y33.67987 E0.0045
G1 X101.00769 Y33.08256 E0.01828
G1 X100.84298 Y32.58771 E0.01587
G1 X100.57682 Y32.13913 E0.01587
