; generated by PrusaSlicer 2.7.1+MacOS-arm64 on 2024-02-11 at 16:57:42 UTC


;
;

;
;

;
;

;
;

;
;
; 

; external perimeters extrusion width = 0.45mm
; perimeters extrusion width = 0.45mm
; infill extrusion width = 0.45mm
; solid infill extrusion width = 0.45mm
; top infill extrusion width = 0.40mm

M73 P0 R30

EXCLUDE_OBJECT_DEFINE NAME=Right_stl CENTER=85.932,111.016 POLYGON=[[87.973,56.248],[89.245,56.303],[90.190,56.438],[93.101,57.304],[96.630,59.055],[98.374,60.122],[99.022,60.750],[99.406,61.418],[99.908,64.551],[99.947,65.264],[99.865,65.871],[99.256,67.373],[98.315,70.797],[97.879,72.745],[97.526,75.326],[97.167,79.263],[97.113,82.048],[97.360,87.975],[97.308,92.871],[97.569,106.538],[97.540,109.879],[97.375,112.639],[96.915,117.592],[96.050,123.527],[95.636,127.084],[95.369,131.086],[95.324,134.799],[95.470,138.329],[95.765,140.975],[96.289,143.437],[96.923,145.710],[97.734,147.735],[99.209,150.438],[100.075,152.212],[101.469,154.166],[101.636,154.604],[101.687,155.191],[101.366,156.863],[100.862,158.407],[100.434,159.408],[99.928,159.890],[98.018,160.870],[96.175,161.694],[94.496,162.325],[91.431,163.154],[89.544,163.469],[87.490,163.675],[85.490,163.751],[83.904,163.722],[80.538,163.388],[75.895,162.452],[75.455,162.283],[75.122,162.041],[74.510,161.297],[74.324,160.760],[74.269,155.464],[73.599,139.493],[73.353,129.221],[73.339,116.203],[73.550,103.779],[74.227,90.190],[74.625,83.893],[75.136,78.480],[75.377,74.329],[75.966,69.672],[76.654,62.383],[76.830,61.563],[77.350,60.252],[77.973,59.153],[78.272,58.817],[79.237,58.171],[82.447,57.028],[83.947,56.607],[85.956,56.313]]

;TYPE:Custom
CALCULATE_PA MATERIAL=PLA BOWDEN_LENGTH=5.5 LAYER_HEIGHT=0.2 NOZZLE_SIZE=0.4 PRINT_SPEED=90


START_PRINT EXTRUDER=210 BED=65
G21 ; set units to millimeters
G90 ; use absolute coordinates
M83 ; use relative distances for extrusion
; Filament gcode
M107
;LAYER_CHANGE
;Z:0.2
;HEIGHT:0.2
;BEFORE_LAYER_CHANGE
G92 E0.0
;0.2
;M201 X4000 Y4000
;M74 W0

G1 Z.2 F60000
;AFTER_LAYER_CHANGE
;0.2
CALCULATE_PA MATERIAL=PLA BOWDEN_LENGTH=6.0 LAYER_HEIGHT=0.24 NOZZLE_SIZE=0.4 PRINT_SPEED=90
G1 E-2 F3000
G1 X74.541 Y56.803 F60000
G1 Z.2
G1 E2 F3000
;TYPE:Skirt/Brim
;WIDTH:0.45
G1 F1800
G1 X75.05 Y56.134 E.02845
G1 X75.68 Y55.54 E.02931
G1 X76.719 Y54.753 E.04412
G1 X77.466 Y54.329 E.02907
G1 X78.195 Y54.004 E.02702
G1 X81.676 Y52.639 E.12656
G1 X83.629 Y52.111 E.06848
G1 X84.638 Y51.929 E.0347
G1 X86.621 Y51.732 E.06745
G1 X88.996 Y51.717 E.08039
G1 X90.34 Y51.836 E.04567
G1 X91.691 Y52.11 E.04666
G1 X93.548 Y52.675 E.0657
G1 X94.839 Y53.142 E.04647
G1 X96.308 Y53.863 E.05539
G1 X98.392 Y55.041 E.08103
G1 X99.858 Y55.952 E.05842
G1 X100.988 Y56.766 E.04714
G1 X101.59 Y57.285 E.0269
G1 X102.119 Y57.86 E.02645
G1 X102.584 Y58.484 E.02634
G1 X102.929 Y59.048 E.02238
G1 X103.219 Y59.644 E.02244
G1 X103.507 Y60.533 E.03163
G1 X103.664 Y61.481 E.03253
G1 X103.942 Y64.569 E.10495
G1 X103.94 Y65.439 E.02945
G1 X103.841 Y66.289 E.02897
G1 X103.693 Y66.945 E.02276
G1 X103.483 Y67.576 E.02251
G1 X102.897 Y68.775 E.04517
G1 X101.885 Y71.9 E.11119
G1 X101.538 Y73.151 E.04394
G1 X101.115 Y75.447 E.07902
G1 X100.641 Y79.325 E.13224
G1 X100.519 Y81.891 E.08695
G1 X100.667 Y88.334 E.21815
G1 X100.547 Y93.776 E.18425
G1 X100.587 Y106.608 E.43435
G1 X100.478 Y110.113 E.1187
G1 X100.237 Y112.949 E.09634
G1 X99.623 Y117.954 E.17068
G1 X98.274 Y125.723 E.26691
G1 X97.82 Y129.496 E.12863
G1 X97.598 Y132.606 E.10554
G1 X97.542 Y134.187 E.05355
G1 X97.554 Y138.021 E.12978
G1 X97.619 Y139.45 E.04842
G1 X97.827 Y141.351 E.06473
G1 X98.299 Y143.484 E.07395
G1 X98.699 Y144.661 E.04208
G1 X99.01 Y145.328 E.02491
G1 X99.598 Y146.262 E.03736
G1 X101.338 Y148.399 E.09328
G1 X102.312 Y149.722 E.05561
G1 X102.513 Y149.958 E.01049
G1 X103.622 Y150.945 E.05025
G1 X104.138 Y151.517 E.02608
G1 X104.597 Y152.159 E.02671
G1 X105.052 Y153.086 E.03495
G1 X105.336 Y154.116 E.03617
G1 X105.443 Y155.145 E.03502
G1 X105.434 Y156.008 E.02921
G1 X105.27 Y157.596 E.05404
G1 X104.93 Y159.367 E.06104
G1 X104.497 Y160.812 E.05106
G1 X104.062 Y161.685 E.03302
G1 X103.365 Y162.593 E.03875
G1 X102.508 Y163.346 E.03862
G1 X101.475 Y164.04 E.04212
G1 X100.103 Y164.844 E.05383
G1 X98.472 Y165.666 E.06182
G1 X96.744 Y166.385 E.06335
G1 X95.017 Y166.968 E.0617
G1 X92.613 Y167.586 E.08402
G1 X90.004 Y168.028 E.08957
G1 X88.086 Y168.224 E.06526
G1 X85.972 Y168.326 E.07164
G1 X83.406 Y168.283 E.08687
G1 X80.603 Y168.024 E.09528
G1 X78.161 Y167.616 E.0838
G1 X75.421 Y167.053 E.09468
G1 X74.503 Y166.816 E.03209
G1 X73.704 Y166.519 E.02885
G1 X72.953 Y166.125 E.02871
G1 X72.264 Y165.627 E.02878
G1 X71.605 Y164.982 E.03121
G1 X70.984 Y164.233 E.03293
G1 X70.548 Y163.597 E.0261
G1 X70.209 Y162.923 E.02554
G1 X69.955 Y162.197 E.02603
G1 X69.795 Y161.43 E.02652
G1 X69.714 Y160.353 E.03656
G1 X69.717 Y156.559 E.12842
G1 X69.405 Y147.201 E.31693
G1 X69.434 Y142.461 E.16045
G1 X69.569 Y139.574 E.09783
G1 X69.771 Y136.756 E.09563
G1 X70.744 Y126.983 E.33244
G1 X71.025 Y123.688 E.11194
G1 X71.246 Y119.804 E.13168
G1 X71.319 Y116.505 E.11169
G1 X71.292 Y114.347 E.07305
G1 X71.173 Y111.62 E.09239
G1 X70.515 Y103.015 E.29212
G1 X70.152 Y96.581 E.21813
G1 X70.032 Y92.746 E.12987
G1 X70.019 Y90.542 E.0746
G1 X70.11 Y87.167 E.11428
G1 X70.3 Y84.419 E.09324
G1 X70.473 Y82.696 E.05861
G1 X71.129 Y77.739 E.16925
G1 X71.502 Y73.886 E.13103
G1 X72.211 Y68.978 E.16785
G1 X72.577 Y64.311 E.15846
G1 X72.673 Y61.832 E.08397
G1 X72.846 Y60.82 E.03475
G1 X73.118 Y59.851 E.03407
G1 X73.567 Y58.644 E.04359
G1 X74.003 Y57.709 E.03492
G1 X74.473 Y56.891 E.03193
G1 X74.504 Y56.85 E.00174
G1 X74.828 Y57.097 F60000
G1 F1800
G1 X75.363 Y56.395 E.02988
G1 X75.949 Y55.847 E.02716
G1 X76.933 Y55.099 E.04184
G1 X77.658 Y54.688 E.02821
G1 X78.35 Y54.38 E.02564
G1 X81.222 Y53.232 E.10469
G1 X82.998 Y52.674 E.06301
G1 X84.694 Y52.333 E.05856
G1 X85.665 Y52.212 E.03312
G1 X87.938 Y52.102 E.07703
G1 X89.632 Y52.166 E.05738
G1 X90.277 Y52.238 E.02197
G1 X91.592 Y52.505 E.04542
G1 X94.148 Y53.311 E.09072
G1 X95.243 Y53.766 E.04014
G1 X96.111 Y54.219 E.03314
G1 X98.931 Y55.831 E.10995
G1 X100.743 Y57.091 E.07471
G1 X101.315 Y57.585 E.02558
G1 X101.812 Y58.127 E.02489
G1 X102.568 Y59.236 E.04543
G1 X102.836 Y59.784 E.02065
G1 X103.115 Y60.644 E.0306
G1 X103.261 Y61.539 E.0307
G1 X103.534 Y64.578 E.10328
G1 X103.534 Y65.404 E.02796
G1 X103.442 Y66.211 E.02749
G1 X103.304 Y66.827 E.02137
G1 X103.102 Y67.433 E.02162
G1 X102.515 Y68.632 E.04519
G1 X101.496 Y71.78 E.112
G1 X101.142 Y73.058 E.04489
G1 X100.713 Y75.387 E.08016
G1 X100.236 Y79.289 E.13306
G1 X100.112 Y81.888 E.08807
G1 X100.26 Y88.336 E.21831
G1 X100.14 Y93.774 E.18411
G1 X100.18 Y106.606 E.43435
G1 X100.071 Y110.093 E.11809
G1 X99.832 Y112.903 E.09546
G1 X99.219 Y117.899 E.17038
G1 X97.871 Y125.664 E.26677
G1 X97.414 Y129.457 E.12932
G1 X97.191 Y132.587 E.10622
G1 X97.135 Y134.178 E.05389
G1 X97.147 Y138.034 E.13052
G1 X97.296 Y140.456 E.08214
G1 X97.533 Y142.019 E.05351
G1 X98.032 Y144.014 E.06961
G1 X98.48 Y145.177 E.04219
G1 X98.836 Y145.848 E.02571
G1 X99.271 Y146.505 E.02667
G1 X101.021 Y148.654 E.09381
G1 X101.992 Y149.975 E.05549
G1 X102.222 Y150.244 E.01198
G1 X103.328 Y151.227 E.05009
G1 X103.815 Y151.764 E.02454
G1 X104.24 Y152.354 E.02461
G1 X104.677 Y153.247 E.03365
G1 X104.939 Y154.206 E.03365
G1 X105.037 Y155.174 E.03293
G1 X105.027 Y155.983 E.02739
G1 X104.868 Y157.532 E.05271
G1 X104.535 Y159.269 E.05987
G1 X104.116 Y160.667 E.0494
G1 X103.707 Y161.485 E.03096
G1 X103.055 Y162.328 E.03607
G1 X102.25 Y163.031 E.03618
G1 X100.595 Y164.097 E.06663
G1 X98.303 Y165.296 E.08756
G1 X96.603 Y166.004 E.06233
G1 X94.9 Y166.578 E.06083
G1 X93.175 Y167.043 E.06047
G1 X91.421 Y167.403 E.06061
G1 X88.948 Y167.74 E.08448
G1 X86.853 Y167.89 E.07109
G1 X84.274 Y167.911 E.0873
G1 X82.098 Y167.781 E.07379
G1 X79.735 Y167.486 E.08061
G1 X75.518 Y166.658 E.14547
G1 X74.615 Y166.424 E.03158
G1 X73.881 Y166.152 E.0265
G1 X73.155 Y165.771 E.02775
G1 X72.515 Y165.307 E.02676
G1 X71.912 Y164.715 E.0286
G1 X71.303 Y163.98 E.03231
G1 X70.906 Y163.401 E.02376
G1 X70.579 Y162.752 E.0246
G1 X70.344 Y162.077 E.02419
G1 X70.196 Y161.361 E.02475
G1 X70.121 Y160.349 E.03435
G1 X70.124 Y156.55 E.12859
G1 X69.812 Y147.193 E.3169
G1 X69.841 Y142.474 E.15974
G1 X69.976 Y139.599 E.09742
G1 X70.176 Y136.79 E.09532
G1 X71.149 Y127.022 E.33227
G1 X71.431 Y123.717 E.11228
G1 X71.653 Y119.82 E.13212
G1 X71.726 Y116.507 E.11217
G1 X71.699 Y114.336 E.07349
G1 X71.579 Y111.596 E.09283
G1 X70.921 Y102.987 E.29225
G1 X70.559 Y96.564 E.21776
G1 X70.439 Y92.738 E.12957
G1 X70.453 Y88.871 E.13089
M73 P1 R30
G1 X70.582 Y86.058 E.09532
G1 X70.877 Y82.744 E.11262
G1 X71.534 Y77.785 E.16932
G1 X71.906 Y73.938 E.13082
G1 X72.616 Y69.019 E.16823
G1 X72.983 Y64.337 E.15897
G1 X73.077 Y61.881 E.08319
G1 X73.244 Y60.907 E.03345
G1 X73.508 Y59.969 E.03298
G1 X73.946 Y58.793 E.04248
G1 X74.361 Y57.903 E.03324
G1 X74.794 Y57.146 E.02952
G1 X75.138 Y57.362 F60000
G1 F1800
G1 X75.655 Y56.679 E.029
G1 X76.199 Y56.168 E.02526
G1 X77.171 Y55.43 E.04131
G1 X77.849 Y55.048 E.02634
G1 X78.511 Y54.754 E.02452
G1 X81.37 Y53.612 E.10421
G1 X83.101 Y53.068 E.06142
G1 X84.749 Y52.736 E.0569
G1 X86.663 Y52.545 E.06511
G1 X88.969 Y52.53 E.07806
G1 X90.213 Y52.64 E.04227
G1 X90.91 Y52.761 E.02395
G1 X92.061 Y53.062 E.04027
G1 X94.012 Y53.695 E.06943
G1 X95.06 Y54.13 E.03841
G1 X95.913 Y54.575 E.03257
G1 X98.719 Y56.179 E.1094
G1 X100.497 Y57.416 E.07332
M73 P1 R29
G1 X101.039 Y57.885 E.02426
G1 X101.504 Y58.394 E.02334
G1 X101.919 Y58.954 E.02359
G1 X102.454 Y59.924 E.0375
G1 X102.723 Y60.754 E.02953
G1 X102.858 Y61.596 E.02886
G1 X103.127 Y64.588 E.10168
G1 X103.128 Y65.37 E.02647
G1 X103.042 Y66.133 E.02599
G1 X102.72 Y67.289 E.04062
G1 X102.134 Y68.49 E.04523
G1 X101.107 Y71.661 E.11282
G1 X100.745 Y72.964 E.04578
G1 X100.31 Y75.327 E.08133
G1 X99.83 Y79.253 E.13388
G1 X99.705 Y81.885 E.08919
G1 X99.853 Y88.338 E.21848
G1 X99.733 Y93.772 E.18398
G1 X99.773 Y106.604 E.43435
G1 X99.665 Y110.072 E.11744
G1 X99.427 Y112.857 E.09461
G1 X98.816 Y117.844 E.17007
G1 X97.468 Y125.605 E.26663
G1 X97.009 Y129.419 E.13003
G1 X96.785 Y132.567 E.10683
G1 X96.728 Y134.169 E.05426
G1 X96.74 Y138.046 E.13123
G1 X96.892 Y140.501 E.08326
G1 X97.133 Y142.097 E.05464
G1 X97.644 Y144.137 E.07118
G1 X98.112 Y145.35 E.04401
G1 X98.486 Y146.057 E.02707
G1 X98.944 Y146.747 E.02803
G1 X100.703 Y148.909 E.09434
G1 X101.673 Y150.229 E.05545
G1 X101.931 Y150.53 E.01342
G1 X103.034 Y151.508 E.0499
G1 X103.505 Y152.029 E.02377
G1 X103.899 Y152.577 E.02285
G1 X104.303 Y153.407 E.03125
G1 X104.541 Y154.295 E.03112
G1 X104.63 Y155.202 E.03085
G1 X104.621 Y155.959 E.02563
G1 X104.466 Y157.469 E.05138
G1 X104.14 Y159.171 E.05866
G1 X103.736 Y160.522 E.04773
G1 X103.352 Y161.283 E.02885
G1 X102.747 Y162.062 E.03339
G1 X101.994 Y162.715 E.03374
G1 X101.046 Y163.348 E.03858
G1 X99.706 Y164.134 E.05258
G1 X98.135 Y164.925 E.05954
G1 X96.462 Y165.622 E.06135
G1 X94.784 Y166.188 E.05994
G1 X92.452 Y166.788 E.08151
G1 X89.89 Y167.222 E.08796
G1 X88.02 Y167.413 E.06363
G1 X85.961 Y167.512 E.06978
G1 X83.446 Y167.47 E.08514
G1 X82.139 Y167.376 E.04435
G1 X79.804 Y167.085 E.07965
G1 X75.615 Y166.263 E.1445
G1 X74.727 Y166.033 E.03105
G1 X74.057 Y165.785 E.02418
G1 X73.382 Y165.433 E.02577
G1 X72.767 Y164.987 E.02571
G1 X72.218 Y164.447 E.02607
G1 X71.623 Y163.728 E.03159
G1 X71.25 Y163.183 E.02235
G1 X70.949 Y162.582 E.02275
G1 X70.734 Y161.957 E.02237
G1 X70.597 Y161.293 E.02295
G1 X70.529 Y160.345 E.03217
G1 X70.531 Y156.541 E.12876
G1 X70.219 Y147.184 E.3169
G1 X70.248 Y142.488 E.15896
G1 X70.382 Y139.625 E.09702
G1 X70.582 Y136.823 E.09509
G1 X71.554 Y127.061 E.33207
G1 X71.837 Y123.746 E.11262
G1 X72.059 Y119.836 E.13256
G1 X72.133 Y116.508 E.11268
G1 X72.106 Y114.325 E.0739
G1 X71.985 Y111.572 E.09328
G1 X71.327 Y102.959 E.29239
G1 X70.966 Y96.546 E.21742
G1 X70.846 Y92.73 E.12923
G1 X70.833 Y90.542 E.07406
G1 X70.923 Y87.206 E.11296
G1 X71.111 Y84.487 E.09225
G1 X71.281 Y82.792 E.05766
G1 X71.938 Y77.83 E.16942
G1 X72.31 Y73.99 E.13059
G1 X73.021 Y69.059 E.16863
G1 X73.39 Y64.363 E.15944
G1 X73.481 Y61.93 E.08241
G1 X73.642 Y60.995 E.03211
G1 X73.897 Y60.088 E.03189
G1 X74.324 Y58.943 E.04136
G1 X74.719 Y58.097 E.0316
G1 X75.108 Y57.414 E.02661
G1 X75.461 Y57.615 F60000
G1 F1800
G1 X75.471 Y57.596 E.00073
G1 X75.947 Y56.964 E.02678
G1 X76.468 Y56.474 E.02421
G1 X77.409 Y55.761 E.03996
G1 X78.039 Y55.408 E.02444
G1 X81.517 Y53.991 E.12712
G1 X83.205 Y53.462 E.05988
G1 X84.805 Y53.139 E.05525
G1 X85.736 Y53.023 E.03176
G1 X87.951 Y52.916 E.07506
G1 X89.551 Y52.976 E.0542
G1 X90.834 Y53.161 E.04388
G1 X93.174 Y53.838 E.08245
G1 X94.878 Y54.494 E.0618
G1 X98.508 Y56.527 E.14083
G1 X100.252 Y57.74 E.07191
G1 X100.763 Y58.184 E.02291
G1 X101.196 Y58.66 E.02178
G1 X101.586 Y59.189 E.02225
G1 X102.072 Y60.065 E.03391
G1 X102.324 Y60.834 E.02739
G1 X102.455 Y61.653 E.02807
G1 X102.72 Y64.598 E.10009
G1 X102.722 Y65.337 E.02501
G1 X102.642 Y66.056 E.02449
G1 X102.339 Y67.145 E.03826
G1 X101.752 Y68.348 E.04531
G1 X100.718 Y71.541 E.11361
G1 X100.349 Y72.871 E.04672
G1 X99.907 Y75.267 E.08247
G1 X99.425 Y79.217 E.13469
G1 X99.298 Y81.883 E.09034
G1 X99.446 Y88.34 E.21862
G1 X99.326 Y93.77 E.18384
G1 X99.366 Y106.602 E.43435
G1 X99.258 Y110.051 E.1168
G1 X99.023 Y112.812 E.09379
G1 X98.413 Y117.789 E.16973
G1 X97.065 Y125.547 E.26653
G1 X96.604 Y129.38 E.13068
G1 X96.378 Y132.548 E.10751
G1 X96.321 Y134.16 E.0546
G1 X96.333 Y138.058 E.13194
G1 X96.487 Y140.545 E.08434
G1 X96.734 Y142.175 E.0558
G1 X97.256 Y144.261 E.07279
G1 X97.743 Y145.523 E.04579
G1 X98.136 Y146.265 E.02842
G1 X98.617 Y146.989 E.02942
G1 X100.386 Y149.165 E.09492
G1 X101.354 Y150.482 E.05533
G1 X101.64 Y150.816 E.01488
G1 X102.74 Y151.791 E.04975
G1 X103.182 Y152.276 E.02221
G1 X103.557 Y152.799 E.02178
G1 X103.927 Y153.566 E.02882
G1 X104.143 Y154.382 E.02857
G1 X104.224 Y155.229 E.0288
G1 X104.215 Y155.934 E.02387
G1 X104.064 Y157.405 E.05005
G1 X103.744 Y159.074 E.05752
G1 X103.356 Y160.376 E.04599
G1 X102.999 Y161.081 E.02675
G1 X102.439 Y161.794 E.03069
G1 X101.738 Y162.398 E.03132
G1 X100.831 Y163.002 E.03689
G1 X99.512 Y163.776 E.05177
G1 X97.966 Y164.555 E.0586
G1 X96.321 Y165.24 E.06032
G1 X94.667 Y165.798 E.05909
G1 X92.372 Y166.389 E.08022
G1 X89.833 Y166.819 E.08717
G1 X87.987 Y167.007 E.06281
G1 X85.955 Y167.105 E.06886
G1 X84.292 Y167.097 E.05629
G1 X82.18 Y166.971 E.07162
G1 X79.872 Y166.684 E.07872
G1 X75.702 Y165.865 E.14385
G1 X74.839 Y165.641 E.03018
G1 X74.233 Y165.417 E.02187
G1 X73.608 Y165.094 E.02381
G1 X73.019 Y164.666 E.02464
G1 X72.526 Y164.18 E.02343
G1 X71.942 Y163.476 E.03096
G1 X71.594 Y162.965 E.02093
G1 X71.319 Y162.414 E.02084
G1 X71.123 Y161.839 E.02056
G1 X70.999 Y161.225 E.0212
G1 X70.936 Y160.341 E.03
G1 X70.938 Y156.531 E.12896
G1 X70.626 Y147.176 E.31683
G1 X70.655 Y142.501 E.15825
G1 X70.788 Y139.647 E.09671
G1 X70.988 Y136.857 E.09468
G1 X71.959 Y127.101 E.33186
G1 X72.243 Y123.775 E.11299
G1 X72.466 Y119.852 E.133
G1 X72.541 Y116.51 E.11315
G1 X72.513 Y114.314 E.07434
G1 X72.392 Y111.548 E.09372
G1 X71.734 Y102.931 E.29252
G1 X71.372 Y96.529 E.21705
M73 P2 R29
G1 X71.253 Y92.722 E.12893
G1 X71.267 Y88.889 E.12974
G1 X71.394 Y86.117 E.09393
G1 X71.685 Y82.84 E.11136
G1 X72.343 Y77.875 E.16953
G1 X72.713 Y74.042 E.13035
G1 X73.427 Y69.1 E.16902
G1 X73.796 Y64.389 E.15995
G1 X73.885 Y61.979 E.08163
G1 X74.039 Y61.082 E.03081
G1 X74.287 Y60.207 E.03078
G1 X74.703 Y59.093 E.04025
G1 X75.077 Y58.291 E.02995
G1 X75.431 Y57.667 E.02428
G1 X75.784 Y57.866 F60000
G1 F1800
G1 X75.806 Y57.829 E.00146
G1 X76.239 Y57.248 E.02453
G1 X76.736 Y56.78 E.02311
G1 X77.646 Y56.092 E.03862
G1 X78.833 Y55.502 E.04487
G1 X81.664 Y54.371 E.10319
G1 X83.308 Y53.855 E.05832
G1 X84.861 Y53.542 E.05362
G1 X86.696 Y53.358 E.06242
G1 X88.943 Y53.344 E.07606
G1 X90.099 Y53.446 E.03928
G1 X90.746 Y53.558 E.02223
G1 X91.822 Y53.84 E.03765
G1 X93.733 Y54.46 E.068
G1 X94.707 Y54.864 E.03569
G1 X95.525 Y55.29 E.03122
G1 X98.289 Y56.871 E.10778
G1 X99.992 Y58.054 E.07019
G1 X100.471 Y58.468 E.02143
