; generated by PrusaSlicer 2.7.1+MacOS-arm64 on 2024-02-11 at 16:47:18 UTC


;
;

;
;

;
;

;
;

;
;
; 

; external perimeters extrusion width = 0.45mm
; perimeters extrusion width = 0.45mm
; infill extrusion width = 0.45mm
; solid infill extrusion width = 0.45mm
; top infill extrusion width = 0.40mm

M73 P0 R30

EXCLUDE_OBJECT_DEFINE NAME=Right_stl CENTER=85.932,108.976 POLYGON=[[85.490,56.249],[87.490,56.325],[89.466,56.520],[91.122,56.785],[92.787,57.161],[94.496,57.675],[96.175,58.306],[99.564,59.904],[100.279,60.386],[100.645,61.030],[101.378,63.178],[101.596,64.078],[101.688,64.848],[101.636,65.396],[101.469,65.834],[100.075,67.788],[99.209,69.562],[97.735,72.265],[96.923,74.289],[96.289,76.563],[95.765,79.025],[95.470,81.671],[95.324,85.201],[95.369,88.914],[95.636,92.916],[96.050,96.473],[96.915,102.408],[97.375,107.361],[97.540,110.121],[97.569,113.462],[97.308,127.129],[97.360,132.025],[97.113,137.952],[97.167,140.737],[97.526,144.674],[97.879,147.255],[98.315,149.203],[99.256,152.627],[99.865,154.129],[99.947,154.736],[99.908,155.449],[99.406,158.582],[99.022,159.250],[98.461,159.816],[96.630,160.945],[93.101,162.696],[90.190,163.562],[88.349,163.745],[85.956,163.687],[84.128,163.432],[82.447,162.972],[79.237,161.829],[78.272,161.183],[77.973,160.847],[77.350,159.748],[76.830,158.437],[76.654,157.617],[75.966,150.328],[75.377,145.671],[75.136,141.520],[74.591,135.666],[74.124,127.830],[73.494,114.452],[73.320,100.664],[73.372,89.442],[73.645,79.226],[74.269,64.536],[74.295,59.671],[74.355,59.078],[74.519,58.689],[75.215,57.873],[75.608,57.648],[76.170,57.474],[79.438,56.801],[81.218,56.515],[83.502,56.299]]

;TYPE:Custom
CALCULATE_PA MATERIAL=PLA BOWDEN_LENGTH=5.5 LAYER_HEIGHT=0.2 NOZZLE_SIZE=0.4 PRINT_SPEED=90


START_PRINT EXTRUDER=210 BED=65
G21 ; set units to millimeters
G90 ; use absolute coordinates
M83 ; use relative distances for extrusion
; Filament gcode
M107
;LAYER_CHANGE
;Z:0.2
;HEIGHT:0.2
;BEFORE_LAYER_CHANGE
G92 E0.0
;0.2
;M201 X4000 Y4000
;M74 W0

G1 Z.2 F60000
;AFTER_LAYER_CHANGE
;0.2
CALCULATE_PA MATERIAL=PLA BOWDEN_LENGTH=6.0 LAYER_HEIGHT=0.24 NOZZLE_SIZE=0.4 PRINT_SPEED=90
G1 E-2 F3000
G1 X70.563 Y56.003 F60000
G1 Z.2
G1 E2 F3000
;TYPE:Skirt/Brim
;WIDTH:0.45
G1 F1800
G1 X71.77 Y54.55 E.06394
G1 X72.563 Y53.891 E.0349
G1 X73.371 Y53.414 E.03176
G1 X74.225 Y53.063 E.03125
G1 X75.128 Y52.807 E.03177
G1 X77.996 Y52.212 E.09915
G1 X80.627 Y51.77 E.0903
G1 X82.157 Y51.603 E.0521
G1 X83.717 Y51.5 E.05292
G1 X85.258 Y51.466 E.05217
G1 X86.793 Y51.499 E.05197
G1 X89.266 Y51.682 E.08394
G1 X91.048 Y51.918 E.06085
G1 X93.035 Y52.301 E.0685
G1 X94.962 Y52.806 E.06743
G1 X96.997 Y53.491 E.07268
G1 X98.485 Y54.091 E.05431
G1 X100.774 Y55.154 E.08543
G1 X102.351 Y55.991 E.06043
G1 X103.165 Y56.557 E.03356
G1 X103.891 Y57.253 E.03404
G1 X104.496 Y58.074 E.03452
G1 X104.962 Y58.968 E.03413
G1 X105.71 Y60.992 E.07304
G1 X106.079 Y62.246 E.04425
G1 X106.314 Y63.296 E.03642
G1 X106.424 Y64.064 E.02626
G1 X106.469 Y64.85 E.02665
G1 X106.444 Y65.52 E.02269
G1 X106.342 Y66.246 E.02482
G1 X106.135 Y67.041 E.02781
G1 X105.828 Y67.804 E.02784
G1 X105.177 Y68.925 E.04388
G1 X104.285 Y70.065 E.049
G1 X103.6 Y71.483 E.0533
G1 X102.012 Y74.402 E.11248
G1 X101.447 Y75.848 E.05255
G1 X100.827 Y78.137 E.08027
G1 X100.424 Y80.194 E.07095
G1 X100.237 Y82.038 E.06274
G1 X100.106 Y85.173 E.10621
G1 X100.139 Y88.521 E.11333
G1 X100.343 Y91.859 E.1132
G1 X100.693 Y95.132 E.11142
G1 X101.501 Y100.528 E.18468
G1 X101.7 Y102.192 E.05673
G1 X102.151 Y107.107 E.16707
G1 X102.319 Y109.958 E.09667
G1 X102.345 Y113.829 E.13103
G1 X102.095 Y126.134 E.4166
G1 X102.141 Y132.073 E.20103
G1 X101.888 Y138.447 E.21592
G1 X101.94 Y140.446 E.06769
G1 X102.381 Y145.039 E.15618
G1 X102.683 Y146.912 E.06422
G1 X103.823 Y151.204 E.15032
G1 X104.246 Y152.15 E.03508
G1 X104.497 Y152.945 E.02822
G1 X104.651 Y153.738 E.02734
G1 X104.725 Y154.556 E.0278
G1 X104.723 Y155.263 E.02393
G1 X104.669 Y155.916 E.02218
G1 X104.246 Y158.773 E.09776
G1 X104.093 Y159.566 E.02734
G1 X103.724 Y160.661 E.03911
G1 X103.37 Y161.346 E.0261
G1 X102.917 Y162.027 E.02769
G1 X102.027 Y163.046 E.0458
G1 X101.311 Y163.655 E.03182
G1 X99.834 Y164.619 E.0597
G1 X98.877 Y165.165 E.03729
G1 X96.025 Y166.625 E.10845
G1 X94.837 Y167.151 E.04398
G1 X94.133 Y167.4 E.02528
G1 X91.896 Y168.066 E.079
G1 X91.071 Y168.263 E.02871
G1 X89.363 Y168.483 E.05829
G1 X88.057 Y168.533 E.04424
G1 X85.571 Y168.453 E.08419
G1 X84.034 Y168.273 E.05238
G1 X83.116 Y168.105 E.03159
G1 X80.951 Y167.513 E.07597
G1 X78.112 Y166.53 E.10169
G1 X77.05 Y166.08 E.03904
G1 X76.258 Y165.615 E.03109
G1 X75.249 Y164.888 E.0421
G1 X74.661 Y164.337 E.02728
G1 X74.133 Y163.696 E.02811
G1 X73.352 Y162.434 E.05024
G1 X72.898 Y161.51 E.03485
G1 X72.397 Y160.262 E.04552
G1 X72.145 Y159.438 E.02917
G1 X71.886 Y157.995 E.04962
G1 X71.754 Y156.164 E.06214
G1 X71.215 Y150.869 E.18016
G1 X70.619 Y146.142 E.16127
G1 X70.38 Y142.033 E.13932
G1 X69.815 Y135.915 E.20797
G1 X69.454 Y130.096 E.19734
G1 X68.837 Y117.939 E.41203
G1 X68.727 Y115.037 E.0983
G1 X68.586 Y106.946 E.27391
G1 X68.542 Y93.699 E.4484
G1 X68.672 Y85.507 E.27732
G1 X68.959 Y84.299 E.04203
G1 X69.327 Y83.546 E.02837
G1 X69.866 Y82.82 E.03061
G1 X71.139 Y81.805 E.05511
G1 X71.809 Y81.507 E.02482
G1 X72.505 Y81.31 E.02448
G1 X73.679 Y81.232 E.03983
G1 X74.375 Y81.322 E.02375
G1 X75.817 Y81.379 E.04885
G1 X76.966 Y81.604 E.03963
G1 X77.537 Y81.788 E.02031
G1 X78.713 Y82.275 E.04308
G1 X79.997 Y82.924 E.0487
G1 X80.871 Y83.457 E.03465
G1 X83.074 Y85.092 E.09286
G1 X84.08 Y85.608 E.03827
G1 X84.763 Y86.032 E.02721
G1 X85.826 Y87.005 E.04878
G1 X86.461 Y87.92 E.0377
G1 X86.877 Y88.844 E.0343
G1 X87.08 Y89.598 E.02643
G1 X87.375 Y89.613 E.01
G1 X87.823 Y88.672 E.03528
G1 X88.252 Y88.037 E.02594
G1 X88.801 Y87.395 E.02859
G1 X89.595 Y86.637 E.03716
G1 X89.672 Y81.167 E.18517
G1 X89.63 Y77.38 E.12819
G1 X89.653 Y76.538 E.02851
G1 X89.778 Y75.315 E.04161
G1 X89.89 Y74.705 E.02099
G1 X90.205 Y73.527 E.04127
G1 X91.32 Y70.674 E.10368
G1 X91.73 Y69.477 E.04283
G1 X91.935 Y68.641 E.02914
G1 X92.122 Y67.243 E.04774
G1 X92.092 Y66.39 E.02889
G1 X91.876 Y65.651 E.02606
G1 X91.162 Y64.325 E.05098
G1 X90.593 Y63.518 E.03342
G1 X90.019 Y62.876 E.02915
G1 X89.544 Y62.483 E.02087
G1 X88.841 Y62.123 E.02673
G1 X87.817 Y61.858 E.0358
G1 X86.773 Y61.731 E.0356
G1 X85.92 Y61.694 E.0289
G1 X84.694 Y61.72 E.04151
G1 X83.31 Y61.851 E.04706
G1 X81.475 Y62.181 E.06311
G1 X79.043 Y62.782 E.0848
G1 X77.451 Y63.075 E.05479
G1 X76.943 Y63.479 E.02197
G1 X76.127 Y63.909 E.03122
G1 X75.103 Y64.191 E.03595
G1 X74.14 Y64.261 E.03268
G1 X72.894 Y64.037 E.04285
G1 X71.932 Y63.616 E.03554
G1 X71.097 Y63.041 E.03432
G1 X70.433 Y62.316 E.03328
G1 X69.917 Y61.448 E.03418
G1 X69.502 Y59.871 E.0552
G1 X69.51 Y59.271 E.02031
G1 X69.607 Y58.476 E.02711
G1 X69.756 Y57.773 E.02432
G1 X70.091 Y56.851 E.0332
G1 X70.534 Y56.056 E.03081
G1 X70.889 Y56.254 F60000
G1 F1800
G1 X70.909 Y56.218 E.00139
G1 X72.071 Y54.825 E.0614
G1 X72.784 Y54.233 E.03137
G1 X73.54 Y53.785 E.02975
G1 X74.369 Y53.444 E.03034
G1 X75.218 Y53.204 E.02986
G1 X79.322 Y52.378 E.1417
G1 X82.188 Y52.009 E.09781
G1 X83.73 Y51.907 E.05231
G1 X85.254 Y51.873 E.0516
G1 X86.78 Y51.905 E.05166
G1 X88.386 Y52.007 E.05447
G1 X90.105 Y52.192 E.05852
G1 X91.967 Y52.493 E.06384
G1 X93.901 Y52.931 E.06712
G1 X95.856 Y53.517 E.06908
G1 X98.322 Y54.464 E.08941
G1 X100.595 Y55.52 E.08484
G1 X102.128 Y56.331 E.0587
G1 X102.895 Y56.862 E.03158
G1 X103.597 Y57.535 E.03292
G1 X104.158 Y58.301 E.03214
G1 X104.596 Y59.146 E.03222
G1 X105.324 Y61.12 E.07122
G1 X105.683 Y62.341 E.04308
G1 X105.912 Y63.362 E.03542
G1 X106.062 Y64.845 E.05045
G1 X106.039 Y65.475 E.02134
G1 X105.945 Y66.155 E.02324
G1 X105.752 Y66.902 E.02612
G1 X105.454 Y67.642 E.027
G1 X104.838 Y68.7 E.04144
G1 X103.922 Y69.881 E.05059
G1 X103.239 Y71.295 E.05315
G1 X101.645 Y74.226 E.11293
G1 X101.059 Y75.724 E.05445
G1 X100.431 Y78.043 E.08132
G1 X100.02 Y80.138 E.07226
G1 X99.831 Y82.01 E.06369
G1 X99.699 Y85.166 E.10692
G1 X99.733 Y88.536 E.11408
G1 X99.937 Y91.893 E.11384
G1 X100.289 Y95.185 E.11207
G1 X101.098 Y100.584 E.18479
G1 X101.296 Y102.238 E.05639
G1 X101.745 Y107.141 E.16666
G1 X101.912 Y109.973 E.09603
G1 X101.938 Y113.822 E.13029
G1 X101.688 Y126.131 E.41673
G1 X101.734 Y132.069 E.201
G1 X101.481 Y138.443 E.21592
G1 X101.534 Y140.47 E.06863
G1 X101.977 Y145.089 E.15707
G1 X102.284 Y146.996 E.06538
G1 X103.439 Y151.342 E.15221
G1 X103.861 Y152.284 E.03494
G1 X104.1 Y153.035 E.02668
G1 X104.247 Y153.785 E.02587
G1 X104.318 Y154.583 E.02712
G1 X104.317 Y155.237 E.02214
G1 X104.265 Y155.863 E.02126
G1 X103.845 Y158.7 E.09708
G1 X103.699 Y159.463 E.0263
G1 X103.348 Y160.504 E.03719
G1 X103.025 Y161.13 E.02384
G1 X102.594 Y161.779 E.02637
G1 X101.74 Y162.757 E.04395
G1 X101.057 Y163.336 E.03031
G1 X99.627 Y164.269 E.0578
G1 X98.688 Y164.805 E.0366
G1 X95.848 Y166.259 E.108
G1 X94.686 Y166.773 E.04301
G1 X94.007 Y167.012 E.02437
G1 X91.787 Y167.674 E.07841
G1 X90.997 Y167.862 E.02749
G1 X89.33 Y168.077 E.05689
G1 X88.054 Y168.126 E.04322
G1 X85.607 Y168.047 E.08287
G1 X84.094 Y167.87 E.05156
G1 X83.204 Y167.708 E.03062
G1 X81.082 Y167.128 E.07446
G1 X78.252 Y166.148 E.10137
G1 X77.244 Y165.722 E.03704
G1 X76.488 Y165.28 E.02964
G1 X75.498 Y164.565 E.04134
G1 X74.949 Y164.05 E.02548
G1 X74.455 Y163.447 E.02639
G1 X73.714 Y162.248 E.04771
G1 X73.27 Y161.346 E.03403
G1 X72.784 Y160.137 E.04411
G1 X72.541 Y159.342 E.02814
G1 X72.29 Y157.946 E.04801
G1 X72.159 Y156.127 E.06173
G1 X71.619 Y150.825 E.18039
G1 X71.024 Y146.101 E.16117
G1 X70.786 Y142.005 E.13888
G1 X70.395 Y137.981 E.13685
G1 X70.055 Y133.46 E.15346
M73 P1 R30
G1 X69.244 Y117.922 E.52666
G1 X69.134 Y115.026 E.0981
G1 X68.994 Y106.941 E.27371
G1 X68.938 Y97.008 E.33623
G1 X68.988 Y90.08 E.23451
G1 X69.079 Y85.537 E.15381
G1 X69.349 Y84.417 E.039
G1 X69.684 Y83.743 E.02548
G1 X70.141 Y83.121 E.02613
G1 X71.371 Y82.141 E.05323
G1 X71.957 Y81.886 E.02163
G1 X72.594 Y81.708 E.02239
G1 X73.683 Y81.64 E.03693
G1 X74.343 Y81.729 E.02254
G1 X75.28 Y81.748 E.03172
G1 X76.257 Y81.854 E.03326
G1 X77.404 Y82.173 E.0403
G1 X78.541 Y82.644 E.04166
G1 X79.79 Y83.275 E.04737
G1 X80.642 Y83.794 E.03377
G1 X81.453 Y84.365 E.03357
G1 X82.856 Y85.437 E.05977
G1 X83.875 Y85.96 E.03877
G1 X84.503 Y86.346 E.02495
G1 X85.534 Y87.289 E.04729
G1 X86.115 Y88.134 E.03471
G1 X86.498 Y88.994 E.03187
G1 X86.721 Y89.835 E.02945
G1 X86.825 Y90.615 E.02664
G1 X86.903 Y95.379 E.16128
G1 X87.301 Y95.381 E.01347
G1 X87.444 Y93.153 E.07557
G1 X87.367 Y92.11 E.0354
G1 X87.411 Y91.076 E.03503
G1 X87.608 Y90.158 E.03178
G1 X87.858 Y89.486 E.02427
G1 X88.179 Y88.871 E.02348
G1 X88.582 Y88.275 E.02435
G1 X89.089 Y87.683 E.02638
G1 X89.989 Y86.823 E.04214
G1 X90.079 Y81.169 E.19141
G1 X90.038 Y77.387 E.12802
G1 X90.059 Y76.565 E.02783
G1 X90.181 Y75.372 E.04059
G1 X90.591 Y73.659 E.05962
G1 X91.699 Y70.822 E.10309
G1 X92.122 Y69.587 E.04419
G1 X92.439 Y68.124 E.05067
G1 X92.529 Y67.266 E.0292
G1 X92.496 Y66.332 E.03163
G1 X92.255 Y65.499 E.02935
G1 X91.855 Y64.69 E.03055
G1 X91.107 Y63.522 E.04695
G1 X90.708 Y63.016 E.02181
G1 X89.933 Y62.262 E.0366
G1 X89.402 Y61.925 E.02129
G1 X88.988 Y61.743 E.01531
G1 X88.164 Y61.51 E.02899
G1 X87.135 Y61.354 E.03523
G1 X85.927 Y61.287 E.04095
G1 X85.078 Y61.294 E.02874
G1 X83.76 Y61.388 E.04473
G1 X82.429 Y61.575 E.0455
G1 X78.352 Y62.516 E.14163
G1 X77.288 Y62.683 E.03646
G1 X76.736 Y63.128 E.024
G1 X75.958 Y63.538 E.02977
G1 X75.015 Y63.793 E.03307
G1 X74.185 Y63.856 E.02818
G1 X73.034 Y63.654 E.03956
G1 X72.145 Y63.268 E.03281
G1 X71.381 Y62.748 E.03128
G1 X70.748 Y62.057 E.03172
G1 X70.282 Y61.266 E.03108
G1 X69.909 Y59.849 E.0496
G1 X69.916 Y59.309 E.01828
G1 X70.144 Y57.897 E.04841
G1 X70.454 Y57.034 E.03104
G1 X70.86 Y56.306 E.02821
G1 X71.216 Y56.504 F60000
G1 F1800
G1 X71.255 Y56.433 E.00274
G1 X72.371 Y55.101 E.05882
G1 X73.006 Y54.575 E.02791
G1 X73.734 Y54.143 E.02865
G1 X74.511 Y53.826 E.02841
G1 X75.307 Y53.601 E.028
G1 X78.157 Y53.01 E.09852
G1 X80.724 Y52.579 E.08811
G1 X82.219 Y52.415 E.05091
G1 X83.744 Y52.314 E.05173
G1 X85.259 Y52.28 E.05129
G1 X86.767 Y52.312 E.05106
G1 X89.183 Y52.492 E.08201
G1 X90.925 Y52.723 E.05948
G1 X92.855 Y53.095 E.06653
G1 X94.735 Y53.588 E.06579
G1 X96.716 Y54.255 E.07075
G1 X98.158 Y54.837 E.05264
G1 X100.417 Y55.885 E.08429
G1 X101.905 Y56.672 E.05698
G1 X102.626 Y57.168 E.02962
G1 X103.279 Y57.79 E.03053
G1 X103.82 Y58.529 E.031
G1 X104.229 Y59.323 E.03023
G1 X104.937 Y61.248 E.06943
G1 X105.287 Y62.437 E.04195
G1 X105.51 Y63.428 E.03438
G1 X105.655 Y64.859 E.04869
G1 X105.548 Y66.065 E.04098
G1 X105.361 Y66.787 E.02525
G1 X105.081 Y67.479 E.02527
G1 X104.499 Y68.474 E.03902
G1 X103.564 Y69.685 E.05179
G1 X102.878 Y71.107 E.05344
G1 X101.278 Y74.051 E.11342
G1 X100.671 Y75.599 E.05628
G1 X100.035 Y77.949 E.08241
G1 X99.617 Y80.083 E.07361
G1 X99.425 Y81.982 E.06461
G1 X99.292 Y85.159 E.10763
G1 X99.326 Y88.55 E.11479
G1 X99.532 Y91.927 E.11452
G1 X99.886 Y95.238 E.11271
G1 X100.695 Y100.64 E.18489
G1 X100.891 Y102.284 E.05604
G1 X101.339 Y107.174 E.16621
G1 X101.505 Y109.989 E.09545
G1 X101.531 Y113.816 E.12954
G1 X101.281 Y126.128 E.41683
G1 X101.327 Y132.065 E.20097
G1 X101.074 Y138.439 E.21592
G1 X101.127 Y140.494 E.06958
G1 X101.573 Y145.138 E.15792
G1 X101.886 Y147.079 E.06655
G1 X103.049 Y151.457 E.15333
G1 X103.478 Y152.421 E.03572
G1 X103.703 Y153.125 E.02502
G1 X103.842 Y153.833 E.02442
G1 X103.912 Y154.61 E.02641
G1 X103.861 Y155.811 E.04069
G1 X103.444 Y158.628 E.09639
G1 X103.305 Y159.36 E.02522
G1 X102.972 Y160.346 E.03523
G1 X102.679 Y160.915 E.02166
G1 X102.272 Y161.53 E.02496
G1 X101.454 Y162.468 E.04213
G1 X100.804 Y163.017 E.0288
G1 X99.42 Y163.918 E.0559
G1 X98.498 Y164.445 E.03595
G1 X95.671 Y165.892 E.1075
G1 X94.536 Y166.394 E.04201
G1 X93.882 Y166.625 E.02348
G1 X91.678 Y167.282 E.07785
G1 X90.922 Y167.462 E.02631
G1 X89.296 Y167.671 E.05549
G1 X88.05 Y167.719 E.04221
G1 X85.643 Y167.642 E.08152
G1 X84.153 Y167.467 E.05078
G1 X83.291 Y167.31 E.02966
G1 X81.213 Y166.742 E.07292
G1 X78.391 Y165.765 E.10108
G1 X77.438 Y165.363 E.03501
G1 X76.723 Y164.947 E.028
G1 X75.765 Y164.258 E.03994
G1 X75.238 Y163.762 E.0245
G1 X74.778 Y163.198 E.02464
G1 X74.077 Y162.063 E.04516
G1 X73.643 Y161.182 E.03324
G1 X73.172 Y160.011 E.04272
G1 X72.936 Y159.245 E.02713
G1 X72.694 Y157.897 E.04636
G1 X72.565 Y156.09 E.06132
G1 X72.024 Y150.782 E.1806
G1 X71.429 Y146.06 E.1611
G1 X71.192 Y141.976 E.13847
G1 X70.8 Y137.942 E.13719
G1 X70.462 Y133.435 E.15298
G1 X69.65 Y117.905 E.52639
G1 X69.541 Y115.016 E.09786
G1 X69.401 Y106.936 E.27354
G1 X69.356 Y93.704 E.44789
G1 X69.486 Y85.569 E.2754
G1 X69.739 Y84.538 E.03593
G1 X70.04 Y83.941 E.02263
G1 X70.418 Y83.421 E.02176
G1 X71.559 Y82.503 E.04957
G1 X72.106 Y82.265 E.02019
G1 X72.681 Y82.106 E.02019
G1 X73.686 Y82.047 E.03408
G1 X74.309 Y82.135 E.0213
G1 X75.266 Y82.155 E.0324
G1 X76.172 Y82.253 E.03085
G1 X77.256 Y82.552 E.03806
G1 X78.368 Y83.012 E.04073
G1 X79.593 Y83.631 E.04646
G1 X80.414 Y84.131 E.03254
G1 X82.638 Y85.781 E.09374
G1 X84.243 Y86.66 E.06194
G1 X85.242 Y87.574 E.04583
G1 X85.751 Y88.317 E.03049
G1 X86.109 Y89.115 E.0296
G1 X86.324 Y89.927 E.02843
G1 X86.42 Y90.66 E.02502
G1 X86.51 Y97.163 E.22014
G1 X86.426 Y101.278 E.13932
G1 X86.583 Y102.656 E.04695
G1 X86.738 Y103.239 E.02042
G1 X87.314 Y103.104 E.02003
G1 X87.87 Y102.741 E.02248
G1 X87.893 Y101.223 E.05139
G1 X87.788 Y99.244 E.06708
G1 X87.817 Y97.339 E.06449
G1 X87.704 Y95.539 E.06105
G1 X87.731 Y94.566 E.03295
G1 X87.852 Y93.148 E.04817
G1 X87.774 Y92.116 E.03503
G1 X87.817 Y91.11 E.03408
G1 X87.995 Y90.286 E.02853
G1 X88.226 Y89.662 E.02252
G1 X88.523 Y89.089 E.02185
G1 X88.913 Y88.513 E.02355
G1 X89.378 Y87.97 E.0242
G1 X90.386 Y87.006 E.04721
G1 X90.487 Y81.171 E.19754
G1 X90.445 Y77.393 E.12789
G1 X90.516 Y75.959 E.0486
G1 X90.685 Y74.885 E.0368
G1 X90.976 Y73.79 E.03835
G1 X92.317 Y70.322 E.12586
G1 X92.732 Y68.808 E.05314
G1 X92.921 Y67.509 E.04443
G1 X92.939 Y66.732 E.02631
G1 X92.87 Y66.107 E.02128
G1 X92.626 Y65.332 E.0275
