; generated by SuperSlicer 2.5.59.10 on 2024-06-03 at 18:56:42 UTC


;
;

;
;
; 

; external perimeters extrusion width = 0.40mm
; perimeters extrusion width = 0.40mm
; infill extrusion width = 0.40mm
; solid infill extrusion width = 0.40mm
; top infill extrusion width = 0.40mm
; first layer extrusion width = 0.40mm

; object:{"name":"RTT TFGG PacGhost Charging Handle","id":"RTT TFGG PacGhost Charging Handle.stl id:0 copy 0","object_center":[90.000000,92.500000,0.000000],"boundingbox_center":[90.000000,92.500000,11.673000],"boundingbox_size":[19.570000,21.032000,23.346001]}
EXCLUDE_OBJECT_DEFINE NAME=RTT_TFGG_PacGhost_Charging_Handle_stl_id_0_copy_0 CENTER=90.000000,92.500000 POLYGON=[[80.22,89.37],[80.22,89.08],[80.23,89.02],[80.32,88.54],[80.50,88.02],[80.61,87.77],[80.76,87.49],[81.04,86.99],[81.38,86.51],[81.74,86.09],[81.96,85.89],[82.15,85.73],[82.40,85.59],[87.81,82.46],[88.06,82.32],[88.30,82.23],[88.59,82.14],[89.12,82.03],[89.71,81.98],[90.56,82.01],[90.88,82.03],[91.41,82.14],[91.70,82.23],[91.94,82.32],[92.19,82.46],[97.60,85.59],[97.85,85.73],[98.04,85.89],[98.26,86.09],[98.45,86.30],[98.80,86.74],[99.26,87.49],[99.39,87.76],[99.50,88.02],[99.68,88.54],[99.74,88.83],[99.78,89.08],[99.78,89.37],[99.78,95.62],[99.78,95.91],[99.77,95.97],[99.68,96.45],[99.50,96.97],[99.26,97.50],[98.96,98.00],[98.62,98.49],[98.26,98.90],[98.04,99.10],[97.85,99.26],[97.60,99.41],[92.19,102.53],[91.94,102.68],[91.70,102.76],[91.41,102.85],[91.14,102.92],[90.59,102.99],[89.70,103.02],[89.12,102.96],[88.59,102.85],[88.30,102.76],[88.06,102.68],[87.81,102.53],[82.40,99.41],[82.15,99.26],[81.96,99.10],[81.74,98.90],[81.55,98.69],[81.20,98.26],[80.74,97.50],[80.50,96.97],[80.32,96.45],[80.26,96.16],[80.22,95.91],[80.22,95.62],[80.22,89.37]]
; plater:{"center":[90.000000,92.500000,0.000000],"boundingbox_center":[90.000000,92.500000,11.673000],"boundingbox_size":[19.570000,21.032000,23.346001]}

M107
;TYPE:Custom
START_PRINT EXTRUDER=250 BED=100
M107
G21 ; set units to millimeters
G90 ; use absolute coordinates
M83 ; use relative distances for extrusion
ACTIVATE_EXTRUDER EXTRUDER=extruder
; Filament gcode
FILAMENT_START MATERIAL=ASA COLOR=#368900 VENDOR=123-3D
SET_PRESSURE_ADVANCE ADVANCE=0.062
M104 S250 T0 ; set temperature
M109 S250 T0 ; set temperature and wait for it to be reached
M190 S100 ; set bed temperature and wait for it to be reached
;LAYER_CHANGE
;Z:0.24
;HEIGHT:0.24
G1 E-1 F3600
G1 Z0.24 F60000
G92 E0
M204 S750
G1 X78.891 Y83.826
G1 E1 F3600
;TYPE:Skirt
;WIDTH:0.4
M107
G1 F2400
G1 X78.388 Y84.34 E0.02299
G1 F2398.229
G1 X77.619 Y85.402 E.04196
G1 X77.299 Y86.009 E0.02195
G1 F2399.563
G1 X76.992 Y86.891 E.02988
G1 X76.798 Y88.211 E0.04268
G1 X76.801 Y92.404 Z.24 E.13415
G1 F2398.728
G1 X76.804 Y96.597 Z.24 E.13415
G1 X76.856 Y97.284 E0.02203
G1 X77.192 Y98.673 E.04573
G1 X77.906 Y100.044 E0.04943
G1 F2396.901
G1 X78.551 Y100.834 E.03264
G1 X79.154 Y101.399 E0.0264
G1 X79.875 Y101.904 E.02818
G1 F2399.991
G1 X83.416 Y103.94 Z.24 E.13068
G1 X86.957 Y105.977 Z.24 E.13068
G1 X87.867 Y106.387 E.03193
G1 X88.591 Y106.601 E0.02415
G1 X90.12 Y106.776 E.04923
G1 X91.576 Y106.581 E0.04699
G1 X92.89 Y106.072 E.04509
G1 X100.15 Y101.874 E0.26827
G1 X100.718 Y101.486 E.02201
G1 X101.754 Y100.498 E.0458
G1 X102.444 Y99.477 E0.03942
G1 X102.933 Y98.225 E.043
G1 X103.08 Y97.603 E.02045
G1 X103.202 Y96.55 E.03392
G1 X103.199 Y92.473 Z.24 E.13042
G1 F2398.878
G1 X103.196 Y88.396 Z.24 E.13042
G1 X103.144 Y87.709 E0.02203
G1 X102.808 Y86.32 E.04573
G1 X102.094 Y84.949 E0.04943
G1 X101.449 Y84.159 E.03264
G1 F2399.196
G1 X100.854 Y83.6 E.02611
G1 X100.112 Y83.081 E0.02894
G1 F2398.276
G1 X96.542 Y81.045 Z.24 E.13147
G1 F2400
G1 X92.973 Y79.008 Z.24 E.13147
G1 F2399.572
G1 X92.088 Y78.606 E.0311
G1 X91.02 Y78.316 E.0354
G1 X90.304 Y78.24 E0.02303
G1 X89.341 Y78.248 E.03082
G1 X88.67 Y78.354 E.02174
G1 X87.447 Y78.751 E.04114
G1 X83.475 Y81.048 Z.24 E.14678
G1 X79.503 Y83.344 Z.24 E.14678
G1 F2396.861
G1 X78.938 Y83.789 E.023
M107
G1 X79.153 Y84.062 F60000
M107
G1 F2400
G1 X79.12 Y84.089 E0.00136
G1 F2394.322
G1 X78.656 Y84.563 E.02124
G1 F2399.674
G1 X77.915 Y85.587 E.04044
G1 F2398.956
G1 X77.617 Y86.153 E.02046
G1 X77.325 Y86.992 E0.02839
G1 X77.146 Y88.211 E.03942
G1 X77.152 Y96.597 E0.26829
G1 F2399.545
G1 X77.201 Y97.231 E.02035
G1 X77.524 Y98.564 E.04389
G1 X78.196 Y99.85 E0.04642
G1 X78.812 Y100.602 E.0311
G1 X79.368 Y101.124 E0.02439
G1 X80.049 Y101.602 E.02661
G1 X83.59 Y103.639 Z.24 E.13068
G1 X87.131 Y105.675 Z.24 E.13068
G1 X87.994 Y106.062 E0.03025
G1 F2397.222
G1 X88.662 Y106.26 E.02231
G1 F2399.979
G1 X90.125 Y106.428 E.0471
G1 X91.502 Y106.24 E0.04445
G1 X92.716 Y105.77 E.04165
G1 X96.346 Y103.671 Z.24 E.13414
G1 F2397.946
G1 X99.975 Y101.572 Z.24 E.13413
G1 X100.5 Y101.213 E0.02033
G1 F2396.954
G1 X101.494 Y100.266 E.04395
G1 X102.132 Y99.323 E0.03641
G1 F2399.081
G1 X102.593 Y98.145 E.04048
G1 X102.74 Y97.523 E.02045
G1 X102.853 Y96.55 E.03134
G1 X102.848 Y88.396 E0.26085
G1 X102.799 Y87.762 E.02035
G1 X102.476 Y86.429 E.04389
G1 X101.804 Y85.143 E0.04642
G1 X101.188 Y84.391 E.0311
G1 X100.639 Y83.874 E0.02412
G1 F2398.764
G1 X99.94 Y83.384 E.02732
G1 F2399.59
G1 X96.37 Y81.348 Z.24 E.13147
G1 F2398.358
G1 X92.801 Y79.311 Z.24 E.13147
G1 X91.957 Y78.928 E0.02963
G1 F2396.899
G1 X90.971 Y78.661 E.0327
G1 X90.292 Y78.589 E0.02183
G1 F2399.513
G1 X89.375 Y78.594 E.02933
G1 F2397.231
G1 X88.75 Y78.694 E.02027
G1 F2399.97
G1 X87.591 Y79.069 E.03897
G1 X79.696 Y83.635 E0.29176
G1 X79.201 Y84.025 E.02017
M107
G1 X79.416 Y84.298 F60000
M107
G1 F2394.689
G1 X79.349 Y84.351 E.00274
G1 F2399.67
G1 X78.923 Y84.786 E.01948
G1 X78.21 Y85.772 E0.03892
G1 X77.934 Y86.297 E.01898
G1 X77.659 Y87.092 E0.02691
G1 F2398.412
G1 X77.495 Y88.21 E.03617
G1 F2399.983
G1 X77.498 Y92.404 Z.24 E.13414
G1 X77.501 Y96.597 Z.24 E.13415
G1 X77.545 Y97.179 E0.01867
G1 X77.855 Y98.456 E.04204
G1 X78.486 Y99.657 E0.0434
G1 X79.072 Y100.371 E.02956
G1 F2398.573
G1 X79.582 Y100.849 E.02238
G1 F2399.746
G1 X80.222 Y101.3 E.02505
G1 X87.305 Y105.373 E0.26136
G1 F2396.773
G1 X88.12 Y105.737 E.02858
G1 X88.734 Y105.919 E0.02047
G1 F2398.78
G1 X90.13 Y106.079 E.04496
G1 X91.427 Y105.9 E.04191
G1 X92.541 Y105.468 E0.03821
G1 F2399.467
G1 X96.171 Y103.369 Z.24 E.13413
G1 F2400
G1 X99.801 Y101.27 Z.24 E.13414
G1 F2398.675
G1 X100.282 Y100.941 E.01865
G1 X101.235 Y100.033 E0.0421
G1 F2399.574
G1 X101.82 Y99.168 E.03341
G1 F2398.386
G1 X102.254 Y98.065 E.03795
G1 F2399.336
G1 X102.401 Y97.443 E.02045
G1 X102.505 Y96.55 E0.02875
G1 X102.502 Y92.473 Z.24 E.13042
G1 X102.499 Y88.396 Z.24 E.13043
G1 X102.455 Y87.814 E0.01867
G1 X102.145 Y86.537 E.04204
G1 X101.514 Y85.336 E0.0434
G1 X100.928 Y84.622 E.02956
G1 F2398.245
G1 X100.424 Y84.149 E.02213
G1 X99.767 Y83.687 E0.02569
G1 F2399.392
G1 X96.197 Y81.65 Z.24 E.13147
G1 F2398.887
G1 X92.628 Y79.614 Z.24 E.13147
G1 X91.826 Y79.251 E0.02815
G1 X90.921 Y79.006 E.03
G1 X90.28 Y78.937 E0.02062
G1 F2397.931
G1 X89.41 Y78.941 E.02784
G1 X88.829 Y79.033 E0.0188
G1 X87.735 Y79.386 E.0368
G1 F2399.989
G1 X83.812 Y81.656 Z.24 E.14499
G1 X79.888 Y83.925 Z.24 E.14499
G1 X79.463 Y84.261 E.01733
M107
G1 X79.715 Y84.542 F60000
M107
G1 F2400
G1 X79.191 Y85.01 E0.02246
G1 F2399.779
G1 X78.505 Y85.957 E.03739
G1 F2397.531
G1 X78.252 Y86.441 E.01749
G1 F2398.96
G1 X77.993 Y87.192 E.02543
G1 X77.843 Y88.21 E0.03291
G1 F2399.599
G1 X77.867 Y92.668 Z.24 E.14261
G1 F2400
G1 X77.89 Y97.126 Z.24 E.14262
G1 F2399.398
G1 X78.186 Y98.347 E.0402
G1 X78.776 Y99.463 E0.04038
G1 F2398.498
G1 X79.332 Y100.139 E.02801
G1 X79.797 Y100.574 E0.02036
G1 F2399.218
G1 X80.396 Y100.998 E.02348
G1 X83.937 Y103.034 Z.24 E.13068
G1 F2397.668
G1 X87.478 Y105.07 Z.24 E.13068
G1 X88.247 Y105.412 E0.0269
G1 F2399.218
G1 X88.805 Y105.578 E.01862
G1 X90.135 Y105.731 E.04282
G1 F2398.36
G1 X91.353 Y105.559 E.03937
G1 X92.367 Y105.167 E0.03477
G1 F2399.471
G1 X96.215 Y102.918 Z.24 E.1426
G1 X100.064 Y100.669 Z.24 E.1426
G1 X100.975 Y99.801 E0.04025
G1 X101.507 Y99.014 E.0304
G1 X101.915 Y97.985 E.03542
G1 F2398.831
G1 X102.062 Y97.363 E.02045
G1 X102.156 Y96.55 E0.02616
G1 X102.133 Y92.208 Z.24 E.1389
G1 F2400
G1 X102.11 Y87.867 Z.24 E.1389
G1 F2399.41
G1 X101.814 Y86.646 E.0402
G1 X101.224 Y85.53 E0.04038
G1 F2398.882
G1 X100.668 Y84.854 E.02801
G1 F2399.667
G1 X100.209 Y84.423 E.02014
G1 X99.594 Y83.989 E0.02407
G1 X96.025 Y81.952 Z.24 E.13147
G1 F2400
G1 X92.455 Y79.916 Z.24 E.13147
G1 F2398.814
G1 X91.695 Y79.574 E.02667
G1 X90.871 Y79.351 E0.0273
G1 F2397.422
G1 X90.268 Y79.285 E.01942
G1 X89.444 Y79.288 E0.02635
G1 F2399.155
G1 X88.909 Y79.372 E.01733
G1 F2398.948
G1 X87.879 Y79.703 E.03463
G1 F2399.646
G1 X83.98 Y81.959 Z.24 E.1441
G1 F2398.586
G1 X80.081 Y84.215 Z.24 E.1441
G1 X79.759 Y84.502 E0.01379
M107
G1 X79.989 Y84.76 F60000
M107
G1 F2398.82
G1 X79.458 Y85.233 E.02275
G1 X78.801 Y86.142 E0.03587
G1 F2399.504
G1 X78.569 Y86.585 E.016
G1 X78.327 Y87.293 E.02394
G1 X78.192 Y88.21 E0.02965
G1 X78.213 Y92.641 Z.24 E.14178
G1 F2400
G1 X78.234 Y97.073 Z.24 E.14178
G1 F2399.851
G1 X78.517 Y98.238 E.03836
G1 F2398.647
G1 X79.065 Y99.269 E.03736
G1 X79.593 Y99.907 E0.02647
G1 F2395.978
G1 X80.011 Y100.299 E.01835
G1 X80.57 Y100.696 E0.02192
G1 F2398.337
G1 X84.111 Y102.732 Z.24 E.13068
G1 X87.652 Y104.768 Z.24 E.13068
G1 X88.373 Y105.088 E0.02522
G1 F2399.464
G1 X88.876 Y105.237 E.01678
G1 F2398.111
G1 X90.139 Y105.382 E.04069
G1 X91.279 Y105.218 E0.03683
G1 X92.192 Y104.865 E.03133
G1 X99.847 Y100.397 E0.28353
G1 F2397.206
G1 X100.715 Y99.569 E.0384
G1 X101.195 Y98.859 E0.02739
G1 F2398.086
G1 X101.576 Y97.904 E.0329
G1 X101.808 Y96.55 E0.04394
G1 F2399.542
G1 X101.787 Y92.235 Z.24 E.13805
G1 F2400
G1 X101.766 Y87.92 Z.24 E.13805
G1 F2399.908
G1 X101.483 Y86.755 E.03836
G1 F2398.647
G1 X100.935 Y85.724 E.03736
G1 X100.407 Y85.086 E0.02647
G1 F2396.026
G1 X99.994 Y84.698 E.01815
G1 X99.422 Y84.292 E0.02244
G1 F2399.698
G1 X95.852 Y82.256 Z.24 E.13147
G1 F2398.818
G1 X92.283 Y80.219 Z.24 E.13147
G1 X91.564 Y79.897 E0.02519
G1 X90.822 Y79.696 E.0246
G1 X90.256 Y79.633 E0.01821
G1 X89.479 Y79.635 E.02486
G1 X88.989 Y79.711 E0.01586
G1 F2399.375
G1 X88.023 Y80.021 E.03246
G1 X80.274 Y84.506 E0.28642
G1 X80.034 Y84.72 E.01029
M107
;WIPE_START
G1 F48000
G1 X80.274 Y84.506 E-0.02292
G1 X88.023 Y80.021 E-0.63791
G1 X88.989 Y79.711 E-0.0723
G1 X89.479 Y79.635 E-0.03532
G1 X90.256 Y79.633 E-0.05538
G1 X90.822 Y79.696 E-0.04056
G1 X91.564 Y79.897 E-0.05479
G1 X91.959 Y80.074 E-0.03083
;WIPE_END
G1 E-0.05 F3600
G1 X77.148 Y81.491 F60000
G1 E1 F3600
M107
G1 F2399.378
G1 X77.457 Y81.214 E.01328
G1 X78.578 Y80.485 E0.04277
G1 F2398.752
G1 X80.125 Y79.829 E.05377
G1 X81.904 Y79.498 E0.05787
G1 F2399.331
G1 X82.592 Y79.531 E.02204
G1 F2397.701
G1 X82.93 Y78.921 E.02233
G1 X84.16 Y77.489 E0.06037
G1 X85.697 Y76.357 E.0611
G1 X87.063 Y75.755 E0.04773
G1 F2399.123
G1 X88.509 Y75.402 E.04762
G1 X90.227 Y75.312 E0.05503
G1 X91.272 Y75.395 E.03354
G1 X92.715 Y75.722 E0.04733
G1 F2398.782
G1 X94.093 Y76.29 E.0477
G1 X95.097 Y76.874 E0.03715
G1 F2399.886
G1 X96.068 Y77.645 E.03966
G1 X97.217 Y78.996 E.05673
G1 X97.501 Y79.555 E0.02005
G1 F2397.738
G1 X98.435 Y79.532 E.02991
G1 F2399.918
G1 X100.107 Y79.89 E.0547
G1 X101.962 Y80.779 E.0658
G1 X103.445 Y82 E0.06144
G1 F2397.557
G1 X104.257 Y82.949 E.03999
G1 X104.967 Y84.018 E0.04105
G1 F2399.466
G1 X105.461 Y85.053 E.03669
G1 X105.819 Y86.138 E0.03654
G1 X106.123 Y88.212 E.06706
G1 X105.77 Y90.683 E0.07984
G1 F2394.112
G1 X104.971 Y92.446 E.06194
G1 X104.923 Y92.517 E0.00273
G1 F2392.117
G1 X105.427 Y93.382 E.03206
G1 X106.019 Y95.28 E0.06358
G1 F2399.275
G1 X106.066 Y97.59 E.07393
G1 X105.581 Y99.582 E.0656
G1 X104.693 Y101.445 E0.06602
G1 X103.971 Y102.412 E.03862
G1 X103.041 Y103.365 E.0426
G1 X101.595 Y104.42 E.05726
G1 X99.698 Y105.187 E.06545
G1 X97.503 Y105.433 E0.07064
G1 F2397.795
G1 X97.129 Y106.115 E.0249
G1 X95.938 Y107.462 E0.05751
G1 F2399.624
G1 X93.921 Y108.842 E.07819
G1 X92.172 Y109.452 E.05926
G1 X90.316 Y109.706 E0.05991
G1 F2398.988
G1 X88.632 Y109.595 E.054
G1 X87.079 Y109.214 E0.05115
G1 F2399.674
G1 X85.619 Y108.582 E.0509
G1 X84.076 Y107.456 E.06111
G1 X82.687 Y105.701 E0.07159
G1 F2397.347
G1 X82.555 Y105.435 E.00951
G1 F2399.961
G1 X81.327 Y105.433 E.03929
G1 X79.544 Y104.981 E.05885
G1 X77.745 Y104.018 E0.06524
G1 F2397.043
G1 X76.823 Y103.249 E.03844
G1 X76 Y102.371 E0.03849
G1 F2398.884
G1 X74.922 Y100.78 E.06148
G1 X74.486 Y99.802 E0.03423
G1 F2396.88
G1 X74.162 Y98.784 E.0342
G1 X73.87 Y96.816 E0.06362
G1 F2398.98
G1 X74.277 Y94.18 E.08534
G1 X75.091 Y92.452 E0.0611
G1 F2399.474
G1 X74.31 Y90.757 E.05971
G1 X73.925 Y89.086 E0.05485
G1 F2398.853
G1 X73.892 Y87.621 E.04689
G1 X74.074 Y86.468 E0.03733
G1 X74.41 Y85.35 E.03736
G1 X74.885 Y84.284 E0.03732
G1 F2399.534
G1 X75.651 Y83.073 E.04584
G1 F2398.003
G1 X76.486 Y82.082 E.04148
G1 X77.103 Y81.531 E0.02645
M107
G1 X77.334 Y81.79 F60000
M107
G1 F2398.3
G1 X77.679 Y81.483 E.01478
G1 F2399.604
G1 X78.728 Y80.799 E.04006
G1 X80.208 Y80.168 E0.05145
G1 X81.947 Y79.844 E.05659
G1 X82.792 Y79.892 E.02708
G1 X83.206 Y79.134 E0.02762
G1 X84.411 Y77.731 E.05915
G1 X85.856 Y76.668 E.05739
G1 X87.161 Y76.09 E0.04565
G1 X88.576 Y75.744 E.0466
G1 F2398.973
G1 X90.211 Y75.661 E.05239
G1 X91.208 Y75.737 E0.03198
G1 F2399.792
G1 X92.596 Y76.049 E.04551
G1 X93.949 Y76.608 E.04684
G1 X94.911 Y77.168 E.03562
G1 X95.813 Y77.884 E0.03684
G1 X96.937 Y79.206 E.05551
G1 X97.288 Y79.91 E0.02516
G1 X98.383 Y79.877 E.03504
G1 X100.014 Y80.226 E.05336
G1 X101.757 Y81.062 E0.06183
G1 X103.19 Y82.238 E.05931
G1 F2398.884
G1 X103.973 Y83.151 E.03849
G1 X104.658 Y84.18 E0.03953
G1 F2399.828
G1 X105.134 Y85.173 E.03522
G1 X105.483 Y86.233 E.0357
G1 X105.774 Y88.188 E.06323
G1 X105.429 Y90.609 E0.07823
G1 F2395.48
G1 X104.661 Y92.284 E.05897
G1 X104.505 Y92.495 E0.00837
G1 X105.101 Y93.505 E.03752
G1 X105.679 Y95.36 E0.06214
G1 F2398.587
G1 X105.717 Y97.573 E.07083
G1 X105.247 Y99.482 E0.06288
G1 F2399.593
G1 X104.404 Y101.251 E.06269
G1 X103.713 Y102.177 E.03696
G1 X102.801 Y103.112 E0.04177
G1 X101.443 Y104.106 E.05384
G1 X99.635 Y104.843 E.06248
G1 X97.511 Y105.084 E0.06838
G1 F2398.125
G1 X97.306 Y105.065 E.00659
G1 F2399.931
G1 X96.855 Y105.899 E.03032
G1 X95.691 Y107.215 E0.05618
G1 F2398.72
G1 X93.744 Y108.541 E.07538
G1 F2399.973
G1 X92.107 Y109.109 E.05543
G1 X90.321 Y109.357 E0.05768
G1 X88.7 Y109.253 E.05197
G1 X87.204 Y108.888 E0.04926
G1 X85.775 Y108.27 E.04981
G1 X84.335 Y107.221 E.057
G1 X82.973 Y105.5 E.07021
G1 X82.774 Y105.086 E.01469
G1 X81.391 Y105.09 E0.04423
G1 X79.65 Y104.648 E.05747
G1 X77.955 Y103.74 E.06151
G1 X77.054 Y102.988 E0.03753
G1 F2398.122
G1 X76.264 Y102.143 E.03702
G1 X75.234 Y100.623 E0.05871
G1 F2399.196
G1 X74.808 Y99.669 E.03343
G1 F2398.884
G1 X74.498 Y98.692 E.03281
G1 F2399.865
G1 X74.219 Y96.792 E.06144
G1 X74.618 Y94.259 E.08203
G1 X75.404 Y92.605 E0.05858
G1 F2396.157
G1 X75.49 Y92.485 E.00473
G1 F2399.906
G1 X74.646 Y90.661 E.06429
G1 X74.269 Y89.025 E0.0537
G1 F2398.872
G1 X74.239 Y87.66 E.04369
G1 X74.417 Y86.534 E0.03646
G1 F2399.437
G1 X74.732 Y85.481 E.03517
G1 X75.187 Y84.46 E.03577
G1 X75.925 Y83.289 E.04429
G1 X76.745 Y82.316 E0.0407
G1 X77.289 Y81.83 E.02334
M107
G1 X77.521 Y82.09 F60000
M107
G1 F2397.306
G1 X77.901 Y81.752 E.01629
G1 X78.88 Y81.114 E0.03739
G1 F2399.159
G1 X80.29 Y80.507 E.04912
G1 X81.99 Y80.191 E0.05529
G1 X82.993 Y80.253 E.03215
G1 F2398.964
G1 X83.483 Y79.347 E.03296
G1 X84.663 Y77.973 E0.05792
G1 X86.014 Y76.979 E.05369
G1 F2399.798
G1 X87.287 Y76.415 E.04454
G1 X88.642 Y76.087 E0.04459
G1 X90.196 Y76.009 E.04977
G1 F2397.948
G1 X91.144 Y76.08 E.03043
G1 X92.477 Y76.377 E0.04367
G1 X93.805 Y76.925 E.04598
G1 X94.725 Y77.463 E0.03407
G1 F2399.274
G1 X95.559 Y78.123 E.03402
G1 X96.658 Y79.415 E.05426
G1 X97.074 Y80.266 E.03031
G1 X98.331 Y80.222 E0.04023
G1 X99.921 Y80.563 E.05202
G1 F2398.887
G1 X101.552 Y81.345 E.05788
G1 X102.936 Y82.477 E0.05718
G1 F2399.274
G1 X103.689 Y83.354 E.03699
G1 F2398.969
G1 X104.349 Y84.341 E.038
G1 X104.814 Y85.313 E0.03446
G1 X105.147 Y86.327 E.03415
