; generated by SuperSlicer 2.5.59.12 on 2024-06-21 at 21:24:04 UTC


;
;

;
;
; 

; external perimeters extrusion width = 0.48mm
; perimeters extrusion width = 0.48mm
; infill extrusion width = 0.48mm
; solid infill extrusion width = 0.48mm
; top infill extrusion width = 0.48mm
; first layer extrusion width = 0.48mm

; object:{"name":"Select Fire Selector (With Brim) V10","id":"Select Fire Selector (With Brim) V10.stl id:0 copy 0","object_center":[86.018441,89.621412,0.000000],"boundingbox_center":[86.018441,89.621412,12.239526],"boundingbox_size":[37.433693,27.999359,24.479052]}
EXCLUDE_OBJECT_DEFINE NAME=Select_Fire_Selector_With_Brim_V10_stl_id_0_copy_0 CENTER=86.018441,89.621412 POLYGON=[[67.30,89.86],[67.31,89.63],[67.32,89.40],[67.34,89.17],[67.37,88.95],[67.40,88.72],[67.41,88.66],[67.45,88.50],[67.46,88.42],[67.50,88.28],[67.52,88.20],[67.56,88.07],[67.59,87.97],[67.62,87.86],[67.66,87.75],[67.70,87.66],[67.74,87.54],[67.78,87.46],[67.83,87.33],[67.87,87.26],[67.93,87.13],[67.96,87.08],[68.04,86.94],[68.15,86.75],[68.17,86.72],[68.29,86.55],[68.42,86.38],[68.55,86.22],[68.68,86.08],[68.82,85.95],[68.85,85.92],[68.99,85.80],[69.13,85.69],[78.64,78.49],[78.97,78.24],[79.30,78.01],[79.64,77.79],[79.99,77.57],[80.35,77.37],[80.71,77.18],[81.07,77.00],[81.45,76.82],[81.82,76.66],[82.20,76.51],[82.59,76.38],[82.98,76.25],[83.37,76.13],[83.77,76.03],[84.16,75.94],[84.57,75.86],[84.97,75.79],[85.37,75.73],[85.78,75.69],[86.19,75.65],[86.60,75.63],[87.01,75.62],[87.42,75.62],[87.82,75.64],[88.23,75.67],[88.64,75.70],[89.05,75.75],[89.45,75.82],[89.85,75.89],[90.25,75.98],[90.65,76.07],[91.04,76.18],[91.44,76.30],[91.82,76.43],[92.21,76.58],[92.58,76.73],[92.96,76.90],[93.33,77.07],[93.69,77.26],[94.05,77.46],[94.40,77.66],[94.75,77.88],[95.09,78.11],[95.42,78.35],[95.75,78.59],[96.07,78.85],[96.38,79.12],[96.68,79.39],[96.98,79.68],[97.26,79.97],[97.54,80.27],[103.97,87.60],[104.02,87.65],[104.07,87.72],[104.12,87.78],[104.14,87.82],[104.18,87.88],[104.23,87.95],[104.27,88.01],[104.31,88.09],[104.35,88.15],[104.39,88.25],[104.42,88.30],[104.46,88.40],[104.48,88.45],[104.52,88.57],[104.53,88.59],[104.54,88.61],[104.58,88.76],[104.63,88.93],[104.67,89.10],[104.70,89.28],[104.72,89.46],[104.73,89.58],[104.73,89.64],[104.74,89.82],[104.73,90.00],[104.73,90.06],[104.72,90.18],[104.70,90.36],[104.67,90.54],[104.63,90.71],[104.59,90.88],[104.54,91.03],[104.53,91.05],[104.52,91.08],[104.48,91.19],[104.46,91.24],[104.42,91.34],[104.39,91.40],[104.35,91.49],[104.32,91.55],[104.27,91.63],[104.23,91.69],[104.19,91.76],[104.14,91.83],[104.12,91.86],[104.07,91.92],[104.02,91.99],[103.98,92.04],[103.92,92.11],[97.28,99.25],[97.00,99.55],[96.70,99.83],[96.40,100.11],[96.09,100.37],[95.77,100.63],[95.45,100.88],[95.11,101.12],[94.78,101.35],[94.43,101.56],[94.08,101.77],[93.72,101.97],[93.36,102.16],[92.99,102.33],[92.61,102.50],[92.23,102.66],[91.85,102.80],[91.46,102.93],[91.07,103.05],[90.68,103.16],[90.28,103.26],[89.88,103.35],[89.48,103.42],[89.08,103.48],[88.67,103.54],[88.26,103.57],[87.85,103.60],[87.45,103.62],[87.04,103.62],[86.63,103.61],[86.22,103.59],[85.81,103.56],[85.40,103.52],[85.00,103.46],[84.60,103.39],[84.19,103.31],[83.80,103.22],[83.40,103.12],[83.01,103.00],[82.62,102.88],[82.23,102.74],[81.85,102.59],[81.47,102.43],[81.10,102.26],[80.74,102.08],[80.37,101.89],[80.02,101.68],[79.67,101.47],[79.33,101.25],[78.99,101.02],[69.18,94.06],[69.02,93.95],[68.87,93.82],[68.84,93.79],[68.70,93.65],[68.56,93.50],[68.43,93.35],[68.31,93.20],[68.20,93.03],[68.18,93.00],[68.07,92.83],[67.97,92.65],[67.94,92.59],[67.87,92.46],[67.84,92.39],[67.78,92.27],[67.75,92.19],[67.70,92.07],[67.67,91.97],[67.63,91.86],[67.59,91.75],[67.56,91.65],[67.52,91.53],[67.50,91.44],[67.47,91.30],[67.45,91.22],[67.42,91.07],[67.40,91.00],[67.38,90.83],[67.34,90.59],[67.32,90.35],[67.31,90.11],[67.30,89.86]]
; plater:{"center":[86.018441,89.621412,0.000000],"boundingbox_center":[86.018441,89.621412,12.239526],"boundingbox_size":[37.433693,27.999359,24.479052]}

M107
;TYPE:Custom
START_PRINT EXTRUDER=250 BED=100
M107
G21 ; set units to millimeters
G90 ; use absolute coordinates
M83 ; use relative distances for extrusion
; Filament gcode
FILAMENT_START MATERIAL=ASA COLOR=#368900 VENDOR=123-3D
SET_PRESSURE_ADVANCE ADVANCE=0.062
M104 S250 ; set temperature
M109 S250 ; set temperature and wait for it to be reached
M190 S100 ; set bed temperature and wait for it to be reached
;LAYER_CHANGE
;Z:0.24
;HEIGHT:0.24
G1 E-1.000000 F3600
G1 Z0.24 F60000
G92 E0
M204 S1000
G1 X74.285 Y76.262
G1 E1.000000 F3600
;TYPE:Skirt
;WIDTH:0.48
M107
G1 F2400
G1 X75.051 Y75.567 E0.04069
G1 F2399.266
G1 X75.847 Y74.92 E.04036
G1 X77.21 Y73.969 E0.06536
G1 F2398.393
G1 X78.686 Y73.125 E.0669
G1 X79.602 Y72.688 E0.0399
G1 F2399.356
G1 X80.552 Y72.297 E.04041
G1 F2398.108
G1 X81.572 Y71.944 E.04248
G1 X82.623 Y71.647 E0.04294
G1 X84.173 Y71.329 E.06226
G1 F2399.816
G1 X85.866 Y71.135 E.06703
G1 X87.56 Y71.097 E.06664
G1 X88.593 Y71.15 E0.04068
G1 X89.614 Y71.259 E.04039
G1 X91.314 Y71.571 E.06799
G1 X92.315 Y71.833 E0.04069
G1 F2398.54
G1 X93.29 Y72.147 E.04031
G1 F2399.56
G1 X94.757 Y72.736 E.06218
G1 X96.277 Y73.509 E0.06705
G1 X97.717 Y74.417 E.06697
G1 X98.542 Y75.026 E.04035
G1 X99.333 Y75.68 E0.04037
G1 X100.578 Y76.878 E.06797
G1 X101.268 Y77.649 E0.04069
G1 X101.909 Y78.449 E.04032
G1 X102.807 Y79.75 E.06218
G1 X103.657 Y81.252 E.06789
G1 X104.365 Y82.826 E.0679
G1 X104.882 Y84.322 E0.06224
G1 F2398.913
G1 X105.154 Y85.338 E.04138
G1 X105.368 Y86.37 E0.04145
G1 X105.523 Y87.412 E.04145
G1 X105.619 Y88.459 E0.04135
G1 F2399.828
G1 X105.651 Y90.041 E.06224
G1 X105.531 Y91.763 E.0679
G1 X105.252 Y93.466 E.06789
G1 F2398.946
G1 X104.859 Y94.997 E.06218
G1 X104.534 Y95.97 E0.04032
G1 F2397.057
G1 X104.153 Y96.931 E.04069
G1 X103.398 Y98.486 E0.06797
G1 F2399.405
G1 X102.882 Y99.373 E.04037
G1 X102.319 Y100.23 E.04034
G1 X101.294 Y101.563 E0.06611
G1 F2398.88
G1 X100.154 Y102.798 E.06614
G1 X99.405 Y103.498 E.04035
G1 X98.618 Y104.157 E0.04035
G1 X97.253 Y105.138 E.06612
G1 X95.805 Y105.993 E0.06613
G1 F2399.412
G1 X94.886 Y106.447 E.04033
G1 X93.943 Y106.852 E.04039
G1 F2398.861
G1 X92.3 Y107.414 E.06831
G1 X91.306 Y107.673 E0.04037
G1 X90.301 Y107.877 E.04034
G1 F2399.951
G1 X88.634 Y108.089 E.0661
G1 X86.962 Y108.15 E0.06581
G1 X85.929 Y108.112 E.04067
G1 X84.907 Y108.018 E.04037
G1 X83.249 Y107.741 E0.06612
G1 F2398.692
G1 X81.623 Y107.315 E.06614
G1 X80.652 Y106.983 E0.04035
G1 F2399.754
G1 X79.701 Y106.598 E.04035
G1 X78.193 Y105.855 E.06613
G1 X76.758 Y104.979 E0.06612
G1 F2398.036
G1 X75.925 Y104.382 E.04034
G1 F2399.887
G1 X75.125 Y103.739 E.04037
G1 X73.861 Y102.56 E.06798
G1 X73.16 Y101.799 E.04069
G1 X72.507 Y101.007 E0.04036
G1 F2398.397
G1 X71.546 Y99.652 E.06537
G1 X70.692 Y98.181 E0.0669
G1 F2399.792
G1 X70.244 Y97.258 E.04036
G1 X69.851 Y96.322 E.03994
G1 X69.49 Y95.304 E0.04248
G1 F2398.938
G1 X69.185 Y94.256 E.04294
G1 X68.855 Y92.707 E0.06227
G1 X68.648 Y90.995 E.06784
G1 X68.6 Y89.289 E0.06712
G1 X68.697 Y87.691 E.063
G1 X68.833 Y86.675 E0.04032
G1 F2399.489
G1 X69.023 Y85.667 E.04035
G1 X69.463 Y84.022 E0.06696
G1 F2398.864
G1 X70.052 Y82.423 E.06705
G1 F2399.457
G1 X70.729 Y80.992 E.06227
G1 X71.266 Y80.041 E0.04294
G1 X71.851 Y79.133 E.04248
G1 F2398.332
G1 X72.455 Y78.303 E.04041
G1 X73.096 Y77.517 E.03991
G1 X74.244 Y76.306 E0.0656
M107
G1 X74.579 Y76.574 F60000
M107
G1 F2399.36
G1 X75.326 Y75.896 E.03968
G1 X76.111 Y75.257 E.03982
G1 X77.447 Y74.326 E.06405
G1 X78.878 Y73.508 E0.06483
G1 F2398.6
G1 X79.781 Y73.078 E.03936
G1 F2399.682
G1 X80.709 Y72.696 E.03947
G1 X81.707 Y72.351 E0.04152
G1 X82.732 Y72.062 E.04189
G1 F2398.954
G1 X84.25 Y71.75 E.06098
G1 X85.886 Y71.563 E0.06476
G1 F2399.67
G1 X87.546 Y71.525 E.06532
G1 X88.553 Y71.577 E.03967
G1 X89.56 Y71.685 E.03984
G1 X91.213 Y71.988 E0.0661
G1 X92.189 Y72.243 E.03968
G1 X93.152 Y72.553 E0.03978
G1 X94.589 Y73.13 E.06091
G1 X96.057 Y73.877 E0.06478
G1 X97.469 Y74.766 E.06564
G1 F2397.807
G1 X98.273 Y75.36 E.03935
G1 X99.053 Y76.006 E0.03982
G1 F2399.836
G1 X100.265 Y77.17 E.06608
G1 F2398.746
G1 X100.937 Y77.922 E.03968
G1 X101.57 Y78.711 E0.03978
G1 F2399.64
G1 X102.449 Y79.986 E.06092
G1 X103.28 Y81.454 E.06636
G1 X103.963 Y82.976 E0.06561
G1 X104.47 Y84.44 E.06096
G1 X104.735 Y85.431 E.04036
G1 X104.945 Y86.439 E0.0405
G1 F2398.793
G1 X105.097 Y87.457 E.04049
G1 X105.192 Y88.491 E0.04081
G1 X105.222 Y90.04 E.06095
G1 F2399.475
G1 X105.104 Y91.723 E.06638
G1 X104.835 Y93.369 E.0656
G1 X104.45 Y94.869 E0.06091
G1 X104.129 Y95.828 E.03979
G1 X103.758 Y96.766 E0.03967
G1 X103.024 Y98.277 E.06608
G1 X102.514 Y99.152 E.03983
G1 X101.965 Y99.988 E0.03933
G1 X100.973 Y101.279 E.06406
G1 X99.856 Y102.49 E.06482
G1 X99.116 Y103.181 E0.03981
G1 X98.349 Y103.823 E.03934
G1 X97.027 Y104.774 E.06406
G1 X95.608 Y105.612 E0.06481
G1 F2397.167
G1 X94.702 Y106.061 E.0398
G1 X93.781 Y106.455 E0.03937
G1 X92.184 Y107.002 E.06642
G1 X91.215 Y107.254 E0.03937
G1 X90.224 Y107.455 E.0398
G1 F2399.929
G1 X88.609 Y107.661 E.06403
G1 X86.97 Y107.722 E0.0645
G1 F2397.511
G1 X85.963 Y107.685 E.03966
G1 X84.954 Y107.592 E0.03983
G1 F2398.838
G1 X83.348 Y107.324 E.06406
G1 F2399.188
G1 X81.754 Y106.907 E.06482
G1 X80.807 Y106.583 E0.03935
G1 F2398.956
G1 X79.869 Y106.204 E.0398
G1 F2399.938
G1 X78.391 Y105.475 E.06482
G1 X77.001 Y104.626 E0.06406
G1 F2397.45
G1 X76.189 Y104.044 E.03933
G1 X75.399 Y103.41 E0.03983
G1 F2399.716
G1 X74.171 Y102.263 E.06609
G1 X73.487 Y101.522 E.03968
G1 X72.843 Y100.741 E.03982
G1 X71.902 Y99.412 E0.06405
G1 F2398.81
G1 X71.074 Y97.987 E.06484
G1 X70.636 Y97.087 E0.03935
G1 X70.248 Y96.162 E.03947
G1 F2399.539
G1 X69.896 Y95.167 E.04152
G1 X69.599 Y94.144 E.04189
G1 X69.277 Y92.627 E0.06098
G1 X69.076 Y90.973 E.06555
G1 X69.028 Y89.306 E.06561
G1 X69.123 Y87.74 E.06172
G1 X69.257 Y86.737 E0.03978
G1 X69.443 Y85.754 E.03935
G1 F2398.104
G1 X69.874 Y84.143 E.06563
G1 X70.444 Y82.597 E0.06478
G1 F2399.515
G1 X71.106 Y81.195 E.06098
G1 F2397.964
G1 X71.629 Y80.268 E.04189
G1 X72.201 Y79.38 E0.04153
G1 F2398.18
G1 X72.791 Y78.569 E.03947
G1 X73.424 Y77.794 E0.03936
G1 F2399.93
G1 X74.538 Y76.618 E.06372
M107
G1 X74.873 Y76.886 F60000
M107
G1 F2399.503
G1 X75.609 Y76.217 E.03913
G1 X76.375 Y75.595 E.03881
G1 X77.668 Y74.693 E0.06199
G1 X79.07 Y73.892 E.06352
G1 X79.96 Y73.467 E.03881
G1 X80.866 Y73.095 E.03853
G1 X81.841 Y72.758 E0.04056
G1 F2397.937
G1 X82.84 Y72.476 E.04085
G1 X84.327 Y72.172 E0.05968
G1 F2399.641
G1 X85.925 Y71.99 E.06326
G1 X87.532 Y71.953 E.06324
G1 X88.525 Y72.004 E.03912
G1 X89.507 Y72.11 E0.03883
G1 F2397.564
G1 X91.112 Y72.404 E.06421
G1 X92.075 Y72.656 E0.03913
G1 X93.013 Y72.958 E.03878
G1 X94.42 Y73.524 E0.05964
G1 F2398.515
G1 X95.853 Y74.254 E.06328
G1 X97.221 Y75.115 E0.06356
G1 F2399.856
G1 X98.014 Y75.702 E.0388
G1 X98.774 Y76.331 E.03881
G1 X99.951 Y77.462 E0.0642
G1 F2398.487
G1 X100.614 Y78.203 E.03913
G1 X101.23 Y78.973 E0.03878
G1 F2399.751
G1 X102.091 Y80.221 E.05964
G1 X102.893 Y81.639 E0.06408
G1 X103.561 Y83.125 E.06409
G1 X104.058 Y84.559 E0.05968
G1 F2397.504
G1 X104.32 Y85.536 E.03981
G1 X104.524 Y86.521 E0.03954
G1 F2396.374
G1 X104.672 Y87.514 E.03953
G1 X104.764 Y88.522 E0.0398
G1 F2399.798
G1 X104.794 Y90.039 E.05967
G1 X104.68 Y91.664 E.06409
G1 X104.417 Y93.272 E0.06408
G1 F2398.589
G1 X104.041 Y94.74 E.05963
G1 X103.725 Y95.687 E0.03926
G1 X103.362 Y96.6 E.03866
G1 X102.649 Y98.069 E0.0642
G1 F2399.462
G1 X102.153 Y98.922 E.03881
G1 X101.611 Y99.746 E0.03879
G1 F2398.28
G1 X100.639 Y101.01 E.06275
G1 X99.557 Y102.183 E0.06275
G1 F2399.042
G1 X98.837 Y102.857 E.0388
G1 X98.08 Y103.49 E0.03881
G1 F2398.972
G1 X96.785 Y104.421 E.06275
G1 X95.411 Y105.232 E0.06274
G1 F2399.621
G1 X94.527 Y105.669 E.03879
G1 X93.62 Y106.058 E.03883
G1 X92.068 Y106.589 E.06453
G1 X91.113 Y106.838 E.03882
G1 X90.146 Y107.034 E0.03879
G1 X88.564 Y107.235 E.06273
G1 X86.978 Y107.293 E.06244
G1 X85.984 Y107.257 E0.03911
G1 F2397.313
G1 X85.002 Y107.166 E.03882
G1 X83.428 Y106.902 E0.06275
G1 X81.885 Y106.499 E.06276
G1 X80.951 Y106.18 E0.0388
G1 F2398.118
G1 X80.037 Y105.81 E.0388
G1 X78.606 Y105.104 E0.06275
G1 X77.245 Y104.273 E.06275
G1 X76.443 Y103.699 E0.03879
G1 F2399.184
G1 X75.674 Y103.081 E.03881
G1 X74.48 Y101.967 E0.06421
G1 F2397.432
G1 X73.806 Y101.236 E.03913
G1 X73.178 Y100.474 E0.03881
G1 F2398.867
G1 X72.267 Y99.188 E.062
G1 F2399.662
G1 X71.456 Y97.792 E.06352
G1 X71.024 Y96.905 E.03881
G1 X70.646 Y96.001 E0.03853
G1 F2397.291
G1 X70.302 Y95.03 E.04055
G1 X70.013 Y94.032 E0.04085
G1 F2398.76
G1 X69.698 Y92.548 E.05969
G1 F2399.72
G1 X69.504 Y90.951 E.06328
G1 X69.456 Y89.322 E0.06409
G1 F2398.431
G1 X69.549 Y87.789 E.06043
G1 X69.679 Y86.811 E0.03879
G1 F2399.103
G1 X69.862 Y85.842 E.03879
G1 X70.28 Y84.281 E0.06355
G1 F2397.72
G1 X70.835 Y82.772 E.06328
G1 X71.483 Y81.399 E0.05969
G1 X71.993 Y80.495 E.04085
G1 F2399.784
G1 X72.551 Y79.628 E.04055
G1 X73.127 Y78.835 E0.03854
G1 F2398.839
G1 X73.751 Y78.071 E.03881
G1 F2399.933
G1 X74.832 Y76.929 E.06184
M107
G1 X75.167 Y77.198 F60000
M107
G1 F2400
G1 X75.884 Y76.546 E0.03811
G1 F2399.939
G1 X76.639 Y75.932 E.03827
G1 X77.905 Y75.05 E.06068
G1 F2397.655
G1 X79.261 Y74.275 E.06146
G1 X80.129 Y73.861 E0.03779
G1 F2396.305
G1 X81.023 Y73.493 E.03806
G1 X81.975 Y73.165 E0.03959
G1 F2399.473
G1 X82.949 Y72.891 E.0398
G1 F2398.754
G1 X84.403 Y72.594 E.0584
G1 X85.944 Y72.418 E0.061
G1 F2399.993
G1 X87.518 Y72.382 E.06192
G1 F2398.743
G1 X88.485 Y72.431 E.0381
G1 F2399.859
G1 X89.453 Y72.535 E.03829
G1 X91.012 Y72.821 E0.06233
G1 F2398.374
G1 X91.949 Y73.066 E.03811
G1 X92.875 Y73.364 E0.03825
G1 F2399.51
G1 X94.251 Y73.918 E.05835
G1 X95.65 Y74.632 E.06179
G1 X96.972 Y75.465 E0.06147
G1 F2398.43
G1 X97.745 Y76.035 E.03779
G1 X98.495 Y76.656 E0.03827
G1 F2399.118
G1 X99.637 Y77.754 E.06231
G1 F2396.896
G1 X100.283 Y78.475 E.03812
G1 X100.891 Y79.234 E0.03824
G1 F2399.867
G1 X101.733 Y80.456 E.05836
G1 X102.506 Y81.824 E.06181
G1 X103.159 Y83.274 E.06257
G1 X103.646 Y84.677 E0.0584
G1 F2398.536
G1 X103.904 Y85.641 E.03926
G1 X104.103 Y86.602 E0.03858
G1 F2396.919
G1 X104.248 Y87.571 E.03857
G1 X104.337 Y88.553 E0.03877
G1 F2399.271
G1 X104.365 Y90.037 E.05839
G1 X104.253 Y91.624 E.06258
G1 X104 Y93.175 E0.0618
G1 X103.632 Y94.612 E.05836
G1 X103.324 Y95.534 E.03825
G1 X102.967 Y96.435 E0.03811
G1 X102.275 Y97.86 E.06232
G1 X101.792 Y98.691 E.0378
G1 X101.258 Y99.504 E0.03825
G1 X100.305 Y100.741 E.06143
G1 F2398.158
G1 X99.259 Y101.875 E.0607
G1 X98.548 Y102.54 E0.03825
G1 X97.811 Y103.156 E.03779
G1 X96.543 Y104.067 E.06145
G1 X95.214 Y104.851 E0.06068
G1 X94.343 Y105.282 E.03824
G1 F2399.8
G1 X93.459 Y105.66 E.03782
G1 X91.952 Y106.176 E.06265
G1 X91.022 Y106.419 E0.0378
G1 X90.069 Y106.612 E.03825
G1 X88.539 Y106.807 E.06067
G1 X86.986 Y106.865 E0.06113
G1 X86.018 Y106.83 E.03811
G1 X85.049 Y106.74 E.03827
G1 X83.527 Y106.485 E0.06068
G1 F2398.81
G1 X82.016 Y106.091 E.06145
G1 F2399.41
G1 X81.096 Y105.776 E.03826
G1 X80.205 Y105.416 E.03779
G1 X78.804 Y104.724 E0.06144
G1 F2398.442
G1 X77.488 Y103.92 E.06069
G1 F2399.722
G1 X76.707 Y103.361 E.03778
G1 X75.948 Y102.752 E0.03827
G1 X74.79 Y101.67 E.06233
G1 X74.133 Y100.958 E.03811
G1 F2398.175
G1 X73.514 Y100.208 E.03827
G1 X72.622 Y98.948 E0.06069
G1 F2397.516
G1 X71.838 Y97.598 E.06145
G1 F2399.144
G1 X71.417 Y96.734 E.0378
G1 X71.043 Y95.841 E0.03805
G1 F2397.493
G1 X70.708 Y94.893 E.03958
G1 F2399.171
G1 X70.427 Y93.921 E.03981
G1 X70.119 Y92.468 E0.0584
G1 X69.93 Y90.909 E.06177
G1 X69.885 Y89.338 E.06182
G1 X69.975 Y87.837 E0.05914
G1 X70.103 Y86.873 E.03825
G1 F2398.235
G1 X70.282 Y85.93 E.03778
G1 X70.685 Y84.42 E0.06147
G1 F2399.648
G1 X71.227 Y82.946 E.06178
G1 X71.86 Y81.603 E.0584
G1 X72.357 Y80.721 E0.03981
G1 F2398.25
G1 X72.901 Y79.875 E.03958
G1 X73.47 Y79.092 E0.03806
G1 F2399.193
G1 X74.078 Y78.348 E.0378
G1 X75.126 Y77.241 E.05996
M107
G1 X75.461 Y77.509 F60000
M107
G1 F2400
G1 X76.168 Y76.867 E0.03756
G1 F2399.328
G1 X76.903 Y76.27 E.03725
G1 X78.126 Y75.417 E0.05864
G1 F2398.625
G1 X79.453 Y74.658 E.06014
