; generated by SuperSlicer 2.5.59.8 on 2024-04-01 at 23:27:23 UTC


;
;

;
;

;
;

;
;

;
;
; 

; external perimeters extrusion width = 0.40mm
; perimeters extrusion width = 0.40mm
; infill extrusion width = 0.40mm
; solid infill extrusion width = 0.40mm
; top infill extrusion width = 0.40mm

; object:{"name":"Sherpa_Mini_TOP","id":"Sherpa_Mini_TOP.stl id:0 copy 0","object_center":[65.882931,119.519150,0.000000],"boundingbox_center":[65.882931,119.519150,25.599998],"boundingbox_size":[33.273201,56.500000,51.199997]}
EXCLUDE_OBJECT_DEFINE NAME=Sherpa_Mini_TOP_stl_id_0_copy_0 CENTER=65.882931,119.519150 POLYGON=[[49.25,116.77],[49.29,115.82],[64.52,91.27],[73.42,91.27],[80.52,108.24],[82.52,117.75],[82.52,147.77],[69.52,147.77],[52.73,130.15],[49.25,124.70],[49.25,116.77]]
; plater:{"center":[65.882931,119.519150,0.000000],"boundingbox_center":[65.882931,119.519150,25.599998],"boundingbox_size":[33.273201,56.500000,51.199997]}

M73 P0 R155
M107
;TYPE:Custom
CALCULATE_PA MATERIAL=ABS BOWDEN_LENGTH=6 LAYER_HEIGHT=0.24 NOZZLE_SIZE=0.4 PRINT_SPEED=40


START_PRINT EXTRUDER=270 BED=100

M107
G21 ; set units to millimeters
G90 ; use absolute coordinates
M83 ; use relative distances for extrusion
ACTIVATE_EXTRUDER EXTRUDER=extruder
; Filament gcode
M104 S270 T0 ; set temperature
M109 S270 T0 ; set temperature and wait for it to be reached
M190 S100 ; set bed temperature and wait for it to be reached
;LAYER_CHANGE
;Z:0.24
;HEIGHT:0.24
;BEFORE_LAYER_CHANGE
G92 E0.0

G1 E-1.5 F3000
G1 Z0.2 F3600000
G1 Z0.24
;AFTER_LAYER_CHANGE
;0.24




CALCULATE_PA MATERIAL=ABS BOWDEN_LENGTH=6.0 LAYER_HEIGHT=0.2 NOZZLE_SIZE=0.4 PRINT_SPEED=40


G92 E0
G1 Z0.44
G1 X59.71 Y93.085
G1 Z0.24
G1 E1.5 F3000
;TYPE:Skirt
;WIDTH:0.4
M107
G1 F1200
G1 X61.463 Y92.316 E0.06657
G1 X63.484 Y91.904 E0.07173
G1 X70.61 Y91.909 E0.2478
G1 X72.436 Y92.273 E0.06475
G1 X74.14 Y92.978 E0.0641
G1 X75.724 Y94.05 E0.06651
G1 X77.046 Y95.376 E0.06512
G1 X77.985 Y96.736 E0.05745
G1 X78.705 Y98.341 E0.0612
G1 X79.146 Y100.281 E0.06918
G1 X79.188 Y104.301 E0.13978
G1 X80.407 Y105.519 E0.05992
G1 X81.127 Y106.6 E0.04515
G1 X88.41 Y111.877 E0.31276
G1 X90.118 Y114.092 E0.09726
G1 X91.104 Y116.637 E0.09491
G1 X91.323 Y118.328 E0.05927
G1 X91.323 Y132.172 E0.48142
G1 X90.862 Y134.376 E0.07827
G1 X91.306 Y136.148 E0.06355
G1 X91.242 Y145.463 E0.32388
G1 X90.384 Y148.346 E0.10461
G1 X88.724 Y150.826 E0.10378
G1 X86.438 Y152.705 E0.10288
G1 X83.717 Y153.801 E0.10201
G1 X81.984 Y154.024 E0.06076
G1 X74.095 Y153.951 E0.27433
G1 X72.629 Y153.635 E0.05215
G1 X71.215 Y153.102 E0.05255
M73 P0 R154
G1 X68.884 Y151.497 E0.09842
G1 X67.149 Y149.371 E0.0954
G1 X66.093 Y146.863 E0.09462
G1 X64.375 Y136.692 E0.35869
G1 X63.368 Y135.313 E0.05938
G1 X56.802 Y131.217 E0.2691
G1 X54.761 Y128.895 E0.10751
G1 X53.575 Y126.109 E0.1053
G1 X53.321 Y124.28 E0.06421
G1 X53.34 Y114.884 E0.32671
G1 X53.707 Y112.906 E0.06997
G1 X54.291 Y111.42 E0.05551
G1 X54.836 Y110.542 E0.03595
G1 X54.836 Y100.865 E0.33649
G1 X55.197 Y98.785 E0.07341
G1 X55.766 Y97.287 E0.05573
G1 X56.736 Y95.698 E0.06472
G1 X58.146 Y94.192 E0.07172
G1 X59.661 Y93.12 E0.06455
M107
G1 X59.862 Y93.405 F3600000
M107
G1 F1200
G1 X59.897 Y93.38 E0.00147
G1 X61.586 Y92.642 E0.06408
G1 X63.501 Y92.252 E0.06799
G1 X70.593 Y92.257 E0.2466
G1 X72.319 Y92.602 E0.06122
G1 X73.959 Y93.276 E0.06165
G1 X75.514 Y94.329 E0.06531
G1 X76.769 Y95.587 E0.06177
G1 X77.673 Y96.893 E0.05526
G1 X78.37 Y98.436 E0.05885
G1 X78.798 Y100.304 E0.06663
G1 X78.841 Y104.447 E0.14407
G1 X80.148 Y105.753 E0.06426
G1 X80.871 Y106.845 E0.04553
G1 X88.15 Y112.111 E0.31239
G1 X89.802 Y114.242 E0.09379
G1 X90.761 Y116.703 E0.09185
G1 X90.975 Y118.339 E0.05736
G1 X90.975 Y132.154 E0.4804
G1 X90.504 Y134.383 E0.0792
G1 X90.958 Y136.169 E0.06406
G1 X90.901 Y145.388 E0.32058
G1 X90.08 Y148.175 E0.10104
G1 X88.482 Y150.574 E0.10022
G1 X86.283 Y152.392 E0.09923
G1 X83.65 Y153.458 E0.09877
G1 X81.975 Y153.675 E0.05874
G1 X74.151 Y153.607 E0.27207
G1 X72.715 Y153.297 E0.05108
G1 X71.358 Y152.783 E0.05046
G1 X69.137 Y151.257 E0.0937
G1 X67.46 Y149.213 E0.09194
G1 X66.422 Y146.747 E0.09304
G1 X64.705 Y136.553 E0.35946
G1 X63.609 Y135.053 E0.06459
G1 X57.046 Y130.968 E0.26883
G1 X55.07 Y128.732 E0.10374
G1 X53.917 Y126.038 E0.10192
G1 X53.67 Y124.269 E0.06212
G1 X53.689 Y114.901 E0.32574
G1 X54.038 Y113.018 E0.06659
G1 X54.609 Y111.563 E0.05437
G1 X55.184 Y110.642 E0.03776
G1 X55.184 Y100.88 E0.33943
G1 X55.538 Y98.861 E0.07127
G1 X56.072 Y97.454 E0.05235
G1 X57.003 Y95.922 E0.06231
G1 X58.361 Y94.467 E0.06925
G1 X59.813 Y93.439 E0.06185
M107
G1 X60.014 Y93.724 F3600000
M107
G1 F1200
G1 X60.083 Y93.675 E0.00294
G1 X61.708 Y92.969 E0.0616
G1 X63.519 Y92.601 E0.06426
G1 X70.575 Y92.606 E0.24538
G1 X72.234 Y92.94 E0.05884
G1 X73.81 Y93.591 E0.05928
G1 X75.305 Y94.608 E0.06287
G1 X76.491 Y95.798 E0.05844
G1 X77.363 Y97.052 E0.05308
G1 X78.034 Y98.532 E0.0565
G1 X78.45 Y100.326 E0.06406
G1 X78.494 Y104.592 E0.14836
G1 X79.889 Y105.987 E0.06859
G1 X80.615 Y107.09 E0.04592
G1 X87.89 Y112.344 E0.31205
G1 X89.487 Y114.393 E0.09032
G1 X90.418 Y116.77 E0.08878
G1 X90.626 Y118.35 E0.05543
G1 X90.626 Y132.136 E0.47937
G1 X90.147 Y134.39 E0.08015
G1 X90.609 Y136.189 E0.06458
G1 X90.559 Y145.313 E0.31728
G1 X89.775 Y148.004 E0.09748
G1 X88.24 Y150.322 E0.09667
G1 X86.126 Y152.079 E0.09557
G1 X83.583 Y153.115 E0.09551
G1 X81.966 Y153.327 E0.0567
G1 X74.207 Y153.263 E0.26981
G1 X72.826 Y152.967 E0.04909
G1 X71.501 Y152.465 E0.04927
G1 X69.356 Y150.984 E0.09066
G1 X67.746 Y149.012 E0.08851
G1 X66.751 Y146.631 E0.08973
G1 X65.035 Y136.414 E0.36025
G1 X63.851 Y134.793 E0.06982
G1 X57.29 Y130.717 E0.26858
G1 X55.379 Y128.569 E0.09998
G1 X54.258 Y125.966 E0.09853
G1 X54.018 Y124.257 E0.06003
G1 X54.037 Y114.917 E0.32476
G1 X54.368 Y113.13 E0.06321
G1 X54.928 Y111.705 E0.05323
G1 X55.533 Y110.742 E0.03956
G1 X55.533 Y100.895 E0.3424
G1 X55.878 Y98.938 E0.06911
G1 X56.379 Y97.621 E0.04901
G1 X57.27 Y96.147 E0.05988
G1 X58.604 Y94.718 E0.06799
G1 X59.965 Y93.759 E0.05789
M107
G1 X60.165 Y94.044 F3600000
M107
G1 F1200
G1 X60.269 Y93.971 E0.00441
G1 X61.829 Y93.296 E0.05912
G1 X63.536 Y92.95 E0.06056
G1 X70.558 Y92.954 E0.24417
G1 X72.148 Y93.278 E0.05644
G1 X73.628 Y93.89 E0.05569
G1 X75.095 Y94.887 E0.06167
G1 X76.214 Y96.01 E0.05514
G1 X77.052 Y97.21 E0.05089
G1 X77.709 Y98.66 E0.05534
G1 X78.106 Y100.386 E0.06159
G1 X78.147 Y104.738 E0.15135
G1 X79.63 Y106.221 E0.07292
G1 X80.359 Y107.335 E0.0463
G1 X87.631 Y112.579 E0.31175
G1 X89.172 Y114.544 E0.08685
G1 X90.076 Y116.837 E0.08569
G1 X90.278 Y118.362 E0.0535
G1 X90.278 Y132.118 E0.47833
G1 X89.823 Y134.26 E0.07614
G1 X89.782 Y134.373 E0.0042
G1 X90.26 Y136.21 E0.06601
G1 X90.218 Y145.24 E0.31399
G1 X89.469 Y147.835 E0.09392
G1 X87.997 Y150.071 E0.09311
G1 X85.969 Y151.767 E0.0919
G1 X83.515 Y152.773 E0.09224
G1 X81.956 Y152.978 E0.05466
G1 X74.262 Y152.918 E0.26755
G1 X72.912 Y152.629 E0.04801
G1 X71.645 Y152.147 E0.04715
G1 X69.574 Y150.712 E0.0876
G1 X68.033 Y148.812 E0.08508
G1 X67.081 Y146.516 E0.08643
G1 X65.365 Y136.275 E0.36106
G1 X64.092 Y134.532 E0.07505
G1 X57.533 Y130.466 E0.26836
G1 X55.688 Y128.405 E0.09621
G1 X54.6 Y125.894 E0.09513
G1 X54.367 Y124.245 E0.05792
G1 X54.386 Y114.934 E0.32378
G1 X54.698 Y113.242 E0.05984
G1 X55.246 Y111.848 E0.05207
G1 X55.881 Y110.843 E0.04135
G1 X55.881 Y100.911 E0.34537
G1 X56.218 Y99.015 E0.06695
G1 X56.685 Y97.787 E0.04569
G1 X57.537 Y96.371 E0.05745
G1 X58.846 Y94.969 E0.06673
G1 X60.116 Y94.078 E0.05392
M107
G1 X60.315 Y94.363 F3600000
M107
G1 F1200
G1 X60.454 Y94.267 E0.00587
G1 X61.95 Y93.623 E0.05665
G1 X63.553 Y93.298 E0.05687
G1 X70.54 Y93.303 E0.24294
G1 X72.062 Y93.616 E0.05403
G1 X73.478 Y94.205 E0.05334
G1 X74.885 Y95.165 E0.05924
G1 X75.937 Y96.223 E0.05187
G1 X76.741 Y97.369 E0.04868
G1 X77.385 Y98.788 E0.05416
G1 X77.762 Y100.445 E0.0591
G1 X77.8 Y104.884 E0.15436
G1 X79.37 Y106.455 E0.07725
G1 X80.103 Y107.58 E0.04668
G1 X87.373 Y112.814 E0.3115
G1 X88.858 Y114.696 E0.08337
G1 X89.733 Y116.904 E0.08259
G1 X89.929 Y118.373 E0.05155
G1 X89.929 Y132.099 E0.47729
G1 X89.485 Y134.174 E0.07376
G1 X89.416 Y134.353 E0.0067
G1 X89.912 Y136.232 E0.06755
G1 X89.876 Y145.167 E0.31072
G1 X89.163 Y147.666 E0.09036
G1 X87.753 Y149.82 E0.08953
G1 X85.766 Y151.482 E0.09007
G1 X83.447 Y152.43 E0.08714
G1 X81.947 Y152.629 E0.05262
G1 X74.317 Y152.574 E0.2653
G1 X73.023 Y152.298 E0.046
G1 X71.789 Y151.829 E0.04594
G1 X69.794 Y150.44 E0.08453
G1 X68.32 Y148.613 E0.08164
G1 X67.411 Y146.401 E0.08314
G1 X65.695 Y136.136 E0.3619
G1 X64.333 Y134.272 E0.08028
G1 X57.775 Y130.215 E0.26816
G1 X55.996 Y128.239 E0.09244
G1 X54.942 Y125.822 E0.09171
G1 X54.715 Y124.233 E0.0558
G1 X54.734 Y114.95 E0.3228
G1 X55.029 Y113.354 E0.05646
G1 X55.564 Y111.991 E0.05091
G1 X56.23 Y110.944 E0.04314
G1 X56.23 Y100.926 E0.34836
G1 X56.559 Y99.093 E0.06477
G1 X57.005 Y97.926 E0.04345
G1 X57.804 Y96.596 E0.05395
G1 X59.089 Y95.22 E0.06545
G1 X60.266 Y94.398 E0.04993
M107
G1 X60.464 Y94.684 F3600000
M107
G1 F1200
G1 X60.638 Y94.563 E0.00734
G1 X62.071 Y93.951 E0.05419
G1 X63.571 Y93.647 E0.05321
G1 X70.522 Y93.651 E0.24172
G1 X71.944 Y93.945 E0.05049
G1 X73.297 Y94.503 E0.05089
G1 X74.675 Y95.444 E0.05804
G1 X75.661 Y96.435 E0.04863
G1 X76.431 Y97.528 E0.04647
G1 X77.06 Y98.915 E0.05298
G1 X77.418 Y100.503 E0.0566
G1 X77.452 Y105.029 E0.15739
G1 X79.111 Y106.688 E0.08157
G1 X79.846 Y107.824 E0.04705
G1 X87.115 Y113.049 E0.31128
G1 X88.543 Y114.849 E0.0799
G1 X89.39 Y116.972 E0.07948
G1 X89.581 Y118.385 E0.04959
G1 X89.581 Y132.081 E0.47624
G1 X89.148 Y134.086 E0.07133
G1 X89.05 Y134.332 E0.0092
G1 X89.563 Y136.253 E0.06917
G1 X89.534 Y145.095 E0.30746
G1 X88.856 Y147.498 E0.08681
G1 X87.509 Y149.57 E0.08595
G1 X85.609 Y151.17 E0.08638
G1 X83.378 Y152.088 E0.08387
G1 X81.937 Y152.281 E0.05057
G1 X74.372 Y152.229 E0.26305
G1 X73.135 Y151.968 E0.04398
G1 X71.933 Y151.511 E0.04472
G1 X70.014 Y150.168 E0.08143
G1 X68.607 Y148.414 E0.07819
G1 X67.741 Y146.288 E0.07985
G1 X66.026 Y135.997 E0.36276
G1 X64.575 Y134.011 E0.08553
G1 X58.017 Y129.962 E0.26799
G1 X56.304 Y128.074 E0.08867
G1 X55.283 Y125.749 E0.08828
G1 X55.064 Y124.221 E0.05366
G1 X55.082 Y114.967 E0.32181
G1 X55.359 Y113.466 E0.05308
G1 X55.883 Y112.134 E0.04974
G1 X56.578 Y111.046 E0.04492
G1 X56.578 Y100.942 E0.35136
G1 X56.899 Y99.171 E0.06257
G1 X57.325 Y98.065 E0.04121
G1 X58.072 Y96.82 E0.05048
G1 X59.331 Y95.471 E0.06417
G1 X60.415 Y94.718 E0.04592
M107
G1 X60.613 Y95.001 F3600000
M107
G1 F1200
G1 X60.791 Y94.876 E0.00756
G1 X62.192 Y94.278 E0.05295
G1 X63.588 Y93.995 E0.04954
G1 X70.504 Y94 E0.24049
G1 X71.857 Y94.282 E0.04806
G1 X73.146 Y94.818 E0.04856
G1 X74.464 Y95.722 E0.05558
G1 X75.385 Y96.649 E0.04542
G1 X76.12 Y97.687 E0.04424
G1 X76.735 Y99.043 E0.05177
G1 X77.074 Y100.561 E0.05408
G1 X77.105 Y105.175 E0.16043
G1 X78.851 Y106.921 E0.0859
G1 X79.589 Y108.068 E0.04742
G1 X86.857 Y113.285 E0.31112
G1 X88.229 Y115.002 E0.07643
G1 X89.048 Y117.04 E0.07636
G1 X89.232 Y118.397 E0.04762
G1 X89.232 Y132.062 E0.47518
G1 X88.81 Y133.997 E0.06885
G1 X88.682 Y134.309 E0.01173
G1 X89.215 Y136.276 E0.07086
G1 X89.192 Y145.024 E0.30421
G1 X88.549 Y147.331 E0.08327
G1 X87.264 Y149.321 E0.08237
G1 X85.45 Y150.859 E0.08268
G1 X83.309 Y151.746 E0.08059
G1 X81.927 Y151.932 E0.04851
G1 X74.427 Y151.884 E0.2608
G1 X73.22 Y151.63 E0.04289
G1 X72.078 Y151.193 E0.04254
G1 X70.235 Y149.898 E0.07832
G1 X68.896 Y148.217 E0.07473
G1 X68.081 Y146.211 E0.07526
G1 X66.356 Y135.858 E0.36497
G1 X64.816 Y133.75 E0.09078
G1 X58.258 Y129.709 E0.26785
G1 X56.611 Y127.907 E0.0849
G1 X55.625 Y125.675 E0.08483
G1 X55.412 Y124.209 E0.05151
G1 X55.431 Y114.983 E0.32082
G1 X55.69 Y113.578 E0.0497
G1 X56.201 Y112.278 E0.04856
G1 X56.927 Y111.148 E0.04669
G1 X56.927 Y100.957 E0.35437
G1 X57.238 Y99.25 E0.06035
G1 X57.645 Y98.205 E0.03898
G1 X58.339 Y97.044 E0.04706
G1 X59.545 Y95.746 E0.06161
G1 X60.564 Y95.035 E0.04318
M107
G1 X60.763 Y95.321 F3600000
M107
G1 F1200
G1 X60.976 Y95.173 E0.00902
G1 X62.312 Y94.606 E0.05045
G1 X63.605 Y94.344 E0.0459
G1 X70.485 Y94.348 E0.23925
G1 X71.768 Y94.62 E0.0456
G1 X72.995 Y95.132 E0.04623
G1 X74.253 Y96 E0.05313
G1 X75.109 Y96.862 E0.04226
G1 X75.81 Y97.846 E0.042
G1 X76.41 Y99.17 E0.05056
G1 X76.729 Y100.618 E0.05154
G1 X76.757 Y105.32 E0.1635
G1 X78.592 Y107.154 E0.09021
G1 X79.331 Y108.313 E0.04779
G1 X86.601 Y113.522 E0.311
G1 X87.916 Y115.157 E0.07295
G1 X88.706 Y117.109 E0.07322
G1 X88.884 Y118.409 E0.04563
G1 X88.884 Y132.043 E0.47411
G1 X88.473 Y133.906 E0.06634
G1 X88.315 Y134.285 E0.01427
G1 X88.866 Y136.299 E0.07261
G1 X88.85 Y144.954 E0.30098
G1 X88.242 Y147.165 E0.07973
G1 X87.019 Y149.073 E0.0788
G1 X85.291 Y150.547 E0.07898
G1 X83.24 Y151.403 E0.07729
G1 X81.917 Y151.584 E0.04644
G1 X74.481 Y151.54 E0.25855
G1 X73.332 Y151.299 E0.04084
G1 X72.222 Y150.875 E0.0413
G1 X70.456 Y149.627 E0.07519
G1 X69.184 Y148.02 E0.07128
G1 X68.422 Y146.135 E0.0707
G1 X66.686 Y135.72 E0.36718
G1 X65.057 Y133.489 E0.09604
G1 X58.498 Y129.456 E0.26775
G1 X56.918 Y127.739 E0.08112
G1 X55.966 Y125.601 E0.08137
G1 X55.761 Y124.197 E0.04934
G1 X55.779 Y115 E0.31983
G1 X56.02 Y113.689 E0.04633
G1 X56.519 Y112.421 E0.04737
G1 X57.275 Y111.251 E0.04846
G1 X57.275 Y100.973 E0.3574
G1 X57.578 Y99.33 E0.05812
G1 X57.964 Y98.346 E0.03674
G1 X58.608 Y97.267 E0.04367
G1 X59.76 Y96.021 E0.05903
G1 X60.714 Y95.355 E0.04045
M107
G1 X60.913 Y95.638 F3600000
M107
G1 F1200
G1 X61.129 Y95.486 E0.00919
G1 X62.432 Y94.934 E0.0492
G1 X63.622 Y94.692 E0.04226
G1 X70.467 Y94.696 E0.238
M73 P0 R153
G1 X71.679 Y94.957 E0.04313
G1 X72.844 Y95.446 E0.04392
G1 X74.041 Y96.277 E0.05069
G1 X74.834 Y97.076 E0.03915
G1 X75.499 Y98.006 E0.03975
G1 X76.085 Y99.297 E0.04932
G1 X76.385 Y100.674 E0.04899
G1 X76.409 Y105.465 E0.16659
G1 X78.332 Y107.387 E0.09453
G1 X79.073 Y108.557 E0.04815
G1 X86.344 Y113.759 E0.3109
G1 X87.628 Y115.355 E0.07123
G1 X88.363 Y117.178 E0.06833
G1 X88.535 Y118.421 E0.04364
G1 X88.535 Y132.024 E0.47303
G1 X88.137 Y133.815 E0.06379
G1 X87.946 Y134.26 E0.01684
G1 X88.518 Y136.322 E0.07441
G1 X88.508 Y144.885 E0.29777
G1 X87.934 Y147 E0.07621
G1 X86.772 Y148.825 E0.07523
G1 X85.131 Y150.237 E0.07526
G1 X83.17 Y151.061 E0.07398
G1 X81.906 Y151.235 E0.04435
G1 X74.535 Y151.195 E0.2563
G1 X73.417 Y150.961 E0.03974
G1 X72.368 Y150.558 E0.03908
G1 X70.678 Y149.358 E0.07207
G1 X69.498 Y147.866 E0.06615
G1 X68.762 Y146.059 E0.06783
G1 X67.016 Y135.581 E0.36938
G1 X65.297 Y133.228 E0.10131
G1 X58.738 Y129.202 E0.26764
G1 X57.194 Y127.524 E0.07929
G1 X56.308 Y125.527 E0.07597
G1 X56.109 Y124.185 E0.04717
G1 X56.128 Y115.016 E0.31883
G1 X56.36 Y113.77 E0.04409
G1 X56.836 Y112.565 E0.04503
G1 X57.521 Y111.5 E0.04402
G1 X57.624 Y111.383 E0.00543
G1 X57.624 Y100.989 E0.36142
G1 X57.918 Y99.41 E0.05587
G1 X58.283 Y98.487 E0.03451
G1 X58.876 Y97.49 E0.04034
G1 X59.976 Y96.296 E0.05645
G1 X60.863 Y95.673 E0.03771
M107
G1 X61.064 Y95.958 F3600000
M107
G1 F1200
G1 X61.314 Y95.782 E0.01063
G1 X62.551 Y95.262 E0.04667
G1 X63.64 Y95.041 E0.03864
G1 X70.448 Y95.045 E0.23674
M73 P1 R153
G1 X71.589 Y95.294 E0.04063
G1 X72.66 Y95.743 E0.04039
G1 X73.806 Y96.534 E0.04839
G1 X74.559 Y97.291 E0.03715
G1 X75.189 Y98.166 E0.03749
G1 X75.749 Y99.39 E0.04678
G1 X76.04 Y100.73 E0.0477
G1 X76.061 Y105.61 E0.16967
G1 X78.071 Y107.62 E0.09884
G1 X78.815 Y108.8 E0.04851
G1 X86.088 Y113.997 E0.31085
G1 X87.315 Y115.51 E0.06775
G1 X88.021 Y117.247 E0.06519
G1 X88.187 Y118.433 E0.04163
G1 X88.187 Y132.005 E0.47194
G1 X87.8 Y133.722 E0.06121
G1 X87.568 Y134.255 E0.02022
G1 X87.603 Y134.327 E0.00278
G1 X88.169 Y136.346 E0.07291
G1 X88.165 Y144.817 E0.29458
G1 X87.625 Y146.836 E0.07268
G1 X86.524 Y148.579 E0.07166
G1 X84.97 Y149.927 E0.07154
G1 X83.099 Y150.719 E0.07066
G1 X81.895 Y150.887 E0.04226
G1 X74.589 Y150.85 E0.25406
G1 X73.528 Y150.631 E0.03766
G1 X72.514 Y150.24 E0.03781
G1 X70.901 Y149.088 E0.06891
G1 X69.787 Y147.67 E0.06273
G1 X69.103 Y145.983 E0.0633
G1 X67.346 Y135.442 E0.37159
G1 X65.538 Y132.967 E0.10658
G1 X58.977 Y128.947 E0.26756
G1 X57.5 Y127.356 E0.07551
G1 X56.649 Y125.452 E0.07251
