; generated by SuperSlicer 2.5.59.8 on 2024-04-02 at 11:12:33 UTC


;
;

;
;

;
;

;
;

;
;
; 

; external perimeters extrusion width = 0.40mm
; perimeters extrusion width = 0.40mm
; infill extrusion width = 0.40mm
; solid infill extrusion width = 0.40mm
; top infill extrusion width = 0.40mm
; support material extrusion width = 0.36mm

; object:{"name":"Sherpa_Mini_TOP","id":"Sherpa_Mini_TOP.stl id:0 copy 0","object_center":[69.989348,143.552802,0.000000],"boundingbox_center":[69.989348,143.552802,25.599998],"boundingbox_size":[33.273201,56.500000,51.199997]}
EXCLUDE_OBJECT_DEFINE NAME=Sherpa_Mini_TOP_stl_id_0_copy_0 CENTER=69.989348,143.552802 POLYGON=[[53.35,140.80],[53.40,139.86],[68.63,115.30],[77.53,115.30],[84.63,132.27],[86.63,141.79],[86.63,171.80],[73.63,171.80],[56.83,154.18],[53.35,148.73],[53.35,140.80]]
; plater:{"center":[69.989348,143.552802,0.000000],"boundingbox_center":[69.989348,143.552802,25.599998],"boundingbox_size":[33.273201,56.500000,51.199997]}

M73 P0 R163
M107
;TYPE:Custom
CALCULATE_PA MATERIAL=ABS BOWDEN_LENGTH=6 LAYER_HEIGHT=0.24 NOZZLE_SIZE=0.4 PRINT_SPEED=40


START_PRINT EXTRUDER=270 BED=100

M107
G21 ; set units to millimeters
G90 ; use absolute coordinates
M83 ; use relative distances for extrusion
ACTIVATE_EXTRUDER EXTRUDER=extruder
; Filament gcode
M104 S270 T0 ; set temperature
M109 S270 T0 ; set temperature and wait for it to be reached
M190 S100 ; set bed temperature and wait for it to be reached
;LAYER_CHANGE
;Z:0.24
;HEIGHT:0.24
;BEFORE_LAYER_CHANGE
G92 E0.0

G1 E-1.5 F3000
G1 Z0.2 F3600000
G1 Z0.24
;AFTER_LAYER_CHANGE
;0.24




CALCULATE_PA MATERIAL=ABS BOWDEN_LENGTH=6.0 LAYER_HEIGHT=0.2 NOZZLE_SIZE=0.4 PRINT_SPEED=40


G92 E0
G1 Z0.44
G1 X61.589 Y112.1
G1 Z0.24
G1 E1.5 F3000
;TYPE:Skirt
;WIDTH:0.4
M107
G1 F1200
G1 X62.797 Y111.628 E0.04511
G1 X64.061 Y111.299 E0.04542
G1 X78.225 Y111.303 E0.49253
G1 X79.446 Y111.625 E0.04389
G1 X80.582 Y112.058 E0.0423
G1 X82.767 Y113.459 E0.09024
G1 X86.002 Y116.71 E0.15951
G1 X87.412 Y119.108 E0.09673
G1 X88.087 Y121.844 E0.09799
G1 X88.125 Y126.377 E0.15761
G1 X88.633 Y126.887 E0.02503
G1 X89.079 Y127.473 E0.02563
G1 X96.938 Y133.264 E0.33946
G1 X98.213 Y135.009 E0.07514
G1 X99.316 Y137.141 E0.08345
G1 X100.096 Y139.683 E0.09249
G1 X100.231 Y157.426 E0.617
G1 X100.128 Y158.295 E0.0304
G1 X100.231 Y159.164 E0.03044
G1 X100.075 Y170.963 E0.41033
G1 X99.441 Y173.178 E0.08012
G1 X98.945 Y174.434 E0.04694
G1 X95.844 Y178.905 E0.18921
G1 X93.566 Y180.788 E0.10278
G1 X91.18 Y182.007 E0.09317
G1 X89.817 Y182.503 E0.05043
G1 X89.096 Y182.681 E0.02582
G1 X75.075 Y182.658 E0.48755
G1 X73.415 Y182.12 E0.06069
G1 X71.853 Y181.308 E0.06122
G1 X68.786 Y178.822 E0.13727
G1 X67.697 Y177.661 E0.05536
G1 X66.787 Y176.32 E0.05635
G1 X65.84 Y173.904 E0.09023
G1 X63.964 Y162.813 E0.39116
G1 X56.309 Y157.889 E0.31648
G1 X54.939 Y156.15 E0.07701
G1 X53.646 Y153.852 E0.09168
G1 X52.73 Y150.947 E0.10591
G1 X52.634 Y149.741 E0.04209
G1 X52.639 Y136.45 E0.46216
G1 X53.021 Y134.241 E0.07795
G1 X53.649 Y132.631 E0.06008
G1 X54.122 Y131.853 E0.03169
G1 X54.133 Y122.245 E0.3341
M73 P0 R162
G1 X54.572 Y119.892 E0.08321
G1 X55.564 Y117.708 E0.08344
G1 X56.697 Y116.199 E0.06562
G1 X59.607 Y113.36 E0.14134
G1 X61.538 Y112.132 E0.0796
M107
G1 X61.725 Y112.426 F3600000
M107
G1 F1200
G1 X61.761 Y112.403 E0.0015
G1 X62.896 Y111.962 E0.04234
G1 X64.084 Y111.647 E0.04273
G1 X78.202 Y111.651 E0.49094
G1 X79.346 Y111.959 E0.0412
G1 X80.441 Y112.377 E0.04075
G1 X82.562 Y113.742 E0.0877
G1 X85.74 Y116.94 E0.15677
G1 X87.098 Y119.263 E0.09356
G1 X87.744 Y121.907 E0.09466
G1 X87.778 Y126.522 E0.16048
G1 X88.363 Y127.107 E0.02877
G1 X88.832 Y127.724 E0.02696
G1 X96.672 Y133.492 E0.33845
G1 X97.909 Y135.182 E0.07282
G1 X98.999 Y137.287 E0.08244
G1 X99.748 Y139.711 E0.08823
G1 X99.883 Y157.418 E0.61573
G1 X99.777 Y158.295 E0.0307
G1 X99.883 Y159.171 E0.0307
G1 X99.734 Y170.889 E0.40752
G1 X99.108 Y173.074 E0.07903
G1 X98.647 Y174.252 E0.04398
G1 X95.603 Y178.652 E0.18603
G1 X93.39 Y180.486 E0.09996
G1 X91.051 Y181.684 E0.09138
G1 X89.707 Y182.173 E0.04972
G1 X89.034 Y182.337 E0.02409
G1 X75.157 Y182.318 E0.48255
G1 X73.536 Y181.793 E0.05924
G1 X72.029 Y181.008 E0.05909
G1 X69.015 Y178.559 E0.13503
G1 X67.961 Y177.433 E0.05365
G1 X67.086 Y176.141 E0.05425
G1 X66.171 Y173.794 E0.08758
G1 X64.282 Y162.603 E0.39466
G1 X56.565 Y157.651 E0.31885
G1 X55.236 Y155.967 E0.07458
G1 X53.959 Y153.697 E0.09058
G1 X53.076 Y150.9 E0.10199
G1 X52.983 Y149.734 E0.04068
G1 X52.985 Y136.494 E0.46038
G1 X53.352 Y134.351 E0.0756
G1 X53.968 Y132.772 E0.05893
G1 X54.471 Y131.951 E0.03349
G1 X54.479 Y122.293 E0.33586
G1 X54.898 Y120.017 E0.08047
G1 X55.854 Y117.902 E0.08072
G1 X56.95 Y116.439 E0.06356
G1 X59.837 Y113.623 E0.14024
G1 X61.674 Y112.459 E0.07562
M107
G1 X61.86 Y112.753 F3600000
M107
G1 F1200
G1 X61.933 Y112.707 E0.003
G1 X62.996 Y112.296 E0.03962
G1 X64.107 Y111.996 E0.04003
G1 X78.134 Y111.994 E0.48777
G1 X79.231 Y112.288 E0.03948
G1 X80.3 Y112.696 E0.03981
G1 X82.357 Y114.024 E0.08516
G1 X85.477 Y117.17 E0.15404
G1 X86.785 Y119.416 E0.09038
G1 X87.4 Y121.969 E0.09133
G1 X87.43 Y126.667 E0.16337
G1 X88.108 Y127.345 E0.03333
G1 X88.585 Y127.975 E0.02748
G1 X96.407 Y133.719 E0.33746
G1 X97.606 Y135.354 E0.07049
G1 X98.683 Y137.434 E0.08144
G1 X99.4 Y139.74 E0.08398
G1 X99.534 Y157.409 E0.61444
G1 X99.426 Y158.295 E0.03101
G1 X99.534 Y159.178 E0.03096
G1 X99.392 Y170.816 E0.4047
G1 X98.775 Y172.97 E0.07793
G1 X98.33 Y174.106 E0.04242
G1 X95.362 Y178.399 E0.18147
G1 X93.214 Y180.185 E0.09714
G1 X90.921 Y181.36 E0.08958
G1 X89.597 Y181.842 E0.04901
G1 X88.972 Y181.994 E0.02236
G1 X75.238 Y181.978 E0.47757
G1 X73.657 Y181.466 E0.05778
G1 X72.206 Y180.707 E0.05695
G1 X69.244 Y178.296 E0.1328
G1 X68.225 Y177.205 E0.05193
G1 X67.386 Y175.962 E0.05214
G1 X66.502 Y173.685 E0.08494
G1 X64.6 Y162.393 E0.39819
G1 X56.82 Y157.412 E0.32122
G1 X55.533 Y155.784 E0.07215
G1 X54.271 Y153.542 E0.08948
G1 X53.422 Y150.852 E0.09807
G1 X53.331 Y149.727 E0.03926
G1 X53.331 Y136.538 E0.45861
G1 X53.683 Y134.461 E0.07324
G1 X54.287 Y132.914 E0.05776
G1 X54.819 Y132.05 E0.03528
G1 X54.825 Y122.34 E0.33767
G1 X55.224 Y120.14 E0.07772
G1 X56.145 Y118.095 E0.078
G1 X57.203 Y116.679 E0.06148
G1 X60.067 Y113.885 E0.13913
G1 X61.809 Y112.785 E0.07163
M107
G1 X61.995 Y113.08 F3600000
M107
G1 F1200
G1 X62.104 Y113.011 E0.00449
G1 X63.097 Y112.63 E0.03697
G1 X64.13 Y112.344 E0.0373
G1 X78.066 Y112.336 E0.48458
G1 X79.132 Y112.622 E0.03836
G1 X80.158 Y113.015 E0.03823
G1 X82.152 Y114.307 E0.08261
G1 X85.187 Y117.365 E0.1498
G1 X86.471 Y119.569 E0.08871
G1 X87.056 Y122.031 E0.08799
G1 X87.082 Y126.812 E0.16628
G1 X87.853 Y127.583 E0.03789
G1 X88.338 Y128.226 E0.028
G1 X96.142 Y133.947 E0.33649
G1 X97.303 Y135.526 E0.06814
G1 X98.366 Y137.58 E0.08044
G1 X99.052 Y139.768 E0.07972
G1 X99.186 Y157.401 E0.61315
G1 X99.075 Y158.295 E0.03132
G1 X99.185 Y159.186 E0.03124
G1 X99.051 Y170.742 E0.40187
G1 X98.442 Y172.866 E0.07683
G1 X98.013 Y173.96 E0.04086
G1 X95.121 Y178.147 E0.17693
G1 X93.038 Y179.884 E0.09432
G1 X90.792 Y181.036 E0.08778
G1 X89.487 Y181.511 E0.04829
G1 X88.911 Y181.65 E0.02062
G1 X75.319 Y181.638 E0.47262
G1 X73.806 Y181.151 E0.05529
G1 X72.384 Y180.406 E0.05582
G1 X69.474 Y178.034 E0.13055
G1 X68.489 Y176.977 E0.05021
G1 X67.686 Y175.784 E0.05003
G1 X66.834 Y173.576 E0.0823
G1 X64.925 Y162.225 E0.40023
G1 X64.873 Y162.154 E0.00309
G1 X57.075 Y157.172 E0.32174
G1 X55.83 Y155.601 E0.06971
G1 X54.584 Y153.386 E0.08838
G1 X53.768 Y150.804 E0.09416
G1 X53.68 Y149.72 E0.03784
G1 X53.68 Y136.553 E0.45786
G1 X54.014 Y134.571 E0.06987
G1 X54.605 Y133.055 E0.05658
G1 X55.168 Y132.15 E0.03707
G1 X55.17 Y122.386 E0.33952
G1 X55.551 Y120.263 E0.07498
G1 X56.436 Y118.288 E0.07527
G1 X57.457 Y116.919 E0.05939
G1 X60.297 Y114.147 E0.13801
G1 X61.944 Y113.112 E0.06763
M107
G1 X62.128 Y113.404 F3600000
M107
G1 F1200
G1 X62.245 Y113.33 E0.0048
G1 X63.214 Y112.958 E0.03608
G1 X64.2 Y112.686 E0.03559
G1 X77.998 Y112.679 E0.47978
G1 X79.032 Y112.956 E0.03725
G1 X80.016 Y113.334 E0.03664
G1 X81.947 Y114.589 E0.08006
G1 X84.897 Y117.56 E0.14559
G1 X86.137 Y119.675 E0.08527
G1 X86.713 Y122.092 E0.08639
G1 X86.734 Y126.957 E0.16919
G1 X87.598 Y127.821 E0.04245
G1 X88.09 Y128.476 E0.02852
G1 X95.877 Y134.175 E0.33555
G1 X97 Y135.698 E0.06579
G1 X98.05 Y137.727 E0.07944
G1 X98.703 Y139.797 E0.07547
G1 X98.837 Y157.392 E0.61184
G1 X98.723 Y158.295 E0.03165
G1 X98.837 Y159.194 E0.03153
G1 X98.709 Y170.669 E0.39903
G1 X98.11 Y172.762 E0.07573
G1 X97.696 Y173.814 E0.03929
G1 X94.879 Y177.894 E0.17241
G1 X92.861 Y179.582 E0.09149
G1 X90.662 Y180.712 E0.08596
G1 X89.377 Y181.18 E0.04756
G1 X88.85 Y181.306 E0.01886
G1 X75.4 Y181.298 E0.46768
G1 X73.927 Y180.824 E0.05382
G1 X72.561 Y180.106 E0.05364
G1 X69.703 Y177.771 E0.12832
G1 X68.771 Y176.771 E0.04755
G1 X67.986 Y175.606 E0.04886
G1 X67.165 Y173.467 E0.07965
G1 X65.255 Y162.086 E0.40128
G1 X65.115 Y161.895 E0.00824
G1 X57.33 Y156.933 E0.32103
G1 X56.127 Y155.418 E0.06726
G1 X54.896 Y153.231 E0.08727
G1 X54.113 Y150.757 E0.09025
G1 X54.028 Y149.713 E0.03642
G1 X54.028 Y136.567 E0.45711
G1 X54.345 Y134.681 E0.06649
G1 X54.924 Y133.197 E0.05539
G1 X55.516 Y132.25 E0.03885
G1 X55.516 Y122.432 E0.3414
G1 X55.878 Y120.386 E0.07224
G1 X56.727 Y118.48 E0.07253
G1 X57.71 Y117.158 E0.05729
G1 X60.499 Y114.432 E0.13562
G1 X62.077 Y113.436 E0.0649
M107
G1 X62.262 Y113.728 F3600000
M107
G1 F1200
G1 X62.386 Y113.649 E0.0051
G1 X63.314 Y113.292 E0.03459
G1 X64.27 Y113.029 E0.03448
G1 X77.93 Y113.021 E0.47498
G1 X78.916 Y113.285 E0.0355
G1 X79.874 Y113.653 E0.03568
G1 X81.741 Y114.871 E0.07751
G1 X84.608 Y117.755 E0.14141
G1 X85.824 Y119.829 E0.08359
G1 X86.369 Y122.152 E0.08299
G1 X86.386 Y127.102 E0.17213
G1 X87.342 Y128.058 E0.04701
G1 X87.842 Y128.727 E0.02903
G1 X95.613 Y134.404 E0.33462
G1 X96.697 Y135.871 E0.06343
G1 X97.734 Y137.874 E0.07844
G1 X98.355 Y139.826 E0.07122
G1 X98.488 Y157.383 E0.61052
G1 X98.372 Y158.295 E0.03197
G1 X98.488 Y159.202 E0.03182
G1 X98.368 Y170.595 E0.39618
G1 X97.777 Y172.658 E0.07462
G1 X97.379 Y173.667 E0.03772
G1 X94.637 Y177.642 E0.16792
G1 X92.685 Y179.282 E0.08865
G1 X90.533 Y180.389 E0.08414
G1 X89.268 Y180.849 E0.04682
G1 X88.789 Y180.962 E0.01709
G1 X75.481 Y180.958 E0.46276
G1 X74.048 Y180.497 E0.05235
G1 X72.739 Y179.806 E0.05146
G1 X69.933 Y177.509 E0.12609
G1 X69.035 Y176.544 E0.04584
G1 X68.287 Y175.428 E0.04674
G1 X67.497 Y173.359 E0.077
G1 X65.585 Y161.947 E0.40235
G1 X65.358 Y161.636 E0.0134
G1 X57.585 Y156.693 E0.32032
G1 X56.424 Y155.235 E0.0648
G1 X55.209 Y153.076 E0.08616
G1 X54.459 Y150.708 E0.08635
G1 X54.377 Y149.705 E0.035
G1 X54.377 Y136.581 E0.45636
G1 X54.676 Y134.791 E0.06312
G1 X55.243 Y133.339 E0.0542
G1 X55.865 Y132.35 E0.04063
G1 X55.865 Y122.447 E0.34436
G1 X56.218 Y120.468 E0.0699
G1 X57.018 Y118.673 E0.06835
G1 X57.964 Y117.398 E0.0552
G1 X60.701 Y114.717 E0.13323
G1 X62.212 Y113.76 E0.06218
M107
G1 X62.397 Y114.051 F3600000
M107
G1 F1200
G1 X62.528 Y113.968 E0.00539
G1 X63.415 Y113.626 E0.03308
G1 X64.34 Y113.371 E0.03336
G1 X77.862 Y113.364 E0.47019
G1 X78.817 Y113.619 E0.03438
G1 X79.732 Y113.971 E0.03407
G1 X81.535 Y115.152 E0.07495
G1 X84.319 Y117.951 E0.13726
G1 X85.49 Y119.934 E0.0801
G1 X86.025 Y122.213 E0.08138
G1 X86.038 Y127.247 E0.17506
G1 X87.087 Y128.296 E0.05157
G1 X87.594 Y128.977 E0.02955
G1 X95.348 Y134.632 E0.33372
G1 X96.393 Y136.044 E0.06106
G1 X97.417 Y138.022 E0.07745
G1 X98.007 Y139.855 E0.06696
G1 X98.14 Y157.373 E0.60919
G1 X98.021 Y158.295 E0.03231
G1 X98.14 Y159.211 E0.03213
G1 X98.026 Y170.522 E0.39333
G1 X97.444 Y172.554 E0.07351
G1 X97.062 Y173.521 E0.03615
G1 X94.395 Y177.391 E0.16344
G1 X92.508 Y178.981 E0.08581
G1 X90.403 Y180.065 E0.08231
G1 X89.158 Y180.518 E0.04608
G1 X88.729 Y180.618 E0.01531
G1 X75.562 Y180.618 E0.45789
G1 X74.197 Y180.181 E0.04981
G1 X72.917 Y179.506 E0.05031
G1 X70.163 Y177.247 E0.12385
G1 X69.3 Y176.317 E0.04412
G1 X68.588 Y175.251 E0.04461
G1 X67.829 Y173.251 E0.07435
G1 X65.915 Y161.808 E0.40343
G1 X65.6 Y161.377 E0.01856
G1 X57.839 Y156.453 E0.31962
G1 X56.721 Y155.052 E0.06233
G1 X55.521 Y152.921 E0.08505
G1 X54.805 Y150.66 E0.08246
G1 X54.725 Y149.698 E0.03357
G1 X54.725 Y136.596 E0.45561
G1 X55.008 Y134.901 E0.05975
G1 X55.561 Y133.481 E0.05299
G1 X56.213 Y132.451 E0.0424
G1 X56.213 Y122.462 E0.34734
G1 X56.545 Y120.59 E0.06612
G1 X57.31 Y118.864 E0.06563
G1 X58.218 Y117.637 E0.0531
G1 X60.903 Y115.001 E0.13085
G1 X62.346 Y114.084 E0.05946
M107
G1 X62.532 Y114.375 F3600000
M107
G1 F1200
G1 X62.67 Y114.287 E0.00567
G1 X63.533 Y113.954 E0.03217
G1 X64.41 Y113.713 E0.03164
G1 X77.794 Y113.707 E0.4654
G1 X78.718 Y113.953 E0.03327
G1 X79.589 Y114.29 E0.03245
G1 X81.328 Y115.434 E0.0724
G1 X84.03 Y118.147 E0.13314
M73 P0 R161
G1 X85.177 Y120.088 E0.07841
G1 X85.681 Y122.272 E0.07793
G1 X85.69 Y127.392 E0.17803
G1 X86.831 Y128.533 E0.05613
G1 X87.346 Y129.228 E0.03006
G1 X95.084 Y134.861 E0.33284
G1 X96.09 Y136.216 E0.05868
G1 X97.101 Y138.169 E0.07647
G1 X97.658 Y139.884 E0.06271
G1 X97.791 Y157.364 E0.60784
G1 X97.669 Y158.295 E0.03265
G1 X97.791 Y159.22 E0.03245
G1 X97.685 Y170.448 E0.39046
G1 X97.112 Y172.45 E0.07239
G1 X96.745 Y173.374 E0.03457
G1 X94.152 Y177.14 E0.15899
G1 X92.33 Y178.68 E0.08296
G1 X90.274 Y179.741 E0.08047
G1 X89.049 Y180.187 E0.04532
G1 X88.67 Y180.274 E0.01352
G1 X75.642 Y180.277 E0.45304
G1 X74.318 Y179.854 E0.04833
G1 X73.096 Y179.206 E0.04809
G1 X70.394 Y176.986 E0.12162
G1 X69.565 Y176.091 E0.0424
G1 X68.889 Y175.074 E0.04247
G1 X68.161 Y173.144 E0.07171
G1 X66.245 Y161.67 E0.40454
G1 X65.843 Y161.118 E0.02374
G1 X58.093 Y156.213 E0.31893
G1 X57.017 Y154.869 E0.05985
G1 X55.834 Y152.765 E0.08393
G1 X55.151 Y150.612 E0.07856
G1 X55.074 Y149.691 E0.03213
G1 X55.074 Y136.61 E0.45486
G1 X55.339 Y135.011 E0.05637
G1 X55.88 Y133.624 E0.05177
G1 X56.562 Y132.552 E0.04416
G1 X56.562 Y122.477 E0.35034
G1 X56.872 Y120.711 E0.06236
G1 X57.602 Y119.056 E0.0629
G1 X58.472 Y117.876 E0.05099
G1 X61.106 Y115.285 E0.12848
M73 P1 R161
G1 X62.482 Y114.407 E0.05674
M107
G1 X62.668 Y114.698 F3600000
M107
G1 F1200
G1 X62.812 Y114.606 E0.00594
G1 X63.633 Y114.288 E0.03064
G1 X64.48 Y114.055 E0.03052
G1 X77.726 Y114.049 E0.46062
G1 X78.619 Y114.288 E0.03214
G1 X79.446 Y114.608 E0.03082
G1 X81.121 Y115.715 E0.06984
G1 X83.741 Y118.344 E0.12906
G1 X84.843 Y120.193 E0.07486
G1 X85.337 Y122.331 E0.0763
G1 X85.342 Y127.536 E0.18099
G1 X86.576 Y128.77 E0.06069
G1 X87.098 Y129.478 E0.03058
G1 X94.821 Y135.091 E0.33198
G1 X95.787 Y136.389 E0.05629
G1 X96.785 Y138.317 E0.07549
G1 X97.31 Y139.914 E0.05845
G1 X97.443 Y157.354 E0.60647
G1 X97.318 Y158.295 E0.03299
G1 X97.442 Y159.229 E0.03278
G1 X97.343 Y170.375 E0.38759
G1 X96.779 Y172.346 E0.07127
G1 X96.429 Y173.227 E0.03299
G1 X93.909 Y176.889 E0.15456
G1 X92.153 Y178.379 E0.0801
G1 X90.144 Y179.418 E0.07862
G1 X88.94 Y179.856 E0.04455
G1 X88.612 Y179.93 E0.0117
G1 X75.722 Y179.937 E0.44822
G1 X74.439 Y179.527 E0.04685
G1 X73.275 Y178.907 E0.04586
G1 X70.624 Y176.724 E0.11941
G1 X69.848 Y175.886 E0.03973
G1 X69.19 Y174.898 E0.04129
G1 X68.493 Y173.038 E0.06905
G1 X66.576 Y161.531 E0.40566
G1 X66.085 Y160.859 E0.02892
G1 X58.347 Y155.972 E0.31825
G1 X57.314 Y154.686 E0.05736
G1 X56.146 Y152.61 E0.08281
G1 X55.496 Y150.563 E0.07468
G1 X55.422 Y149.684 E0.03069
G1 X55.422 Y136.624 E0.45411
G1 X55.67 Y135.121 E0.053
G1 X56.198 Y133.767 E0.05054
G1 X56.91 Y132.654 E0.04592
G1 X56.91 Y122.493 E0.35335
G1 X57.212 Y120.793 E0.06004
G1 X57.894 Y119.247 E0.05875
G1 X58.726 Y118.114 E0.04889
G1 X61.31 Y115.569 E0.12611
G1 X62.617 Y114.73 E0.05402
M107
G1 X62.804 Y115.021 F3600000
M107
G1 F1200
G1 X62.954 Y114.924 E0.0062
G1 X63.734 Y114.621 E0.02909
G1 X64.549 Y114.398 E0.02939
G1 X77.703 Y114.398 E0.45738
G1 X78.518 Y114.621 E0.02941
G1 X79.302 Y114.926 E0.02923
G1 X80.914 Y115.995 E0.06728
G1 X83.454 Y118.542 E0.12504
G1 X84.51 Y120.298 E0.07129
G1 X84.993 Y122.39 E0.07466
G1 X84.993 Y127.68 E0.18396
G1 X86.32 Y129.007 E0.06524
G1 X86.849 Y129.728 E0.03109
G1 X94.557 Y135.32 E0.33115
G1 X95.484 Y136.562 E0.05389
