; generated by SuperSlicer 2.5.59.8 on 2024-04-10 at 22:45:06 UTC


;
;

;
;

;
;

;
;

;
;
; 

; external perimeters extrusion width = 0.40mm
; perimeters extrusion width = 0.40mm
; infill extrusion width = 0.40mm
; solid infill extrusion width = 0.40mm
; top infill extrusion width = 0.40mm

; object:{"name":"Sherpa_Mini_TOP","id":"Sherpa_Mini_TOP.stl id:0 copy 0","object_center":[87.500000,110.000000,0.000000],"boundingbox_center":[87.500000,110.000000,25.599998],"boundingbox_size":[33.273201,56.500000,51.199997]}
EXCLUDE_OBJECT_DEFINE NAME=Sherpa_Mini_TOP_stl_id_0_copy_0 CENTER=87.500000,110.000000 POLYGON=[[70.86,107.25],[70.91,106.30],[86.14,81.75],[95.04,81.75],[102.14,98.72],[104.14,108.24],[104.14,138.25],[91.14,138.25],[74.34,120.63],[70.86,115.18],[70.86,107.25]]
; plater:{"center":[87.500000,110.000000,0.000000],"boundingbox_center":[87.500000,110.000000,25.599998],"boundingbox_size":[33.273201,56.500000,51.199997]}

M73 P0 R153
M107
;TYPE:Custom
CALCULATE_PA MATERIAL=ABS BOWDEN_LENGTH=6 LAYER_HEIGHT=0.24 NOZZLE_SIZE=0.4 PRINT_SPEED=95


START_PRINT EXTRUDER=270 BED=100

M107
G21 ; set units to millimeters
G90 ; use absolute coordinates
M83 ; use relative distances for extrusion
ACTIVATE_EXTRUDER EXTRUDER=extruder
; Filament gcode
M104 S270 T0 ; set temperature
M109 S270 T0 ; set temperature and wait for it to be reached
M190 S100 ; set bed temperature and wait for it to be reached
;LAYER_CHANGE
;Z:0.24
;HEIGHT:0.24
;BEFORE_LAYER_CHANGE
G92 E0.0

G1 E-1.5 F3000
G1 Z0.2 F3600000
G1 Z0.24
;AFTER_LAYER_CHANGE
;0.24




CALCULATE_PA MATERIAL=ABS BOWDEN_LENGTH=6.0 LAYER_HEIGHT=0.2 NOZZLE_SIZE=0.4 PRINT_SPEED=95


G92 E0
G1 Z0.44
G1 X79.062 Y83.897
G1 Z0.24
G1 E1.5 F3000
;TYPE:Skirt
;WIDTH:0.4
M107
G1 F2400
G1 X80.765 Y82.683 E0.07272
G1 X82.709 Y81.817 E0.074
G1 X85.049 Y81.339 E0.08305
G1 X92.279 Y81.344 E0.25141
G1 X94.306 Y81.738 E0.07182
G1 X96.204 Y82.512 E0.07125
G1 X97.967 Y83.692 E0.07377
G1 X99.436 Y85.151 E0.07199
G1 X100.537 Y86.746 E0.0674
G1 X101.331 Y88.542 E0.06828
G1 X101.808 Y90.696 E0.07673
G1 X101.846 Y94.344 E0.12686
G1 X102.799 Y95.297 E0.04686
G1 X103.509 Y96.344 E0.04398
G1 X110.81 Y101.661 E0.31409
G1 X112.659 Y104.083 E0.10593
G1 X113.75 Y106.922 E0.10578
G1 X113.986 Y108.775 E0.06495
G1 X113.986 Y122.707 E0.48445
G1 X113.551 Y124.836 E0.07557
G1 X113.969 Y126.572 E0.06208
G1 X113.882 Y136.171 E0.33382
G1 X112.936 Y139.295 E0.11349
G1 X111.099 Y142.028 E0.1145
G1 X108.566 Y144.098 E0.11377
G1 X105.533 Y145.31 E0.11357
G1 X103.626 Y145.55 E0.06681
G1 X95.543 Y145.465 E0.28111
G1 X93.938 Y145.115 E0.05713
G1 X92.404 Y144.539 E0.05697
G1 X89.848 Y142.798 E0.10754
G1 X87.91 Y140.457 E0.10568
G1 X86.724 Y137.696 E0.10449
G1 X85.003 Y127.591 E0.35646
G1 X84.26 Y126.574 E0.04379
G1 X77.682 Y122.444 E0.27006
G1 X75.477 Y119.907 E0.11689
G1 X74.165 Y116.801 E0.11725
G1 X73.893 Y114.795 E0.07039
G1 X73.912 Y105.316 E0.32963
G1 X74.333 Y103.051 E0.0801
G1 X74.952 Y101.476 E0.05886
G1 X75.407 Y100.726 E0.03049
G1 X75.407 Y91.301 E0.32774
G1 X75.793 Y89.039 E0.07981
G1 X76.466 Y87.263 E0.06604
G1 X77.554 Y85.502 E0.07196
G1 X79.021 Y83.941 E0.07452
M107
G1 X79.275 Y84.179 F3600000
M107
G1 F2400
G1 X79.304 Y84.148 E0.00148
G1 X80.953 Y82.977 E0.07031
G1 X82.833 Y82.143 E0.07153
G1 X85.066 Y81.688 E0.07926
G1 X92.262 Y81.693 E0.25021
G1 X94.223 Y82.077 E0.06948
G1 X96.055 Y82.828 E0.06887
G1 X97.759 Y83.972 E0.07135
G1 X99.179 Y85.386 E0.06969
G1 X100.225 Y86.902 E0.06405
G1 X100.995 Y88.635 E0.06591
G1 X101.46 Y90.718 E0.07423
G1 X101.499 Y94.49 E0.13117
G1 X102.541 Y95.531 E0.05122
G1 X103.254 Y96.589 E0.04437
G1 X110.549 Y101.893 E0.31363
G1 X112.343 Y104.231 E0.10248
G1 X113.407 Y106.987 E0.10273
G1 X113.637 Y108.786 E0.06306
G1 X113.637 Y122.689 E0.48345
G1 X113.194 Y124.843 E0.07646
G1 X113.621 Y126.591 E0.06256
G1 X113.541 Y136.095 E0.33051
G1 X112.632 Y139.123 E0.10993
G1 X110.858 Y141.775 E0.11095
G1 X108.411 Y143.785 E0.11012
G1 X105.467 Y144.967 E0.11033
G1 X103.618 Y145.202 E0.0648
G1 X95.599 Y145.121 E0.27885
G1 X94.048 Y144.785 E0.05518
G1 X92.546 Y144.22 E0.0558
G1 X90.065 Y142.524 E0.10451
G1 X88.195 Y140.255 E0.10226
G1 X87.052 Y137.578 E0.1012
G1 X85.332 Y127.451 E0.35718
G1 X84.502 Y126.314 E0.04898
G1 X77.928 Y122.196 E0.26972
G1 X75.758 Y119.7 E0.11504
G1 X74.508 Y116.731 E0.11201
G1 X74.241 Y114.784 E0.06834
G1 X74.26 Y105.332 E0.32866
G1 X74.663 Y103.163 E0.07672
G1 X75.271 Y101.617 E0.05775
G1 X75.756 Y100.825 E0.03232
G1 X75.756 Y91.316 E0.33064
G1 X76.133 Y89.114 E0.07768
G1 X76.772 Y87.432 E0.06258
G1 X77.82 Y85.728 E0.06955
G1 X79.234 Y84.223 E0.07181
M107
G1 X79.486 Y84.459 F3600000
M107
G1 F2400
G1 X79.52 Y84.422 E0.00175
G1 X81.14 Y83.272 E0.06909
G1 X82.957 Y82.47 E0.06905
G1 X85.084 Y82.036 E0.07548
G1 X92.245 Y82.041 E0.24901
G1 X94.138 Y82.416 E0.06713
G1 X95.906 Y83.143 E0.06648
G1 X97.55 Y84.252 E0.06893
G1 X98.921 Y85.622 E0.0674
G1 X99.913 Y87.059 E0.06073
G1 X100.658 Y88.728 E0.06355
G1 X101.112 Y90.74 E0.07171
G1 X101.152 Y94.636 E0.13548
G1 X102.282 Y95.766 E0.05557
G1 X102.999 Y96.835 E0.04476
G1 X110.288 Y102.126 E0.31318
G1 X112.051 Y104.424 E0.10073
G1 X113.064 Y107.053 E0.09796
G1 X113.289 Y108.797 E0.06117
G1 X113.289 Y122.671 E0.48244
G1 X112.837 Y124.849 E0.07736
G1 X113.272 Y126.61 E0.06305
G1 X113.2 Y136.019 E0.3272
G1 X112.328 Y138.951 E0.10638
G1 X110.616 Y141.522 E0.10739
G1 X108.256 Y143.472 E0.10646
G1 X105.4 Y144.624 E0.10708
G1 X103.61 Y144.853 E0.06278
G1 X95.656 Y144.777 E0.27659
G1 X94.135 Y144.447 E0.05412
G1 X92.689 Y143.901 E0.05373
G1 X90.283 Y142.251 E0.10148
G1 X88.48 Y140.053 E0.09884
G1 X87.381 Y137.461 E0.0979
G1 X85.662 Y127.312 E0.35793
G1 X84.743 Y126.054 E0.05418
G1 X78.174 Y121.947 E0.2694
G1 X76.068 Y119.538 E0.11127
G1 X74.85 Y116.661 E0.10866
G1 X74.59 Y114.772 E0.06628
G1 X74.609 Y105.349 E0.32769
G1 X74.994 Y103.275 E0.07334
G1 X75.589 Y101.759 E0.05664
G1 X76.104 Y100.923 E0.03414
G1 X76.104 Y91.331 E0.33356
G1 X76.474 Y89.19 E0.07555
G1 X77.077 Y87.6 E0.05914
G1 X78.086 Y85.953 E0.06714
G1 X79.445 Y84.503 E0.06911
M107
G1 X79.699 Y84.741 F3600000
M107
G1 F2400
G1 X79.763 Y84.673 E0.00322
G1 X81.327 Y83.566 E0.06664
G1 X83.08 Y82.796 E0.06657
G1 X85.101 Y82.385 E0.07173
G1 X92.227 Y82.389 E0.2478
G1 X94.054 Y82.754 E0.06475
G1 X95.757 Y83.458 E0.0641
G1 X97.341 Y84.531 E0.06651
G1 X98.663 Y85.857 E0.06512
G1 X99.602 Y87.216 E0.05745
G1 X100.322 Y88.822 E0.0612
G1 X100.763 Y90.762 E0.06918
G1 X100.805 Y94.782 E0.13978
G1 X102.024 Y96 E0.05992
G1 X102.744 Y97.08 E0.04515
G1 X110.027 Y102.358 E0.31276
G1 X111.735 Y104.573 E0.09726
G1 X112.721 Y107.118 E0.09491
G1 X112.94 Y108.808 E0.05927
G1 X112.94 Y122.653 E0.48142
G1 X112.479 Y124.856 E0.07827
G1 X112.923 Y126.629 E0.06355
G1 X112.859 Y135.943 E0.32388
G1 X112.001 Y138.827 E0.10461
G1 X110.341 Y141.307 E0.10378
G1 X108.055 Y143.186 E0.10288
G1 X105.334 Y144.282 E0.10201
G1 X103.601 Y144.505 E0.06076
G1 X95.712 Y144.432 E0.27433
G1 X94.246 Y144.116 E0.05215
G1 X92.832 Y143.583 E0.05255
G1 X90.501 Y141.978 E0.09842
G1 X88.766 Y139.852 E0.0954
G1 X87.71 Y137.344 E0.09462
G1 X85.992 Y127.173 E0.35869
G1 X84.985 Y125.794 E0.05938
G1 X78.419 Y121.698 E0.2691
G1 X76.378 Y119.376 E0.10751
G1 X75.192 Y116.59 E0.1053
G1 X74.938 Y114.761 E0.06421
G1 X74.957 Y105.365 E0.32671
G1 X75.324 Y103.387 E0.06997
G1 X75.908 Y101.901 E0.05551
G1 X76.453 Y101.023 E0.03595
G1 X76.453 Y91.346 E0.33649
G1 X76.815 Y89.266 E0.07341
G1 X77.383 Y87.767 E0.05573
G1 X78.353 Y86.179 E0.06472
G1 X79.658 Y84.785 E0.06641
M107
G1 X79.911 Y85.02 F3600000
M107
G1 F2400
G1 X79.979 Y84.947 E0.00346
G1 X81.514 Y83.861 E0.0654
G1 X83.203 Y83.123 E0.06408
G1 X85.118 Y82.733 E0.06799
G1 X92.21 Y82.738 E0.2466
G1 X93.937 Y83.083 E0.06122
G1 X95.576 Y83.757 E0.06165
G1 X97.131 Y84.81 E0.06531
G1 X98.386 Y86.068 E0.06177
G1 X99.29 Y87.374 E0.05526
G1 X99.987 Y88.917 E0.05885
G1 X100.415 Y90.784 E0.06663
G1 X100.458 Y94.927 E0.14407
G1 X101.765 Y96.234 E0.06426
G1 X102.488 Y97.326 E0.04553
G1 X109.767 Y102.591 E0.31239
G1 X111.42 Y104.723 E0.09379
G1 X112.378 Y107.184 E0.09185
G1 X112.592 Y108.82 E0.05736
G1 X112.592 Y122.635 E0.4804
G1 X112.121 Y124.864 E0.0792
G1 X112.575 Y126.649 E0.06406
G1 X112.518 Y135.868 E0.32058
G1 X111.697 Y138.656 E0.10104
G1 X110.099 Y141.055 E0.10022
G1 X107.9 Y142.873 E0.09923
G1 X105.267 Y143.939 E0.09877
G1 X103.592 Y144.156 E0.05874
G1 X95.768 Y144.088 E0.27207
G1 X94.332 Y143.778 E0.05108
G1 X92.975 Y143.264 E0.05046
G1 X90.754 Y141.738 E0.0937
G1 X89.077 Y139.693 E0.09194
G1 X88.039 Y137.228 E0.09304
G1 X86.322 Y127.034 E0.35946
G1 X85.226 Y125.534 E0.06459
G1 X78.663 Y121.448 E0.26883
G1 X76.687 Y119.213 E0.10374
G1 X75.534 Y116.519 E0.10192
G1 X75.287 Y114.749 E0.06212
G1 X75.306 Y105.382 E0.32574
G1 X75.655 Y103.499 E0.06659
G1 X76.226 Y102.044 E0.05437
G1 X76.801 Y101.122 E0.03776
G1 X76.801 Y91.361 E0.33943
G1 X77.155 Y89.342 E0.07127
G1 X77.689 Y87.935 E0.05235
G1 X78.62 Y86.403 E0.06231
G1 X79.87 Y85.064 E0.0637
M107
G1 X80.124 Y85.302 F3600000
M107
G1 F2400
G1 X80.221 Y85.198 E0.00492
G1 X81.7 Y84.156 E0.06292
G1 X83.325 Y83.45 E0.0616
G1 X85.136 Y83.082 E0.06426
G1 X92.193 Y83.086 E0.24538
G1 X93.851 Y83.421 E0.05884
G1 X95.427 Y84.072 E0.05928
G1 X96.922 Y85.089 E0.06287
G1 X98.108 Y86.279 E0.05844
G1 X98.98 Y87.533 E0.05308
G1 X99.651 Y89.012 E0.0565
G1 X100.067 Y90.807 E0.06406
G1 X100.111 Y95.073 E0.14836
G1 X101.506 Y96.468 E0.06859
G1 X102.232 Y97.571 E0.04592
G1 X109.507 Y102.825 E0.31205
G1 X111.104 Y104.873 E0.09032
G1 X112.035 Y107.251 E0.08878
G1 X112.243 Y108.831 E0.05543
G1 X112.243 Y122.617 E0.47937
G1 X111.764 Y124.871 E0.08015
G1 X112.226 Y126.67 E0.06458
G1 X112.176 Y135.794 E0.31728
G1 X111.392 Y138.485 E0.09748
G1 X109.857 Y140.803 E0.09667
G1 X107.743 Y142.56 E0.09557
G1 X105.2 Y143.596 E0.09551
G1 X103.583 Y143.807 E0.0567
G1 X95.824 Y143.743 E0.26981
G1 X94.443 Y143.448 E0.04909
G1 X93.118 Y142.946 E0.04927
G1 X90.973 Y141.465 E0.09066
G1 X89.363 Y139.493 E0.08851
G1 X88.368 Y137.112 E0.08973
G1 X86.652 Y126.895 E0.36025
G1 X85.468 Y125.274 E0.06982
G1 X78.907 Y121.198 E0.26858
G1 X76.996 Y119.05 E0.09998
G1 X75.876 Y116.447 E0.09853
G1 X75.635 Y114.738 E0.06003
G1 X75.654 Y105.398 E0.32476
G1 X75.985 Y103.611 E0.06321
G1 X76.545 Y102.186 E0.05323
G1 X77.15 Y101.223 E0.03956
G1 X77.15 Y91.376 E0.3424
G1 X77.495 Y89.419 E0.06911
G1 X77.996 Y88.102 E0.04901
G1 X78.887 Y86.628 E0.05988
G1 X80.084 Y85.346 E0.06098
M107
G1 X80.338 Y85.584 F3600000
M107
G1 F2400
G1 X80.463 Y85.449 E0.00638
G1 X81.886 Y84.452 E0.06041
G1 X83.446 Y83.777 E0.05912
G1 X85.153 Y83.43 E0.06056
G1 X92.175 Y83.435 E0.24417
G1 X93.765 Y83.759 E0.05644
G1 X95.245 Y84.371 E0.05569
G1 X96.712 Y85.368 E0.06167
G1 X97.831 Y86.491 E0.05514
G1 X98.669 Y87.691 E0.05089
G1 X99.327 Y89.14 E0.05534
G1 X99.723 Y90.867 E0.06159
G1 X99.764 Y95.219 E0.15135
G1 X101.247 Y96.702 E0.07292
G1 X101.976 Y97.816 E0.0463
G1 X109.248 Y103.059 E0.31175
G1 X110.789 Y105.025 E0.08685
G1 X111.693 Y107.318 E0.08569
G1 X111.895 Y108.843 E0.0535
G1 X111.895 Y122.599 E0.47833
G1 X111.44 Y124.741 E0.07614
G1 X111.399 Y124.854 E0.0042
G1 X111.877 Y126.691 E0.06601
G1 X111.835 Y135.721 E0.31399
G1 X111.086 Y138.316 E0.09392
G1 X109.614 Y140.552 E0.09311
G1 X107.586 Y142.248 E0.0919
G1 X105.132 Y143.254 E0.09224
G1 X103.573 Y143.459 E0.05466
G1 X95.879 Y143.399 E0.26755
G1 X94.529 Y143.11 E0.04801
G1 X93.262 Y142.628 E0.04715
G1 X91.191 Y141.192 E0.0876
G1 X89.65 Y139.293 E0.08508
G1 X88.698 Y136.996 E0.08643
G1 X86.982 Y126.756 E0.36106
G1 X85.709 Y125.013 E0.07505
G1 X79.15 Y120.947 E0.26836
G1 X77.305 Y118.885 E0.09621
G1 X76.217 Y116.375 E0.09513
G1 X75.984 Y114.726 E0.05792
G1 X76.003 Y105.415 E0.32378
G1 X76.316 Y103.723 E0.05984
G1 X76.863 Y102.329 E0.05207
G1 X77.498 Y101.324 E0.04135
G1 X77.498 Y91.392 E0.34537
G1 X77.836 Y89.496 E0.06695
G1 X78.303 Y88.268 E0.04569
G1 X79.154 Y86.852 E0.05745
G1 X80.297 Y85.627 E0.05826
M107
G1 X80.552 Y85.865 F3600000
M107
G1 F2400
G1 X80.706 Y85.701 E0.00783
G1 X82.071 Y84.748 E0.05789
G1 X83.568 Y84.104 E0.05665
G1 X85.17 Y83.779 E0.05687
G1 X92.157 Y83.783 E0.24294
G1 X93.679 Y84.097 E0.05403
G1 X95.095 Y84.686 E0.05334
G1 X96.502 Y85.646 E0.05924
G1 X97.555 Y86.704 E0.05187
G1 X98.358 Y87.85 E0.04868
G1 X99.002 Y89.268 E0.05416
G1 X99.379 Y90.926 E0.0591
G1 X99.417 Y95.365 E0.15436
G1 X100.988 Y96.935 E0.07725
G1 X101.72 Y98.06 E0.04668
G1 X108.99 Y103.294 E0.3115
G1 X110.475 Y105.177 E0.08337
G1 X111.35 Y107.385 E0.08259
G1 X111.546 Y108.854 E0.05155
G1 X111.546 Y122.58 E0.47729
G1 X111.102 Y124.654 E0.07376
G1 X111.033 Y124.834 E0.0067
G1 X111.529 Y126.712 E0.06755
G1 X111.493 Y135.648 E0.31072
G1 X110.78 Y138.147 E0.09036
G1 X109.37 Y140.301 E0.08953
G1 X107.383 Y141.963 E0.09007
G1 X105.064 Y142.911 E0.08714
G1 X103.564 Y143.11 E0.05262
G1 X95.935 Y143.054 E0.2653
G1 X94.641 Y142.779 E0.046
G1 X93.406 Y142.309 E0.04594
G1 X91.411 Y140.921 E0.08453
G1 X89.937 Y139.093 E0.08164
G1 X89.028 Y136.882 E0.08314
G1 X87.312 Y126.617 E0.3619
G1 X85.95 Y124.753 E0.08028
G1 X79.392 Y120.695 E0.26816
G1 X77.613 Y118.72 E0.09244
G1 X76.559 Y116.303 E0.09171
G1 X76.332 Y114.714 E0.0558
G1 X76.351 Y105.431 E0.3228
G1 X76.646 Y103.835 E0.05646
G1 X77.181 Y102.472 E0.05091
G1 X77.847 Y101.425 E0.04314
G1 X77.847 Y91.407 E0.34836
G1 X78.176 Y89.574 E0.06477
G1 X78.622 Y88.407 E0.04345
G1 X79.421 Y87.077 E0.05395
G1 X80.511 Y85.909 E0.05554
M107
G1 X80.766 Y86.147 F3600000
M107
G1 F2400
G1 X80.948 Y85.952 E0.00927
G1 X82.255 Y85.044 E0.05534
G1 X83.688 Y84.432 E0.05419
G1 X85.188 Y84.127 E0.05321
G1 X92.139 Y84.132 E0.24172
G1 X93.561 Y84.425 E0.05049
G1 X94.914 Y84.984 E0.05089
G1 X96.292 Y85.925 E0.05804
G1 X97.278 Y86.916 E0.04863
G1 X98.048 Y88.009 E0.04647
G1 X98.677 Y89.396 E0.05298
G1 X99.035 Y90.984 E0.0566
G1 X99.069 Y95.51 E0.15739
G1 X100.728 Y97.169 E0.08157
G1 X101.463 Y98.305 E0.04705
G1 X108.732 Y103.53 E0.31128
G1 X110.16 Y105.33 E0.0799
G1 X111.008 Y107.453 E0.07948
G1 X111.198 Y108.866 E0.04959
G1 X111.198 Y122.562 E0.47624
G1 X110.765 Y124.567 E0.07133
G1 X110.667 Y124.813 E0.0092
G1 X111.18 Y126.734 E0.06917
G1 X111.151 Y135.576 E0.30746
G1 X110.473 Y137.979 E0.08681
G1 X109.126 Y140.051 E0.08595
M73 P0 R152
G1 X107.226 Y141.651 E0.08638
G1 X104.995 Y142.569 E0.08387
G1 X103.554 Y142.762 E0.05057
G1 X95.989 Y142.71 E0.26305
G1 X94.752 Y142.449 E0.04398
G1 X93.55 Y141.991 E0.04472
G1 X91.631 Y140.649 E0.08143
G1 X90.224 Y138.895 E0.07819
G1 X89.358 Y136.768 E0.07985
G1 X87.643 Y126.478 E0.36276
G1 X86.192 Y124.492 E0.08553
G1 X79.634 Y120.443 E0.26799
G1 X77.921 Y118.554 E0.08867
G1 X76.901 Y116.23 E0.08828
G1 X76.681 Y114.702 E0.05366
G1 X76.7 Y105.448 E0.32181
G1 X76.976 Y103.947 E0.05308
G1 X77.5 Y102.615 E0.04974
G1 X78.195 Y101.527 E0.04492
G1 X78.195 Y91.423 E0.35136
G1 X78.516 Y89.652 E0.06257
G1 X78.942 Y88.546 E0.04121
G1 X79.689 Y87.301 E0.05048
G1 X80.725 Y86.191 E0.05281
M107
G1 X80.978 Y86.426 F3600000
M107
G1 F2400
G1 X81.163 Y86.227 E0.00943
G1 X82.408 Y85.357 E0.05283
G1 X83.809 Y84.759 E0.05295
G1 X85.205 Y84.476 E0.04954
G1 X92.121 Y84.48 E0.24049
G1 X93.474 Y84.763 E0.04806
G1 X94.763 Y85.298 E0.04856
G1 X96.081 Y86.203 E0.05558
G1 X97.002 Y87.129 E0.04542
G1 X97.737 Y88.168 E0.04424
G1 X98.352 Y89.524 E0.05177
G1 X98.691 Y91.042 E0.05408
G1 X98.722 Y95.655 E0.16043
G1 X100.468 Y97.402 E0.0859
G1 X101.206 Y98.549 E0.04742
G1 X108.474 Y103.766 E0.31112
G1 X109.847 Y105.483 E0.07643
G1 X110.665 Y107.521 E0.07636
G1 X110.849 Y108.878 E0.04762
G1 X110.849 Y122.543 E0.47518
G1 X110.427 Y124.478 E0.06885
G1 X110.3 Y124.79 E0.01173
G1 X110.832 Y126.757 E0.07086
G1 X110.809 Y135.505 E0.30421
G1 X110.166 Y137.812 E0.08327
G1 X108.881 Y139.802 E0.08237
G1 X107.067 Y141.34 E0.08268
G1 X104.926 Y142.226 E0.08059
G1 X103.544 Y142.413 E0.04851
G1 X96.044 Y142.365 E0.2608
G1 X94.837 Y142.111 E0.04289
G1 X93.695 Y141.674 E0.04254
G1 X91.852 Y140.378 E0.07832
G1 X90.513 Y138.697 E0.07473
G1 X89.698 Y136.692 E0.07526
G1 X87.973 Y126.339 E0.36497
G1 X86.433 Y124.231 E0.09078
G1 X79.875 Y120.19 E0.26785
G1 X78.228 Y118.388 E0.0849
