; generated by SuperSlicer 2.5.59 on 2024-03-12 at 04:19:36 UTC


;
;

;
;

;
;

;
;

;
;
; 

; external perimeters extrusion width = 0.40mm
; perimeters extrusion width = 0.40mm
; infill extrusion width = 0.40mm
; solid infill extrusion width = 0.40mm
; top infill extrusion width = 0.40mm
; first layer extrusion width = 0.40mm

; object:{"name":"shih-tzu","id":"shih-tzu.stl id:0 copy 0","object_center":[87.500000,110.000000,0.000000],"boundingbox_center":[87.500000,110.000000,22.293257],"boundingbox_size":[55.169273,40.000000,44.586514]}
EXCLUDE_OBJECT_DEFINE NAME=shih_tzu_stl_id_0_copy_0 CENTER=87.500000,110.000000 POLYGON=[[59.92,110.00],[62.63,103.78],[65.29,101.91],[86.53,91.92],[86.76,91.82],[86.98,91.72],[87.20,91.62],[87.43,91.52],[87.66,91.43],[87.89,91.34],[88.12,91.25],[88.35,91.17],[88.58,91.09],[88.81,91.01],[89.04,90.93],[89.28,90.86],[89.51,90.79],[89.75,90.72],[89.99,90.66],[90.22,90.60],[90.46,90.54],[90.70,90.49],[90.94,90.43],[91.18,90.38],[91.42,90.34],[91.67,90.29],[91.91,90.25],[92.15,90.22],[92.39,90.18],[92.64,90.15],[92.88,90.12],[93.12,90.10],[93.37,90.07],[93.61,90.05],[93.86,90.04],[94.10,90.02],[94.35,90.01],[94.59,90.01],[94.84,90.00],[95.08,90.00],[95.33,90.00],[95.58,90.01],[95.82,90.01],[96.07,90.02],[96.31,90.04],[96.56,90.05],[96.80,90.07],[97.04,90.10],[97.29,90.12],[97.53,90.15],[97.78,90.18],[98.02,90.22],[98.26,90.25],[98.50,90.29],[98.75,90.34],[98.99,90.38],[99.23,90.43],[99.47,90.49],[99.71,90.54],[99.94,90.60],[100.18,90.66],[100.42,90.72],[100.65,90.79],[100.89,90.86],[101.12,90.93],[101.36,91.01],[101.59,91.09],[101.82,91.17],[102.05,91.25],[102.28,91.34],[102.51,91.43],[102.74,91.52],[102.96,91.62],[103.19,91.72],[103.41,91.82],[103.64,91.92],[103.86,92.03],[104.08,92.14],[104.30,92.25],[104.51,92.36],[104.73,92.48],[104.94,92.60],[105.16,92.72],[105.37,92.85],[105.58,92.97],[105.78,93.10],[105.99,93.24],[106.20,93.37],[106.40,93.51],[106.60,93.65],[106.80,93.79],[107.00,93.94],[107.19,94.08],[107.39,94.23],[107.58,94.39],[107.77,94.54],[107.96,94.70],[108.15,94.86],[108.33,95.02],[108.52,95.18],[108.70,95.35],[108.88,95.52],[109.05,95.69],[109.23,95.86],[109.40,96.03],[109.57,96.21],[109.74,96.39],[109.90,96.57],[110.07,96.75],[110.23,96.94],[110.39,97.12],[110.54,97.31],[110.70,97.50],[110.85,97.70],[111.00,97.89],[111.15,98.09],[111.29,98.28],[111.44,98.48],[111.58,98.69],[111.71,98.89],[111.85,99.09],[111.98,99.30],[112.11,99.51],[112.24,99.72],[112.36,99.93],[112.49,100.14],[112.61,100.36],[112.72,100.57],[112.84,100.79],[112.95,101.01],[113.06,101.23],[113.16,101.45],[113.27,101.67],[113.37,101.90],[113.47,102.12],[113.56,102.35],[113.65,102.57],[113.74,102.80],[113.83,103.03],[113.92,103.26],[114.00,103.49],[114.08,103.73],[114.15,103.96],[114.22,104.19],[114.29,104.43],[114.36,104.67],[114.42,104.90],[114.49,105.14],[114.54,105.38],[114.60,105.62],[114.65,105.86],[114.70,106.10],[114.75,106.34],[114.79,106.58],[114.83,106.82],[114.87,107.07],[114.90,107.31],[114.93,107.55],[114.96,107.80],[114.99,108.04],[115.01,108.28],[115.03,108.53],[115.05,108.77],[115.06,109.02],[115.07,109.26],[115.08,109.51],[115.08,109.75],[115.08,110.00],[115.08,110.25],[115.08,110.49],[115.07,110.74],[115.06,110.98],[115.05,111.23],[115.03,111.47],[115.01,111.72],[114.99,111.96],[114.96,112.20],[114.93,112.45],[114.90,112.69],[114.87,112.93],[114.83,113.18],[114.79,113.42],[114.75,113.66],[114.70,113.90],[114.65,114.14],[114.60,114.38],[114.54,114.62],[114.49,114.86],[114.42,115.10],[114.36,115.33],[114.29,115.57],[114.22,115.81],[114.15,116.04],[114.08,116.27],[114.00,116.51],[113.92,116.74],[113.83,116.97],[113.74,117.20],[113.65,117.43],[113.56,117.65],[113.47,117.88],[113.37,118.10],[113.27,118.33],[113.16,118.55],[113.06,118.77],[112.95,118.99],[112.84,119.21],[112.72,119.43],[112.61,119.64],[112.49,119.86],[112.36,120.07],[112.24,120.28],[112.11,120.49],[111.98,120.70],[111.85,120.91],[111.71,121.11],[111.58,121.31],[111.44,121.52],[111.29,121.72],[111.15,121.91],[111.00,122.11],[110.85,122.30],[110.70,122.50],[110.54,122.69],[110.39,122.88],[110.23,123.06],[110.07,123.25],[109.90,123.43],[109.74,123.61],[109.57,123.79],[109.40,123.97],[109.23,124.14],[109.05,124.31],[108.88,124.48],[108.70,124.65],[108.52,124.82],[108.33,124.98],[108.15,125.14],[107.96,125.30],[107.77,125.46],[107.58,125.61],[107.39,125.77],[107.19,125.92],[107.00,126.06],[106.80,126.21],[106.60,126.35],[106.40,126.49],[106.20,126.63],[105.99,126.76],[105.78,126.90],[105.58,127.03],[105.37,127.15],[105.16,127.28],[104.94,127.40],[104.73,127.52],[104.51,127.64],[104.30,127.75],[104.08,127.86],[103.86,127.97],[103.64,128.08],[103.41,128.18],[103.19,128.28],[102.96,128.38],[102.74,128.48],[102.51,128.57],[102.28,128.66],[102.05,128.75],[101.82,128.83],[101.59,128.91],[101.36,128.99],[101.12,129.07],[100.89,129.14],[100.66,129.21],[100.42,129.28],[100.18,129.34],[99.94,129.40],[99.71,129.46],[99.47,129.51],[99.23,129.57],[98.99,129.62],[98.75,129.66],[98.50,129.71],[98.26,129.75],[98.02,129.78],[97.78,129.82],[97.53,129.85],[97.29,129.88],[97.04,129.90],[96.80,129.93],[96.56,129.95],[96.31,129.96],[96.07,129.98],[95.82,129.99],[95.58,129.99],[95.33,130.00],[95.08,130.00],[94.84,130.00],[94.59,129.99],[94.35,129.99],[94.10,129.98],[93.86,129.96],[93.61,129.95],[93.37,129.93],[93.12,129.90],[92.88,129.88],[92.64,129.85],[92.39,129.82],[92.15,129.78],[91.91,129.75],[91.67,129.71],[91.42,129.66],[91.18,129.62],[90.94,129.57],[90.70,129.51],[90.46,129.46],[90.23,129.40],[89.99,129.34],[89.75,129.28],[89.51,129.21],[89.28,129.14],[89.04,129.07],[88.81,128.99],[88.58,128.91],[88.35,128.83],[88.12,128.75],[87.89,128.66],[87.66,128.57],[87.43,128.48],[87.21,128.38],[86.98,128.28],[86.76,128.18],[86.53,128.08],[65.29,118.09],[62.63,116.22],[59.92,110.00]]
; plater:{"center":[87.500000,110.000000,0.000000],"boundingbox_center":[87.500000,110.000000,22.293257],"boundingbox_size":[55.169273,40.000000,44.586514]}

M73 P0 R52
;TYPE:Custom
CALCULATE_PA MATERIAL=PLA BOWDEN_LENGTH=6 LAYER_HEIGHT=0.25 NOZZLE_SIZE=0.4 PRINT_SPEED=85


START_PRINT EXTRUDER=210 BED=65
M107
G21 ; set units to millimeters
G90 ; use absolute coordinates
M83 ; use relative distances for extrusion
; Filament gcode
;_TOOLCHANGE 0
M104 S210 ; set temperature
M109 S210 ; set temperature and wait for it to be reached
M190 S65 ; set bed temperature and wait for it to be reached
M107
;LAYER_CHANGE
;Z:0.25
;HEIGHT:0.25
;BEFORE_LAYER_CHANGE
G92 E0.0

G1 E-2 F3000
G1 Z0.4 F3600000
;AFTER_LAYER_CHANGE
;0.25




CALCULATE_PA MATERIAL=PLA BOWDEN_LENGTH=6.0 LAYER_HEIGHT=0.2 NOZZLE_SIZE=0.4 PRINT_SPEED=85


G1 Z0.65
; printing object shih-tzu.stl id:0 copy 0
EXCLUDE_OBJECT_START NAME=shih_tzu_stl_id_0_copy_0
G1 X95.319 Y129.1
G1 Z0.25
G1 E2 F3000
;TYPE:Internal perimeter
;WIDTH:0.399999
M107
G1 F1800
G1 X94.382 Y129.088 E0.03375
G1 X93.446 Y129.031 E0.03375
G1 X92.514 Y128.928 E0.03375
G1 X91.589 Y128.779 E0.03375
G1 X90.671 Y128.584 E0.03375
G1 X89.765 Y128.346 E0.03375
G1 X88.871 Y128.062 E0.03375
G1 X87.992 Y127.736 E0.03375
G1 X87.131 Y127.366 E0.03375
G1 X86.288 Y126.955 E0.03375
G1 X85.467 Y126.503 E0.03376
G1 X84.668 Y126.011 E0.03375
G1 X83.895 Y125.481 E0.03375
G1 X83.149 Y124.913 E0.03375
G1 X82.432 Y124.31 E0.03375
G1 X81.745 Y123.672 E0.03375
G1 X81.09 Y123 E0.03375
G1 X80.469 Y122.298 E0.03375
G1 X79.883 Y121.566 E0.03375
G1 X79.334 Y120.806 E0.03375
G1 X78.823 Y120.021 E0.03375
G1 X78.351 Y119.211 E0.03375
G1 X77.919 Y118.378 E0.03375
G1 X77.528 Y117.526 E0.03375
G1 X77.18 Y116.655 E0.03375
G1 X76.875 Y115.769 E0.03375
G1 X76.614 Y114.868 E0.03375
G1 X76.398 Y113.956 E0.03375
G1 X76.226 Y113.035 E0.03375
G1 X76.1 Y112.105 E0.03375
G1 X76.019 Y111.171 E0.03375
G1 X75.985 Y110.235 E0.03375
G1 X75.996 Y109.297 E0.03375
G1 X76.054 Y108.361 E0.03375
G1 X76.157 Y107.429 E0.03375
G1 X76.306 Y106.504 E0.03375
G1 X76.5 Y105.587 E0.03375
G1 X76.739 Y104.68 E0.03375
G1 X77.022 Y103.786 E0.03375
G1 X77.349 Y102.908 E0.03375
G1 X77.718 Y102.046 E0.03375
G1 X78.129 Y101.203 E0.03375
G1 X78.582 Y100.382 E0.03375
G1 X79.073 Y99.584 E0.03375
G1 X79.604 Y98.811 E0.03375
G1 X80.171 Y98.064 E0.03375
G1 X80.775 Y97.347 E0.03375
G1 X81.413 Y96.66 E0.03376
G1 X82.084 Y96.005 E0.03375
G1 X82.787 Y95.384 E0.03375
G1 X83.518 Y94.799 E0.03375
G1 X84.278 Y94.249 E0.03375
G1 X85.064 Y93.738 E0.03375
G1 X85.874 Y93.266 E0.03375
G1 X86.706 Y92.834 E0.03375
G1 X87.559 Y92.444 E0.03375
G1 X88.429 Y92.096 E0.03375
G1 X89.316 Y91.791 E0.03375
G1 X90.216 Y91.53 E0.03375
G1 X91.129 Y91.313 E0.03375
G1 X92.05 Y91.141 E0.03375
G1 X92.979 Y91.015 E0.03375
G1 X93.913 Y90.935 E0.03375
G1 X94.85 Y90.9 E0.03375
G1 X95.788 Y90.912 E0.03375
G1 X96.724 Y90.969 E0.03375
G1 X97.655 Y91.072 E0.03375
G1 X98.581 Y91.221 E0.03375
G1 X99.498 Y91.416 E0.03375
G1 X100.405 Y91.655 E0.03375
G1 X101.298 Y91.938 E0.03375
G1 X102.177 Y92.264 E0.03375
G1 X103.039 Y92.634 E0.03375
G1 X103.882 Y93.045 E0.03376
G1 X104.703 Y93.497 E0.03375
G1 X105.501 Y93.989 E0.03374
G1 X106.274 Y94.519 E0.03375
G1 X107.02 Y95.087 E0.03375
G1 X107.738 Y95.69 E0.03375
G1 X108.425 Y96.329 E0.03376
G1 X109.079 Y97 E0.03375
G1 X109.7 Y97.702 E0.03375
G1 X110.286 Y98.434 E0.03375
G1 X110.835 Y99.194 E0.03375
G1 X111.347 Y99.98 E0.03375
G1 X111.819 Y100.79 E0.03375
G1 X112.25 Y101.622 E0.03375
G1 X112.641 Y102.474 E0.03375
G1 X112.989 Y103.345 E0.03375
G1 X113.294 Y104.231 E0.03374
G1 X113.555 Y105.132 E0.03375
G1 X113.772 Y106.044 E0.03375
G1 X113.943 Y106.966 E0.03375
G1 X114.07 Y107.895 E0.03376
G1 X114.15 Y108.829 E0.03375
G1 X114.184 Y109.766 E0.03375
G1 X114.173 Y110.703 E0.03375
G1 X114.115 Y111.639 E0.03375
G1 X114.012 Y112.571 E0.03375
G1 X113.863 Y113.496 E0.03375
G1 X113.669 Y114.414 E0.03375
G1 X113.43 Y115.32 E0.03376
G1 X113.147 Y116.214 E0.03374
G1 X112.82 Y117.093 E0.03375
G1 X112.451 Y117.954 E0.03375
G1 X112.04 Y118.797 E0.03375
G1 X111.588 Y119.618 E0.03376
G1 X111.096 Y120.416 E0.03375
G1 X110.565 Y121.19 E0.03375
G1 X109.998 Y121.936 E0.03375
G1 X109.394 Y122.653 E0.03375
G1 X108.756 Y123.34 E0.03375
G1 X108.085 Y123.995 E0.03375
G1 X107.383 Y124.616 E0.03375
G1 X106.651 Y125.202 E0.03375
G1 X105.891 Y125.751 E0.03375
G1 X105.105 Y126.262 E0.03375
G1 X104.295 Y126.734 E0.03375
G1 X103.463 Y127.166 E0.03375
G1 X102.61 Y127.556 E0.03375
G1 X101.74 Y127.904 E0.03375
G1 X100.853 Y128.209 E0.03375
G1 X99.953 Y128.47 E0.03375
G1 X99.041 Y128.687 E0.03375
G1 X98.119 Y128.859 E0.03375
G1 X97.19 Y128.985 E0.03376
G1 X96.256 Y129.065 E0.03375
G1 X95.379 Y129.098 E0.03158
M107
G1 X95.323 Y129.446 F3600000
M107
G1 F1800
G1 X94.369 Y129.434 E0.03436
G1 X93.416 Y129.376 E0.03436
G1 X92.468 Y129.271 E0.03436
G1 X91.525 Y129.119 E0.03436
G1 X90.591 Y128.921 E0.03436
G1 X89.668 Y128.678 E0.03436
G1 X88.758 Y128.39 E0.03436
G1 X87.864 Y128.057 E0.03436
G1 X86.986 Y127.681 E0.03436
G1 X86.128 Y127.263 E0.03436
G1 X85.292 Y126.802 E0.03437
G1 X84.48 Y126.302 E0.03436
G1 X83.692 Y125.762 E0.03436
G1 X82.933 Y125.184 E0.03436
G1 X82.202 Y124.569 E0.03436
G1 X81.503 Y123.919 E0.03436
G1 X80.836 Y123.236 E0.03436
G1 X80.204 Y122.521 E0.03436
G1 X79.608 Y121.776 E0.03436
G1 X79.048 Y121.002 E0.03436
G1 X78.528 Y120.202 E0.03436
G1 X78.047 Y119.378 E0.03436
G1 X77.608 Y118.53 E0.03436
G1 X77.21 Y117.662 E0.03436
G1 X76.856 Y116.776 E0.03436
G1 X76.545 Y115.874 E0.03436
G1 X76.279 Y114.957 E0.03436
G1 X76.059 Y114.028 E0.03436
G1 X75.884 Y113.09 E0.03436
G1 X75.756 Y112.144 E0.03437
G1 X75.674 Y111.193 E0.03436
G1 X75.638 Y110.239 E0.03436
G1 X75.65 Y109.284 E0.03436
G1 X75.709 Y108.332 E0.03436
G1 X75.814 Y107.383 E0.03436
G1 X75.966 Y106.44 E0.03436
G1 X76.163 Y105.507 E0.03437
G1 X76.407 Y104.584 E0.03436
G1 X76.695 Y103.674 E0.03436
G1 X77.027 Y102.779 E0.03436
G1 X77.403 Y101.902 E0.03436
G1 X77.822 Y101.044 E0.03436
G1 X78.282 Y100.207 E0.03437
G1 X78.783 Y99.395 E0.03436
G1 X79.323 Y98.608 E0.03436
G1 X79.901 Y97.848 E0.03436
G1 X80.516 Y97.118 E0.03436
G1 X81.165 Y96.418 E0.03437
G1 X81.849 Y95.752 E0.03436
G1 X82.564 Y95.119 E0.03436
G1 X83.309 Y94.523 E0.03436
G1 X84.082 Y93.964 E0.03436
G1 X84.882 Y93.443 E0.03436
G1 X85.707 Y92.963 E0.03436
G1 X86.555 Y92.523 E0.03437
G1 X87.422 Y92.125 E0.03436
G1 X88.309 Y91.771 E0.03436
G1 X89.211 Y91.46 E0.03436
G1 X90.128 Y91.195 E0.03436
G1 X91.057 Y90.974 E0.03436
G1 X91.995 Y90.799 E0.03436
G1 X92.941 Y90.671 E0.03437
G1 X93.892 Y90.589 E0.03436
G1 X94.846 Y90.554 E0.03436
G1 X95.8 Y90.566 E0.03437
G1 X96.753 Y90.624 E0.03437
G1 X97.702 Y90.729 E0.03436
G1 X98.644 Y90.881 E0.03436
G1 X99.578 Y91.079 E0.03436
G1 X100.501 Y91.322 E0.03436
G1 X101.411 Y91.61 E0.03436
G1 X102.306 Y91.943 E0.03436
G1 X103.183 Y92.319 E0.03436
G1 X104.041 Y92.738 E0.03437
G1 X104.877 Y93.198 E0.03436
G1 X105.69 Y93.698 E0.03436
G1 X106.477 Y94.239 E0.03437
G1 X107.237 Y94.816 E0.03436
G1 X107.967 Y95.431 E0.03436
G1 X108.666 Y96.081 E0.03437
G1 X109.333 Y96.764 E0.03436
G1 X109.965 Y97.479 E0.03436
G1 X110.562 Y98.224 E0.03436
G1 X111.121 Y98.998 E0.03437
G1 X111.641 Y99.798 E0.03436
G1 X112.122 Y100.623 E0.03436
G1 X112.562 Y101.47 E0.03436
G1 X112.959 Y102.338 E0.03436
G1 X113.314 Y103.224 E0.03436
G1 X113.624 Y104.127 E0.03436
G1 X113.89 Y105.043 E0.03437
G1 X114.111 Y105.972 E0.03437
G1 X114.285 Y106.911 E0.03436
G1 X114.414 Y107.857 E0.03437
G1 X114.496 Y108.807 E0.03436
G1 X114.531 Y109.761 E0.03436
G1 X114.519 Y110.716 E0.03437
G1 X114.461 Y111.669 E0.03436
G1 X114.355 Y112.617 E0.03436
G1 X114.204 Y113.56 E0.03436
G1 X114.006 Y114.494 E0.03436
G1 X113.763 Y115.417 E0.03437
G1 X113.474 Y116.326 E0.03436
G1 X113.142 Y117.221 E0.03437
G1 X112.766 Y118.099 E0.03436
G1 X112.347 Y118.956 E0.03436
G1 X111.887 Y119.793 E0.03437
G1 X111.386 Y120.605 E0.03436
G1 X110.846 Y121.392 E0.03436
G1 X110.268 Y122.152 E0.03436
G1 X109.654 Y122.882 E0.03436
G1 X109.004 Y123.582 E0.03436
G1 X108.321 Y124.248 E0.03436
G1 X107.606 Y124.881 E0.03436
G1 X106.86 Y125.477 E0.03436
G1 X106.087 Y126.036 E0.03436
G1 X105.287 Y126.557 E0.03436
G1 X104.462 Y127.037 E0.03436
G1 X103.615 Y127.477 E0.03436
G1 X102.747 Y127.875 E0.03436
G1 X101.861 Y128.229 E0.03436
G1 X100.958 Y128.54 E0.03436
G1 X100.041 Y128.805 E0.03436
G1 X99.112 Y129.026 E0.03436
G1 X98.174 Y129.201 E0.03436
G1 X97.228 Y129.329 E0.03437
G1 X96.277 Y129.411 E0.03436
G1 X95.383 Y129.444 E0.03219
M107
G1 X95.328 Y129.792 F3600000
;TYPE:External perimeter
M107
G1 F1800
G1 X94.356 Y129.781 E0.03497
G1 X93.387 Y129.721 E0.03498
G1 X92.421 Y129.614 E0.03497
G1 X91.462 Y129.46 E0.03497
G1 X90.511 Y129.258 E0.03498
G1 X89.572 Y129.011 E0.03497
G1 X88.646 Y128.717 E0.03498
G1 X87.735 Y128.379 E0.03497
G1 X86.842 Y127.996 E0.03498
G1 X85.969 Y127.57 E0.03497
G1 X85.118 Y127.102 E0.03498
G1 X84.291 Y126.592 E0.03497
G1 X83.49 Y126.042 E0.03497
G1 X82.716 Y125.454 E0.03497
G1 X81.973 Y124.829 E0.03497
G1 X81.261 Y124.167 E0.03498
G1 X80.583 Y123.472 E0.03498
G1 X79.939 Y122.744 E0.03497
G1 X79.332 Y121.986 E0.03497
G1 X78.763 Y121.198 E0.03497
G1 X78.233 Y120.384 E0.03497
G1 X77.744 Y119.545 E0.03497
G1 X77.296 Y118.682 E0.03498
G1 X76.892 Y117.799 E0.03497
G1 X76.531 Y116.897 E0.03497
G1 X76.215 Y115.978 E0.03497
G1 X75.944 Y115.045 E0.03498
G1 X75.72 Y114.1 E0.03498
G1 X75.542 Y113.145 E0.03497
G1 X75.411 Y112.182 E0.03498
G1 X75.328 Y111.214 E0.03497
G1 X75.292 Y110.243 E0.03497
G1 X75.304 Y109.272 E0.03498
G1 X75.364 Y108.302 E0.03498
G1 X75.471 Y107.336 E0.03497
G1 X75.625 Y106.377 E0.03497
M73 P0 R51
G1 X75.826 Y105.427 E0.03498
G1 X76.074 Y104.487 E0.03497
G1 X76.367 Y103.561 E0.03498
G1 X76.706 Y102.65 E0.03497
G1 X77.089 Y101.757 E0.03497
G1 X77.515 Y100.884 E0.03497
G1 X77.983 Y100.033 E0.03498
G1 X78.493 Y99.206 E0.03497
G1 X79.042 Y98.405 E0.03498
G1 X79.631 Y97.632 E0.03497
G1 X80.256 Y96.888 E0.03497
G1 X80.917 Y96.176 E0.03498
G1 X81.613 Y95.498 E0.03497
G1 X82.341 Y94.854 E0.03497
G1 X83.099 Y94.247 E0.03497
G1 X83.886 Y93.678 E0.03498
G1 X84.701 Y93.148 E0.03497
G1 X85.54 Y92.659 E0.03498
G1 X86.403 Y92.212 E0.03498
G1 X87.286 Y91.807 E0.03497
G1 X88.188 Y91.446 E0.03498
G1 X89.107 Y91.13 E0.03497
G1 X90.04 Y90.86 E0.03498
