; generated by SuperSlicer 2.5.59.9 on 2024-05-08 at 04:43:41 UTC


;
;

;
;

;
;

;
;

;
;
; 

; external perimeters extrusion width = 0.40mm
; perimeters extrusion width = 0.40mm
; infill extrusion width = 0.40mm
; solid infill extrusion width = 0.40mm
; top infill extrusion width = 0.40mm

; object:{"name":"Shim","id":"Shim id:0 copy 0","object_center":[23.322898,46.862198,0.000000],"boundingbox_center":[23.322898,46.862198,1.000000],"boundingbox_size":[20.000000,20.000000,2.000000]}
EXCLUDE_OBJECT_DEFINE NAME=Shim_id_0_copy_0 CENTER=23.322898,46.862198 POLYGON=[[13.32,46.86],[13.33,46.43],[13.36,45.99],[13.41,45.56],[13.47,45.13],[13.56,44.70],[13.66,44.27],[13.79,43.86],[13.93,43.44],[14.08,43.04],[14.26,42.64],[14.45,42.24],[14.66,41.86],[14.89,41.49],[15.13,41.13],[15.39,40.77],[15.66,40.43],[15.95,40.11],[16.25,39.79],[16.57,39.49],[16.90,39.20],[17.24,38.93],[17.59,38.67],[17.95,38.43],[18.32,38.20],[18.71,37.99],[19.10,37.80],[19.50,37.62],[19.90,37.47],[20.32,37.33],[20.73,37.20],[21.16,37.10],[21.59,37.01],[22.02,36.95],[22.45,36.90],[22.89,36.87],[23.32,36.86],[23.76,36.87],[24.19,36.90],[24.63,36.95],[25.06,37.01],[25.49,37.10],[25.91,37.20],[26.33,37.33],[26.74,37.47],[27.15,37.62],[27.55,37.80],[27.94,37.99],[28.32,38.20],[28.70,38.43],[29.06,38.67],[29.41,38.93],[29.75,39.20],[30.08,39.49],[30.39,39.79],[30.70,40.11],[30.98,40.43],[31.26,40.77],[31.51,41.13],[31.76,41.49],[31.98,41.86],[32.19,42.24],[32.39,42.64],[32.56,43.04],[32.72,43.44],[32.86,43.86],[32.98,44.27],[33.09,44.70],[33.17,45.13],[33.24,45.56],[33.28,45.99],[33.31,46.43],[33.32,46.86],[33.31,47.30],[33.28,47.73],[33.24,48.17],[33.17,48.60],[33.09,49.03],[32.98,49.45],[32.86,49.87],[32.72,50.28],[32.56,50.69],[32.39,51.09],[32.19,51.48],[31.98,51.86],[31.76,52.24],[31.51,52.60],[31.26,52.95],[30.98,53.29],[30.70,53.62],[30.39,53.93],[30.08,54.23],[29.75,54.52],[29.41,54.80],[29.06,55.05],[28.70,55.30],[28.32,55.52],[27.94,55.73],[27.55,55.93],[27.15,56.10],[26.74,56.26],[26.33,56.40],[25.91,56.52],[25.49,56.63],[25.06,56.71],[24.63,56.78],[24.19,56.82],[23.76,56.85],[23.32,56.86],[22.89,56.85],[22.45,56.82],[22.02,56.78],[21.59,56.71],[21.16,56.63],[20.73,56.52],[20.32,56.40],[19.90,56.26],[19.50,56.10],[19.10,55.93],[18.71,55.73],[18.32,55.52],[17.95,55.30],[17.59,55.05],[17.24,54.80],[16.90,54.52],[16.57,54.23],[16.25,53.93],[15.95,53.62],[15.66,53.29],[15.39,52.95],[15.13,52.60],[14.89,52.24],[14.66,51.86],[14.45,51.48],[14.26,51.09],[14.08,50.69],[13.93,50.28],[13.79,49.87],[13.66,49.45],[13.56,49.03],[13.47,48.60],[13.41,48.17],[13.36,47.73],[13.33,47.30],[13.32,46.86]]
; plater:{"center":[23.322898,46.862198,0.000000],"boundingbox_center":[23.322898,46.862198,1.000000],"boundingbox_size":[20.000000,20.000000,2.000000]}

M73 P0 R1
M107
;TYPE:Custom
CALCULATE_PA MATERIAL=ASA BOWDEN_LENGTH=6 LAYER_HEIGHT=0.25 NOZZLE_SIZE=0.4 PRINT_SPEED=95


START_PRINT EXTRUDER=260 BED=105

G21 ; set units to millimeters
G90 ; use absolute coordinates
M83 ; use relative distances for extrusion
; Filament gcode
M104 S260 ; set temperature
M109 S260 ; set temperature and wait for it to be reached
M190 S105 ; set bed temperature and wait for it to be reached
;LAYER_CHANGE
;Z:0.24
;HEIGHT:0.24
;BEFORE_LAYER_CHANGE
G92 E0.0

G1 E-0.4 F3000
M73 P28 R0
G1 Z0.24 F3600000
;AFTER_LAYER_CHANGE
;0.24




CALCULATE_PA MATERIAL=ASA BOWDEN_LENGTH=6.0 LAYER_HEIGHT=0.2 NOZZLE_SIZE=0.4 PRINT_SPEED=95


G92 E0
G1 Z0.4
G1 X17.94704 Y35.35862
M73 P29 R0
G1 Z0.24
G1 E0.4 F3000
;TYPE:Skirt
;WIDTH:0.4
;HEIGHT:0.25
M107
G1 X19.00153 Y34.92242 E0.04108
G1 X20.07574 Y34.58668 E0.04052
G1 X21.17081 Y34.34811 E0.04035
G1 X22.14598 Y34.21965 E0.03541
G1 X22.74892 Y34.17725 E0.02176
G1 X23.88551 Y34.17694 E0.04092
G1 X25.00637 Y34.27656 E0.04051
G1 X26.12818 Y34.47822 E0.04103
G1 X27.20031 Y34.77105 E0.04001
G1 X28.11697 Y35.1048 E0.03512
G1 X28.67652 Y35.348 E0.02196
G1 X29.6789 Y35.86977 E0.04068
G1 X30.62278 Y36.47235 E0.04031
G1 X31.10814 Y36.83177 E0.02174
G1 X31.85586 Y37.45905 E0.03513
G1 X32.69958 Y38.30001 E0.04288
G1 X33.40912 Y39.14822 E0.03981
G1 X33.76405 Y39.63712 E0.02175
G1 X34.28835 Y40.45991 E0.03512
G1 X34.82648 Y41.48634 E0.04172
G1 X35.26268 Y42.54083 E0.04108
M73 P30 R0
G1 X35.59842 Y43.61504 E0.04052
G1 X35.83699 Y44.71011 E0.04035
G1 X35.96545 Y45.68528 E0.03541
G1 X36.00783 Y46.28801 E0.02175
G1 X36.00821 Y47.42375 E0.04089
G1 X35.90866 Y48.54474 E0.04051
G1 X35.70692 Y49.6673 E0.04106
G1 X35.41404 Y50.7396 E0.04002
G1 X35.0803 Y51.65626 E0.03512
G1 X34.83709 Y52.21582 E0.02196
G1 X34.31533 Y53.2182 E0.04068
G1 X33.71275 Y54.16208 E0.04031
G1 X33.35332 Y54.64744 E0.02174
G1 X32.72604 Y55.39516 E0.03513
G1 X31.88508 Y56.23888 E0.04288
G1 X31.03687 Y56.94842 E0.03981
G1 X30.54797 Y57.30335 E0.02175
G1 X29.72518 Y57.82765 E0.03512
G1 X28.69876 Y58.36578 E0.04172
G1 X27.64427 Y58.80198 E0.04108
G1 X26.57006 Y59.13772 E0.04051
G1 X25.47499 Y59.37628 E0.04035
G1 X24.49982 Y59.50475 E0.03541
G1 X23.89709 Y59.54713 E0.02175
G1 X22.76134 Y59.54751 E0.04089
G1 X21.64035 Y59.44796 E0.04051
G1 X20.5178 Y59.24622 E0.04106
G1 X19.44549 Y58.95334 E0.04002
G1 X18.52883 Y58.61959 E0.03512
G1 X17.96928 Y58.37639 E0.02196
G1 X16.9669 Y57.85463 E0.04068
G1 X16.02301 Y57.25205 E0.04031
G1 X15.53766 Y56.89262 E0.02174
G1 X14.78993 Y56.26534 E0.03513
G1 X13.94622 Y55.42438 E0.04288
M73 P31 R0
G1 X13.23667 Y54.57617 E0.03981
G1 X12.88176 Y54.08729 E0.02175
G1 X12.35746 Y53.26449 E0.03512
G1 X11.81932 Y52.23806 E0.04172
G1 X11.38312 Y51.18356 E0.04108
G1 X11.04738 Y50.10936 E0.04051
G1 X10.80881 Y49.01428 E0.04035
G1 X10.68035 Y48.03912 E0.03541
G1 X10.63796 Y47.43637 E0.02175
G1 X10.63759 Y46.30068 E0.04088
G1 X10.73918 Y45.16444 E0.04107
G1 X10.93887 Y44.0571 E0.04051
G1 X11.23175 Y42.98479 E0.04002
G1 X11.5655 Y42.06813 E0.03512
G1 X11.8087 Y41.50858 E0.02196
G1 X12.33047 Y40.50619 E0.04068
G1 X12.93305 Y39.56232 E0.04031
G1 X13.29247 Y39.07696 E0.02174
G1 X13.91975 Y38.32923 E0.03513
G1 X14.76072 Y37.48552 E0.04288
G1 X15.60893 Y36.77597 E0.03981
G1 X16.0978 Y36.42106 E0.02175
G1 X16.92061 Y35.89675 E0.03512
G1 X17.8939 Y35.38648 E0.03956
M107
G1 X18.05442 Y35.69259 F3600000
M107
G1 F3000
G1 X18.08683 Y35.6756 E0.00132
G1 X19.11243 Y35.25062 E0.03996
G1 X20.15713 Y34.92341 E0.03941
G1 X21.22326 Y34.69054 E0.03928
G1 X22.18595 Y34.56372 E0.03495
G1 X22.767 Y34.52318 E0.02097
G1 X23.87775 Y34.52329 E0.03999
G1 X24.96786 Y34.62084 E0.0394
G1 X26.04448 Y34.81439 E0.03938
G1 X27.08857 Y35.09896 E0.03896
M73 P32 R0
G1 X27.99348 Y35.42843 E0.03467
G1 X28.5328 Y35.66318 E0.02117
G1 X29.49907 Y36.16587 E0.03921
G1 X30.42162 Y36.75435 E0.03939
G1 X30.88959 Y37.10051 E0.02095
G1 X31.62758 Y37.71963 E0.03468
G1 X32.43901 Y38.52832 E0.04124
G1 X33.13244 Y39.35665 E0.03889
G1 X33.47481 Y39.82771 E0.02096
G1 X33.99233 Y40.63987 E0.03467
G1 X34.5095 Y41.62613 E0.04009
G1 X34.93447 Y42.65173 E0.03996
G1 X35.26168 Y43.69643 E0.03941
G1 X35.49455 Y44.76256 E0.03928
G1 X35.62137 Y45.72525 E0.03495
G1 X35.6619 Y46.3061 E0.02096
G1 X35.66186 Y47.41602 E0.03996
G1 X35.56437 Y48.50625 E0.0394
G1 X35.37075 Y49.5836 E0.0394
G1 X35.08613 Y50.62787 E0.03896
G1 X34.75666 Y51.53278 E0.03467
G1 X34.52191 Y52.0721 E0.02117
G1 X34.01923 Y53.03837 E0.03921
G1 X33.43074 Y53.96092 E0.03939
G1 X33.08458 Y54.42889 E0.02095
G1 X32.46547 Y55.16688 E0.03468
G1 X31.65677 Y55.97831 E0.04124
G1 X30.82845 Y56.67174 E0.03889
G1 X30.35738 Y57.01411 E0.02096
G1 X29.54522 Y57.53163 E0.03467
G1 X28.55896 Y58.0488 E0.04009
G1 X27.53337 Y58.47377 E0.03996
G1 X26.48866 Y58.80098 E0.03941
G1 X25.42253 Y59.03385 E0.03928
G1 X24.45985 Y59.16067 E0.03495
G1 X23.879 Y59.2012 E0.02096
M73 P33 R0
G1 X22.76908 Y59.20116 E0.03996
G1 X21.67885 Y59.10367 E0.0394
G1 X20.6015 Y58.91005 E0.0394
G1 X19.55722 Y58.62543 E0.03896
G1 X18.65232 Y58.29596 E0.03467
G1 X18.113 Y58.06121 E0.02117
G1 X17.14672 Y57.55852 E0.03921
G1 X16.22417 Y56.97004 E0.03939
G1 X15.7562 Y56.62388 E0.02095
G1 X15.01822 Y56.00477 E0.03468
G1 X14.20678 Y55.19607 E0.04124
G1 X13.51335 Y54.36774 E0.03889
G1 X13.171 Y53.89671 E0.02096
G1 X12.65347 Y53.08453 E0.03467
G1 X12.1363 Y52.09826 E0.04009
G1 X11.71132 Y51.07267 E0.03996
G1 X11.38411 Y50.02796 E0.03941
G1 X11.15124 Y48.96183 E0.03928
G1 X11.02442 Y47.99915 E0.03495
G1 X10.98389 Y47.41828 E0.02096
G1 X10.98394 Y46.30842 E0.03995
G1 X11.08143 Y45.21815 E0.03941
G1 X11.27504 Y44.1408 E0.0394
G1 X11.55966 Y43.09652 E0.03896
G1 X11.88913 Y42.19161 E0.03467
G1 X12.12388 Y41.6523 E0.02117
G1 X12.62657 Y40.68602 E0.03921
G1 X13.21505 Y39.76348 E0.03939
G1 X13.56121 Y39.2955 E0.02095
G1 X14.18033 Y38.55752 E0.03468
G1 X14.98902 Y37.74608 E0.04124
G1 X15.81735 Y37.05265 E0.03889
G1 X16.28839 Y36.7103 E0.02096
G1 X17.10057 Y36.19277 E0.03467
G1 X18.00128 Y35.72046 E0.03661
M107
G1 X18.16183 Y36.02657 F3600000
M107
M73 P34 R0
G1 F3000
G1 X18.22678 Y35.99251 E0.00264
G1 X19.22353 Y35.57876 E0.03885
G1 X20.23873 Y35.2601 E0.0383
G1 X21.27577 Y35.03296 E0.03822
G1 X22.22587 Y34.9078 E0.0345
G1 X22.78495 Y34.86911 E0.02017
G1 X23.85475 Y34.86896 E0.03851
G1 X24.91434 Y34.96312 E0.03829
G1 X25.96096 Y35.15061 E0.03828
G1 X26.97689 Y35.42689 E0.0379
G1 X27.86995 Y35.75204 E0.03421
G1 X28.38891 Y35.97829 E0.02038
G1 X29.33235 Y36.46955 E0.03829
G1 X30.22056 Y37.03643 E0.03793
G1 X30.67109 Y37.36929 E0.02016
G1 X31.39929 Y37.9802 E0.03422
G1 X32.17851 Y38.7567 E0.0396
G1 X32.85587 Y39.56521 E0.03797
G1 X33.18559 Y40.01834 E0.02017
G1 X33.69632 Y40.81984 E0.03421
G1 X34.19259 Y41.76608 E0.03846
G1 X34.60634 Y42.76283 E0.03885
G1 X34.92499 Y43.77802 E0.0383
G1 X35.15213 Y44.81506 E0.03822
G1 X35.27729 Y45.76517 E0.0345
G1 X35.31597 Y46.32406 E0.02017
G1 X35.31619 Y47.39304 E0.03848
G1 X35.22209 Y48.45275 E0.0383
G1 X35.03453 Y49.50009 E0.0383
G1 X34.7582 Y50.51619 E0.03791
G1 X34.43305 Y51.40925 E0.03421
G1 X34.20681 Y51.92821 E0.02038
G1 X33.71555 Y52.87165 E0.03829
G1 X33.14866 Y53.75986 E0.03793
G1 X32.8158 Y54.21038 E0.02016
G1 X32.20489 Y54.93859 E0.03422
G1 X31.42839 Y55.71781 E0.0396
M73 P35 R0
G1 X30.61988 Y56.39517 E0.03797
G1 X30.16675 Y56.72489 E0.02017
G1 X29.36525 Y57.23562 E0.03421
G1 X28.41902 Y57.73189 E0.03846
G1 X27.42226 Y58.14564 E0.03885
G1 X26.40707 Y58.46429 E0.0383
G1 X25.37003 Y58.69143 E0.03822
G1 X24.41992 Y58.81659 E0.0345
G1 X23.86104 Y58.85527 E0.02017
G1 X22.79205 Y58.85548 E0.03848
G1 X21.73234 Y58.76139 E0.0383
G1 X20.68501 Y58.57383 E0.0383
G1 X19.66891 Y58.2975 E0.03791
G1 X18.77585 Y57.97235 E0.03421
G1 X18.25688 Y57.74611 E0.02038
G1 X17.31344 Y57.25485 E0.03829
G1 X16.42523 Y56.68796 E0.03793
G1 X15.97471 Y56.3551 E0.02016
G1 X15.2465 Y55.74419 E0.03422
G1 X14.46728 Y54.96769 E0.0396
G1 X13.78993 Y54.15917 E0.03797
G1 X13.46022 Y53.70608 E0.02017
G1 X12.94948 Y52.90456 E0.03421
G1 X12.45321 Y51.95832 E0.03846
G1 X12.03946 Y50.96156 E0.03885
G1 X11.7208 Y49.94637 E0.0383
G1 X11.49367 Y48.90933 E0.03822
G1 X11.3685 Y47.95922 E0.0345
G1 X11.32983 Y47.40032 E0.02017
G1 X11.32961 Y46.33139 E0.03848
G1 X11.4237 Y45.27164 E0.0383
G1 X11.61126 Y44.22431 E0.0383
G1 X11.88759 Y43.20821 E0.03791
G1 X12.21274 Y42.31515 E0.03421
G1 X12.43899 Y41.79618 E0.02038
G1 X12.93025 Y40.85274 E0.03829
G1 X13.49713 Y39.96454 E0.03793
M73 P36 R0
G1 X13.82999 Y39.51401 E0.02016
G1 X14.4409 Y38.7858 E0.03422
G1 X15.21741 Y38.00658 E0.0396
G1 X16.02592 Y37.32922 E0.03797
G1 X16.47902 Y36.99952 E0.02017
G1 X17.28053 Y36.48878 E0.03421
G1 X18.10869 Y36.05444 E0.03366
M107
G1 X18.26934 Y36.36119 F3600000
M107
G1 F3000
G1 X18.38064 Y36.3029 E0.00452
G1 X19.33479 Y35.90684 E0.03719
G1 X20.32052 Y35.59674 E0.0372
G1 X21.32832 Y35.37538 E0.03714
G1 X22.26574 Y35.25189 E0.03404
G1 X22.80272 Y35.21506 E0.01938
G1 X23.84696 Y35.2153 E0.03759
G1 X24.87587 Y35.30741 E0.03719
G1 X25.8776 Y35.48686 E0.03664
G1 X26.86525 Y35.75483 E0.03684
G1 X27.74637 Y36.07564 E0.03376
G1 X28.24491 Y36.29333 E0.01958
G1 X29.15254 Y36.76566 E0.03683
G1 X30.01966 Y37.31862 E0.03702
G1 X30.45262 Y37.6381 E0.01937
G1 X31.17102 Y38.24078 E0.03376
G1 X31.91809 Y38.98517 E0.03797
G1 X32.57941 Y39.77393 E0.03705
G1 X32.89641 Y40.20902 E0.01938
G1 X33.40028 Y40.99976 E0.03375
G1 X33.88219 Y41.91994 E0.03739
G1 X34.27826 Y42.87409 E0.03719
G1 X34.58835 Y43.85982 E0.0372
G1 X34.80971 Y44.86762 E0.03714
G1 X34.9332 Y45.80504 E0.03404
G1 X34.97003 Y46.34188 E0.01937
G1 X34.9705 Y47.37025 E0.03702
G1 X34.87978 Y48.39947 E0.03719
G1 X34.69827 Y49.41678 E0.0372
G1 X34.43026 Y50.40455 E0.03684
M73 P37 R0
G1 X34.10945 Y51.28567 E0.03376
G1 X33.89176 Y51.78421 E0.01958
G1 X33.41943 Y52.69184 E0.03683
G1 X32.86648 Y53.55896 E0.03702
G1 X32.54699 Y53.99192 E0.01937
G1 X31.94431 Y54.71031 E0.03376
G1 X31.19993 Y55.45738 E0.03797
G1 X30.41116 Y56.11871 E0.03705
G1 X29.97608 Y56.4357 E0.01938
G1 X29.18533 Y56.93958 E0.03375
G1 X28.26516 Y57.42149 E0.03739
G1 X27.311 Y57.81755 E0.03719
G1 X26.32527 Y58.12765 E0.0372
G1 X25.31748 Y58.34901 E0.03714
G1 X24.38005 Y58.4725 E0.03404
G1 X23.84321 Y58.50933 E0.01937
G1 X22.81484 Y58.5098 E0.03702
G1 X21.78562 Y58.41908 E0.03719
G1 X20.76831 Y58.23756 E0.0372
G1 X19.78055 Y57.96956 E0.03684
G1 X18.89943 Y57.64875 E0.03376
G1 X18.40089 Y57.43106 E0.01958
G1 X17.49325 Y56.95873 E0.03683
G1 X16.62614 Y56.40578 E0.03702
G1 X16.19318 Y56.08629 E0.01937
G1 X15.47478 Y55.48361 E0.03376
G1 X14.72771 Y54.73923 E0.03797
G1 X14.06638 Y53.95045 E0.03705
G1 X13.74941 Y53.5154 E0.01938
G1 X13.24552 Y52.72464 E0.03375
G1 X12.7636 Y51.80446 E0.03739
G1 X12.36754 Y50.8503 E0.03719
G1 X12.05744 Y49.86457 E0.0372
G1 X11.83608 Y48.85678 E0.03714
G1 X11.71259 Y47.91935 E0.03404
G1 X11.67577 Y47.3825 E0.01937
G1 X11.67529 Y46.35418 E0.03702
G1 X11.76602 Y45.32492 E0.0372
M73 P38 R0
G1 X11.94753 Y44.30761 E0.0372
G1 X12.21554 Y43.31985 E0.03684
G1 X12.53634 Y42.43873 E0.03376
G1 X12.75404 Y41.94019 E0.01958
G1 X13.22636 Y41.03255 E0.03683
G1 X13.77932 Y40.16544 E0.03702
G1 X14.0988 Y39.73248 E0.01937
G1 X14.70148 Y39.01408 E0.03376
G1 X15.44587 Y38.26701 E0.03797
G1 X16.23464 Y37.60568 E0.03705
G1 X16.66969 Y37.28871 E0.01938
G1 X17.46045 Y36.78482 E0.03375
G1 X18.21619 Y36.38903 E0.03071
M107
G1 X18.37658 Y36.69525 F3600000
M107
G1 F3000
G1 X18.5207 Y36.61976 E0.00586
G1 X19.44627 Y36.23485 E0.03609
G1 X20.40253 Y35.93333 E0.03609
G1 X21.38092 Y35.71779 E0.03607
G1 X22.30556 Y35.59599 E0.03357
G1 X22.82034 Y35.56101 E0.01857
G1 X23.82395 Y35.56097 E0.03613
G1 X24.82252 Y35.64971 E0.03609
G1 X25.79444 Y35.82316 E0.03554
G1 X26.75366 Y36.0828 E0.03577
G1 X27.62273 Y36.39922 E0.03329
G1 X28.10072 Y36.6083 E0.01878
G1 X28.9858 Y37.06933 E0.03593
G1 X29.81887 Y37.60089 E0.03557
G1 X30.23419 Y37.90695 E0.01857
G1 X30.94274 Y38.50136 E0.03329
G1 X31.65773 Y39.21371 E0.03633
G1 X32.30307 Y39.98281 E0.03614
G1 X32.60725 Y40.39973 E0.01858
G1 X33.10424 Y41.17969 E0.03329
G1 X33.56534 Y42.06 E0.03577
G1 X33.95025 Y42.98557 E0.03609
G1 X34.25176 Y43.94183 E0.03609
G1 X34.4673 Y44.92022 E0.03607
G1 X34.58911 Y45.84485 E0.03357
M73 P39 R0
G1 X34.62408 Y46.35957 E0.01857
G1 X34.62481 Y47.34766 E0.03557
G1 X34.53743 Y48.34642 E0.03609
G1 X34.36195 Y49.33368 E0.0361
G1 X34.1023 Y50.29296 E0.03578
G1 X33.78588 Y51.16203 E0.03329
G1 X33.5768 Y51.64002 E0.01878
G1 X33.11577 Y52.5251 E0.03593
G1 X32.58421 Y53.35817 E0.03557
G1 X32.27815 Y53.77349 E0.01857
G1 X31.68373 Y54.48204 E0.03329
G1 X30.97139 Y55.19703 E0.03633
G1 X30.20229 Y55.84237 E0.03614
G1 X29.78536 Y56.14655 E0.01858
G1 X29.00541 Y56.64354 E0.03329
G1 X28.1251 Y57.10463 E0.03577
G1 X27.19953 Y57.48954 E0.03609
G1 X26.24327 Y57.79106 E0.03609
G1 X25.26487 Y58.0066 E0.03607
G1 X24.34024 Y58.12841 E0.03357
G1 X23.82553 Y58.16338 E0.01857
G1 X22.83744 Y58.16411 E0.03557
G1 X21.83868 Y58.07673 E0.03609
G1 X20.85141 Y57.90124 E0.0361
G1 X19.89214 Y57.6416 E0.03578
G1 X19.02306 Y57.32517 E0.03329
G1 X18.54508 Y57.1161 E0.01878
G1 X17.65999 Y56.65507 E0.03593
G1 X16.82693 Y56.12351 E0.03557
G1 X16.4116 Y55.81745 E0.01857
G1 X15.70305 Y55.22303 E0.03329
G1 X14.98807 Y54.51069 E0.03633
G1 X14.34272 Y53.74158 E0.03614
G1 X14.03857 Y53.32468 E0.01858
G1 X13.54156 Y52.54471 E0.03329
