; generated by SuperSlicer 2.5.59.10 on 2024-05-28 at 21:47:25 UTC


;
;

;
;
; 

; external perimeters extrusion width = 0.60mm
; perimeters extrusion width = 0.60mm
; infill extrusion width = 0.60mm
; solid infill extrusion width = 0.60mm
; top infill extrusion width = 0.60mm
; first layer extrusion width = 0.60mm

; object:{"name":"shroud_chonky","id":"shroud_chonky.stl id:0 copy 0","object_center":[89.746185,91.211810,0.000000],"boundingbox_center":[89.746185,91.211810,9.000000],"boundingbox_size":[55.900002,101.761574,18.000000]}
EXCLUDE_OBJECT_DEFINE NAME=shroud_chonky_stl_id_0_copy_0 CENTER=89.746185,91.211810 POLYGON=[[61.80,83.33],[64.80,46.86],[74.55,40.33],[104.94,40.33],[114.70,46.86],[117.70,83.33],[117.70,100.33],[111.70,138.76],[106.71,142.09],[72.78,142.09],[67.80,138.76],[61.80,100.33],[61.80,83.33]]
; plater:{"center":[89.746185,91.211810,0.000000],"boundingbox_center":[89.746185,91.211810,9.000000],"boundingbox_size":[55.900002,101.761574,18.000000]}

M107
;TYPE:Custom
START_PRINT EXTRUDER=270 BED=105
M107
G21 ; set units to millimeters
G90 ; use absolute coordinates
M83 ; use relative distances for extrusion
ACTIVATE_EXTRUDER EXTRUDER=extruder
; Filament gcode
FILAMENT_START MATERIAL=ASA COLOR=#368900 VENDOR=123-3D
;SET_PRESSURE_ADVANCE ADVANCE=0.062
SET_PRESSURE_ADVANCE ADVANCE=0.055
M104 S270 T0 ; set temperature
M109 S270 T0 ; set temperature and wait for it to be reached
M190 S105 ; set bed temperature and wait for it to be reached
;LAYER_CHANGE
;Z:0.24
;HEIGHT:0.24
G1 E-1 F3600
G1 Z0.24 F360000
G92 E0
M204 S750
G1 X67.624 Y48.458
G1 E1 F3600
;TYPE:Skirt
;WIDTH:0.45
M107
G1 F2399.647
G1 X66.797 Y50.221 E.07513
G1 X65.654 Y55.014 Z.24 E.19006
G1 X64.511 Y59.808 Z.24 E.19006
G1 X63.368 Y64.601 Z.24 E.19006
G1 X62.226 Y69.395 Z.24 E.19006
G1 X61.083 Y74.188 Z.24 E.19006
G1 X59.94 Y78.982 Z.24 E.19006
G1 X58.797 Y83.775 Z.24 E.19006
G1 X58.666 Y84.887 E0.04317
G1 X58.666 Y89.52 Z.24 E.17869
G1 F2398.996
G1 X58.666 Y94.153 Z.24 E.17869
G1 X58.666 Y98.786 Z.24 E.17869
G1 X58.715 Y99.468 E0.02636
G1 X59.34 Y103.819 Z.24 E.16952
G1 X59.965 Y108.169 Z.24 E.16952
G1 X60.59 Y112.52 Z.24 E.16952
G1 F2399.04
G1 X61.215 Y116.87 Z.24 E.16952
G1 X61.84 Y121.221 Z.24 E.16952
G1 X62.465 Y125.571 Z.24 E.16952
G1 X63.09 Y129.922 Z.24 E.16952
G1 X63.715 Y134.272 Z.24 E.16952
G1 X64.43 Y136.186 E0.07878
G1 F2398.991
G1 X65.795 Y137.575 E.07513
G1 X73.14 Y142.487 E0.34079
G1 F2399.537
G1 X75.804 Y143.296 E.1074
G1 X103.688 Y143.296 E1.07545
G1 X106.352 Y142.487 E.1074
G1 X113.697 Y137.575 E0.34079
G1 X115.114 Y136.104 E.07878
G1 X115.777 Y134.272 E0.07513
G1 X116.402 Y129.922 Z.24 E.16952
G1 X117.027 Y125.571 Z.24 E.16952
G1 X117.652 Y121.221 Z.24 E.16952
G1 X118.277 Y116.87 Z.24 E.16952
G1 X118.902 Y112.52 Z.24 E.16952
G1 X119.527 Y108.169 Z.24 E.16952
G1 F2398.973
G1 X120.152 Y103.819 Z.24 E.16952
G1 X120.777 Y99.468 Z.24 E.16952
G1 X120.826 Y98.786 E0.02636
G1 X120.826 Y94.153 Z.24 E.17869
G1 X120.826 Y89.52 Z.24 E.17869
G1 F2399.106
G1 X120.826 Y84.887 Z.24 E.17869
G1 X120.695 Y83.775 E0.04317
G1 X119.552 Y78.982 Z.24 E.19006
G1 X118.409 Y74.188 Z.24 E.19006
G1 X117.266 Y69.395 Z.24 E.19006
G1 X116.124 Y64.601 Z.24 E.19006
G1 X114.981 Y59.808 Z.24 E.19006
G1 X113.838 Y55.014 Z.24 E.19006
G1 X112.695 Y50.221 Z.24 E.19006
G1 X112.129 Y48.843 E0.05745
G1 X110.8 Y47.419 E.07513
G1 X106.911 Y44.669 Z.24 E.18368
G1 X103.023 Y41.92 Z.24 E.18368
G1 X99.135 Y39.171 Z.24 E.18368
G1 X95.246 Y36.421 Z.24 E.18368
G1 X94.386 Y35.937 E0.03806
G1 X92.479 Y35.541 E.07513
G1 X89.746 Y35.541 Z.24 E.10539
G1 F2398.722
G1 X87.014 Y35.541 Z.24 E.1054
G1 X86.032 Y35.643 E0.03806
G1 F2399.507
G1 X84.246 Y36.421 E.07513
G1 X80.357 Y39.171 Z.24 E.18368
G1 X76.469 Y41.92 Z.24 E.18368
G1 X72.581 Y44.669 Z.24 E.18368
G1 X68.692 Y47.419 Z.24 E.18368
G1 X67.667 Y48.416 E0.05513
M107
G1 X67.992 Y48.633 F360000
M107
G1 F2399.706
G1 X67.185 Y50.314 E.07191
G1 X66.042 Y55.107 Z.24 E.19006
G1 X64.899 Y59.901 Z.24 E.19006
G1 X63.756 Y64.694 Z.24 E.19006
G1 X62.614 Y69.488 Z.24 E.19006
G1 X61.471 Y74.281 Z.24 E.19006
G1 X60.328 Y79.075 Z.24 E.19006
G1 F2400
G1 X59.185 Y83.868 Z.24 E.19006
G1 F2399.634
G1 X59.065 Y84.887 E.03958
G1 X59.08 Y89.728 Z.24 E.18673
G1 X59.094 Y94.57 Z.24 E.18673
G1 X59.109 Y99.411 Z.24 E.18673
G1 X64.109 Y134.216 E1.35616
G1 X64.722 Y135.902 E.06921
G1 X66.017 Y137.244 E0.07191
G1 X69.689 Y139.7 Z.24 E.17039
G1 F2400
G1 X73.361 Y142.156 Z.24 E.17039
G1 F2399.904
G1 X75.804 Y142.897 E.09847
G1 X103.688 Y142.897 E1.07545
G1 X106.131 Y142.156 E.09847
G1 X113.476 Y137.244 E0.34079
G1 X114.732 Y135.963 E.06921
G1 X115.383 Y134.216 E.07191
G1 X120.383 Y99.411 E1.35616
G1 X120.398 Y94.57 Z.24 E.18673
G1 X120.413 Y89.728 Z.24 E.18673
G1 F2400
G1 X120.428 Y84.887 Z.24 E.18673
G1 F2399.692
G1 X120.308 Y83.868 E.03958
G1 X119.165 Y79.075 Z.24 E.19006
G1 X118.022 Y74.281 Z.24 E.19006
G1 X116.879 Y69.488 Z.24 E.19006
G1 X115.737 Y64.694 Z.24 E.19006
G1 F2398.887
G1 X114.594 Y59.901 Z.24 E.19006
G1 X113.451 Y55.107 Z.24 E.19006
G1 X112.308 Y50.314 Z.24 E.19006
G1 X111.829 Y49.119 E0.04962
G1 X110.57 Y47.744 E.07191
G1 X95.016 Y36.746 E0.73473
G1 F2399.596
G1 X92.479 Y35.94 E.10269
G1 X89.746 Y35.94 Z.24 E.10539
G1 X87.014 Y35.94 Z.24 E.1054
G1 X84.476 Y36.746 E0.10269
G1 X80.587 Y39.495 Z.24 E.18368
G1 X76.699 Y42.245 Z.24 E.18368
G1 X72.811 Y44.994 Z.24 E.18368
G1 F2398.979
G1 X68.922 Y47.744 Z.24 E.18368
G1 X68.035 Y48.592 E0.04731
M107
G1 X68.358 Y48.812 F360000
M107
G1 F2399.817
G1 X67.572 Y50.406 E.06853
G1 X66.429 Y55.199 Z.24 E.19006
G1 X65.286 Y59.993 Z.24 E.19006
G1 X64.143 Y64.786 Z.24 E.19006
G1 X63.001 Y69.58 Z.24 E.19006
G1 X61.858 Y74.373 Z.24 E.19006
G1 X60.715 Y79.167 Z.24 E.19006
G1 X59.572 Y83.96 Z.24 E.19006
G1 X59.463 Y84.887 E0.03599
G1 X59.477 Y89.71 Z.24 E.186
G1 X59.49 Y94.532 Z.24 E.186
G1 F2400
G1 X59.504 Y99.355 Z.24 E.186
G1 F2399.89
G1 X60.129 Y103.706 Z.24 E.16952
G1 X60.754 Y108.056 Z.24 E.16952
G1 X61.379 Y112.407 Z.24 E.16952
G1 X62.004 Y116.757 Z.24 E.16952
G1 X62.629 Y121.107 Z.24 E.16952
G1 X63.254 Y125.458 Z.24 E.16952
G1 X63.879 Y129.809 Z.24 E.16952
G1 F2400
G1 X64.504 Y134.159 Z.24 E.16952
G1 F2399.548
G1 X65.018 Y135.621 E.05978
G1 X66.238 Y136.913 E0.06853
G1 X69.91 Y139.369 Z.24 E.17039
G1 F2400
G1 X73.583 Y141.825 Z.24 E.17039
G1 F2399.388
G1 X75.804 Y142.499 E.08954
G1 X103.688 Y142.499 E1.07545
G1 X105.909 Y141.825 E.08954
G1 X113.254 Y136.913 E0.34079
G1 X114.351 Y135.818 E.05978
G1 X114.988 Y134.159 E0.06853
G1 X115.613 Y129.809 Z.24 E.16952
G1 X116.238 Y125.458 Z.24 E.16952
G1 X116.863 Y121.107 Z.24 E.16952
G1 X117.488 Y116.757 Z.24 E.16952
G1 X118.113 Y112.407 Z.24 E.16952
G1 X118.738 Y108.056 Z.24 E.16952
G1 X119.363 Y103.706 Z.24 E.16952
G1 X119.988 Y99.355 Z.24 E.16952
G1 X120.002 Y94.532 Z.24 E.186
G1 X120.015 Y89.71 Z.24 E.186
G1 X120.029 Y84.887 Z.24 E.186
G1 X119.92 Y83.96 E0.03599
G1 X118.777 Y79.167 Z.24 E.19006
G1 X117.634 Y74.373 Z.24 E.19006
G1 X116.491 Y69.58 Z.24 E.19006
G1 X115.349 Y64.786 Z.24 E.19006
G1 X114.206 Y59.993 Z.24 E.19006
G1 X113.063 Y55.199 Z.24 E.19006
G1 F2400
G1 X111.92 Y50.406 Z.24 E.19006
G1 F2399.583
G1 X111.526 Y49.393 E.04193
G1 X110.34 Y48.07 E.06853
G1 X94.786 Y37.071 E0.73473
G1 X92.479 Y36.338 E.09337
G1 X89.746 Y36.338 Z.24 E.10539
G1 X87.014 Y36.338 Z.24 E.1054
G1 X84.706 Y37.071 E0.09337
G1 X80.818 Y39.821 Z.24 E.18368
G1 X76.929 Y42.57 Z.24 E.18369
G1 X73.04 Y45.32 Z.24 E.18368
G1 F2400
G1 X69.152 Y48.07 Z.24 E.18368
G1 F2399.176
G1 X68.402 Y48.771 E.03962
M107
G1 X68.723 Y48.997 F360000
M107
G1 F2399.299
G1 X67.96 Y50.498 E.06498
G1 X59.96 Y84.053 E1.33044
G1 X59.862 Y84.887 E.0324
G1 X59.898 Y99.298 E0.55582
G1 X60.523 Y103.648 Z.24 E.16952
G1 X61.148 Y107.999 Z.24 E.16952
G1 X61.773 Y112.35 Z.24 E.16952
G1 X62.398 Y116.7 Z.24 E.16952
G1 X63.023 Y121.05 Z.24 E.16952
G1 X63.648 Y125.401 Z.24 E.16952
G1 X64.273 Y129.752 Z.24 E.16952
G1 X64.898 Y134.102 Z.24 E.16952
G1 X65.317 Y135.343 E0.05051
G1 X66.46 Y136.581 E.06498
G1 X70.132 Y139.037 Z.24 E.17039
G1 X73.804 Y141.493 Z.24 E.17039
G1 X75.804 Y142.1 E0.08061
G1 X80.451 Y142.1 Z.24 E.17924
G1 X85.099 Y142.1 Z.24 E.17924
G1 X89.746 Y142.1 Z.24 E.17924
G1 X94.393 Y142.1 Z.24 E.17924
G1 X99.041 Y142.1 Z.24 E.17924
G1 X103.688 Y142.1 Z.24 E.17924
G1 X105.688 Y141.493 E0.08061
G1 X109.361 Y139.037 Z.24 E.17039
G1 F2400
G1 X113.033 Y136.581 Z.24 E.17039
G1 F2398.362
G1 X113.971 Y135.668 E.05051
G1 X114.594 Y134.102 E0.06498
G1 F2399.15
G1 X115.219 Y129.752 Z.24 E.16952
G1 X115.844 Y125.401 Z.24 E.16952
G1 X116.469 Y121.05 Z.24 E.16952
G1 X117.094 Y116.7 Z.24 E.16952
G1 X117.719 Y112.35 Z.24 E.16952
G1 X118.344 Y107.999 Z.24 E.16952
G1 X118.969 Y103.648 Z.24 E.16952
G1 X119.594 Y99.298 Z.24 E.16952
G1 X119.631 Y84.887 E0.55582
G1 X119.532 Y84.053 E.0324
G1 X111.533 Y50.498 E1.33044
G1 F2398.622
G1 X111.22 Y49.663 E.03441
G1 X110.11 Y48.395 E0.06498
G1 F2399.417
G1 X106.221 Y45.646 Z.24 E.18368
G1 X102.333 Y42.896 Z.24 E.18369
G1 X98.445 Y40.146 Z.24 E.18368
G1 F2400
G1 X94.556 Y37.397 Z.24 E.18368
G1 F2399.912
G1 X92.479 Y36.737 E.08406
G1 X89.746 Y36.737 Z.24 E.10539
G1 X87.014 Y36.737 Z.24 E.1054
G1 X84.936 Y37.397 E0.08406
G1 X81.048 Y40.146 Z.24 E.18368
G1 X77.159 Y42.896 Z.24 E.18369
G1 X73.271 Y45.646 Z.24 E.18368
G1 F2400
G1 X69.382 Y48.395 Z.24 E.18368
G1 F2397.73
G1 X68.768 Y48.956 E.0321
M107
G1 X69.238 Y49.274 F360000
M107
G1 F2400
G1 X68.347 Y50.591 E0.0613
G1 F2398.848
G1 X67.204 Y55.384 Z.24 E.19006
G1 X66.061 Y60.178 Z.24 E.19006
G1 F2399.041
G1 X64.918 Y64.971 Z.24 E.19006
G1 X63.776 Y69.765 Z.24 E.19006
G1 X62.633 Y74.558 Z.24 E.19006
G1 X61.49 Y79.352 Z.24 E.19006
G1 X60.347 Y84.145 Z.24 E.19006
G1 X60.26 Y84.887 E0.02881
G1 X60.271 Y89.672 Z.24 E.18454
G1 X60.282 Y94.456 Z.24 E.18454
G1 X60.293 Y99.241 Z.24 E.18454
G1 X65.293 Y134.046 E1.35616
G1 X65.622 Y135.068 E.04142
G1 X66.681 Y136.25 E.06122
G1 X74.026 Y141.162 E0.34079
G1 X75.804 Y141.702 E.07168
G1 X103.688 Y141.702 E1.07545
G1 X105.466 Y141.162 E.07168
G1 X112.811 Y136.25 E0.34079
G1 X113.591 Y135.512 E.04142
G1 X114.2 Y134.046 E0.06122
G1 X114.825 Y129.695 Z.24 E.16952
G1 X115.45 Y125.345 Z.24 E.16952
G1 X116.075 Y120.994 Z.24 E.16952
G1 X116.7 Y116.644 Z.24 E.16952
G1 X117.325 Y112.293 Z.24 E.16952
G1 X117.95 Y107.942 Z.24 E.16952
G1 X118.575 Y103.592 Z.24 E.16952
G1 F2400
G1 X119.2 Y99.241 Z.24 E.16952
G1 F2399.851
G1 X119.211 Y94.456 Z.24 E.18454
G1 X119.221 Y89.672 Z.24 E.18454
G1 X119.232 Y84.887 Z.24 E.18454
G1 X119.145 Y84.145 E0.02881
G1 X118.002 Y79.352 Z.24 E.19006
G1 X116.859 Y74.558 Z.24 E.19006
G1 X115.716 Y69.765 Z.24 E.19006
G1 X114.574 Y64.971 Z.24 E.19006
G1 X113.431 Y60.178 Z.24 E.19006
G1 X112.288 Y55.384 Z.24 E.19006
G1 F2400
G1 X111.145 Y50.591 Z.24 E.19006
G1 F2399.955
G1 X109.88 Y48.721 E.08708
G1 X94.326 Y37.722 E0.73473
G1 X92.479 Y37.135 E.07475
G1 X89.746 Y37.135 Z.24 E.10539
G1 X87.014 Y37.135 Z.24 E.1054
G1 X85.167 Y37.722 E.07475
G1 X69.612 Y48.721 E0.73473
G1 F2398.725
G1 X69.272 Y49.225 E.02347
M107
;WIPE_START
G1 F288000
G1 X69.612 Y48.721 E-0.00722
G1 X85.167 Y37.722 E-0.22622
G1 X87.014 Y37.135 E-0.02302
G1 X92.479 Y37.135 E-0.0649
G1 X94.326 Y37.722 E-0.02302
G1 X109.88 Y48.721 E-0.22622
G1 X111.145 Y50.591 E-0.02681
G1 X118.031 Y79.474 E-0.3526
;WIPE_END
G1 E-0.05 F3600
; printing object shroud_chonky.stl id:0 copy 0
EXCLUDE_OBJECT_START NAME=shroud_chonky_stl_id_0_copy_0
G1 X71.699 Y132.471 F360000
G1 E1 F3600
;TYPE:Internal perimeter
;WIDTH:0.632208
M107
G1 F1653.748
G1 X72.075 Y132.732 E.0257
M107
;WIDTH:0.599999
M107
G1 F1789.473
G1 X75.564 Y135.075 E.22313
G1 F1865.724
G1 X78.769 Y132.21 E.22821
G1 F1909.87
G1 X79.194 Y131.904 E.0278
G1 F1919.941
G1 X79.811 Y131.657 E.0353
G1 F1935.344
G1 X80.354 Y131.583 E.02905
G1 F1955.117
G1 X82.243 Y131.582 E.10031
G1 F1989.225
G1 X80.717 Y130.95 E.08771
G1 F2025.247
G1 X79.041 Y130.088 E.10002
G1 F2046.588
G1 X78.649 Y129.85 E.02436
G1 F2052.582
G1 X78.411 Y130.272 E.02578
G1 F2070.331
G1 X78.105 Y130.708 E.02824
G1 F2077.955
G1 X77.742 Y131.124 E.02932
G1 F2091.393
G1 X77.352 Y131.509 E.02907
G1 F2100.652
G1 X76.688 Y131.995 E.04375
G1 F2123.144
G1 X75.833 Y132.435 E.05103
G1 F2138.679
G1 X75.322 Y132.609 E.02865
G1 F2151.761
G1 X74.541 Y132.781 E.04246
G1 F2169.586
G1 X73.898 Y132.837 E.03423
G1 F2181.159
G1 X73.103 Y132.801 E.04228
G1 F2199.27
G1 X72.574 Y132.719 E.02839
G1 F2210.184
G1 X71.881 Y132.527 E.03818
M107
;WIDTH:0.632208
M107
G1 F2082.044
G1 X71.757 Y132.489 E.00734
M107
G1 X71.766 Y131.865 F360000
;WIDTH:0.599999
M107
G1 F2227.174
G1 X71.409 Y131.713 E.02058
G1 F2238.173
G1 X70.627 Y131.193 E.04989
M107
M107
G1 F2264.059
G1 X70.627 Y132.433 E.06582
G1 F2308.078
G1 X73.12 Y134.1 Z.24 E.15921
G1 F2400
G1 X75.613 Y135.767 Z.24 E.15921
G1 F2399.996
G1 X79.135 Y132.619 E.25078
G1 F2397.816
G1 X79.576 Y132.323 E.02823
G1 F2398.321
G1 X79.945 Y132.189 E.02085
G1 X80.591 Y132.131 E0.0344
G1 X85.165 Y132.122 E.24282
M107
;WIDTH:0.632197
M107
G1 F2276.985
G1 X86.17 Y132.102 E.0565
G1 X85.192 Y131.873 E.05645
M107
;WIDTH:0.599999
M107
G1 F2400
G1 X84.217 Y131.641 E0.05319
G1 F2398.844
G1 X82.626 Y131.139 E.0886
G1 F2379.328
G1 X80.927 Y130.443 E.09748
G1 F2338.648
G1 X79.294 Y129.602 E.09748
G1 F2304.692
G1 X78.405 Y129.044 E.05573
G1 F2283.711
G1 X78.129 Y129.668 E.03625
G1 F2272.235
G1 X77.781 Y130.216 E.03444
G1 F2257.201
G1 X77.441 Y130.65 E.02927
G1 F2244.579
G1 X77.065 Y131.026 E.02824
G1 F2229.836
G1 X76.373 Y131.546 E.04596
G1 F2211.582
G1 X75.601 Y131.938 E.04596
G1 F2195.044
G1 X75.114 Y132.093 E.02715
G1 F2183.484
G1 X74.423 Y132.245 E.03756
G1 F2172.761
G1 X73.923 Y132.289 E.02662
G1 F2157.917
G1 X73.127 Y132.253 E.04228
G1 F2144.214
G1 X72.716 Y132.189 E.02208
G1 F2131.075
G1 X72.206 Y132.053 E.02806
G1 F2126.699
G1 X71.821 Y131.889 E.02219
M107
G1 X71.699 Y132.471 F360000
;WIDTH:0.632208
M107
G1 F1999.829
G1 X71.444 Y132.328 E.01643
M107
;WIDTH:0.542262
M107
G1 F2361.935
G1 X71.142 Y132.157 E.01646
M107
;WIPE_START
G1 F288000
G1 X71.444 Y132.328 E-0.00412
G1 X71.699 Y132.471 E-0.00347
;WIPE_END
G1 E-0.99241 F3600
G1 X75.851 Y124.806 F360000
G1 E1 F3600
;TYPE:External perimeter
;WIDTH:0.533182
M107
G1 F2400
G1 X76.271 Y125.226 E0.02767
M107
G1 E-1 F3600
G1 X72.646 Y122.423 F360000
G1 E1 F3600
;TYPE:Internal perimeter
;WIDTH:0.396372
M107
G1 F2400
G1 X72.086 Y121.541 E0.03486
G1 F2399.674
G1 X72 Y121.916 E.01284
G1 F2398.283
G1 X71.888 Y122.12 E.00778
G1 X72.119 Y122.148 E.00778
G1 X72.593 Y122.395 E0.01784
M107
G1 E-1 F3600
G1 X70.757 Y119.011 F360000
G1 E1 F3600
;WIDTH:0.596844
M107
G1 F1524.21
G1 X70.463 Y118.286 E.04128
G1 F1539.117
G1 X70.077 Y117.061 E.0678
G1 F1564.256
G1 X70.077 Y119.011 E.10291
G1 F1582.115
G1 X70.697 Y119.011 E.03276
M107
;WIPE_START
G1 F288000
G1 X70.077 Y119.011 E-0.00737
G1 X70.077 Y117.061 E-0.02315
G1 X70.463 Y118.286 E-0.01525
G1 X70.757 Y119.011 E-0.00929
;WIPE_END
G1 E-0.94493 F3600
G1 X76.278 Y97.428 F360000
G1 E1 F3600
;TYPE:External perimeter
;WIDTH:0.535294
M107
G1 F2400
G1 X75.843 Y97.863 E0.0288
M107
;WIPE_START
G1 F288000
G1 X76.278 Y97.428 E-0.0073
;WIPE_END
G1 E-0.9927 F3600
G1 X103.198 Y60.831 F360000
G1 E1 F3600
;TYPE:Internal perimeter
;WIDTH:0.858471
M107
G1 F1328.57
G1 X102.93 Y60.755 E.02178
G1 F1325.792
G1 X102.463 Y60.499 E.04161
G1 F1319.884
G1 X101.83 Y59.823 E.07233
G1 F1311.22
G1 X101.83 Y60.831 E.07874
G1 F1304.016
G1 X101.8 Y60.933 E.00832
M107
;WIDTH:0.802216
M107
G1 F1400.755
G1 X101.77 Y61.035 E.00774
M107
;WIDTH:0.745961
M107
G1 F1526.601
G1 X101.74 Y61.138 E.00716
M107
;WIDTH:0.689706
M107
G1 F1649.27
G1 X101.709 Y61.24 E.00658
M107
;WIDTH:0.633451
M107
G1 F1802.029
G1 X101.679 Y61.342 E.006
M107
;WIDTH:0.577195
M107
G1 F1993.743
G1 X101.474 Y61.845 E.02762
M107
;WIDTH:0.486284
M107
G1 F2397.908
G1 X101.299 Y62.245 E.01839
G1 X101.138 Y62.496 E0.01254
M107
;WIDTH:0.599999
M107
G1 F1900.267
G1 X100.978 Y62.747 E.01583
G1 F1947.884
G1 X98.04 Y65.686 Z.24 E.2206
G1 F2030.49
G1 X95.101 Y68.624 Z.24 E.2206
G1 F2154.4
G1 X92.163 Y71.563 Z.24 E.2206
G1 F2157.317
G1 X91.899 Y71.791 E.01852
G1 F2155.416
G1 X91.523 Y72.024 E.02349
G1 F2144.206
