; generated by SuperSlicer 2.5.59.8 on 2024-04-14 at 17:47:34 UTC


;
;

;
;

;
;

;
;

;
;
; 

; external perimeters extrusion width = 0.40mm
; perimeters extrusion width = 0.40mm
; infill extrusion width = 0.40mm
; solid infill extrusion width = 0.40mm
; top infill extrusion width = 0.40mm

; object:{"name":"shroud","id":"shroud.stl id:0 copy 0","object_center":[58.969212,60.765804,0.000000],"boundingbox_center":[58.969212,60.765804,9.000000],"boundingbox_size":[55.900002,71.561577,18.000000]}
EXCLUDE_OBJECT_DEFINE NAME=shroud_stl_id_0_copy_0 CENTER=58.969212,60.765804 POLYGON=[[31.02,37.99],[34.02,28.11],[38.44,24.99],[79.50,24.99],[83.92,28.11],[86.92,37.99],[86.92,54.99],[80.92,93.21],[75.93,96.55],[42.01,96.55],[37.02,93.21],[31.02,54.99],[31.02,37.99]]
; plater:{"center":[58.969212,60.765804,0.000000],"boundingbox_center":[58.969212,60.765804,9.000000],"boundingbox_size":[55.900002,71.561577,18.000000]}

M73 P0 R55
M107
;TYPE:Custom
CALCULATE_PA MATERIAL=ABS BOWDEN_LENGTH=6 LAYER_HEIGHT=0.24 NOZZLE_SIZE=0.4 PRINT_SPEED=95


START_PRINT EXTRUDER=275 BED=100

M107
G21 ; set units to millimeters
G90 ; use absolute coordinates
M83 ; use relative distances for extrusion
ACTIVATE_EXTRUDER EXTRUDER=extruder
; Filament gcode
M104 S275 T0 ; set temperature
M109 S275 T0 ; set temperature and wait for it to be reached
M190 S100 ; set bed temperature and wait for it to be reached
;LAYER_CHANGE
;Z:0.24
;HEIGHT:0.24
;BEFORE_LAYER_CHANGE
G92 E0.0

G1 E-1.5 F3000
G1 Z0.2 F3600000
G1 Z0.24
;AFTER_LAYER_CHANGE
;0.24




CALCULATE_PA MATERIAL=ABS BOWDEN_LENGTH=6.0 LAYER_HEIGHT=0.2 NOZZLE_SIZE=0.4 PRINT_SPEED=95


G92 E0
G1 Z0.44
G1 X29.287 Y26.222
G1 Z0.24
G1 E1.5 F3000
;TYPE:Skirt
;WIDTH:0.4
M107
G1 F2400
G1 X43.546 Y15.982 E0.61045
G1 X44.915 Y15.202 E0.05477
G1 X48.697 Y14.256 E0.13559
G1 X69.189 Y14.264 E0.71257
G1 X71.855 Y14.769 E0.09435
G1 X74.296 Y15.904 E0.0936
G1 X88.026 Y25.663 E0.58574
G1 X89.605 Y27.323 E0.07969
G1 X94.192 Y33.809 E0.27624
G1 X95.467 Y36.889 E0.11589
G1 X95.76 Y38.966 E0.07295
G1 X95.765 Y59.996 E0.73128
G1 X95.116 Y63.096 E0.11015
G1 X90.768 Y73.241 E0.38377
G1 X90.768 Y88.537 E0.5319
G1 X90.374 Y90.907 E0.08355
G1 X88.918 Y93.989 E0.11855
G1 X86.601 Y96.448 E0.11747
G1 X78.381 Y101.945 E0.34387
G1 X75.441 Y103.064 E0.10937
G1 X73.065 Y103.313 E0.08306
G1 X70.84 Y103.081 E0.07778
G1 X68.593 Y102.315 E0.08258
G1 X66.511 Y101.028 E0.0851
G1 X63.863 Y98.464 E0.12817
G1 X54.057 Y98.464 E0.34099
G1 X51.205 Y101.201 E0.13743
G1 X48.68 Y102.604 E0.10046
G1 X46.473 Y103.192 E0.07942
G1 X44.218 Y103.308 E0.07851
G1 X41.628 Y102.834 E0.09154
G1 X39.361 Y101.814 E0.08645
G1 X31.259 Y96.389 E0.33908
G1 X28.649 Y93.441 E0.1369
G1 X27.945 Y91.985 E0.05624
G1 X27.425 Y90.445 E0.05652
G1 X27.17 Y78.522 E0.41467
G1 X27.17 Y73.24 E0.18367
G1 X22.814 Y63.076 E0.38453
G1 X22.17 Y59.94 E0.11135
G1 X22.17 Y38.857 E0.73312
G1 X22.628 Y36.322 E0.08956
G1 X23.792 Y33.76 E0.09786
G1 X28.288 Y27.386 E0.27123
G1 X29.248 Y26.268 E0.05124
M107
G1 X29.512 Y26.495 F3600000
M107
G1 F2400
G1 X29.538 Y26.465 E0.00136
G1 X43.742 Y16.271 E0.60797
G1 X45.066 Y15.517 E0.05299
G1 X48.719 Y14.604 E0.1309
G1 X69.173 Y14.613 E0.71126
M73 P0 R54
G1 X71.728 Y15.094 E0.09042
G1 X74.107 Y16.197 E0.09118
G1 X87.81 Y25.937 E0.5846
G1 X89.328 Y27.534 E0.07663
G1 X93.896 Y33.995 E0.27513
G1 X95.136 Y37.001 E0.11309
G1 X95.411 Y38.978 E0.0694
G1 X95.416 Y59.978 E0.73023
G1 X94.789 Y62.975 E0.10647
G1 X90.42 Y73.169 E0.38566
G1 X90.42 Y88.523 E0.53389
G1 X90.034 Y90.826 E0.08121
G1 X88.645 Y93.771 E0.11323
G1 X86.391 Y96.17 E0.11446
G1 X78.203 Y101.645 E0.34249
G1 X75.339 Y102.73 E0.10652
G1 X73.048 Y102.964 E0.08008
G1 X70.896 Y102.737 E0.07522
G1 X68.724 Y101.991 E0.07986
G1 X66.74 Y100.765 E0.08113
G1 X64.004 Y98.116 E0.13242
G1 X53.917 Y98.116 E0.35076
G1 X50.98 Y100.934 E0.14152
G1 X48.569 Y102.273 E0.09591
G1 X46.436 Y102.844 E0.07677
G1 X44.22 Y102.959 E0.07717
G1 X41.752 Y102.508 E0.08725
G1 X39.543 Y101.516 E0.0842
G1 X31.505 Y96.141 E0.33626
G1 X28.953 Y93.267 E0.13363
G1 X28.263 Y91.843 E0.05503
G1 X27.763 Y90.359 E0.05445
G1 X27.519 Y78.517 E0.41186
G1 X27.519 Y73.169 E0.18597
G1 X23.141 Y62.955 E0.38641
M73 P1 R54
G1 X22.519 Y59.922 E0.10768
G1 X22.519 Y38.872 E0.73196
G1 X22.967 Y36.406 E0.08718
G1 X24.086 Y33.948 E0.09392
G1 X28.568 Y27.594 E0.27038
G1 X29.473 Y26.54 E0.04829
M107
G1 X29.737 Y26.767 F3600000
M107
G1 F2400
G1 X29.788 Y26.708 E0.00273
G1 X43.937 Y16.559 E0.60549
G1 X45.218 Y15.831 E0.05121
G1 X48.74 Y14.953 E0.12622
G1 X69.156 Y14.961 E0.70995
G1 X71.642 Y15.432 E0.08797
G1 X73.918 Y16.49 E0.08728
G1 X87.595 Y26.211 E0.58346
G1 X89.051 Y27.746 E0.07356
G1 X93.6 Y34.18 E0.27401
G1 X94.806 Y37.113 E0.11028
G1 X95.063 Y38.99 E0.06587
G1 X95.068 Y59.96 E0.72919
G1 X94.462 Y62.854 E0.1028
G1 X90.071 Y73.097 E0.38755
G1 X90.071 Y88.508 E0.53587
G1 X89.695 Y90.744 E0.07886
G1 X88.342 Y93.597 E0.10978
G1 X86.181 Y95.891 E0.10959
G1 X78.026 Y101.344 E0.34111
G1 X75.237 Y102.396 E0.10366
G1 X73.031 Y102.616 E0.07709
G1 X70.953 Y102.392 E0.07267
G1 X68.856 Y101.668 E0.07715
G1 X66.968 Y100.501 E0.07717
G1 X64.145 Y97.767 E0.13667
G1 X53.776 Y97.767 E0.36054
G1 X50.755 Y100.667 E0.14561
G1 X48.458 Y101.942 E0.09136
G1 X46.364 Y102.503 E0.07539
G1 X44.223 Y102.61 E0.07454
G1 X41.836 Y102.169 E0.08442
G1 X39.725 Y101.218 E0.08051
G1 X31.717 Y95.863 E0.33498
G1 X29.256 Y93.094 E0.12884
G1 X28.59 Y91.721 E0.05305
G1 X28.102 Y90.273 E0.05314
G1 X27.867 Y78.512 E0.40904
G1 X27.867 Y73.097 E0.18828
G1 X23.468 Y62.834 E0.38828
G1 X22.867 Y59.904 E0.10401
G1 X22.867 Y38.888 E0.7308
G1 X23.306 Y36.49 E0.08478
G1 X24.381 Y34.135 E0.09
G1 X28.848 Y27.801 E0.26952
G1 X29.698 Y26.813 E0.04533
M107
G1 X29.962 Y27.04 F3600000
M107
G1 F2400
G1 X30.039 Y26.951 E0.00409
G1 X44.133 Y16.848 E0.60301
G1 X45.369 Y16.146 E0.04942
G1 X48.761 Y15.301 E0.12155
G1 X69.14 Y15.31 E0.70864
G1 X71.515 Y15.757 E0.08404
G1 X73.729 Y16.784 E0.08486
G1 X87.379 Y26.485 E0.58231
G1 X88.773 Y27.957 E0.0705
G1 X93.304 Y34.365 E0.27288
G1 X94.475 Y37.225 E0.10745
G1 X94.714 Y39.002 E0.06235
G1 X94.719 Y59.942 E0.72816
G1 X94.134 Y62.732 E0.09913
G1 X89.723 Y73.026 E0.38943
G1 X89.723 Y88.493 E0.53785
G1 X89.355 Y90.662 E0.0765
G1 X88.069 Y93.378 E0.10448
G1 X85.97 Y95.612 E0.10659
G1 X77.849 Y101.043 E0.33973
G1 X75.136 Y102.062 E0.10077
G1 X73.015 Y102.267 E0.07409
G1 X71.011 Y102.048 E0.07012
G1 X68.989 Y101.345 E0.07444
G1 X67.197 Y100.238 E0.07323
G1 X64.286 Y97.419 E0.14092
G1 X53.636 Y97.419 E0.37032
G1 X50.53 Y100.399 E0.1497
G1 X48.347 Y101.611 E0.08682
G1 X46.328 Y102.156 E0.07271
G1 X44.226 Y102.261 E0.07318
G1 X41.92 Y101.83 E0.08157
G1 X39.906 Y100.921 E0.07684
G1 X31.929 Y95.586 E0.33371
G1 X29.559 Y92.92 E0.12405
G1 X28.917 Y91.599 E0.05106
G1 X28.441 Y90.187 E0.05183
G1 X28.215 Y78.507 E0.40622
G1 X28.216 Y73.026 E0.19059
G1 X23.796 Y62.713 E0.39015
G1 X23.216 Y59.887 E0.10033
G1 X23.216 Y38.904 E0.72963
G1 X23.644 Y36.574 E0.08238
G1 X24.675 Y34.323 E0.08608
G1 X29.128 Y28.009 E0.26867
G1 X29.923 Y27.086 E0.04237
M107
G1 X30.187 Y27.313 F3600000
M107
G1 F2400
G1 X30.289 Y27.194 E0.00546
G1 X44.328 Y17.136 E0.60054
G1 X45.52 Y16.461 E0.04763
G1 X48.782 Y15.65 E0.11688
G1 X69.124 Y15.658 E0.70734
G1 X71.429 Y16.096 E0.0816
G1 X73.54 Y17.077 E0.08096
G1 X87.163 Y26.76 E0.58116
G1 X88.496 Y28.169 E0.06744
G1 X93.008 Y34.55 E0.27176
G1 X94.144 Y37.336 E0.10461
G1 X94.366 Y39.013 E0.05885
G1 X94.371 Y59.924 E0.72714
G1 X93.807 Y62.611 E0.09546
G1 X89.374 Y72.954 E0.39132
G1 X89.374 Y88.479 E0.53982
G1 X89.016 Y90.58 E0.07413
G1 X87.766 Y93.204 E0.10104
G1 X85.76 Y95.333 E0.10173
G1 X77.672 Y100.742 E0.33834
G1 X75.036 Y101.727 E0.09787
G1 X73 Y101.918 E0.07108
G1 X71.069 Y101.704 E0.06759
G1 X69.122 Y101.023 E0.07173
G1 X67.426 Y99.974 E0.06931
G1 X64.427 Y97.07 E0.14517
G1 X53.496 Y97.07 E0.3801
G1 X50.305 Y100.132 E0.15379
G1 X48.235 Y101.28 E0.08229
G1 X46.255 Y101.815 E0.07132
G1 X44.23 Y101.912 E0.07051
G1 X42.005 Y101.492 E0.07872
G1 X40.088 Y100.623 E0.07319
G1 X32.141 Y95.309 E0.33244
G1 X29.862 Y92.746 E0.11927
G1 X29.235 Y91.457 E0.04983
G1 X28.78 Y90.101 E0.04974
G1 X28.564 Y78.502 E0.40341
G1 X28.564 Y72.954 E0.19291
G1 X24.123 Y62.592 E0.39203
G1 X23.564 Y59.869 E0.09666
G1 X23.564 Y38.92 E0.72846
G1 X23.983 Y36.658 E0.07997
G1 X24.969 Y34.511 E0.08217
G1 X29.408 Y28.217 E0.26782
G1 X30.148 Y27.359 E0.0394
M107
G1 X30.411 Y27.586 F3600000
M107
G1 F2400
G1 X30.54 Y27.438 E0.00682
G1 X44.524 Y17.425 E0.59806
G1 X45.671 Y16.776 E0.04584
G1 X48.803 Y15.998 E0.11222
G1 X69.107 Y16.007 E0.70603
G1 X71.302 Y16.421 E0.07767
G1 X73.352 Y17.37 E0.07854
G1 X86.947 Y27.034 E0.58001
G1 X88.219 Y28.38 E0.06438
G1 X92.712 Y34.735 E0.27063
G1 X93.812 Y37.446 E0.10175
G1 X94.017 Y39.025 E0.05536
G1 X94.022 Y59.906 E0.72612
G1 X93.48 Y62.489 E0.09178
G1 X89.026 Y72.883 E0.39321
G1 X89.026 Y88.464 E0.5418
G1 X88.676 Y90.497 E0.07175
G1 X87.464 Y93.029 E0.0976
G1 X85.55 Y95.055 E0.0969
G1 X77.496 Y100.441 E0.33695
G1 X74.936 Y101.392 E0.09495
G1 X72.987 Y101.57 E0.06807
G1 X71.127 Y101.36 E0.06506
G1 X69.255 Y100.7 E0.06903
G1 X67.655 Y99.711 E0.0654
G1 X64.568 Y96.722 E0.14943
G1 X53.356 Y96.722 E0.38988
G1 X50.08 Y99.865 E0.15788
G1 X48.124 Y100.949 E0.07777
G1 X46.22 Y101.467 E0.06862
G1 X44.234 Y101.563 E0.06914
G1 X42.13 Y101.166 E0.07444
G1 X40.27 Y100.325 E0.07097
G1 X32.353 Y95.031 E0.33117
G1 X30.164 Y92.572 E0.11449
G1 X29.562 Y91.335 E0.04783
G1 X29.119 Y90.015 E0.04842
G1 X28.912 Y78.497 E0.40058
G1 X28.913 Y72.883 E0.19523
G1 X24.45 Y62.471 E0.3939
G1 X23.913 Y59.851 E0.09299
G1 X23.913 Y38.936 E0.72729
G1 X24.322 Y36.744 E0.07755
G1 X25.263 Y34.698 E0.07828
G1 X29.688 Y28.425 E0.26697
G1 X30.372 Y27.632 E0.03643
M107
G1 X30.636 Y27.859 F3600000
M107
G1 F2400
G1 X30.79 Y27.681 E0.00819
G1 X44.719 Y17.714 E0.59559
G1 X45.822 Y17.091 E0.04405
G1 X48.824 Y16.347 E0.10756
G1 X69.091 Y16.355 E0.70472
G1 X71.216 Y16.759 E0.07522
G1 X73.163 Y17.664 E0.07465
G1 X86.731 Y27.308 E0.57886
G1 X87.941 Y28.591 E0.06132
G1 X92.416 Y34.919 E0.26951
G1 X93.481 Y37.556 E0.09887
G1 X93.669 Y39.036 E0.05188
G1 X93.674 Y59.888 E0.72511
G1 X93.153 Y62.368 E0.08811
G1 X88.677 Y72.811 E0.39509
G1 X88.677 Y88.449 E0.54376
G1 X88.337 Y90.414 E0.06936
G1 X87.191 Y92.809 E0.09233
G1 X85.34 Y94.776 E0.09391
G1 X77.319 Y100.14 E0.33555
G1 X74.837 Y101.057 E0.09201
G1 X72.974 Y101.221 E0.06504
G1 X71.187 Y101.016 E0.06254
G1 X69.389 Y100.378 E0.06633
G1 X67.884 Y99.448 E0.06152
G1 X64.709 Y96.373 E0.15368
G1 X53.216 Y96.373 E0.39966
G1 X49.855 Y99.598 E0.16196
G1 X48.012 Y100.618 E0.07325
G1 X46.147 Y101.126 E0.06723
G1 X44.238 Y101.214 E0.06643
G1 X42.216 Y100.827 E0.0716
G1 X40.452 Y100.028 E0.06734
G1 X32.565 Y94.754 E0.3299
M73 P2 R54
G1 X30.467 Y92.398 E0.10971
G1 X29.88 Y91.193 E0.0466
G1 X29.458 Y89.93 E0.0463
G1 X29.261 Y78.493 E0.39777
G1 X29.261 Y72.811 E0.19756
G1 X24.778 Y62.35 E0.39577
G1 X24.261 Y59.834 E0.08932
G1 X24.261 Y38.952 E0.72611
G1 X24.66 Y36.829 E0.07512
G1 X25.557 Y34.886 E0.0744
G1 X29.968 Y28.633 E0.26612
G1 X30.597 Y27.905 E0.03345
M107
G1 X30.86 Y28.133 F3600000
M107
G1 F2400
G1 X31.04 Y27.925 E0.00956
G1 X44.914 Y18.003 E0.59312
G1 X45.973 Y17.406 E0.04225
G1 X48.845 Y16.695 E0.10291
G1 X69.074 Y16.704 E0.70342
G1 X71.089 Y17.085 E0.0713
G1 X72.974 Y17.957 E0.07223
G1 X86.515 Y27.582 E0.5777
G1 X87.664 Y28.802 E0.05826
G1 X92.119 Y35.104 E0.26838
G1 X93.149 Y37.665 E0.09597
G1 X93.32 Y39.046 E0.04842
G1 X93.325 Y59.87 E0.7241
G1 X92.826 Y62.247 E0.08444
G1 X88.329 Y72.74 E0.39698
G1 X88.329 Y88.434 E0.54573
G1 X87.998 Y90.331 E0.06695
G1 X86.889 Y92.634 E0.08889
G1 X85.13 Y94.497 E0.08909
G1 X77.142 Y99.839 E0.33415
G1 X74.739 Y100.722 E0.08905
G1 X72.962 Y100.872 E0.06201
G1 X71.247 Y100.672 E0.06003
G1 X69.524 Y100.056 E0.06364
G1 X68.113 Y99.184 E0.05766
G1 X64.85 Y96.025 E0.15793
G1 X53.076 Y96.025 E0.40944
G1 X49.63 Y99.331 E0.16605
G1 X47.9 Y100.288 E0.06875
G1 X46.111 Y100.779 E0.06449
G1 X44.243 Y100.865 E0.06504
G1 X42.302 Y100.489 E0.06874
G1 X40.634 Y99.73 E0.06373
G1 X32.778 Y94.476 E0.32864
G1 X30.77 Y92.223 E0.10494
G1 X30.207 Y91.071 E0.04458
G1 X29.797 Y89.845 E0.04498
G1 X29.609 Y78.488 E0.39495
G1 X29.61 Y72.74 E0.1999
G1 X25.105 Y62.229 E0.39765
G1 X24.61 Y59.816 E0.08565
G1 X24.61 Y38.968 E0.72493
G1 X24.999 Y36.915 E0.07267
G1 X25.85 Y35.074 E0.07053
G1 X30.247 Y28.841 E0.26527
G1 X30.821 Y28.178 E0.03046
M107
G1 X31.084 Y28.406 F3600000
M107
G1 F2400
G1 X31.29 Y28.169 E0.01093
G1 X45.109 Y18.292 E0.59065
G1 X46.123 Y17.722 E0.04045
G1 X48.866 Y17.044 E0.09827
G1 X69.058 Y17.052 E0.70212
G1 X71.003 Y17.423 E0.06885
G1 X72.785 Y18.25 E0.06834
G1 X86.299 Y27.856 E0.57654
G1 X87.386 Y29.013 E0.0552
G1 X91.823 Y35.288 E0.26724
G1 X92.817 Y37.773 E0.09305
G1 X92.972 Y39.057 E0.04498
G1 X92.977 Y59.852 E0.72311
G1 X92.499 Y62.125 E0.08076
G1 X87.98 Y72.668 E0.39887
G1 X87.98 Y88.419 E0.54769
G1 X87.659 Y90.246 E0.06453
G1 X86.587 Y92.458 E0.08546
G1 X84.92 Y94.218 E0.0843
G1 X76.966 Y99.538 E0.33274
G1 X74.641 Y100.387 E0.08606
G1 X72.951 Y100.523 E0.05897
G1 X71.308 Y100.328 E0.05754
G1 X69.659 Y99.734 E0.06095
G1 X68.342 Y98.921 E0.05382
G1 X64.991 Y95.676 E0.16218
G1 X52.935 Y95.676 E0.41922
G1 X49.405 Y99.064 E0.17013
G1 X47.75 Y99.972 E0.06566
G1 X46.038 Y100.438 E0.06168
G1 X44.248 Y100.516 E0.06231
G1 X42.389 Y100.151 E0.06587
G1 X40.816 Y99.433 E0.06015
G1 X32.99 Y94.199 E0.32738
G1 X31.072 Y92.049 E0.10018
G1 X30.525 Y90.929 E0.04334
G1 X30.136 Y89.76 E0.04284
G1 X29.958 Y78.484 E0.39214
G1 X29.958 Y72.668 E0.20224
G1 X25.432 Y62.108 E0.39952
G1 X24.958 Y59.798 E0.08198
G1 X24.958 Y38.985 E0.72374
G1 X25.337 Y37.002 E0.07022
G1 X26.144 Y35.262 E0.06667
G1 X30.527 Y29.049 E0.26442
G1 X31.045 Y28.452 E0.02747
M107
G1 X31.308 Y28.68 F3600000
M107
G1 F2400
G1 X31.539 Y28.413 E0.0123
G1 X45.304 Y18.581 E0.58819
G1 X46.273 Y18.037 E0.03864
G1 X48.887 Y17.392 E0.09364
G1 X69.041 Y17.401 E0.70081
G1 X70.876 Y17.748 E0.06493
G1 X72.596 Y18.544 E0.06591
G1 X86.083 Y28.13 E0.57537
G1 X87.108 Y29.224 E0.05214
G1 X91.527 Y35.473 E0.26611
G1 X92.485 Y37.881 E0.09011
G1 X92.623 Y39.067 E0.04155
G1 X92.628 Y59.834 E0.72213
G1 X92.172 Y62.004 E0.07709
G1 X87.632 Y72.597 E0.40076
G1 X87.632 Y88.403 E0.54964
G1 X87.32 Y90.162 E0.06211
G1 X86.315 Y92.238 E0.08021
G1 X84.71 Y93.939 E0.08133
G1 X76.79 Y99.236 E0.33133
G1 X74.545 Y100.051 E0.08306
G1 X72.941 Y100.175 E0.05591
G1 X71.369 Y99.984 E0.05507
G1 X69.826 Y99.428 E0.05705
G1 X68.571 Y98.657 E0.05122
G1 X65.132 Y95.328 E0.16642
G1 X52.795 Y95.328 E0.429
G1 X49.181 Y98.796 E0.17419
G1 X47.602 Y99.656 E0.06253
G1 X45.967 Y100.096 E0.05887
G1 X44.254 Y100.166 E0.05959
G1 X42.515 Y99.825 E0.06164
G1 X40.998 Y99.135 E0.05797
G1 X33.202 Y93.922 E0.32612
G1 X31.375 Y91.874 E0.09542
G1 X30.852 Y90.807 E0.0413
G1 X30.475 Y89.675 E0.0415
G1 X30.306 Y78.48 E0.38932
G1 X30.307 Y72.597 E0.20459
G1 X25.759 Y61.987 E0.4014
G1 X25.307 Y59.781 E0.07831
G1 X25.307 Y39.001 E0.72256
G1 X25.662 Y37.128 E0.06629
G1 X26.438 Y35.45 E0.06428
G1 X30.807 Y29.257 E0.26357
G1 X31.268 Y28.725 E0.02447
M107
G1 X31.531 Y28.954 F3600000
M107
G1 F2400
G1 X31.789 Y28.657 E0.01367
M73 P2 R53
G1 X45.499 Y18.87 E0.58573
G1 X46.423 Y18.353 E0.03683
G1 X48.908 Y17.741 E0.08901
G1 X69.025 Y17.749 E0.69951
G1 X70.789 Y18.087 E0.06247
G1 X72.408 Y18.837 E0.06203
G1 X85.867 Y28.404 E0.57421
G1 X86.831 Y29.435 E0.04908
G1 X91.23 Y35.657 E0.26497
G1 X92.152 Y37.987 E0.08715
G1 X92.275 Y39.077 E0.03813
G1 X92.28 Y59.816 E0.72116
G1 X91.845 Y61.882 E0.07342
G1 X87.283 Y72.525 E0.40265
G1 X87.283 Y88.388 E0.55159
G1 X86.981 Y90.077 E0.05966
G1 X86.014 Y92.062 E0.07678
G1 X84.5 Y93.661 E0.07655
G1 X76.614 Y98.935 E0.32991
G1 X74.449 Y99.715 E0.08002
G1 X72.933 Y99.826 E0.05285
G1 X71.431 Y99.641 E0.05261
G1 X69.992 Y99.121 E0.0532
G1 X68.799 Y98.393 E0.0486
G1 X65.274 Y94.979 E0.17066
G1 X52.655 Y94.979 E0.43878
G1 X48.957 Y98.528 E0.17825
G1 X47.454 Y99.34 E0.05938
G1 X45.896 Y99.754 E0.05607
G1 X44.261 Y99.817 E0.05687
G1 X42.603 Y99.487 E0.0588
G1 X41.18 Y98.838 E0.0544
G1 X33.414 Y93.644 E0.32487
