; generated by SuperSlicer 2.5.59.10 on 2024-05-28 at 17:46:43 UTC


;
;

;
;
; 

; external perimeters extrusion width = 0.60mm
; perimeters extrusion width = 0.60mm
; infill extrusion width = 0.60mm
; solid infill extrusion width = 0.60mm
; top infill extrusion width = 0.60mm
; first layer extrusion width = 0.60mm

; object:{"name":"shroud_chonky","id":"shroud_chonky.stl id:0 copy 0","object_center":[90.000000,92.500000,0.000000],"boundingbox_center":[90.000000,92.500000,9.000000],"boundingbox_size":[55.900002,101.761574,18.000000]}
EXCLUDE_OBJECT_DEFINE NAME=shroud_chonky_stl_id_0_copy_0 CENTER=90.000000,92.500000 POLYGON=[[62.05,84.62],[65.05,48.15],[74.81,41.62],[105.19,41.62],[114.95,48.15],[117.95,84.62],[117.95,101.62],[111.95,140.05],[106.96,143.38],[73.04,143.38],[68.05,140.05],[62.05,101.62],[62.05,84.62]]
; plater:{"center":[90.000000,92.500000,0.000000],"boundingbox_center":[90.000000,92.500000,9.000000],"boundingbox_size":[55.900002,101.761574,18.000000]}

M107
;TYPE:Custom
START_PRINT EXTRUDER=270 BED=105
M107
G21 ; set units to millimeters
G90 ; use absolute coordinates
M83 ; use relative distances for extrusion
ACTIVATE_EXTRUDER EXTRUDER=extruder
; Filament gcode
FILAMENT_START MATERIAL=ASA COLOR=#368900 VENDOR=123-3D
;SET_PRESSURE_ADVANCE ADVANCE=0.062
SET_PRESSURE_ADVANCE ADVANCE=0.055
M104 S270 T0 ; set temperature
M109 S270 T0 ; set temperature and wait for it to be reached
M190 S105 ; set bed temperature and wait for it to be reached
;LAYER_CHANGE
;Z:0.24
;HEIGHT:0.24
G1 E-1 F3600
G1 Z0.24 F102000
G92 E0
M204 S750
G1 X65.264 Y50.419
G1 E1 F3600
;TYPE:Skirt
;WIDTH:0.45
M107
G1 F2400
G1 X64.574 Y51.956 E0.06498
G1 F2399.798
G1 X63.708 Y56.571 Z.24 E.18109
G1 X62.843 Y61.185 Z.24 E.18109
G1 X61.977 Y65.8 Z.24 E.18109
G1 F2398.966
G1 X61.111 Y70.414 Z.24 E.18109
G1 X60.245 Y75.029 Z.24 E.18109
G1 X59.38 Y79.643 Z.24 E.18109
G1 F2397.995
G1 X58.514 Y84.258 Z.24 E.18109
G1 X58.452 Y84.922 E0.0257
G1 F2398.287
G1 X58.464 Y89.24 Z.24 E.16653
G1 X58.475 Y93.557 Z.24 E.16653
G1 F2399.266
G1 X58.486 Y97.875 Z.24 E.16653
G1 F2400
G1 X58.498 Y102.193 Z.24 E.16653
G1 F2399.954
G1 X59.248 Y106.837 Z.24 E.18143
G1 X59.998 Y111.481 Z.24 E.18143
G1 X60.748 Y116.125 Z.24 E.18143
G1 X61.498 Y120.768 Z.24 E.18143
G1 X62.248 Y125.412 Z.24 E.18143
G1 X62.998 Y130.056 Z.24 E.18143
G1 X63.748 Y134.7 Z.24 E.18143
G1 X64.498 Y139.344 Z.24 E.18143
G1 X64.908 Y140.523 E0.04813
G1 F2398.926
G1 X66.05 Y141.761 E.06498
G1 X71.854 Y145.642 E0.26928
G1 F2399.997
G1 X73.854 Y146.249 E.08061
G1 X78.467 Y146.249 Z.24 E.17793
G1 X83.08 Y146.249 Z.24 E.17793
G1 X87.693 Y146.249 Z.24 E.17793
G1 X92.307 Y146.249 Z.24 E.17793
G1 X96.92 Y146.249 Z.24 E.17793
G1 X101.533 Y146.249 Z.24 E.17793
G1 X106.146 Y146.249 Z.24 E.17793
G1 X108.146 Y145.642 E.08061
G1 X113.95 Y141.761 E0.26928
G1 X114.851 Y140.898 E.04813
G1 X115.502 Y139.344 E0.06498
G1 X116.252 Y134.7 Z.24 E.18143
G1 X117.002 Y130.056 Z.24 E.18143
G1 X117.752 Y125.412 Z.24 E.18143
G1 X118.502 Y120.768 Z.24 E.18143
G1 X119.252 Y116.125 Z.24 E.18143
G1 X120.002 Y111.481 Z.24 E.18143
G1 X120.752 Y106.837 Z.24 E.18143
G1 X121.502 Y102.193 Z.24 E.18143
G1 X121.513 Y97.875 Z.24 E.16653
G1 X121.525 Y93.557 Z.24 E.16653
G1 F2398.75
G1 X121.536 Y89.24 Z.24 E.16653
G1 F2397.999
G1 X121.548 Y84.922 Z.24 E.16653
G1 X121.486 Y84.258 E0.0257
G1 F2398.03
G1 X120.62 Y79.643 Z.24 E.18109
G1 X119.755 Y75.029 Z.24 E.18109
G1 X118.889 Y70.414 Z.24 E.18109
G1 X118.023 Y65.8 Z.24 E.18109
G1 X117.157 Y61.185 Z.24 E.18109
G1 X116.292 Y56.571 Z.24 E.18109
G1 F2399.046
G1 X115.426 Y51.956 Z.24 E.18109
G1 X115.077 Y50.949 E0.04109
G1 X113.967 Y49.682 E.06498
G1 X110.078 Y46.932 Z.24 E.18371
G1 X106.189 Y44.182 Z.24 E.18371
G1 X102.3 Y41.432 Z.24 E.18371
G1 X98.411 Y38.682 Z.24 E.18371
G1 X96.334 Y38.021 E0.08406
G1 X92.111 Y38.021 Z.24 E.16286
G1 X87.889 Y38.021 Z.24 E.16286
G1 X83.666 Y38.021 Z.24 E.16286
G1 X81.589 Y38.682 E0.08406
G1 X77.7 Y41.432 Z.24 E.18371
G1 X73.811 Y44.182 Z.24 E.18371
G1 X69.922 Y46.932 Z.24 E.18371
G1 F2400
G1 X66.033 Y49.682 Z.24 E.18371
G1 F2399.497
G1 X65.307 Y50.377 E.03878
M107
G1 X65.636 Y50.591 F102000
M107
G1 F2399.208
G1 X64.966 Y52.029 E.06122
G1 X64.1 Y56.644 Z.24 E.18109
G1 X63.235 Y61.258 Z.24 E.18109
G1 X62.369 Y65.873 Z.24 E.18109
G1 X61.503 Y70.488 Z.24 E.18109
G1 X60.637 Y75.103 Z.24 E.18109
G1 X59.772 Y79.717 Z.24 E.18109
G1 X58.906 Y84.332 Z.24 E.18109
G1 X58.851 Y84.922 E0.02285
G1 X58.861 Y89.224 Z.24 E.16592
G1 X58.871 Y93.525 Z.24 E.16592
G1 X58.882 Y97.827 Z.24 E.16592
G1 X58.892 Y102.129 Z.24 E.16592
G1 X59.642 Y106.773 Z.24 E.18143
G1 X60.392 Y111.417 Z.24 E.18143
G1 X61.142 Y116.061 Z.24 E.18143
G1 X61.892 Y120.704 Z.24 E.18143
G1 X62.642 Y125.348 Z.24 E.18143
G1 X63.392 Y129.992 Z.24 E.18143
G1 F2398.898
G1 X64.142 Y134.636 Z.24 E.18143
G1 X64.892 Y139.28 Z.24 E.18143
G1 X65.212 Y140.248 E0.0393
G1 F2399.619
G1 X66.272 Y141.43 E.06122
G1 X69.174 Y143.37 Z.24 E.13464
G1 F2398.953
G1 X72.075 Y145.311 Z.24 E.13464
G1 X73.854 Y145.851 E0.07168
G1 F2399.073
G1 X78.467 Y145.851 Z.24 E.17793
G1 X83.08 Y145.851 Z.24 E.17793
G1 X87.693 Y145.851 Z.24 E.17793
G1 X92.307 Y145.851 Z.24 E.17793
G1 X96.92 Y145.851 Z.24 E.17793
G1 X101.533 Y145.851 Z.24 E.17793
G1 X106.146 Y145.851 Z.24 E.17793
G1 X107.925 Y145.311 E0.07168
G1 X110.826 Y143.37 Z.24 E.13464
G1 X113.728 Y141.43 Z.24 E.13464
G1 X114.474 Y140.736 E.0393
G1 X115.108 Y139.28 E0.06122
G1 F2398.924
G1 X115.858 Y134.636 Z.24 E.18143
G1 F2399.067
G1 X116.608 Y129.992 Z.24 E.18143
G1 X117.358 Y125.348 Z.24 E.18143
G1 X118.108 Y120.704 Z.24 E.18143
G1 X118.858 Y116.061 Z.24 E.18143
G1 X119.608 Y111.417 Z.24 E.18143
G1 X120.358 Y106.773 Z.24 E.18143
G1 F2400
G1 X121.108 Y102.129 Z.24 E.18143
G1 F2399.88
G1 X121.118 Y97.827 Z.24 E.16592
G1 X121.129 Y93.525 Z.24 E.16592
G1 X121.139 Y89.224 Z.24 E.16592
G1 X121.149 Y84.922 Z.24 E.16592
G1 X121.094 Y84.332 E0.02285
G1 X120.228 Y79.717 Z.24 E.18109
G1 X119.363 Y75.103 Z.24 E.18109
G1 X118.497 Y70.488 Z.24 E.18109
G1 X117.631 Y65.873 Z.24 E.18109
G1 X116.765 Y61.258 Z.24 E.18109
G1 X115.9 Y56.644 Z.24 E.18109
G1 F2400
G1 X115.034 Y52.029 Z.24 E.18109
G1 F2399.95
G1 X114.765 Y51.216 E.03303
G1 X113.737 Y50.007 E.06122
G1 X98.181 Y39.007 E0.73484
G1 X96.334 Y38.42 E.07475
G1 X83.666 Y38.42 E0.48857
G1 X81.819 Y39.007 E.07475
G1 X77.93 Y41.757 Z.24 E.18371
G1 X74.041 Y44.507 Z.24 E.18371
G1 X70.152 Y47.257 Z.24 E.18371
G1 X66.263 Y50.007 Z.24 E.18371
G1 X65.68 Y50.55 E0.03072
M107
;WIPE_START
G1 F81600
G1 X66.263 Y50.007 E-0.03338
G1 X81.819 Y39.007 E-0.79853
G1 X83.666 Y38.42 E-0.08123
G1 X84.546 Y38.42 E-0.03686
;WIPE_END
G1 E-0.05 F3600
; printing object shroud_chonky.stl id:0 copy 0
EXCLUDE_OBJECT_START NAME=shroud_chonky_stl_id_0_copy_0
G1 X71.953 Y133.759 F102000
G1 E1 F3600
;TYPE:Internal perimeter
;WIDTH:0.632208
M107
G1 F1651.641
G1 X72.329 Y134.02 E.0257
M107
;WIDTH:0.599999
M107
G1 F1787.191
G1 X75.818 Y136.363 E.22313
G1 F1863.354
G1 X79.023 Y133.498 E.22821
G1 F1905.426
G1 X79.448 Y133.193 E.0278
G1 F1918.655
G1 X80.065 Y132.945 E.0353
G1 F1929.233
G1 X80.607 Y132.871 E.02905
G1 F1953.671
G1 X82.497 Y132.87 E.10031
G1 F1987.858
G1 X80.97 Y132.238 E.08771
G1 F2021.766
G1 X79.295 Y131.376 E.10002
G1 F2044.012
G1 X78.903 Y131.138 E.02436
G1 F2055.781
G1 X78.664 Y131.561 E.02578
G1 F2062.337
G1 X78.359 Y131.996 E.02824
G1 F2075.285
G1 X77.996 Y132.412 E.02932
G1 F2088.82
G1 X77.606 Y132.797 E.02907
G1 F2101.59
G1 X76.941 Y133.284 E.04375
G1 F2118.515
G1 X76.087 Y133.724 E.05103
G1 F2134.561
G1 X75.576 Y133.897 E.02865
G1 F2149.111
G1 X74.795 Y134.069 E.04246
G1 F2166.826
G1 X74.152 Y134.125 E.03423
G1 F2178.262
G1 X73.357 Y134.089 E.04228
G1 F2196.323
G1 X72.828 Y134.007 E.02839
G1 F2207.481
G1 X72.135 Y133.815 E.03818
M107
;WIDTH:0.632208
M107
G1 F2094.929
G1 X72.01 Y133.777 E.00734
M107
G1 X72.02 Y133.154 F102000
;WIDTH:0.599999
M107
G1 F2224.338
G1 X71.663 Y133.002 E.02058
G1 F2238.612
G1 X70.88 Y132.481 E.04989
M107
M107
G1 F2261.185
G1 X70.88 Y133.721 E.06582
G1 F2306.116
G1 X73.373 Y135.388 Z.24 E.15921
G1 F2399.909
G1 X75.866 Y137.056 Z.24 E.15921
G1 X79.388 Y133.907 E.25078
G1 X79.83 Y133.611 E0.02823
G1 F2397.471
G1 X80.199 Y133.477 E.02085
G1 X80.845 Y133.419 E0.0344
G1 F2398.903
G1 X85.419 Y133.411 E.24282
M107
;WIDTH:0.632197
M107
G1 F2277.049
G1 X86.424 Y133.391 E.0565
G1 X85.446 Y133.161 E.05645
M107
;WIDTH:0.599999
M107
G1 F2400
G1 X84.471 Y132.929 E0.05319
G1 F2398.287
G1 X82.88 Y132.427 E.0886
G1 F2381.22
G1 X81.18 Y131.731 E.09748
G1 F2340.125
G1 X79.548 Y130.89 E.09748
G1 F2307.197
G1 X78.659 Y130.332 E.05573
G1 F2287.728
G1 X78.382 Y130.956 E.03625
G1 F2272.9
G1 X78.035 Y131.504 E.03444
G1 F2259.805
G1 X77.695 Y131.938 E.02927
G1 F2247.054
G1 X77.319 Y132.314 E.02824
G1 F2232.341
G1 X76.627 Y132.834 E.04596
G1 F2214.049
G1 X75.855 Y133.226 E.04596
G1 F2201.616
G1 X75.367 Y133.381 E.02715
G1 F2186.539
G1 X74.676 Y133.534 E.03756
G1 F2170.327
G1 X74.177 Y133.577 E.02662
G1 F2160.261
G1 X73.381 Y133.541 E.04228
G1 F2145.83
G1 X72.97 Y133.478 E.02208
G1 F2134.504
G1 X72.46 Y133.341 E.02806
G1 F2129.112
G1 X72.075 Y133.177 E.02219
M107
G1 X71.953 Y133.759 F102000
;WIDTH:0.632208
M107
G1 F2002.165
G1 X71.698 Y133.616 E.01643
M107
;WIDTH:0.542262
M107
G1 F2361.174
G1 X71.396 Y133.446 E.01646
M107
;WIPE_START
G1 F81600
G1 X71.698 Y133.616 E-0.01453
G1 X71.953 Y133.759 E-0.01225
;WIPE_END
G1 E-0.97322 F3600
G1 X76.105 Y126.095 F102000
G1 E1 F3600
;TYPE:External perimeter
;WIDTH:0.533182
M107
G1 F2400
G1 X76.525 Y126.514 E0.02767
M107
G1 E-1 F3600
G1 X72.9 Y123.711 F102000
G1 E1 F3600
;TYPE:Internal perimeter
;WIDTH:0.396372
M107
G1 F2400
G1 X72.34 Y122.83 E0.03486
G1 F2393.578
G1 X72.253 Y123.204 E.01284
G1 X72.141 Y123.409 E0.00778
G1 F2399.863
G1 X72.373 Y123.436 E.00778
G1 F2398.643
G1 X72.847 Y123.684 E.01784
M107
G1 E-1 F3600
G1 X71.011 Y120.299 F102000
G1 E1 F3600
;WIDTH:0.596844
M107
G1 F1522.657
G1 X70.717 Y119.574 E.04128
G1 F1537.926
G1 X70.33 Y118.349 E.0678
G1 F1562.734
G1 X70.33 Y120.299 E.10291
G1 F1583.14
G1 X70.951 Y120.299 E.03276
M107
;WIPE_START
G1 F81600
G1 X70.33 Y120.299 E-0.02602
G1 X70.33 Y118.349 E-0.08171
G1 X70.717 Y119.574 E-0.05384
G1 X71.011 Y120.299 E-0.03278
;WIPE_END
G1 E-0.80565 F3600
G1 X76.532 Y98.716 F102000
G1 E1 F3600
;TYPE:External perimeter
;WIDTH:0.535294
M107
G1 F2400
G1 X76.097 Y99.151 E0.0288
M107
;WIPE_START
G1 F81600
G1 X76.532 Y98.716 E-0.02578
;WIPE_END
G1 E-0.97422 F3600
G1 X103.452 Y62.119 F102000
G1 E1 F3600
;TYPE:Internal perimeter
;WIDTH:0.858471
M107
G1 F1328.475
G1 X103.184 Y62.043 E.02178
G1 F1325.762
G1 X102.717 Y61.787 E.04161
G1 F1319.878
G1 X102.084 Y61.111 E.07233
G1 F1311.207
G1 X102.084 Y62.119 E.07874
G1 F1304.047
G1 X102.054 Y62.221 E.00832
M107
;WIDTH:0.802216
M107
G1 F1417.075
G1 X102.023 Y62.324 E.00774
M107
;WIDTH:0.745961
M107
G1 F1512.898
G1 X101.993 Y62.426 E.00716
M107
;WIDTH:0.689706
M107
G1 F1644.823
G1 X101.963 Y62.528 E.00658
M107
;WIDTH:0.633451
M107
G1 F1802.076
G1 X101.933 Y62.63 E.006
M107
;WIDTH:0.577195
M107
G1 F1993.576
G1 X101.728 Y63.133 E.02762
M107
;WIDTH:0.486284
M107
G1 F2398.1
G1 X101.553 Y63.533 E.01839
G1 X101.392 Y63.784 E0.01254
M107
;WIDTH:0.599999
M107
G1 F1906.16
G1 X101.232 Y64.036 E.01583
G1 F1948.219
G1 X98.293 Y66.974 Z.24 E.2206
G1 F2030.839
G1 X95.355 Y69.913 Z.24 E.2206
G1 F2154.771
G1 X92.416 Y72.851 Z.24 E.2206
G1 F2153.005
G1 X92.153 Y73.079 E.01852
G1 F2155.695
G1 X91.777 Y73.312 E.02349
G1 F2149.573
G1 X91.271 Y73.5 E.02861
G1 F2136.643
G1 X90.971 Y73.521 E.01597
M107
;WIDTH:0.539052
M107
G1 F2399.47
G1 X90.671 Y73.543 E.0142
G1 X89.349 Y73.543 E0.06238
G1 F2398.648
G1 X89.039 Y73.521 E.01468
M107
;WIDTH:0.599999
M107
G1 F2136.931
G1 X88.729 Y73.5 E.01651
G1 F2151.254
G1 X88.223 Y73.312 E.02861
G1 F2156.071
G1 X87.847 Y73.079 E.0235
G1 F2151.88
G1 X87.184 Y72.451 E.04849
G1 F2103.402
G1 X84.379 Y69.646 Z.24 E.2106
G1 F2024.77
G1 X81.573 Y66.841 Z.24 E.2106
G1 F1906.821
G1 X78.768 Y64.036 Z.24 E.2106
G1 X78.608 Y63.784 E.01583
M107
;WIDTH:0.486282
M107
G1 F2400
G1 X78.447 Y63.533 E0.01254
G1 F2398.1
G1 X78.272 Y63.133 E.01839
M107
;WIDTH:0.577195
M107
G1 F1993.576
G1 X78.067 Y62.63 E.02762
M107
;WIDTH:0.633451
M107
G1 F1802.076
G1 X78.037 Y62.528 E.006
M107
;WIDTH:0.689706
M107
G1 F1644.823
G1 X78.007 Y62.426 E.00658
M107
;WIDTH:0.745961
M107
G1 F1512.898
G1 X77.977 Y62.324 E.00716
M107
;WIDTH:0.802216
M107
G1 F1417.075
G1 X77.946 Y62.221 E.00774
M107
;WIDTH:0.858471
M107
G1 F1304.047
G1 X77.916 Y62.119 E.00832
G1 F1311.207
G1 X77.916 Y61.111 E.07874
G1 F1318.223
G1 X77.283 Y61.787 E.07233
G1 F1317.77
G1 X76.816 Y62.043 E.04161
G1 F1313.363
G1 X76.548 Y62.119 E.02178
G1 F1310.934
G1 X76.816 Y62.195 E.02178
G1 F1308.257
G1 X77.283 Y62.451 E.04161
G1 F1307.895
G1 X77.343 Y62.535 E.00805
M107
;WIDTH:0.802216
M107
G1 F1404.75
G1 X77.403 Y62.619 E.00749
M107
;WIDTH:0.745961
M107
G1 F1519.351
G1 X77.463 Y62.703 E.00692
M107
;WIDTH:0.689706
M107
G1 F1652.021
G1 X77.523 Y62.787 E.00636
M107
;WIDTH:0.633451
M107
G1 F1799.346
G1 X77.582 Y62.871 E.0058
M107
;WIDTH:0.577195
M107
G1 F1991.924
G1 X77.85 Y63.339 E.02744
M107
;WIDTH:0.486282
M107
G1 F2398.148
G1 X78.058 Y63.723 E.01839
G1 X78.158 Y64.004 E0.01254
M107
;WIDTH:0.599999
M107
G1 F1902.141
G1 X78.257 Y64.285 E.01583
G1 F1908.745
G1 X78.276 Y64.588 E.01612
G1 F1923.038
G1 X78.276 Y65.65 E.05635
G1 F1936.772
G1 X78.208 Y66.225 E.03075
G1 F1947.938
G1 X78.037 Y66.708 E.0272
G1 F1955.963
G1 X77.81 Y67.093 E.02374
G1 F1967.259
G1 X77.559 Y67.389 E.02058
G1 F1973.859
G1 X77.067 Y67.773 E.03315
G1 F1985.444
G1 X76.725 Y67.941 E.02022
G1 F1993.16
G1 X76.328 Y68.063 E.02204
G1 F2002.472
G1 X75.807 Y68.118 E.0278
G1 F2019.886
G1 X74.429 Y68.118 E.07317
G1 F2068.246
G1 X74.429 Y71.449 Z.24 E.1768
G1 F2171.071
G1 X74.429 Y74.779 Z.24 E.17681
G1 F2178.573
G1 X74.357 Y75.37 E.03159
G1 F2187.5
G1 X74.218 Y75.777 E.02284
G1 F2197.064
G1 X73.976 Y76.204 E.02607
G1 F2236.045
G1 X71.639 Y79.509 Z.24 E.21491
G1 F2301.049
G1 X69.301 Y82.815 Z.24 E.21491
G1 F2398.555
G1 X66.964 Y86.12 Z.24 E.21491
M107
M107
G1 F2400
G1 X67.813 Y86.233 E0.04544
G1 F2398.035
G1 X68.37 Y86.486 E.03249
G1 F2399.603
G1 X68.765 Y86.788 E.02639
G1 X69.036 Y87.088 E0.02145
G1 F2398.879
G1 X69.341 Y87.608 E.03201
G1 X69.492 Y88.085 E0.02656
G1 F2396.215
G1 X69.544 Y88.588 E.02688
G1 X69.544 Y89.65 E0.05635
G1 F2398.164
G1 X69.512 Y90.048 E.02121
G1 X69.45 Y90.324 E.01502
G1 X69.245 Y90.828 E0.02886
G1 F2393.851
G1 X68.938 Y91.271 E.02865
G1 X68.544 Y91.63 E0.02825
G1 F2397.529
G1 X68.544 Y92.65 E.05417
G1 F2398.655
G1 X68.52 Y92.966 E.01685
M107
;WIDTH:0.664224
M107
G1 F2159.331
G1 X68.49 Y93.396 E.02552
M107
;WIDTH:0.779219
M107
G1 F1818.363
G1 X68.485 Y93.509 E.00797
G1 F1816.222
G1 X68.177 Y94.118 E.04811
G1 F1815.965
G1 X68.089 Y94.189 E.00796
M107
;WIDTH:0.741883
M107
G1 F1920.529
G1 X68.001 Y94.261 E.00756
M107
;WIDTH:0.694588
M107
G1 F2035.214
G1 X67.914 Y94.332 E.00704
M107
;WIDTH:0.647294
M107
G1 F2210.918
G1 X67.826 Y94.403 E.00652
M107
;WIDTH:0.599999
M107
G1 F2398.714
G1 X67.544 Y94.631 E.01925
G1 X67.552 Y94.969 E0.01793
M107
;WIDTH:0.63213
M107
G1 F2270.61
G1 X67.56 Y95.307 E.01898
G1 F2267.935
G1 X67.6 Y95.444 E.00804
M107
;WIDTH:0.75816
M107
G1 F1864.565
G1 X67.64 Y95.581 E.00979
M107
;WIDTH:0.833778
M107
G1 F1703.226
G1 X67.661 Y95.65 E.00542
G1 F1693.155
G1 X67.606 Y96.211 E.04271
G1 F1701.932
G1 X67.53 Y96.32 E.01004
M107
;WIDTH:0.72349
M107
G1 F1984.409
G1 X67.454 Y96.429 E.00862
M107
;WIDTH:0.624697
M107
G1 F2329.506
G1 X67.07 Y97.104 E.04309
G1 F2343.776
G1 X66.781 Y97.434 E.02433
G1 F2351.274
G1 X66.429 Y97.689 E.02413
G1 F2378.271
G1 X66.429 Y99.517 E.1014
G1 F2398.735
G1 X67.891 Y102.927 Z.24 E.20585
G1 F2400
G1 X69.352 Y106.338 Z.24 E.20585
G1 F2399.325
G1 X69.743 Y105.132 E.07036
G1 F2397.112
G1 X70.381 Y103.59 E.09259
G1 F2374.124
G1 X71.243 Y101.914 E.10453
G1 F2345.83
G1 X71.481 Y101.522 E.02546
G1 F2331.723
G1 X71.059 Y101.284 E.02694
G1 F2072.782
G1 X70.623 Y100.979 E.02951
G1 F2023.378
G1 X69.917 Y100.326 E.05332
G1 F2002.567
G1 X69.336 Y99.561 E.05333
G1 F1986.436
