; generated by SuperSlicer 2.5.59.9 on 2024-05-10 at 22:46:31 UTC


;
;

;
;

;
;

;
;

;
;
; 

; external perimeters extrusion width = 0.40mm
; perimeters extrusion width = 0.40mm
; infill extrusion width = 0.40mm
; solid infill extrusion width = 0.40mm
; top infill extrusion width = 0.40mm

; external perimeters extrusion width = 0.40mm
; perimeters extrusion width = 0.40mm
; infill extrusion width = 0.40mm
; solid infill extrusion width = 0.40mm
; top infill extrusion width = 0.40mm

; external perimeters extrusion width = 0.40mm
; perimeters extrusion width = 0.40mm
; infill extrusion width = 0.40mm
; solid infill extrusion width = 0.40mm
; top infill extrusion width = 0.40mm

; external perimeters extrusion width = 0.40mm
; perimeters extrusion width = 0.40mm
; infill extrusion width = 0.40mm
; solid infill extrusion width = 0.40mm
; top infill extrusion width = 0.40mm

; external perimeters extrusion width = 0.40mm
; perimeters extrusion width = 0.40mm
; infill extrusion width = 0.40mm
; solid infill extrusion width = 0.40mm
; top infill extrusion width = 0.40mm

; object:{"name":"SKR Pico Spacers_Spacers__V1_2024-05-10 18-30-56","id":"SKR Pico Spacers_Spacers__V1_2024-05-10 18-30-56.stl id:0 copy 0","object_center":[47.939013,149.338268,0.000000],"boundingbox_center":[47.939013,149.338268,2.500000],"boundingbox_size":[7.000000,7.000000,5.000000]}
EXCLUDE_OBJECT_DEFINE NAME=SKR_Pico_Spacers_Spacers__V1_2024_05_10_18_30_56_stl_id_0_copy_0 CENTER=47.939013,149.338268 POLYGON=[[44.44,149.34],[44.44,149.19],[44.45,149.03],[44.47,148.88],[44.49,148.73],[44.52,148.58],[44.56,148.43],[44.60,148.29],[44.65,148.14],[44.71,148.00],[44.77,147.86],[44.83,147.72],[44.91,147.59],[44.99,147.46],[45.07,147.33],[45.16,147.21],[45.26,147.09],[45.36,146.97],[45.46,146.86],[45.57,146.76],[45.69,146.66],[45.81,146.56],[45.93,146.47],[46.06,146.39],[46.19,146.31],[46.32,146.23],[46.46,146.17],[46.60,146.10],[46.74,146.05],[46.89,146.00],[47.03,145.96],[47.18,145.92],[47.33,145.89],[47.48,145.87],[47.63,145.85],[47.79,145.84],[47.94,145.84],[48.09,145.84],[48.24,145.85],[48.40,145.87],[48.55,145.89],[48.70,145.92],[48.84,145.96],[48.99,146.00],[49.14,146.05],[49.28,146.10],[49.42,146.17],[49.56,146.23],[49.69,146.31],[49.82,146.39],[49.95,146.47],[50.07,146.56],[50.19,146.66],[50.30,146.76],[50.41,146.86],[50.52,146.97],[50.62,147.09],[50.72,147.21],[50.81,147.33],[50.89,147.46],[50.97,147.59],[51.04,147.72],[51.11,147.86],[51.17,148.00],[51.23,148.14],[51.28,148.29],[51.32,148.43],[51.36,148.58],[51.39,148.73],[51.41,148.88],[51.43,149.03],[51.44,149.19],[51.44,149.34],[51.44,149.49],[51.43,149.64],[51.41,149.80],[51.39,149.95],[51.36,150.10],[51.32,150.24],[51.28,150.39],[51.23,150.54],[51.17,150.68],[51.11,150.82],[51.04,150.95],[50.97,151.09],[50.89,151.22],[50.81,151.35],[50.72,151.47],[50.62,151.59],[50.52,151.70],[50.41,151.81],[50.30,151.92],[50.19,152.02],[50.07,152.12],[49.95,152.21],[49.82,152.29],[49.69,152.37],[49.56,152.44],[49.42,152.51],[49.28,152.57],[49.14,152.63],[48.99,152.68],[48.84,152.72],[48.70,152.76],[48.55,152.79],[48.40,152.81],[48.24,152.82],[48.09,152.83],[47.94,152.84],[47.79,152.83],[47.63,152.82],[47.48,152.81],[47.33,152.79],[47.18,152.76],[47.03,152.72],[46.89,152.68],[46.74,152.63],[46.60,152.57],[46.46,152.51],[46.32,152.44],[46.19,152.37],[46.06,152.29],[45.93,152.21],[45.81,152.12],[45.69,152.02],[45.57,151.92],[45.46,151.81],[45.36,151.70],[45.26,151.59],[45.16,151.47],[45.07,151.35],[44.99,151.22],[44.91,151.09],[44.83,150.95],[44.77,150.82],[44.71,150.68],[44.65,150.54],[44.60,150.39],[44.56,150.24],[44.52,150.10],[44.49,149.95],[44.47,149.80],[44.45,149.64],[44.44,149.49],[44.44,149.34]]
; object:{"name":"SKR Pico Spacers_Spacers__V1_2024-05-10 18-30-56","id":"SKR Pico Spacers_Spacers__V1_2024-05-10 18-30-56.stl id:1 copy 0","object_center":[45.109923,133.969316,0.000000],"boundingbox_center":[45.109923,133.969316,2.500000],"boundingbox_size":[7.000000,7.000000,5.000000]}
EXCLUDE_OBJECT_DEFINE NAME=SKR_Pico_Spacers_Spacers__V1_2024_05_10_18_30_56_stl_id_1_copy_0 CENTER=45.109923,133.969316 POLYGON=[[41.61,133.97],[41.61,133.82],[41.62,133.66],[41.64,133.51],[41.66,133.36],[41.69,133.21],[41.73,133.06],[41.77,132.92],[41.82,132.77],[41.88,132.63],[41.94,132.49],[42.01,132.35],[42.08,132.22],[42.16,132.09],[42.24,131.96],[42.33,131.84],[42.43,131.72],[42.53,131.60],[42.64,131.49],[42.75,131.39],[42.86,131.29],[42.98,131.19],[43.10,131.10],[43.23,131.02],[43.36,130.94],[43.49,130.86],[43.63,130.80],[43.77,130.74],[43.91,130.68],[44.06,130.63],[44.20,130.59],[44.35,130.55],[44.50,130.52],[44.65,130.50],[44.80,130.48],[44.96,130.47],[45.11,130.47],[45.26,130.47],[45.41,130.48],[45.57,130.50],[45.72,130.52],[45.87,130.55],[46.02,130.59],[46.16,130.63],[46.31,130.68],[46.45,130.74],[46.59,130.80],[46.73,130.86],[46.86,130.94],[46.99,131.02],[47.12,131.10],[47.24,131.19],[47.36,131.29],[47.47,131.39],[47.58,131.49],[47.69,131.60],[47.79,131.72],[47.89,131.84],[47.98,131.96],[48.06,132.09],[48.14,132.22],[48.21,132.35],[48.28,132.49],[48.34,132.63],[48.40,132.77],[48.45,132.92],[48.49,133.06],[48.53,133.21],[48.56,133.36],[48.58,133.51],[48.60,133.66],[48.61,133.82],[48.61,133.97],[48.61,134.12],[48.60,134.27],[48.58,134.43],[48.56,134.58],[48.53,134.73],[48.49,134.88],[48.45,135.02],[48.40,135.17],[48.34,135.31],[48.28,135.45],[48.21,135.59],[48.14,135.72],[48.06,135.85],[47.98,135.98],[47.89,136.10],[47.79,136.22],[47.69,136.33],[47.58,136.44],[47.47,136.55],[47.36,136.65],[47.24,136.75],[47.12,136.84],[46.99,136.92],[46.86,137.00],[46.73,137.07],[46.59,137.14],[46.45,137.20],[46.31,137.26],[46.16,137.31],[46.02,137.35],[45.87,137.39],[45.72,137.42],[45.57,137.44],[45.41,137.46],[45.26,137.47],[45.11,137.47],[44.96,137.47],[44.80,137.46],[44.65,137.44],[44.50,137.42],[44.35,137.39],[44.20,137.35],[44.06,137.31],[43.91,137.26],[43.77,137.20],[43.63,137.14],[43.49,137.07],[43.36,137.00],[43.23,136.92],[43.10,136.84],[42.98,136.75],[42.86,136.65],[42.75,136.55],[42.64,136.44],[42.53,136.33],[42.43,136.22],[42.33,136.10],[42.24,135.98],[42.16,135.85],[42.08,135.72],[42.01,135.59],[41.94,135.45],[41.88,135.31],[41.82,135.17],[41.77,135.02],[41.73,134.88],[41.69,134.73],[41.66,134.58],[41.64,134.43],[41.62,134.27],[41.61,134.12],[41.61,133.97]]
; object:{"name":"SKR Pico Spacers_Spacers__V1_2024-05-10 18-30-56","id":"SKR Pico Spacers_Spacers__V1_2024-05-10 18-30-56.stl id:2 copy 0","object_center":[42.876974,142.395868,0.000000],"boundingbox_center":[42.876974,142.395868,2.500000],"boundingbox_size":[7.000000,7.000000,5.000000]}
EXCLUDE_OBJECT_DEFINE NAME=SKR_Pico_Spacers_Spacers__V1_2024_05_10_18_30_56_stl_id_2_copy_0 CENTER=42.876974,142.395868 POLYGON=[[39.38,142.40],[39.38,142.24],[39.39,142.09],[39.41,141.94],[39.43,141.79],[39.46,141.64],[39.50,141.49],[39.54,141.34],[39.59,141.20],[39.64,141.06],[39.70,140.92],[39.77,140.78],[39.85,140.65],[39.93,140.52],[40.01,140.39],[40.10,140.27],[40.20,140.15],[40.30,140.03],[40.40,139.92],[40.51,139.82],[40.63,139.71],[40.75,139.62],[40.87,139.53],[41.00,139.44],[41.13,139.36],[41.26,139.29],[41.40,139.22],[41.54,139.16],[41.68,139.11],[41.82,139.06],[41.97,139.02],[42.12,138.98],[42.27,138.95],[42.42,138.93],[42.57,138.91],[42.72,138.90],[42.88,138.90],[43.03,138.90],[43.18,138.91],[43.33,138.93],[43.48,138.95],[43.63,138.98],[43.78,139.02],[43.93,139.06],[44.07,139.11],[44.22,139.16],[44.36,139.22],[44.49,139.29],[44.63,139.36],[44.76,139.44],[44.88,139.53],[45.01,139.62],[45.13,139.71],[45.24,139.82],[45.35,139.92],[45.46,140.03],[45.56,140.15],[45.65,140.27],[45.74,140.39],[45.83,140.52],[45.91,140.65],[45.98,140.78],[46.05,140.92],[46.11,141.06],[46.17,141.20],[46.21,141.34],[46.26,141.49],[46.29,141.64],[46.32,141.79],[46.35,141.94],[46.36,142.09],[46.37,142.24],[46.38,142.40],[46.37,142.55],[46.36,142.70],[46.35,142.85],[46.32,143.00],[46.29,143.15],[46.26,143.30],[46.21,143.45],[46.17,143.59],[46.11,143.74],[46.05,143.88],[45.98,144.01],[45.91,144.15],[45.83,144.28],[45.74,144.40],[45.65,144.53],[45.56,144.65],[45.46,144.76],[45.35,144.87],[45.24,144.98],[45.13,145.08],[45.01,145.17],[44.88,145.26],[44.76,145.35],[44.63,145.43],[44.49,145.50],[44.36,145.57],[44.22,145.63],[44.07,145.68],[43.93,145.73],[43.78,145.78],[43.63,145.81],[43.48,145.84],[43.33,145.87],[43.18,145.88],[43.03,145.89],[42.88,145.90],[42.72,145.89],[42.57,145.88],[42.42,145.87],[42.27,145.84],[42.12,145.81],[41.97,145.78],[41.82,145.73],[41.68,145.68],[41.54,145.63],[41.40,145.57],[41.26,145.50],[41.13,145.43],[41.00,145.35],[40.87,145.26],[40.75,145.17],[40.63,145.08],[40.51,144.98],[40.40,144.87],[40.30,144.76],[40.20,144.65],[40.10,144.53],[40.01,144.40],[39.93,144.28],[39.85,144.15],[39.77,144.01],[39.70,143.88],[39.64,143.74],[39.59,143.59],[39.54,143.45],[39.50,143.30],[39.46,143.15],[39.43,143.00],[39.41,142.85],[39.39,142.70],[39.38,142.55],[39.38,142.40]]
; object:{"name":"SKR Pico Spacers_Spacers__V1_2024-05-10 18-30-56","id":"SKR Pico Spacers_Spacers__V1_2024-05-10 18-30-56.stl id:3 copy 0","object_center":[39.874955,150.439946,0.000000],"boundingbox_center":[39.874955,150.439946,2.500000],"boundingbox_size":[7.000000,7.000000,5.000000]}
EXCLUDE_OBJECT_DEFINE NAME=SKR_Pico_Spacers_Spacers__V1_2024_05_10_18_30_56_stl_id_3_copy_0 CENTER=39.874955,150.439946 POLYGON=[[36.37,150.44],[36.38,150.29],[36.39,150.13],[36.40,149.98],[36.43,149.83],[36.46,149.68],[36.49,149.53],[36.54,149.39],[36.59,149.24],[36.64,149.10],[36.70,148.96],[36.77,148.82],[36.84,148.69],[36.92,148.56],[37.01,148.43],[37.10,148.31],[37.19,148.19],[37.29,148.08],[37.40,147.97],[37.51,147.86],[37.63,147.76],[37.74,147.66],[37.87,147.57],[37.99,147.49],[38.12,147.41],[38.26,147.34],[38.40,147.27],[38.54,147.21],[38.68,147.15],[38.82,147.10],[38.97,147.06],[39.12,147.02],[39.27,146.99],[39.42,146.97],[39.57,146.95],[39.72,146.94],[39.87,146.94],[40.03,146.94],[40.18,146.95],[40.33,146.97],[40.48,146.99],[40.63,147.02],[40.78,147.06],[40.93,147.10],[41.07,147.15],[41.21,147.21],[41.35,147.27],[41.49,147.34],[41.62,147.41],[41.76,147.49],[41.88,147.57],[42.01,147.66],[42.12,147.76],[42.24,147.86],[42.35,147.97],[42.46,148.08],[42.56,148.19],[42.65,148.31],[42.74,148.43],[42.83,148.56],[42.91,148.69],[42.98,148.82],[43.05,148.96],[43.11,149.10],[43.16,149.24],[43.21,149.39],[43.26,149.53],[43.29,149.68],[43.32,149.83],[43.35,149.98],[43.36,150.13],[43.37,150.29],[43.37,150.44],[43.37,150.59],[43.36,150.74],[43.35,150.90],[43.32,151.05],[43.29,151.20],[43.26,151.35],[43.21,151.49],[43.16,151.64],[43.11,151.78],[43.05,151.92],[42.98,152.06],[42.91,152.19],[42.83,152.32],[42.74,152.45],[42.65,152.57],[42.56,152.69],[42.46,152.80],[42.35,152.91],[42.24,153.02],[42.12,153.12],[42.01,153.22],[41.88,153.31],[41.76,153.39],[41.62,153.47],[41.49,153.54],[41.35,153.61],[41.21,153.67],[41.07,153.73],[40.93,153.78],[40.78,153.82],[40.63,153.86],[40.48,153.89],[40.33,153.91],[40.18,153.93],[40.03,153.94],[39.87,153.94],[39.72,153.94],[39.57,153.93],[39.42,153.91],[39.27,153.89],[39.12,153.86],[38.97,153.82],[38.82,153.78],[38.68,153.73],[38.54,153.67],[38.40,153.61],[38.26,153.54],[38.12,153.47],[37.99,153.39],[37.87,153.31],[37.74,153.22],[37.63,153.12],[37.51,153.02],[37.40,152.91],[37.29,152.80],[37.19,152.69],[37.10,152.57],[37.01,152.45],[36.92,152.32],[36.84,152.19],[36.77,152.06],[36.70,151.92],[36.64,151.78],[36.59,151.64],[36.54,151.49],[36.49,151.35],[36.46,151.20],[36.43,151.05],[36.40,150.90],[36.39,150.74],[36.38,150.59],[36.37,150.44]]
; object:{"name":"SKR Pico Spacers_Spacers__V1_2024-05-10 18-30-56","id":"SKR Pico Spacers_Spacers__V1_2024-05-10 18-30-56.stl id:4 copy 0","object_center":[50.155211,141.426628,0.000000],"boundingbox_center":[50.155211,141.426628,2.500000],"boundingbox_size":[7.000000,7.000000,5.000000]}
EXCLUDE_OBJECT_DEFINE NAME=SKR_Pico_Spacers_Spacers__V1_2024_05_10_18_30_56_stl_id_4_copy_0 CENTER=50.155211,141.426628 POLYGON=[[46.66,141.43],[46.66,141.27],[46.67,141.12],[46.69,140.97],[46.71,140.82],[46.74,140.67],[46.77,140.52],[46.82,140.37],[46.87,140.23],[46.92,140.09],[46.98,139.95],[47.05,139.81],[47.12,139.68],[47.20,139.55],[47.29,139.42],[47.38,139.30],[47.47,139.18],[47.57,139.06],[47.68,138.95],[47.79,138.85],[47.91,138.75],[48.02,138.65],[48.15,138.56],[48.27,138.47],[48.41,138.40],[48.54,138.32],[48.68,138.25],[48.82,138.19],[48.96,138.14],[49.10,138.09],[49.25,138.05],[49.40,138.01],[49.55,137.98],[49.70,137.96],[49.85,137.94],[50.00,137.93],[50.16,137.93],[50.31,137.93],[50.46,137.94],[50.61,137.96],[50.76,137.98],[50.91,138.01],[51.06,138.05],[51.21,138.09],[51.35,138.14],[51.49,138.19],[51.63,138.25],[51.77,138.32],[51.91,138.40],[52.04,138.47],[52.16,138.56],[52.29,138.65],[52.40,138.75],[52.52,138.85],[52.63,138.95],[52.74,139.06],[52.84,139.18],[52.93,139.30],[53.02,139.42],[53.11,139.55],[53.19,139.68],[53.26,139.81],[53.33,139.95],[53.39,140.09],[53.44,140.23],[53.49,140.37],[53.54,140.52],[53.57,140.67],[53.60,140.82],[53.63,140.97],[53.64,141.12],[53.65,141.27],[53.66,141.43],[53.65,141.58],[53.64,141.73],[53.63,141.88],[53.60,142.03],[53.57,142.18],[53.54,142.33],[53.49,142.48],[53.44,142.62],[53.39,142.77],[53.33,142.91],[53.26,143.04],[53.19,143.18],[53.11,143.31],[53.02,143.43],[52.93,143.56],[52.84,143.68],[52.74,143.79],[52.63,143.90],[52.52,144.01],[52.40,144.11],[52.29,144.20],[52.16,144.29],[52.04,144.38],[51.91,144.46],[51.77,144.53],[51.63,144.60],[51.49,144.66],[51.35,144.72],[51.21,144.76],[51.06,144.81],[50.91,144.84],[50.76,144.87],[50.61,144.90],[50.46,144.91],[50.31,144.92],[50.16,144.93],[50.00,144.92],[49.85,144.91],[49.70,144.90],[49.55,144.87],[49.40,144.84],[49.25,144.81],[49.10,144.76],[48.96,144.72],[48.82,144.66],[48.68,144.60],[48.54,144.53],[48.41,144.46],[48.27,144.38],[48.15,144.29],[48.02,144.20],[47.91,144.11],[47.79,144.01],[47.68,143.90],[47.57,143.79],[47.47,143.68],[47.38,143.56],[47.29,143.43],[47.20,143.31],[47.12,143.18],[47.05,143.04],[46.98,142.91],[46.92,142.77],[46.87,142.62],[46.82,142.48],[46.77,142.33],[46.74,142.18],[46.71,142.03],[46.69,141.88],[46.67,141.73],[46.66,141.58],[46.66,141.43]]
; plater:{"center":[45.015083,142.204631,0.000000],"boundingbox_center":[45.015083,142.204631,2.500000],"boundingbox_size":[17.280256,23.470630,5.000000]}

M73 P0 R6
M107
;TYPE:Custom
CALCULATE_PA MATERIAL=ASA BOWDEN_LENGTH=6 LAYER_HEIGHT=0.25 NOZZLE_SIZE=0.4 PRINT_SPEED=95


START_PRINT EXTRUDER=260 BED=105

G21 ; set units to millimeters
G90 ; use absolute coordinates
M83 ; use relative distances for extrusion
ACTIVATE_EXTRUDER EXTRUDER=extruder
; Filament gcode
M104 S260 T0 ; set temperature
M109 S260 T0 ; set temperature and wait for it to be reached
M190 S105 ; set bed temperature and wait for it to be reached
;LAYER_CHANGE
;Z:0.24
;HEIGHT:0.24
;BEFORE_LAYER_CHANGE
G92 E0.0

G1 E-0.4 F3000
M73 P4 R6
G1 Z0.16 F3600000
G1 Z0.24
;AFTER_LAYER_CHANGE
;0.24




CALCULATE_PA MATERIAL=ASA BOWDEN_LENGTH=6.0 LAYER_HEIGHT=0.2 NOZZLE_SIZE=0.4 PRINT_SPEED=95


G92 E0
G1 Z0.4
G1 X42.94145 Y128.16338
M73 P5 R6
G1 Z0.24
G1 E0.4 F3000
;TYPE:Skirt
;WIDTH:0.4
;HEIGHT:0.25
M107
G1 X43.55328 Y127.97022 E0.0231
G1 X44.13165 Y127.84957 E0.02127
G1 X44.742 Y127.78272 E0.0221
G1 X45.42184 Y127.7793 E0.02447
G1 X45.98232 Y127.83323 E0.02027
G1 X46.51885 Y127.93388 E0.01965
G1 X47.07712 Y128.09259 E0.02089
G1 X47.77905 Y128.37549 E0.02724
G1 X48.35191 Y128.68754 E0.02348
G1 X48.88838 Y129.05659 E0.02344
G1 X49.28697 Y129.39064 E0.01872
G1 X49.6516 Y129.75192 E0.01848
G1 X50.06446 Y130.24561 E0.02317
G1 X50.355 Y130.66763 E0.01844
G1 X50.61186 Y131.11563 E0.01859
G1 X50.92194 Y131.81718 E0.02761
G1 X51.10016 Y132.37901 E0.02122
G1 X51.21953 Y132.92781 E0.02022
G1 X51.29067 Y133.51592 E0.02133
G1 X51.30135 Y134.25199 E0.0265
G1 X51.21822 Y135.01868 E0.02776
G1 X51.15448 Y135.31532 E0.01092
G1 X51.48354 Y135.37306 E0.01203
G1 X52.09393 Y135.54046 E0.02278
G1 X52.80139 Y135.82239 E0.02742
G1 X53.45316 Y136.17927 E0.02675
G1 X53.96261 Y136.53616 E0.02239
G1 X54.35063 Y136.86476 E0.0183
G1 X54.70816 Y137.22151 E0.01818
