; generated by SuperSlicer 2.5.59.9 on 2024-05-07 at 00:35:39 UTC


;
;

;
;

;
;

;
;

;
;
; 

; external perimeters extrusion width = 0.40mm
; perimeters extrusion width = 0.40mm
; infill extrusion width = 0.40mm
; solid infill extrusion width = 0.40mm
; top infill extrusion width = 0.40mm

; object:{"name":"square_tower","id":"square_tower.stl id:0 copy 0","object_center":[64.093919,75.936887,0.000000],"boundingbox_center":[64.093919,75.936887,25.000000],"boundingbox_size":[66.000000,65.945206,50.000000]}
EXCLUDE_OBJECT_DEFINE NAME=square_tower_stl_id_0_copy_0 CENTER=64.093919,75.936887 POLYGON=[[31.09,47.94],[31.20,46.90],[31.53,45.90],[32.05,45.00],[32.75,44.22],[33.59,43.61],[34.55,43.18],[35.57,42.96],[92.62,42.96],[93.64,43.18],[94.59,43.61],[95.44,44.22],[96.14,45.00],[96.66,45.90],[96.98,46.90],[97.09,47.94],[97.09,103.94],[96.98,104.98],[96.66,105.97],[96.14,106.88],[95.44,107.65],[94.59,108.27],[93.64,108.69],[92.62,108.91],[35.57,108.91],[34.55,108.69],[33.59,108.27],[32.75,107.65],[32.05,106.88],[31.53,105.97],[31.20,104.98],[31.09,103.94],[31.09,47.94]]
; plater:{"center":[64.093919,75.936887,0.000000],"boundingbox_center":[64.093919,75.936887,25.000000],"boundingbox_size":[66.000000,65.945206,50.000000]}

M73 P0 R66
M107
;TYPE:Custom
CALCULATE_PA MATERIAL=ASA BOWDEN_LENGTH=6 LAYER_HEIGHT=0.25 NOZZLE_SIZE=0.4 PRINT_SPEED=95%


START_PRINT EXTRUDER=260 BED=105

G21 ; set units to millimeters
G90 ; use absolute coordinates
M83 ; use relative distances for extrusion
ACTIVATE_EXTRUDER EXTRUDER=extruder
; Filament gcode
M104 S260 T0 ; set temperature
M109 S260 T0 ; set temperature and wait for it to be reached
M190 S105 ; set bed temperature and wait for it to be reached
;LAYER_CHANGE
;Z:0.24
;HEIGHT:0.24
;BEFORE_LAYER_CHANGE
G92 E0.0

G1 E-0.4 F3000
G1 Z0.24 F3600000
G92 E0
G1 Z0.4
G1 X26.49473 Y36.91955
G1 Z0.24
G1 E0.4 F3000
;TYPE:Skirt
;WIDTH:0.4
;HEIGHT:0.25
M107
G1 F2640
G1 X28.83712 Y35.23856 E0.10379
G1 X31.62577 Y34.01064 E0.10969
G1 X34.64063 Y33.38374 E0.11085
G1 X37.66152 Y33.39573 E0.10875
G1 X40.71255 Y34.05984 E0.11241
G1 X43.39704 Y35.26661 E0.10595
G1 X44.86775 Y36.31229 E0.06496
G1 X83.30852 Y36.31229 E1.38382
G1 X84.6326 Y35.35957 E0.05872
G1 X87.51237 Y34.04744 E0.11392
G1 X90.52054 Y33.39719 E0.11079
G1 X93.56761 Y33.38572 E0.10969
G1 X96.44445 Y33.97472 E0.10571
G1 X99.11559 Y35.10714 E0.10444
G1 X101.59292 Y36.81672 E0.10835
G1 X103.65155 Y38.97326 E0.10733
G1 X105.54616 Y42.19322 E0.13449
G1 X106.44424 Y45.11377 E0.10999
G1 X106.71897 Y48.01993 E0.10509
G1 X106.38088 Y51.06572 E0.11032
G1 X105.42945 Y53.94303 E0.1091
G1 X104.02565 Y56.39165 E0.10161
G1 X103.71853 Y56.7683 E0.0175
G1 X103.71853 Y95.11117 E1.3803
G1 X104.05262 Y95.5223 E0.01907
G1 X105.53176 Y98.16345 E0.10897
G1 X106.4285 Y101.03907 E0.10844
G1 X106.71882 Y104.0593 E0.10923
G1 X106.37613 Y107.0869 E0.10969
G1 X105.40411 Y109.99886 E0.11051
G1 X103.82858 Y112.66625 E0.11152
G1 X101.76784 Y114.906 E0.10956
G1 X99.33622 Y116.64329 E0.10758
G1 X96.60453 Y117.8495 E0.1075
G1 X93.53829 Y118.49108 E0.11277
G1 X90.62686 Y118.48775 E0.10481
G1 X87.7641 Y117.90727 E0.10515
G1 X84.86723 Y116.65067 E0.11367
G1 X83.32536 Y115.5615 E0.06796
G1 X44.87276 Y115.5615 E1.38425
G1 X43.2767 Y116.67654 E0.07009
G1 X40.4509 Y117.89788 E0.11082
G1 X37.68005 Y118.47608 E0.1019
G1 X34.82467 Y118.50707 E0.1028
G1 X31.64519 Y117.86944 E0.11674
G1 X28.91645 Y116.68012 E0.10716
G1 X26.45838 Y114.93975 E0.10842
G1 X24.33641 Y112.6339 E0.11281
G1 X22.72896 Y109.87679 E0.11489
G1 X21.79719 Y107.02118 E0.10813
G1 X21.46863 Y104.02476 E0.10851
G1 X21.76483 Y101.00745 E0.10914
G1 X22.66246 Y98.14789 E0.10789
G1 X24.15601 Y95.49169 E0.1097
G1 X24.46931 Y95.10635 E0.01788
G1 X24.46931 Y56.76104 E1.38039
G1 X24.12653 Y56.3414 E0.01951
G1 X22.79579 Y54.02537 E0.09616
G1 X21.82831 Y51.15755 E0.10895
G1 X21.47089 Y48.13837 E0.10945
G1 X21.75468 Y45.0567 E0.11141
G1 X22.70908 Y42.04193 E0.11384
G1 X24.31565 Y39.26661 E0.11544
G1 X26.38858 Y36.99573 E0.11069
G1 X26.44598 Y36.95453 E0.00254
M107
G1 X26.6454 Y37.23315 F3600000
M107
G1 F2640
G1 X29.02407 Y35.53068 E0.1053
G1 X31.74841 Y34.33505 E0.1071
G1 X34.6577 Y33.73014 E0.10697
G1 X37.60578 Y33.73806 E0.10613
G1 X40.62115 Y34.39441 E0.11109
G1 X43.23913 Y35.57533 E0.10339
G1 X44.75682 Y36.65863 E0.06713
G1 X83.42056 Y36.65863 E1.39185
G1 X84.79212 Y35.66746 E0.06092
G1 X87.60414 Y34.38192 E0.11131
G1 X90.54039 Y33.74345 E0.10817
G1 X93.51601 Y33.72867 E0.10712
G1 X96.32524 Y34.30037 E0.1032
G1 X98.9642 Y35.41915 E0.10318
G1 X101.35494 Y37.06897 E0.10457
G1 X103.36324 Y39.16623 E0.10453
G1 X105.23737 Y42.35139 E0.13304
G1 X106.10114 Y45.16425 E0.10593
G1 X106.37275 Y47.99979 E0.10254
G1 X106.04625 Y50.97456 E0.10773
G1 X105.12026 Y53.78598 E0.10656
G1 X103.73244 Y56.20672 E0.10045
G1 X103.37218 Y56.644 E0.0204
G1 X103.37218 Y95.23514 E1.38924
G1 X103.7581 Y95.70518 E0.02189
G1 X105.20664 Y98.28419 E0.10648
G1 X106.08551 Y101.09044 E0.10586
G1 X106.37262 Y104.03842 E0.10663
G1 X106.03403 Y107.0298 E0.10837
G1 X105.0815 Y109.87152 E0.10789
G1 X103.56136 Y112.44515 E0.1076
G1 X101.52509 Y114.65831 E0.10826
G1 X99.17981 Y116.33377 E0.10376
G1 X96.51541 Y117.51432 E0.10491
G1 X93.52061 Y118.14471 E0.11017
G1 X90.64459 Y118.14142 E0.10353
G1 X87.8511 Y117.57153 E0.10263
G1 X85.02185 Y116.34024 E0.11108
G1 X83.43572 Y115.21515 E0.07
G1 X44.76341 Y115.21515 E1.39216
G1 X43.12282 Y116.36576 E0.07214
G1 X40.3629 Y117.56244 E0.10829
G1 X37.62593 Y118.13357 E0.10065
G1 X34.83931 Y118.16056 E0.10032
G1 X31.76633 Y117.54445 E0.11282
G1 X29.10199 Y116.38712 E0.10457
G1 X26.67342 Y114.66763 E0.10712
G1 X24.62619 Y112.44327 E0.10883
G1 X23.0375 Y109.71835 E0.11355
G1 X22.13211 Y106.93116 E0.1055
G1 X21.8149 Y104.00527 E0.10595
G1 X22.10771 Y101.0595 E0.10657
G1 X22.98736 Y98.26922 E0.10532
G1 X24.45027 Y95.67498 E0.10721
G1 X24.81566 Y95.23042 E0.02072
G1 X24.81566 Y56.63669 E1.38933
G1 X24.41941 Y56.15597 E0.02243
G1 X23.11838 Y53.89815 E0.09381
G1 X22.17006 Y51.09854 E0.10641
G1 X21.81746 Y48.15159 E0.10684
G1 X22.09053 Y45.14338 E0.10874
G1 X23.03357 Y42.16449 E0.11248
G1 X24.58402 Y39.48635 E0.1114
G1 X26.60268 Y37.27491 E0.10779
M107
G1 X26.84873 Y37.51351 F3600000
M107
G1 F2640
G1 X29.18013 Y35.8404 E0.1033
G1 X31.83672 Y34.67045 E0.1045
G1 X34.71047 Y34.07292 E0.10566
G1 X37.58617 Y34.08433 E0.10352
G1 X40.49528 Y34.71759 E0.10718
G1 X43.08108 Y35.88399 E0.10212
G1 X44.64554 Y37.00498 E0.06928
G1 X83.533 Y37.00498 E1.3999
G1 X84.95211 Y35.97513 E0.06312
G1 X87.69634 Y34.71629 E0.10869
G1 X90.56034 Y34.0897 E0.10554
G1 X93.49989 Y34.0751 E0.10582
G1 X96.20633 Y34.62612 E0.09943
G1 X98.78206 Y35.71427 E0.10066
G1 X101.14365 Y37.34398 E0.10329
G1 X103.09898 Y39.391 E0.10191
G1 X104.91223 Y42.47245 E0.12871
G1 X105.76487 Y45.24905 E0.10456
G1 X106.02627 Y48.01471 E0.1
G1 X105.70401 Y50.91836 E0.10517
G1 X104.79694 Y53.66056 E0.10398
G1 X103.43961 Y56.02117 E0.09803
G1 X103.02583 Y56.51882 E0.0233
G1 X103.02583 Y95.36001 E1.39824
G1 X103.46395 Y95.88868 E0.02472
G1 X104.88166 Y98.40533 E0.10398
G1 X105.7426 Y101.14226 E0.10329
G1 X106.02641 Y104.01764 E0.10401
G1 X105.69195 Y106.97258 E0.10705
G1 X104.75906 Y109.74377 E0.10526
G1 X103.2726 Y112.25304 E0.10499
G1 X101.30919 Y114.3869 E0.10439
G1 X98.9929 Y116.04165 E0.10248
G1 X96.39202 Y117.19019 E0.10235
G1 X93.50261 Y117.79836 E0.10629
G1 X90.69673 Y117.79857 E0.10101
G1 X87.9382 Y117.23582 E0.10135
G1 X85.1769 Y116.03002 E0.10847
G1 X83.54645 Y114.8688 E0.07206
G1 X44.65372 Y114.8688 E1.40009
M73 P1 R66
G1 X42.96852 Y116.05518 E0.07419
G1 X40.27449 Y117.2271 E0.10576
G1 X37.60548 Y117.7874 E0.09818
G1 X34.85404 Y117.81405 E0.09905
G1 X31.85284 Y117.20857 E0.11022
G1 X29.25669 Y116.07673 E0.10195
G1 X26.91589 Y114.41964 E0.10324
G1 X24.89371 Y112.22251 E0.10749
G1 X23.36119 Y109.59373 E0.10954
G1 X22.46707 Y106.84125 E0.10418
G1 X22.16119 Y103.98622 E0.10337
G1 X22.45052 Y101.11198 E0.10399
G1 X23.3121 Y98.39096 E0.10275
G1 X24.74416 Y95.85891 E0.10472
G1 X25.16201 Y95.35542 E0.02355
G1 X25.16201 Y56.51156 E1.39833
G1 X24.71212 Y55.97023 E0.02534
G1 X23.42701 Y53.74004 E0.09266
G1 X22.50399 Y51.00485 E0.10392
G1 X22.16354 Y48.12891 E0.10425
G1 X22.43372 Y45.19366 E0.10611
G1 X23.34279 Y42.32165 E0.10844
G1 X24.87442 Y39.67601 E0.11005
G1 X26.80828 Y37.55782 E0.10325
M107
G1 X27.06406 Y37.79135 F3600000
M107
G1 F2640
G1 X27.09226 Y37.76046 E0.00151
G1 X29.36707 Y36.13253 E0.1007
G1 X31.95935 Y34.99486 E0.10191
G1 X34.72756 Y34.41932 E0.10178
G1 X37.53044 Y34.42666 E0.1009
G1 X40.40376 Y35.05212 E0.10586
G1 X42.92257 Y36.19242 E0.09953
G1 X44.53393 Y37.35133 E0.07145
G1 X83.6458 Y37.35133 E1.40798
M73 P1 R65
G1 X85.11254 Y36.28256 E0.06533
G1 X87.78898 Y35.05054 E0.10607
G1 X90.58074 Y34.43593 E0.10291
G1 X93.44838 Y34.41807 E0.10323
G1 X96.12024 Y34.96205 E0.09816
G1 X98.63067 Y36.02628 E0.09816
G1 X100.90574 Y37.5963 E0.09951
G1 X102.81068 Y39.58401 E0.09911
G1 X104.60343 Y42.63059 E0.12725
G1 X105.42177 Y45.29951 E0.10049
G1 X105.68005 Y47.9946 E0.09746
G1 X105.36939 Y50.8272 E0.10258
G1 X104.48789 Y53.50321 E0.10143
G1 X103.14695 Y55.83532 E0.09684
G1 X102.67948 Y56.39283 E0.02619
G1 X102.67948 Y95.48568 E1.4073
G1 X103.17016 Y96.07278 E0.02754
G1 X104.55685 Y98.5269 E0.10147
G1 X105.39975 Y101.19454 E0.10071
G1 X105.68017 Y103.99732 E0.1014
G1 X105.35771 Y106.87993 E0.10442
G1 X104.45158 Y109.58331 E0.10264
G1 X103.00539 Y112.03194 E0.10237
G1 X101.06644 Y114.1392 E0.10309
G1 X98.83647 Y115.73213 E0.09865
G1 X96.30257 Y116.8551 E0.09977
G1 X93.4845 Y117.45201 E0.1037
G1 X90.71426 Y117.45222 E0.09973
G1 X88.02573 Y116.90022 E0.0988
G1 X85.3324 Y115.72001 E0.10586
G1 X83.65754 Y114.52245 E0.07412
G1 X44.54371 Y114.52245 E1.40805
G1 X42.8138 Y115.7448 E0.07625
G1 X40.18597 Y116.89178 E0.10322
G1 X37.55116 Y117.44491 E0.09692
G1 X34.8691 Y117.46756 E0.09655
G1 X31.97409 Y116.88362 E0.10632
G1 X29.44222 Y115.78372 E0.09937
G1 X27.13092 Y114.14751 E0.10194
G1 X25.18349 Y112.03188 E0.10351
G1 X23.66979 Y109.4354 E0.10819
G1 X22.80215 Y106.75179 E0.10153
G1 X22.5075 Y103.96761 E0.10079
G1 X22.79327 Y101.1649 E0.10142
G1 X23.6367 Y98.51312 E0.10017
G1 X25.03767 Y96.04345 E0.10221
G1 X25.50836 Y95.48126 E0.02639
G1 X25.50836 Y56.3857 E1.4074
G1 X25.00449 Y55.78394 E0.02825
G1 X23.74954 Y53.61268 E0.09028
G1 X22.84574 Y50.94582 E0.10137
G1 X22.51012 Y48.1421 E0.10165
G1 X22.76957 Y45.28032 E0.10344
G1 X23.66728 Y42.4442 E0.10709
G1 X25.14277 Y39.89577 E0.10601
G1 X27.0236 Y37.83566 E0.10042
M107
G1 X27.27659 Y38.06667 F3600000
M107
G1 F2640
G1 X27.30886 Y38.03132 E0.00172
G1 X29.52314 Y36.44224 E0.09811
G1 X32.04767 Y35.33026 E0.09931
G1 X34.78033 Y34.7621 E0.10048
G1 X37.51083 Y34.77293 E0.0983
G1 X40.27756 Y35.37518 E0.10193
G1 X42.76393 Y36.50079 E0.09825
G1 X44.42198 Y37.69768 E0.07361
G1 X83.75896 Y37.69768 E1.41609
G1 X85.27344 Y36.58975 E0.06755
G1 X87.88174 Y35.38476 E0.10343
G1 X90.63728 Y34.77813 E0.10157
G1 X93.43223 Y34.7645 E0.10062
G1 X96.00135 Y35.28781 E0.09438
G1 X98.44853 Y36.3214 E0.09563
G1 X100.69448 Y37.87132 E0.09823
G1 X102.54648 Y39.80886 E0.09649
G1 X104.27825 Y42.75155 E0.12292
G1 X105.08547 Y45.3842 E0.09913
G1 X105.33356 Y48.00952 E0.09493
G1 X105.02715 Y50.771 E0.10002
G1 X104.16462 Y53.37766 E0.09884
G1 X102.85465 Y55.64888 E0.09439
G1 X102.33313 Y56.2661 E0.02909
G1 X102.33313 Y95.61212 E1.41641
G1 X102.87673 Y96.25747 E0.03038
G1 X104.23219 Y98.64889 E0.09896
G1 X105.05697 Y101.24728 E0.09814
G1 X105.33392 Y103.97712 E0.09878
G1 X105.01557 Y106.82305 E0.10309
G1 X104.12915 Y109.45553 E0.09999
G1 X102.71664 Y111.83982 E0.09976
G1 X100.85055 Y113.86778 E0.09921
G1 X98.64957 Y115.44 E0.09737
G1 X96.17908 Y116.53102 E0.09722
G1 X93.46605 Y117.10569 E0.09983
G1 X90.76661 Y117.1094 E0.09718
G1 X88.11337 Y116.56464 E0.09751
G1 X85.48835 Y115.41023 E0.10323
G1 X83.76897 Y114.1761 E0.07619
G1 X44.43336 Y114.1761 E1.41604
G1 X42.65865 Y115.43464 E0.07832
G1 X40.09703 Y116.55658 E0.10067
G1 X37.53092 Y117.09872 E0.09442
G1 X34.88426 Y117.12107 E0.09528
G1 X32.06092 Y116.54784 E0.10371
G1 X29.59693 Y115.47333 E0.09677
G1 X27.37337 Y113.8995 E0.09807
G1 X25.45101 Y111.81111 E0.10218
G1 X23.99361 Y109.31111 E0.10417
G1 X23.13726 Y106.66244 E0.10021
G1 X22.85384 Y103.94947 E0.0982
G1 X23.13595 Y101.21827 E0.09884
G1 X23.96112 Y98.63571 E0.0976
G1 X25.33082 Y96.22857 E0.0997
G1 X25.85471 Y95.60789 E0.02924
G1 X25.85471 Y56.25917 E1.41651
G1 X25.2967 Y55.59739 E0.03116
G1 X24.05802 Y53.45426 E0.08911
G1 X23.17966 Y50.8521 E0.09887
G1 X22.8562 Y48.11942 E0.09906
G1 X23.11276 Y45.33058 E0.10082
G1 X23.9765 Y42.60137 E0.10305
G1 X25.43316 Y40.08545 E0.10466
G1 X27.23613 Y38.11097 E0.09625
M107
G1 X27.49189 Y38.34452 F3600000
M107
G1 F2640
G1 X27.55237 Y38.27829 E0.00323
G1 X29.71006 Y36.73438 E0.09551
G1 X32.1703 Y35.65467 E0.09672
G1 X34.79743 Y35.1085 E0.0966
G1 X37.4551 Y35.11526 E0.09567
G1 X40.18593 Y35.70969 E0.10061
G1 X42.60483 Y36.80892 E0.09565
G1 X44.3097 Y38.04403 E0.07579
G1 X83.87248 Y38.04403 E1.42421
G1 X85.4348 Y36.8967 E0.06978
G1 X87.97495 Y35.71886 E0.10079
G1 X90.65779 Y35.12435 E0.09892
G1 X93.3807 Y35.10746 E0.09802
G1 X95.91523 Y35.62373 E0.09311
G1 X98.29715 Y36.63341 E0.09313
G1 X100.45666 Y38.12372 E0.09445
G1 X102.25822 Y40.0019 E0.09369
G1 X103.96943 Y42.90966 E0.12146
G1 X104.74237 Y45.43464 E0.09506
G1 X104.98734 Y47.98943 E0.09239
G1 X104.69252 Y50.67984 E0.09743
G1 X103.85572 Y53.22 E0.09628
G1 X102.56251 Y55.46218 E0.09318
G1 X101.98678 Y56.13867 E0.03198
G1 X101.98678 Y95.73925 E1.42558
G1 X102.58364 Y96.44272 E0.03321
G1 X103.90757 Y98.77099 E0.09642
G1 X104.72141 Y101.33491 E0.09684
G1 X104.98747 Y103.9934 E0.09618
G1 X104.68134 Y106.7304 E0.09914
G1 X103.82167 Y109.29509 E0.09737
G1 X102.44942 Y111.61872 E0.09715
G1 X100.60782 Y113.62007 E0.09791
G1 X98.49313 Y115.1305 E0.09355
G1 X96.08929 Y116.19603 E0.09466
G1 X93.44714 Y116.75939 E0.09725
G1 X90.81885 Y116.76655 E0.09462
G1 X88.20113 Y116.22908 E0.0962
G1 X85.64475 Y115.10068 E0.10059
G1 X83.88074 Y113.82976 E0.07827
G1 X44.3227 Y113.82976 E1.42404
G1 X42.50307 Y115.1247 E0.0804
G1 X40.00798 Y116.2214 E0.09811
G1 X37.47638 Y116.75625 E0.09315
G1 X34.89977 Y116.77461 E0.09276
G1 X32.18261 Y116.22305 E0.09981
G1 X29.75174 Y115.163 E0.09547
G1 X27.58864 Y113.62757 E0.09549
G1 X25.74078 Y111.62048 E0.09821
G1 X24.30228 Y109.15289 E0.10282
G1 X23.47251 Y106.57358 E0.09754
G1 X23.20021 Y103.9318 E0.0956
G1 X23.47856 Y101.27211 E0.09627
G1 X24.28539 Y98.75874 E0.09503
G1 X25.62363 Y96.41427 E0.09718
G1 X26.20106 Y95.73525 E0.03209
G1 X26.20106 Y56.13201 E1.42567
G1 X25.58858 Y55.4103 E0.03408
G1 X24.3805 Y53.32674 E0.0867
G1 X23.52141 Y50.79304 E0.09631
G1 X23.20278 Y48.13257 E0.09646
G1 X23.44862 Y45.41722 E0.09815
G1 X24.30099 Y42.72392 E0.1017
G1 X25.7015 Y40.30522 E0.10061
G1 X27.45143 Y38.38882 E0.09342
M107
G1 X27.70439 Y38.61986 F3600000
M107
G1 F2640
G1 X27.76897 Y38.54915 E0.00345
G1 X29.86615 Y37.04408 E0.09293
G1 X32.25862 Y35.99007 E0.09411
G1 X34.8502 Y35.45128 E0.09529
G1 X37.4355 Y35.46153 E0.09307
G1 X40.05938 Y36.03262 E0.09667
G1 X42.44559 Y37.117 E0.09435
G1 X44.19711 Y38.39038 E0.07795
G1 X83.98633 Y38.39038 E1.43237
G1 X85.59663 Y37.2034 E0.07202
G1 X88.06865 Y36.05282 E0.09816
G1 X90.67842 Y35.47058 E0.09626
G1 X93.36477 Y35.45392 E0.09671
G1 X95.82876 Y35.95955 E0.09055
G1 X98.11492 Y36.92847 E0.08939
G1 X100.24542 Y38.39876 E0.09319
G1 X101.99408 Y40.22683 E0.09107
G1 X103.64421 Y43.03052 E0.11711
G1 X104.40604 Y45.51921 E0.09369
G1 X104.64086 Y48.00435 E0.08986
G1 X104.35028 Y50.62364 E0.09487
G1 X103.5325 Y53.09431 E0.09369
G1 X102.2707 Y55.27493 E0.09069
G1 X101.64043 Y56.01059 E0.03487
G1 X101.64043 Y95.86704 E1.43479
G1 X102.2909 Y96.62854 E0.03605
G1 X103.58312 Y98.89355 E0.09387
G1 X104.37865 Y101.3878 E0.09425
G1 X104.64122 Y103.97322 E0.09355
G1 X104.33919 Y106.67351 E0.09781
G1 X103.49925 Y109.16729 E0.09473
G1 X102.16068 Y111.42659 E0.09454
G1 X100.39193 Y113.34865 E0.09403
G1 X98.30624 Y114.83836 E0.09227
G1 X95.96569 Y115.872 E0.09211
G1 X93.42786 Y116.41312 E0.09341
G1 X90.87096 Y116.42368 E0.09205
