; generated by PrusaSlicer 2.7.4+MacOS-arm64 on 2024-05-24 at 01:30:35 UTC


;
;

;
;

;
;

;
;

;
;
; 

; external perimeters extrusion width = 0.45mm
; perimeters extrusion width = 0.45mm
; infill extrusion width = 0.45mm
; solid infill extrusion width = 0.45mm
; top infill extrusion width = 0.40mm
; first layer extrusion width = 0.40mm

M73 P0 R28

EXCLUDE_OBJECT_DEFINE NAME='square_tower_stl' CENTER=90.000,100.000 POLYGON=[[63.545,67.245],[64.500,67.670],[65.346,68.284],[66.045,69.061],[66.579,70.000],[113.421,70.000],[113.955,69.061],[114.654,68.284],[115.500,67.670],[116.455,67.245],[117.477,67.027],[118.523,67.027],[119.545,67.245],[120.500,67.670],[121.346,68.284],[122.045,69.061],[122.568,69.966],[122.891,70.960],[123.000,72.000],[122.891,73.040],[122.568,74.034],[122.045,74.939],[121.346,75.716],[120.500,76.330],[120.000,76.553],[120.000,123.447],[120.500,123.670],[121.346,124.284],[122.045,125.061],[122.568,125.966],[122.891,126.960],[123.000,128.000],[122.891,129.040],[122.568,130.034],[122.045,130.939],[121.346,131.716],[120.500,132.330],[119.545,132.755],[118.523,132.973],[117.477,132.973],[116.455,132.755],[115.500,132.330],[114.654,131.716],[113.955,130.939],[113.421,130.000],[66.579,130.000],[66.045,130.939],[65.346,131.716],[64.500,132.330],[63.545,132.755],[62.523,132.973],[61.477,132.973],[60.455,132.755],[59.500,132.330],[58.654,131.716],[57.955,130.939],[57.432,130.034],[57.109,129.040],[57.000,128.000],[57.109,126.960],[57.432,125.966],[57.955,125.061],[58.654,124.284],[59.500,123.670],[60.000,123.447],[60.000,76.553],[59.500,76.330],[58.654,75.716],[57.955,74.939],[57.432,74.034],[57.109,73.040],[57.000,72.000],[57.109,70.960],[57.432,69.966],[57.955,69.061],[58.654,68.284],[59.500,67.670],[60.455,67.245],[61.477,67.027],[62.523,67.027]]

;TYPE:Custom
START_PRINT EXTRUDER=275 BED=104
G21 ; set units to millimeters
G90 ; use absolute coordinates
M83 ; use relative distances for extrusion
; Filament gcode
; FILAMENT_START MATERIAL=ASA COLOR=#333333 VENDOR=(Unknown)
M107
;LAYER_CHANGE
;Z:0.2
;HEIGHT:0.2
G10 ; retract
G1 Z.32 F360000
G1 X54.708 Y62.852
G1 Z.2
G11 ; unretract
M204 S750
;TYPE:Skirt/Brim
;WIDTH:0.4
G1 F3000
G1 X55.553 Y62.238 E.03101
G1 F2999.814
G1 X56.769 Y61.536 E.04169
G1 X57.724 Y61.111 E.03104
G1 X59.059 Y60.677 E.04168
G1 X60.081 Y60.46 E.03102
G1 X61.477 Y60.313 E.04168
G1 X118.523 Y60.313 E1.69377
G1 X119.918 Y60.46 E.04165
G1 X120.941 Y60.677 E.03105
G1 X122.276 Y61.111 E.04168
G1 X123.231 Y61.536 E.03104
G1 X124.446 Y62.238 E.04166
G1 X125.292 Y62.852 E.03104
G1 X126.335 Y63.792 E.04169
G1 X127.035 Y64.569 E.03105
G1 X127.86 Y65.704 E.04166
G1 X128.382 Y66.61 E.03105
G1 X128.953 Y67.892 E.04167
G1 X129.276 Y68.886 E.03103
G1 X129.568 Y70.258 E.04165
G1 X129.677 Y71.298 E.03105
G1 F3000
G1 X129.685 Y83.368 Z.2 E.35839
G1 F2999.987
G1 X129.688 Y88.327 Z.2 E.14724
G1 X129.691 Y93.286 Z.2 E.14724
G1 X129.695 Y98.246 Z.2 E.14724
G1 X129.698 Y103.205 Z.2 E.14724
G1 X129.701 Y108.164 Z.2 E.14724
G1 X129.704 Y113.123 Z.2 E.14724
G1 X129.708 Y118.082 Z.2 E.14724
G1 X129.711 Y123.041 Z.2 E.14724
G1 X129.714 Y128 Z.2 E.14724
G1 X129.568 Y129.742 E.0519
G1 X129.276 Y131.114 E.04165
G1 X128.953 Y132.108 E.03103
G1 X128.382 Y133.391 E.0417
G1 X127.86 Y134.296 E.03102
G1 X127.035 Y135.431 E.04166
G1 X126.335 Y136.208 E.03105
G1 X125.292 Y137.148 E.04169
G1 X124.446 Y137.762 E.03104
G1 X123.231 Y138.464 E.04166
G1 X122.276 Y138.889 E.03104
G1 X120.941 Y139.323 E.04168
G1 X119.918 Y139.54 E.03105
G1 X118.523 Y139.687 E.04165
G1 X61.477 Y139.687 E1.69377
G1 X60.082 Y139.54 E.04165
G1 X59.059 Y139.323 E.03105
G1 X57.724 Y138.889 E.04168
G1 X56.769 Y138.464 E.03104
G1 X55.554 Y137.762 E.04166
G1 X54.708 Y137.148 E.03104
G1 X53.665 Y136.208 E.04169
G1 X52.965 Y135.432 E.03103
G1 X52.14 Y134.296 E.04169
G1 X51.618 Y133.391 E.03102
G1 X51.047 Y132.109 E.04167
G1 X50.724 Y131.114 E.03106
G1 X50.432 Y129.741 E.04168
G1 X50.286 Y128 E.05187
G1 X50.286 Y123.041 Z.2 E.14723
G1 X50.286 Y118.083 Z.2 E.14723
G1 X50.286 Y113.124 Z.2 E.14723
G1 X50.286 Y108.165 Z.2 E.14723
G1 X50.286 Y103.206 Z.2 E.14723
G1 X50.286 Y98.248 Z.2 E.14723
G1 X50.286 Y93.289 Z.2 E.14723
G1 X50.286 Y88.33 Z.2 E.14723
G1 X50.286 Y72 Z.2 E.48487
G1 X50.432 Y70.259 E.05187
G1 X50.724 Y68.886 E.04168
G1 X51.047 Y67.891 E.03106
G1 X51.618 Y66.609 E.04167
G1 X52.14 Y65.704 E.03102
G1 X52.965 Y64.568 E.04169
G1 X53.665 Y63.792 E.03103
G1 F2994.204
G1 X54.663 Y62.893 E.03988
M204 S1500
G1 X54.663 Y62.893 F360000
G1 X54.901 Y63.157
M204 S750
G1 F3000
G1 X54.918 Y63.141 E.00069
G1 F2994.309
G1 X55.763 Y62.527 E.03101
G1 F2999.788
G1 X56.914 Y61.862 E.03947
G1 X57.869 Y61.437 E.03104
G1 X59.133 Y61.027 E.03945
G1 X60.156 Y60.809 E.03106
G1 X61.477 Y60.67 E.03944
G1 X118.523 Y60.67 E1.69377
G1 X119.844 Y60.809 E.03944
G1 X120.867 Y61.027 E.03106
G1 X122.131 Y61.437 E.03945
G1 X123.086 Y61.862 E.03104
G1 X124.236 Y62.527 E.03944
G1 X125.082 Y63.141 E.03104
G1 X126.07 Y64.031 E.03948
G1 X126.769 Y64.807 E.03101
G1 X127.551 Y65.883 E.03949
G1 X128.073 Y66.788 E.03102
G1 X128.614 Y68.002 E.03946
G1 X128.937 Y68.996 E.03103
G1 X129.213 Y70.296 E.03946
G1 X129.322 Y71.335 E.03102
G1 F3000
G1 X129.329 Y83.369 Z.2 E.3573
G1 F2999.986
G1 X129.333 Y88.328 Z.2 E.14724
G1 X129.336 Y93.287 Z.2 E.14724
G1 X129.339 Y98.246 Z.2 E.14724
G1 X129.342 Y103.205 Z.2 E.14724
G1 X129.345 Y108.164 Z.2 E.14724
G1 X129.348 Y113.123 Z.2 E.14724
G1 X129.351 Y118.082 Z.2 E.14724
G1 X129.354 Y123.041 Z.2 E.14724
G1 X129.357 Y128 Z.2 E.14724
G1 X129.213 Y129.704 E.05077
G1 X128.937 Y131.004 E.03946
G1 X128.614 Y131.998 E.03103
G1 X128.073 Y133.212 E.03946
G1 X127.551 Y134.117 E.03102
G1 X126.769 Y135.193 E.03949
G1 X126.07 Y135.969 E.03101
G1 X125.082 Y136.859 E.03948
G1 X124.236 Y137.473 E.03104
G1 X123.086 Y138.137 E.03943
G1 X122.131 Y138.563 E.03105
G1 X120.867 Y138.974 E.03946
G1 X119.844 Y139.191 E.03105
G1 X118.523 Y139.33 E.03944
G1 X61.477 Y139.33 E1.69377
G1 X60.156 Y139.191 E.03944
G1 X59.133 Y138.973 E.03106
G1 X57.869 Y138.563 E.03945
G1 X56.914 Y138.138 E.03104
G1 X55.763 Y137.473 E.03947
G1 X54.918 Y136.859 E.03101
G1 X53.93 Y135.969 E.03948
G1 X53.231 Y135.193 E.03101
G1 X52.45 Y134.118 E.03945
G1 X51.927 Y133.212 E.03106
G1 X51.386 Y131.998 E.03946
G1 X51.063 Y131.004 E.03103
G1 X50.787 Y129.704 E.03946
G1 X50.643 Y128 E.05077
G1 X50.643 Y116.627 Z.2 E.33767
G1 X50.643 Y111.669 Z.2 E.14723
G1 X50.643 Y106.71 Z.2 E.14723
G1 X50.643 Y101.751 Z.2 E.14723
G1 X50.643 Y96.793 Z.2 E.14723
G1 X50.643 Y91.834 Z.2 E.14723
G1 X50.643 Y86.876 Z.2 E.14723
G1 X50.643 Y81.917 Z.2 E.14723
G1 X50.643 Y76.959 Z.2 E.14723
G1 X50.643 Y72 Z.2 E.14723
G1 X50.787 Y70.296 E.05077
G1 X51.063 Y68.996 E.03946
G1 X51.386 Y68.002 E.03103
G1 X51.927 Y66.788 E.03946
G1 X52.45 Y65.882 E.03106
G1 X53.231 Y64.807 E.03945
G1 X53.93 Y64.031 E.03101
G1 X54.856 Y63.197 E.037
M204 S1500
G10 ; retract
G1 X54.856 Y63.197 Z.32 F360000
EXCLUDE_OBJECT_START NAME='square_tower_stl'
G1 X119.906 Y123.624
G1 Z.2
G11 ; unretract
M204 S750
;TYPE:External perimeter
;WIDTH:0.399999
G1 F2999.939
G1 X120.399 Y123.844 E.01603
G1 X121.211 Y124.434 E.0298
G1 X121.882 Y125.179 E.02977
G1 X122.384 Y126.048 E.0298
G1 X122.694 Y127.002 E.02978
G1 F2998.745
G1 X122.799 Y128 E.0298
G1 X122.751 Y128.454 E.01355
G1 F2999.529
G1 X122.694 Y128.998 E.01624
G1 X122.384 Y129.952 E.02978
G1 X121.882 Y130.821 E.0298
G1 X121.211 Y131.566 E.02977
G1 X120.399 Y132.156 E.0298
G1 X119.483 Y132.564 E.02977
G1 X118.502 Y132.773 E.02978
G1 X117.498 Y132.773 E.02981
G1 X116.517 Y132.564 E.02978
G1 X115.601 Y132.156 E.02977
G1 X114.789 Y131.566 E.0298
G1 X114.118 Y130.821 E.02977
G1 X113.57 Y129.863 E.03277
G1 X113.434 Y129.8 E.00445
G1 F2998.842
G1 X108.747 Y129.8 Z.2 E.13916
G1 F2997.151
G1 X104.06 Y129.8 Z.2 E.13916
G1 F2995.46
G1 X99.374 Y129.8 Z.2 E.13916
G1 F2993.77
G1 X94.687 Y129.8 Z.2 E.13916
G1 F2992.079
G1 X90 Y129.8 Z.2 E.13916
G1 F2990.388
G1 X85.313 Y129.8 Z.2 E.13916
G1 F2988.697
G1 X80.626 Y129.8 Z.2 E.13916
G1 F2987.006
G1 X75.94 Y129.8 Z.2 E.13916
G1 F2985.315
G1 X71.253 Y129.8 Z.2 E.13916
G1 F2982.779
G1 X66.566 Y129.8 Z.2 E.13916
G1 X66.535 Y129.803 E.00092
G1 F2986.643
G1 X66.411 Y129.89 E.0045
G1 F2996.62
G1 X65.882 Y130.821 E.03179
G1 F2999.716
G1 X65.211 Y131.566 E.02977
G1 X64.399 Y132.156 E.0298
G1 X63.483 Y132.564 E.02977
G1 X62.502 Y132.773 E.02978
G1 X61.498 Y132.773 E.02981
G1 X60.517 Y132.564 E.02978
G1 X59.601 Y132.156 E.02977
G1 X58.789 Y131.566 E.0298
G1 X58.118 Y130.821 E.02977
G1 X57.616 Y129.952 E.0298
G1 X57.306 Y128.998 E.02978
G1 X57.201 Y128 E.0298
G1 X57.306 Y127.002 E.0298
G1 X57.616 Y126.048 E.02978
G1 X58.118 Y125.179 E.0298
G1 X58.789 Y124.434 E.02977
G1 X59.601 Y123.844 E.0298
G1 F2998.853
G1 X60.128 Y123.604 E.01719
G1 X60.2 Y123.461 E.00475
G1 F2996.966
G1 X60.2 Y118.769 Z.2 E.13932
G1 X60.2 Y114.077 Z.2 E.13932
G1 F2995.741
G1 X60.2 Y109.384 Z.2 E.13932
G1 X60.2 Y104.692 Z.2 E.13932
G1 F2994.517
G1 X60.2 Y100 Z.2 E.13932
G1 F2993.905
G1 X60.2 Y95.308 Z.2 E.13932
G1 X60.2 Y90.616 Z.2 E.13932
G1 F2992.681
G1 X60.2 Y85.923 Z.2 E.13932
G1 X60.2 Y81.231 Z.2 E.13932
G1 F2991.151
G1 X60.2 Y76.539 Z.2 E.13932
G1 X60.191 Y76.484 E.00165
G1 F2995.298
G1 X60.094 Y76.376 E.00431
G1 F2999.925
G1 X59.601 Y76.156 E.01603
G1 X58.789 Y75.566 E.0298
G1 X58.118 Y74.821 E.02977
G1 X57.616 Y73.952 E.0298
G1 X57.306 Y72.998 E.02978
G1 X57.201 Y72 E.0298
G1 X57.306 Y71.002 E.0298
G1 X57.616 Y70.048 E.02978
G1 X58.118 Y69.179 E.0298
G1 X58.789 Y68.434 E.02977
G1 X59.601 Y67.844 E.0298
G1 X60.517 Y67.436 E.02977
G1 X61.498 Y67.227 E.02978
G1 X62.502 Y67.227 E.02981
G1 X63.483 Y67.436 E.02978
G1 X64.399 Y67.844 E.02977
G1 X65.211 Y68.434 E.0298
G1 X65.882 Y69.179 E.02977
G1 X66.43 Y70.137 E.03277
G1 X66.566 Y70.2 E.00445
G1 F2998.899
G1 X71.253 Y70.2 Z.2 E.13916
G1 F2997.195
G1 X75.94 Y70.2 Z.2 E.13916
G1 F2995.491
G1 X80.626 Y70.2 Z.2 E.13916
G1 F2993.787
G1 X85.313 Y70.2 Z.2 E.13916
G1 F2992.083
G1 X90 Y70.2 Z.2 E.13916
G1 F2990.378
G1 X94.687 Y70.2 Z.2 E.13916
G1 F2988.674
G1 X99.374 Y70.2 Z.2 E.13916
G1 F2986.97
G1 X104.06 Y70.2 Z.2 E.13916
G1 F2985.266
G1 X108.747 Y70.2 Z.2 E.13916
G1 F2982.709
G1 X113.434 Y70.2 Z.2 E.13916
G1 X113.465 Y70.197 E.00092
G1 F2986.486
G1 X113.589 Y70.11 E.0045
G1 F2996.584
G1 X114.118 Y69.179 E.03179
G1 F2999.746
G1 X114.789 Y68.434 E.02977
G1 X115.601 Y67.844 E.0298
G1 X116.517 Y67.436 E.02977
G1 X117.498 Y67.227 E.02978
G1 X118.502 Y67.227 E.02981
G1 X119.483 Y67.436 E.02978
G1 X120.399 Y67.844 E.02977
G1 X121.211 Y68.434 E.0298
G1 X121.882 Y69.179 E.02977
G1 X122.384 Y70.048 E.0298
G1 X122.694 Y71.002 E.02978
G1 X122.799 Y72 E.0298
M73 P1 R28
G1 X122.694 Y72.998 E.0298
G1 X122.384 Y73.952 E.02978
G1 X121.882 Y74.821 E.0298
G1 X121.211 Y75.566 E.02977
G1 X120.399 Y76.156 E.0298
G1 F2998.878
G1 X119.872 Y76.396 E.01719
G1 X119.8 Y76.539 E.00475
G1 F2996.998
G1 X119.8 Y81.231 Z.2 E.13932
G1 X119.8 Y85.923 Z.2 E.13932
G1 F2995.774
G1 X119.8 Y90.616 Z.2 E.13932
G1 X119.8 Y95.308 Z.2 E.13932
G1 F2994.55
G1 X119.8 Y100 Z.2 E.13932
G1 F2993.938
G1 X119.8 Y104.692 Z.2 E.13932
G1 X119.8 Y109.384 Z.2 E.13932
G1 F2992.714
G1 X119.8 Y114.077 Z.2 E.13932
G1 X119.8 Y118.769 Z.2 E.13932
G1 F2991.184
G1 X119.8 Y123.461 Z.2 E.13932
G1 X119.809 Y123.516 E.00165
G1 X119.866 Y123.58 E.00254
M204 S1500
G10 ; retract
G1 X119.866 Y123.58 Z.32 F360000
G1 X119.719 Y123.909
G1 X115.536 Y125.536
G1 X91.536 Y126.036
G1 X88.464 Y126.036
G1 X64.464 Y125.536
G1 X63.964 Y97.536
G1 X63.964 Y94.464
G1 X64.464 Y74.464
G1 X64.862 Y74.464
G1 X64.862 Y74.843
G1 Z.2
G11 ; unretract
M204 S750
G1 F3000
G1 X64.979 Y74.8 E.0037
G1 F2999.407
G1 X69.743 Y74.8 Z.2 E.14146
G1 X74.507 Y74.8 Z.2 E.14145
G1 X79.272 Y74.8 Z.2 E.14146
G1 X84.036 Y74.8 Z.2 E.14145
G1 X88.8 Y74.8 Z.2 E.14146
G1 X88.8 Y74.479 E.00953
G1 X88.92 Y74.31 E.00615
G1 F2994.04
G1 X88.979 Y74.3 E.00178
G1 F2999.938
G1 X91.021 Y74.3 E.06063
G1 X91.129 Y74.336 E.00338
G1 X91.2 Y74.479 E.00474
G1 X91.2 Y74.8 E.00953
G1 X95.964 Y74.8 Z.2 E.14146
G1 X100.728 Y74.8 Z.2 E.14145
G1 X105.493 Y74.8 Z.2 E.14146
G1 X110.257 Y74.8 Z.2 E.14145
G1 X115.021 Y74.8 Z.2 E.14146
G1 X115.164 Y74.871 E.00474
G1 X115.2 Y74.979 E.00338
G1 X115.2 Y79.743 Z.2 E.14146
G1 X115.2 Y84.507 Z.2 E.14145
G1 X115.2 Y89.272 Z.2 E.14146
G1 X115.2 Y94.036 Z.2 E.14145
G1 X115.2 Y98.8 Z.2 E.14146
G1 X115.521 Y98.8 E.00953
G1 X115.69 Y98.92 E.00615
G1 F2994.04
G1 X115.7 Y98.979 E.00178
G1 F2999.938
G1 X115.7 Y101.021 E.06063
G1 X115.664 Y101.129 E.00338
G1 X115.521 Y101.2 E.00474
G1 X115.2 Y101.2 E.00953
G1 X115.2 Y105.964 Z.2 E.14146
G1 X115.2 Y110.728 Z.2 E.14145
G1 X115.2 Y115.493 Z.2 E.14146
G1 X115.2 Y120.257 Z.2 E.14145
G1 X115.2 Y125.021 Z.2 E.14146
G1 X115.131 Y125.162 E.00466
G1 F2995.506
G1 X115.021 Y125.2 E.00346
G1 F2999.936
G1 X110.257 Y125.2 Z.2 E.14146
G1 X105.493 Y125.2 Z.2 E.14145
G1 X100.728 Y125.2 Z.2 E.14146
G1 X95.964 Y125.2 Z.2 E.14145
G1 X91.2 Y125.2 Z.2 E.14146
G1 X91.2 Y125.521 E.00953
G1 X91.08 Y125.69 E.00615
G1 F2994.04
G1 X91.021 Y125.7 E.00178
G1 F2999.938
G1 X88.979 Y125.7 E.06063
G1 X88.871 Y125.664 E.00338
G1 X88.8 Y125.521 E.00474
G1 X88.8 Y125.2 E.00953
G1 X84.036 Y125.2 Z.2 E.14146
G1 X79.272 Y125.2 Z.2 E.14145
G1 X74.507 Y125.2 Z.2 E.14146
G1 X69.743 Y125.2 Z.2 E.14145
G1 X64.979 Y125.2 Z.2 E.14146
G1 X64.836 Y125.129 E.00474
G1 X64.8 Y125.021 E.00338
G1 X64.8 Y120.384 Z.2 E.13767
G1 X64.8 Y115.747 Z.2 E.13767
G1 X64.8 Y111.111 Z.2 E.13767
G1 X64.8 Y106.474 Z.2 E.13767
G1 X64.8 Y101.837 Z.2 E.13767
G1 X64.8 Y97.2 Z.2 E.13767
G1 X64.479 Y97.2 E.00953
G1 X64.31 Y97.08 E.00615
G1 F2994.04
G1 X64.3 Y97.021 E.00178
G1 F2999.938
G1 X64.3 Y94.979 E.06063
G1 X64.336 Y94.871 E.00338
G1 X64.479 Y94.8 E.00474
G1 X64.8 Y94.8 E.00953
G1 X64.8 Y89.845 Z.2 E.14713
G1 X64.8 Y84.889 Z.2 E.14713
G1 X64.8 Y79.934 Z.2 E.14713
G1 F3000
G1 X64.8 Y74.979 Z.2 E.14713
G1 X64.837 Y74.897 E.00267
M204 S1500
G10 ; retract
G1 X64.837 Y74.897 Z.32 F360000
G1 X64.464 Y74.897
G1 X64.464 Y74.464
G1 X70.558 Y74.464
G1 X122.213 Y70.608
G1 X122.43 Y70.538
G1 Z.2
G11 ; unretract
M204 S750
;TYPE:Solid infill
;WIDTH:0.400183
G1 F3000
G1 X119.733 Y67.841 E.1133
G1 F2999.614
G1 X119.4 Y67.692 E.01084
G1 X118.993 Y67.606 E.01236
G1 X122.423 Y71.036 E.1441
G1 X122.488 Y71.606 E.01704
G1 X120.432 Y69.551 Z.2 E.08636
G1 X118.377 Y67.495 Z.2 E.08636
G1 X117.872 Y67.495 E.015
G1 X120.193 Y69.816 Z.2 E.09753
G1 X122.515 Y72.138 Z.2 E.09753
G1 X122.467 Y72.595 E.01365
G1 X119.931 Y70.059 Z.2 E.10654
G1 F3000
G1 X117.395 Y67.523 Z.2 E.10654
G1 F2999.541
G1 X116.978 Y67.612 E.01267
G1 X119.689 Y70.323 Z.2 E.11391
G1 X122.401 Y73.034 Z.2 E.1139
G1 X122.277 Y73.415 E.0119
G1 X119.423 Y70.561 Z.2 E.11991
G1 F3000
G1 X116.568 Y67.707 Z.2 E.11991
G1 F2999.881
G1 X116.218 Y67.862 E.01137
G1 X122.153 Y73.797 E.24934
G1 F2996.28
G1 X122.138 Y73.842 E.00141
G1 F2999.098
G1 X121.975 Y74.124 E.00968
G1 X118.922 Y71.071 Z.2 E.12826
G1 X115.869 Y68.018 Z.2 E.12826
G1 F2998.987
G1 X115.735 Y68.077 E.00435
G1 X115.554 Y68.209 E.00665
G1 X118.672 Y71.327 Z.2 E.13099
G1 F2999.752
G1 X121.79 Y74.445 Z.2 E.13099
G1 X121.665 Y74.662 E.00744
G1 X121.588 Y74.748 E.00343
G1 X115.262 Y68.421 E.26579
G1 X114.969 Y68.634 E.01076
G1 X118.159 Y71.824 Z.2 E.134
G1 X121.348 Y75.013 Z.2 E.134
G1 X121.109 Y75.279 E.01062
G1 X117.92 Y72.09 Z.2 E.134
G1 F2998.935
G1 X114.73 Y68.9 Z.2 E.134
G1 X114.49 Y69.166 E.01064
G1 F2999.204
G1 X117.662 Y72.338 Z.2 E.13325
G1 F3000
G1 X120.834 Y75.509 Z.2 E.13325
G1 F2999.862
G1 X120.541 Y75.722 E.01076
G1 X117.406 Y72.587 Z.2 E.13173
G1 X114.27 Y69.451 Z.2 E.13173
G1 X114.086 Y69.772 E.01099
G1 X117.166 Y72.852 Z.2 E.12939
G1 F2998.399
G1 X120.246 Y75.932 Z.2 E.12939
G1 X119.9 Y76.092 E.01132
G1 X116.9 Y73.092 Z.2 E.12602
G1 F2999.762
G1 X113.901 Y70.092 Z.2 E.12603
G1 X113.776 Y70.309 E.00744
G1 F2997.872
G1 X113.691 Y70.387 E.00343
G1 F2998.666
G1 X116.647 Y73.344 Z.2 E.1242
G1 F2994.664
G1 X119.603 Y76.3 Z.2 E.1242
G1 X119.553 Y76.402 E.00337
G1 F2998.003
G1 X119.532 Y76.532 E.00391
G1 F2999.392
G1 X119.532 Y76.734 E.006
G1 X116.399 Y73.601 Z.2 E.13162
