; generated by SuperSlicer 2.5.59.9 on 2024-05-08 at 19:20:47 UTC


;
;

;
;

;
;

;
;

;
;
; 

; external perimeters extrusion width = 0.56mm
; perimeters extrusion width = 0.56mm
; infill extrusion width = 0.56mm
; solid infill extrusion width = 0.56mm
; top infill extrusion width = 0.56mm
; first layer extrusion width = 0.56mm

; object:{"name":"STH-36_basic_geometry_mounting_plate_overmold_strain (1)","id":"STH-36_basic_geometry_mounting_plate_overmold_strain (1).stl id:0 copy 0","object_center":[87.500000,110.000000,0.000000],"boundingbox_center":[87.500000,110.000000,2.931967],"boundingbox_size":[56.282238,51.176548,5.863934]}
EXCLUDE_OBJECT_DEFINE NAME=STH_36_basic_geometry_mounting_plate_overmold_strain_1_stl_id_0_copy_0 CENTER=87.500000,110.000000 POLYGON=[[59.36,107.48],[59.36,107.37],[59.37,107.26],[59.38,107.14],[59.40,107.03],[59.42,106.92],[59.44,106.81],[59.64,106.00],[59.67,105.89],[59.71,105.78],[59.75,105.67],[59.76,105.65],[59.77,105.61],[59.78,105.59],[59.79,105.57],[59.81,105.53],[59.82,105.51],[59.83,105.48],[59.84,105.47],[59.86,105.43],[59.88,105.38],[59.89,105.36],[59.91,105.33],[59.94,105.28],[59.95,105.26],[59.97,105.23],[60.00,105.18],[60.01,105.17],[60.03,105.13],[60.06,105.09],[60.07,105.07],[60.09,105.04],[60.13,105.00],[60.14,104.98],[60.16,104.95],[60.20,104.91],[60.21,104.89],[60.23,104.87],[60.27,104.83],[60.29,104.81],[60.30,104.79],[60.33,104.76],[60.36,104.73],[60.37,104.72],[60.40,104.69],[60.43,104.66],[60.45,104.65],[60.45,104.65],[60.46,104.63],[60.50,104.60],[60.51,104.59],[60.52,104.58],[60.53,104.57],[60.55,104.55],[60.56,104.54],[60.58,104.53],[60.59,104.52],[60.60,104.51],[60.61,104.51],[60.62,104.50],[60.69,104.44],[61.61,103.72],[61.70,103.66],[61.80,103.59],[61.89,103.53],[61.99,103.47],[95.64,84.89],[95.78,84.81],[95.92,84.74],[96.07,84.68],[96.22,84.62],[96.37,84.57],[96.52,84.53],[96.67,84.49],[96.83,84.46],[96.99,84.44],[97.15,84.42],[97.31,84.41],[97.44,84.41],[108.23,84.41],[108.29,84.41],[108.35,84.42],[108.41,84.42],[108.47,84.43],[108.53,84.44],[108.58,84.46],[108.64,84.47],[108.70,84.49],[108.76,84.51],[108.81,84.54],[108.87,84.56],[108.92,84.59],[108.97,84.62],[109.02,84.66],[109.07,84.69],[109.12,84.73],[109.17,84.77],[109.21,84.81],[109.25,84.85],[109.30,84.90],[109.33,84.94],[109.37,84.99],[109.41,85.04],[109.44,85.09],[109.47,85.14],[109.50,85.20],[109.52,85.25],[109.55,85.31],[109.57,85.36],[109.59,85.42],[109.61,85.48],[114.97,105.12],[115.17,105.88],[115.33,106.65],[115.46,107.43],[115.55,108.21],[115.61,108.99],[115.64,109.78],[115.64,110.22],[115.61,111.01],[115.55,111.79],[115.46,112.57],[115.33,113.35],[115.17,114.12],[114.97,114.88],[109.60,134.53],[109.59,134.59],[109.57,134.65],[109.54,134.71],[109.52,134.76],[109.49,134.82],[109.46,134.88],[109.43,134.93],[109.39,134.98],[109.36,135.03],[109.32,135.08],[109.28,135.13],[109.23,135.17],[109.19,135.21],[109.14,135.25],[109.09,135.29],[109.04,135.33],[108.99,135.36],[108.94,135.40],[108.88,135.43],[108.83,135.45],[108.77,135.48],[108.71,135.50],[108.65,135.52],[108.59,135.54],[108.53,135.55],[108.47,135.57],[108.41,135.58],[108.35,135.58],[108.29,135.59],[108.23,135.59],[97.44,135.59],[97.31,135.59],[97.15,135.58],[96.99,135.56],[96.83,135.54],[96.67,135.51],[96.52,135.47],[96.37,135.43],[96.22,135.38],[96.07,135.32],[95.92,135.26],[95.78,135.19],[95.64,135.11],[61.99,116.81],[61.89,116.75],[61.80,116.69],[61.70,116.63],[61.61,116.56],[60.62,115.78],[60.61,115.77],[60.60,115.76],[60.58,115.76],[60.57,115.75],[60.56,115.74],[60.55,115.72],[60.54,115.72],[60.52,115.70],[60.49,115.68],[60.46,115.65],[60.45,115.64],[60.43,115.62],[60.40,115.59],[60.37,115.56],[60.37,115.56],[60.36,115.56],[60.33,115.52],[60.30,115.49],[60.29,115.48],[60.29,115.48],[60.26,115.45],[60.23,115.41],[60.22,115.39],[60.19,115.37],[60.16,115.33],[60.14,115.31],[60.12,115.28],[60.09,115.24],[60.07,115.21],[60.06,115.19],[60.03,115.15],[60.01,115.12],[60.00,115.10],[59.97,115.05],[59.95,115.02],[59.94,115.00],[59.91,114.95],[59.89,114.92],[59.88,114.90],[59.85,114.85],[59.84,114.82],[59.83,114.80],[59.81,114.75],[59.79,114.72],[59.78,114.70],[59.77,114.67],[59.76,114.64],[59.76,114.63],[59.75,114.61],[59.71,114.50],[59.67,114.39],[59.64,114.28],[59.44,113.47],[59.42,113.36],[59.40,113.25],[59.38,113.14],[59.37,113.03],[59.36,112.91],[59.36,112.80],[59.36,107.48]]
; plater:{"center":[87.500000,110.000000,0.000000],"boundingbox_center":[87.500000,110.000000,2.931967],"boundingbox_size":[56.282238,51.176548,5.863934]}

M73 P0 R16
M107
;TYPE:Custom
CALCULATE_PA MATERIAL=ASA BOWDEN_LENGTH=6 LAYER_HEIGHT=0.25 NOZZLE_SIZE=0.4 PRINT_SPEED=95


START_PRINT EXTRUDER=260 BED=105

G21 ; set units to millimeters
G90 ; use absolute coordinates
M83 ; use relative distances for extrusion
ACTIVATE_EXTRUDER EXTRUDER=extruder
; Filament gcode
M104 S260 T0 ; set temperature
M109 S260 T0 ; set temperature and wait for it to be reached
M190 S105 ; set bed temperature and wait for it to be reached
;LAYER_CHANGE
;Z:0.24
;HEIGHT:0.24
;BEFORE_LAYER_CHANGE
G92 E0.0

G1 E-0.4 F3000
M73 P2 R16
G1 Z0.24 F3600000
;AFTER_LAYER_CHANGE
;0.24




CALCULATE_PA MATERIAL=ASA BOWDEN_LENGTH=6.0 LAYER_HEIGHT=0.2 NOZZLE_SIZE=0.4 PRINT_SPEED=95


G92 E0
G1 Z0.4
; printing object STH-36_basic_geometry_mounting_plate_overmold_strain (1).stl id:0 copy 0
EXCLUDE_OBJECT_START NAME=STH_36_basic_geometry_mounting_plate_overmold_strain_1_stl_id_0_copy_0
G1 X108.27129 Y97.67397
G1 Z0.24
G1 E0.4 F3000
;TYPE:Internal perimeter
;WIDTH:0.559999
M106 S2.55
G1 X108.09427 Y97.45283 E0.01437
G1 X107.89838 Y96.97479 E0.02621
G1 X107.84599 Y96.54803 E0.02182
G1 X107.83503 Y86.21855 E0.5241
G1 X100.58018 Y86.21941 E0.3681
G1 X100.81532 Y86.67182 E0.02587
G1 X101.01656 Y87.32266 E0.03456
G1 X101.09761 Y88.06888 E0.03808
G1 X101.03448 Y88.74726 E0.03457
G1 X100.80631 Y89.50571 E0.04019
G1 X100.44331 Y90.16628 E0.03824
G1 X100.03325 Y90.65736 E0.03246
G1 X99.65233 Y90.99494 E0.02582
G1 X99.16715 Y91.29959 E0.02907
G1 X98.53976 Y91.5651 E0.03457
G1 X97.80088 Y91.71423 E0.03824
G1 X97.41378 Y91.73154 E0.01966
G1 X96.85502 Y91.68876 E0.02843
G1 X96.34557 Y91.56382 E0.02661
G1 X95.75458 Y91.31881 E0.03246
G1 X95.12916 Y90.9036 E0.03809
G1 X94.64378 Y90.42557 E0.03457
G1 X94.2233 Y89.80011 E0.03824
G1 X94.14243 Y89.62714 E0.00969
G1 X93.10026 Y91.07634 E0.09057
G1 X91.38217 Y93.26102 E0.14102
G1 X89.57051 Y95.36886 E0.14102
G1 X87.66882 Y97.39575 E0.14102
G1 X83.46452 Y101.51725 E0.29872
G1 X82.94256 Y101.99512 E0.03591
G1 X81.99168 Y102.75541 E0.06177
G1 X81.09982 Y103.33335 E0.05392
G1 X80.03566 Y103.8682 E0.06043
G1 X79.54239 Y104.09381 E0.02752
G1 X78.30348 Y104.5131 E0.06636
G1 X77.50022 Y104.70148 E0.04186
G1 X76.16532 Y104.90259 E0.06849
G1 X75.14614 Y104.94674 E0.05176
G1 X63.30391 Y104.94907 E0.60085
G1 X63.03121 Y104.99717 E0.01405
G1 X62.65865 Y105.20803 E0.02172
G1 X61.75762 Y105.90514 E0.0578
G1 X61.45877 Y106.2725 E0.02403
G1 X61.25328 Y107.046 E0.04061
G1 X61.16449 Y107.55203 E0.02607
G1 X61.17332 Y112.89632 E0.27116
G1 X61.37021 Y113.7326 E0.04359
G1 X61.51201 Y114.09938 E0.01995
G1 X61.8104 Y114.41271 E0.02195
G1 X62.70098 Y115.11395 E0.05751
G1 X63.08518 Y115.29516 E0.02155
G1 X63.45802 Y115.33577 E0.01903
G1 X75.43495 Y115.33577 E0.60768
G1 X76.0947 Y115.36296 E0.0335
G1 X76.99993 Y115.46012 E0.04619
G1 X77.85793 Y115.5915 E0.04404
G1 X78.67742 Y115.79882 E0.04289
G1 X79.92327 Y116.22463 E0.0668
G1 X81.40306 Y116.96233 E0.08389
G1 X82.49001 Y117.68383 E0.06619
G1 X83.13863 Y118.21045 E0.04239
G1 X83.47824 Y118.50929 E0.02295
G1 X87.61513 Y122.54951 E0.29339
G1 X89.52249 Y124.57756 E0.14126
G1 X91.33288 Y126.67912 E0.14074
G1 X93.05364 Y128.86173 E0.14102
G1 X94.14238 Y130.37279 E0.0945
G1 X94.44562 Y129.83374 E0.03138
G1 X94.85569 Y129.34264 E0.03246
G1 X95.37779 Y128.90964 E0.03441
G1 X96.03619 Y128.54919 E0.03808
G1 X96.51433 Y128.38353 E0.02567
G1 X97.08806 Y128.28577 E0.02953
G1 X97.47517 Y128.26846 E0.01966
G1 X98.03212 Y128.31097 E0.02834
G1 X98.54336 Y128.43617 E0.02671
G1 X99.13439 Y128.68121 E0.03246
G1 X99.75979 Y129.0964 E0.03809
G1 X100.24516 Y129.57443 E0.03456
G1 X100.66406 Y130.19729 E0.03808
G1 X100.92961 Y130.82482 E0.03457
G1 X101.07823 Y131.56059 E0.03809
G1 X101.08343 Y132.24178 E0.03456
G1 X100.93845 Y132.98147 E0.03824
G1 X100.58196 Y133.78279 E0.0445
G1 X107.84468 Y133.78279 E0.36849
G1 X107.84598 Y123.45365 E0.52408
G1 X107.92145 Y122.94108 E0.02629
G1 X108.09606 Y122.54414 E0.022
G1 X108.40573 Y122.15807 E0.02511
G1 X108.95832 Y121.63782 E0.03851
G1 X109.45271 Y121.1301 E0.03596
G1 X109.92461 Y120.60141 E0.03596
G1 X110.37303 Y120.05281 E0.03595
G1 X110.79733 Y119.48513 E0.03596
G1 X111.19651 Y118.89967 E0.03595
G1 X111.56993 Y118.29741 E0.03595
G1 X111.91687 Y117.67946 E0.03596
G1 X112.23665 Y117.04708 E0.03595
G1 X112.52866 Y116.40145 E0.03595
G1 X112.79239 Y115.74369 E0.03596
G1 X113.02735 Y115.07508 E0.03596
G1 X113.23302 Y114.39702 E0.03595
G1 X113.40909 Y113.71055 E0.03596
G1 X113.55519 Y113.01718 E0.03595
G1 X113.67106 Y112.31805 E0.03596
G1 X113.75646 Y111.61459 E0.03595
G1 X113.81041 Y110.9191 E0.03539
G1 X113.83497 Y109.78909 E0.05735
G1 X113.81126 Y109.09194 E0.03539
G1 X113.75646 Y108.38541 E0.03596
G1 X113.67106 Y107.68195 E0.03595
G1 X113.55519 Y106.98283 E0.03596
G1 X113.40909 Y106.28945 E0.03595
G1 X113.23302 Y105.60298 E0.03596
G1 X113.02735 Y104.92492 E0.03595
G1 X112.79239 Y104.25631 E0.03596
G1 X112.52866 Y103.59855 E0.03596
G1 X112.23665 Y102.95292 E0.03595
G1 X111.91687 Y102.32054 E0.03595
G1 X111.56993 Y101.70259 E0.03596
G1 X111.19651 Y101.10033 E0.03595
G1 X110.79733 Y100.51487 E0.03595
G1 X110.37303 Y99.94719 E0.03596
G1 X109.92461 Y99.39859 E0.03595
G1 X109.45271 Y98.8699 E0.03596
G1 X108.95832 Y98.36218 E0.03596
G1 X108.40574 Y97.84194 E0.03851
G1 X108.30878 Y97.72081 E0.00787
M107
G1 X108.65113 Y97.33562 F3600000
M106 S2.55
G1 F3000
G1 X108.49924 Y97.13527 E0.01276
G1 X108.36838 Y96.73358 E0.02144
G1 X108.35409 Y96.17207 E0.0285
G1 X108.34311 Y85.82962 E0.52475
G1 X108.24099 Y85.72544 E0.0074
G1 X108.16939 Y85.71001 E0.00372
G1 X99.509 Y85.71104 E0.43941
G1 X99.87061 Y86.07834 E0.02615
G1 X100.22963 Y86.62156 E0.03304
G1 X100.45195 Y87.15922 E0.02952
G1 X100.57573 Y87.79846 E0.03304
G1 X100.5754 Y88.38014 E0.02951
G1 X100.44441 Y89.02111 E0.03319
G1 X100.17096 Y89.64536 E0.03458
G1 X99.83884 Y90.1193 E0.02936
G1 X99.44613 Y90.50614 E0.02797
G1 X98.9029 Y90.86515 E0.03304
G1 X98.36534 Y91.08746 E0.02952
G1 X97.72301 Y91.21173 E0.03319
G1 X97.04161 Y91.19798 E0.03458
G1 X96.55009 Y91.09211 E0.02551
G1 X95.969 Y90.85773 E0.03179
G1 X95.42941 Y90.49322 E0.03304
G1 X95.01832 Y90.08164 E0.02952
G1 X94.65774 Y89.53585 E0.03319
G1 X94.40966 Y88.90102 E0.03458
G1 X94.33038 Y88.4893 E0.02127
G1 X92.68743 Y90.77946 E0.14301
M73 P2 R15
G1 X90.98266 Y92.94644 E0.13989
G1 X89.18508 Y95.03718 E0.1399
G1 X87.2982 Y97.0476 E0.13989
G1 X83.10296 Y101.15957 E0.29805
G1 X82.59978 Y101.61953 E0.03459
G1 X81.68284 Y102.35145 E0.05953
G1 X80.82726 Y102.90407 E0.05168
G1 X79.37937 Y103.61215 E0.08178
G1 X78.14047 Y104.03145 E0.06636
G1 X77.39044 Y104.20498 E0.03906
G1 X76.61461 Y104.33271 E0.03989
G1 X76.07198 Y104.39911 E0.02774
G1 X75.14604 Y104.43824 E0.04702
G1 X63.27222 Y104.44058 E0.60245
G1 X62.87156 Y104.50913 E0.02062
G1 X62.48806 Y104.6971 E0.02167
G1 X61.41223 Y105.52944 E0.06901
G1 X61.05372 Y105.95864 E0.02837
G1 X60.91964 Y106.28456 E0.01788
G1 X60.67947 Y107.24437 E0.0502
G1 X60.65596 Y107.53168 E0.01463
G1 X60.66488 Y112.93313 E0.27406
G1 X60.87691 Y113.85597 E0.04804
G1 X61.04162 Y114.30987 E0.0245
G1 X61.35613 Y114.70223 E0.02551
G1 X62.42041 Y115.54024 E0.06873
G1 X62.79152 Y115.74162 E0.02142
G1 X63.28543 Y115.83815 E0.02553
G1 X75.43354 Y115.84427 E0.61637
G1 X76.07264 Y115.87097 E0.03245
G1 X76.92296 Y115.96276 E0.04339
G1 X77.78097 Y116.09414 E0.04404
G1 X78.54665 Y116.29022 E0.0401
G1 X79.73263 Y116.69604 E0.0636
G1 X81.12184 Y117.38599 E0.0787
G1 X82.20879 Y118.10748 E0.06619
G1 X82.8132 Y118.60117 E0.0396
G1 X83.12296 Y118.87307 E0.02091
G1 X87.25984 Y122.91329 E0.29339
G1 X89.15078 Y124.92455 E0.14007
G1 X90.94745 Y127.0108 E0.13969
G1 X92.65413 Y129.1763 E0.13989
G1 X94.32635 Y131.50522 E0.14547
G1 X94.44454 Y130.97887 E0.02737
G1 X94.71798 Y130.35464 E0.03458
G1 X95.05008 Y129.88071 E0.02936
G1 X95.43356 Y129.50235 E0.02733
G1 X95.98605 Y129.13484 E0.03367
G1 X96.52361 Y128.91254 E0.02951
G1 X97.16594 Y128.78827 E0.03319
G1 X97.84732 Y128.80202 E0.03458
G1 X98.41227 Y128.92748 E0.02936
G1 X98.91997 Y129.14228 E0.02797
G1 X99.45953 Y129.50679 E0.03304
G1 X99.87062 Y129.91836 E0.02951
G1 X100.22962 Y130.46155 E0.03304
G1 X100.45195 Y130.99922 E0.02952
G1 X100.57573 Y131.63846 E0.03304
G1 X100.5754 Y132.22014 E0.02951
G1 X100.4444 Y132.86112 E0.03319
G1 X100.17095 Y133.48537 E0.03458
G1 X99.83884 Y133.9593 E0.02936
G1 X99.50587 Y134.29128 E0.02386
G1 X108.16863 Y134.29128 E0.43953
G1 X108.32986 Y134.21529 E0.00904
G1 X108.35313 Y134.07198 E0.00737
G1 X108.35448 Y123.45371 E0.53875
G1 X108.40838 Y123.08759 E0.01878
G1 X108.57774 Y122.73429 E0.01988
G1 X109.56329 Y121.74542 E0.07084
G1 X110.062 Y121.2111 E0.03708
G1 X110.53714 Y120.65551 E0.03709
G1 X110.98745 Y120.08012 E0.03707
G1 X111.41263 Y119.48534 E0.0371
G1 X111.81127 Y118.87313 E0.03707
G1 X112.18323 Y118.24372 E0.03709
G1 X112.5272 Y117.59934 E0.03706
G1 X112.84316 Y116.94002 E0.0371
G1 X113.13 Y116.26803 E0.03707
G1 X113.38736 Y115.58436 E0.03706
G1 X113.61498 Y114.88959 E0.03709
G1 X113.81206 Y114.18612 E0.03707
G1 X113.97837 Y113.47502 E0.03705
G1 X114.11312 Y112.7607 E0.03688
G1 X114.21626 Y112.04647 E0.03661
G1 X114.28707 Y111.34919 E0.03556
G1 X114.34365 Y109.78597 E0.07937
G1 X114.31909 Y109.06363 E0.03667
G1 X114.26258 Y108.33508 E0.03708
G1 X114.17451 Y107.60971 E0.03707
G1 X114.05503 Y106.88879 E0.03708
G1 X113.90438 Y106.17381 E0.03707
G1 X113.72283 Y105.46595 E0.03708
G1 X113.51075 Y104.76675 E0.03707
G1 X113.26847 Y104.07731 E0.03708
G1 X112.99652 Y103.39906 E0.03708
G1 X112.69541 Y102.73331 E0.03707
G1 X112.36566 Y102.08122 E0.03708
G1 X112.00792 Y101.44402 E0.03708
G1 X111.62286 Y100.823 E0.03707
G1 X111.21124 Y100.21929 E0.03707
G1 X110.77372 Y99.63392 E0.03708
G1 X110.31132 Y99.06823 E0.03707
G1 X109.82472 Y98.52306 E0.03708
G1 X109.31492 Y97.99952 E0.03708
G1 X108.75431 Y97.47171 E0.03907
G1 X108.68738 Y97.38343 E0.00562
M107
G1 X109.03985 Y97.00919 F3600000
M106 S2.55
G1 F3000
G1 X108.91817 Y96.83099 E0.01095
G1 X108.86298 Y96.54695 E0.01468
G1 X108.85151 Y85.74121 E0.54826
G1 X108.72895 Y85.46542 E0.01531
G1 X108.47956 Y85.27526 E0.01591
G1 X108.22712 Y85.20151 E0.01334
G1 X98.49934 Y85.20266 E0.49357
G1 X98.24981 Y85.17612 E0.01273
M107
;WIDTH:0.453724
M106 S2.55
G1 X98.00028 Y85.14958 E0.01007
G1 X97.42048 Y85.13592 E0.02328
G1 X97.14742 Y85.16483 E0.01102
M107
;WIDTH:0.424178
M106 S2.55
G1 X96.87436 Y85.19374 E0.01021
G1 X96.29872 Y85.3706 E0.02239
G1 X95.87848 Y85.58988 E0.01763
G1 X95.47549 Y85.89232 E0.01874
G1 X95.12425 Y86.2687 E0.01914
G1 X94.69797 Y86.92747 E0.02918
G1 X94.55198 Y87.19449 E0.01132
M107
;WIDTH:0.559999
M106 S2.55
G1 X94.40599 Y87.46151 E0.01544
G1 X93.8668 Y88.26778 E0.04921
G1 X92.2746 Y90.48258 E0.1384
G1 X90.58315 Y92.63186 E0.13877
G1 X88.79965 Y94.7055 E0.13877
G1 X86.92758 Y96.69945 E0.13877
G1 X82.74936 Y100.79414 E0.29682
G1 X82.257 Y101.24394 E0.03384
G1 X81.374 Y101.94749 E0.05728
G1 X80.5547 Y102.4748 E0.04943
G1 X79.21636 Y103.1305 E0.07562
G1 X77.97746 Y103.54979 E0.06636
G1 X77.28065 Y103.70848 E0.03626
G1 X76.04986 Y103.8911 E0.06313
G1 X75.14594 Y103.92974 E0.0459
G1 X63.24053 Y103.9321 E0.60405
M73 P3 R15
G1 X62.69044 Y104.03161 E0.02836
G1 X62.21782 Y104.26327 E0.02671
G1 X61.06685 Y105.15374 E0.07383
G1 X60.70796 Y105.54483 E0.02693
G1 X60.45963 Y106.02813 E0.02757
G1 X60.17606 Y107.16137 E0.05927
G1 X60.14743 Y107.51134 E0.01782
M107
M106 S2.55
G1 X60.15645 Y112.96994 E0.27696
G1 X60.26604 Y113.50925 E0.02792
G1 X60.42739 Y114.1544 E0.03374
G1 X60.65821 Y114.66482 E0.02842
G1 X61.00122 Y115.06997 E0.02693
G1 X62.13984 Y115.96653 E0.07353
G1 X62.60015 Y116.21631 E0.02657
