; generated by SuperSlicer 2.5.59.9 on 2024-05-16 at 04:29:05 UTC


;
;

;
;

;
;

;
;

;
;
; 

; external perimeters extrusion width = 0.42mm
; perimeters extrusion width = 0.45mm
; infill extrusion width = 0.45mm
; solid infill extrusion width = 0.45mm
; top infill extrusion width = 0.42mm

; object:{"name":"smart_compact_temp_calibration","id":"smart_compact_temp_calibration id:0 copy 0","object_center":[62.500000,107.300000,0.000000],"boundingbox_center":[62.500000,107.300000,30.000000],"boundingbox_size":[44.487499,5.400000,60.000000]}
EXCLUDE_OBJECT_DEFINE NAME=smart_compact_temp_calibration_id_0_copy_0 CENTER=62.500000,107.300000 POLYGON=[[40.26,106.41],[40.27,106.39],[40.30,106.36],[40.32,106.34],[40.37,106.29],[40.48,106.20],[40.50,106.18],[40.78,105.98],[40.88,105.92],[41.32,105.68],[41.37,105.66],[41.85,105.46],[41.98,105.42],[42.39,105.30],[42.51,105.27],[42.71,105.22],[42.74,105.21],[42.77,105.21],[42.91,105.18],[42.91,105.18],[42.95,105.17],[43.06,105.15],[43.09,105.14],[43.20,105.12],[43.33,105.10],[43.39,105.09],[43.60,105.07],[43.64,105.06],[43.69,105.06],[44.00,105.03],[44.03,105.03],[44.11,105.02],[44.15,105.02],[44.17,105.02],[51.25,104.60],[66.25,104.60],[84.74,105.00],[84.74,110.00],[44.71,110.00],[44.45,110.00],[44.35,109.99],[44.27,109.99],[44.21,109.99],[44.20,109.98],[44.16,109.98],[44.15,109.98],[44.11,109.98],[44.07,109.98],[44.03,109.97],[44.00,109.97],[43.80,109.95],[43.64,109.94],[43.60,109.93],[43.45,109.91],[43.34,109.90],[43.21,109.88],[43.09,109.86],[43.06,109.85],[43.02,109.85],[42.91,109.82],[42.86,109.81],[42.76,109.79],[42.74,109.79],[42.71,109.78],[42.52,109.74],[42.30,109.68],[42.06,109.61],[41.69,109.48],[41.65,109.46],[41.17,109.25],[41.14,109.23],[40.72,108.97],[40.71,108.97],[40.52,108.83],[40.40,108.73],[40.39,108.72],[40.33,108.67],[40.28,108.62],[40.26,108.60],[40.26,106.41]]
; plater:{"center":[62.500000,107.300000,0.000000],"boundingbox_center":[62.500000,107.300000,30.000000],"boundingbox_size":[44.487499,5.400000,60.000000]}

M73 P0 R37
M107
;TYPE:Custom
CALCULATE_PA MATERIAL=PLA BOWDEN_LENGTH=6 LAYER_HEIGHT=0.24 NOZZLE_SIZE=0.4 PRINT_SPEED=100
START_PRINT EXTRUDER=210 BED=60
SET_VELOCITY_LIMIT ACCEL=500



M107
G21 ; set units to millimeters
G90 ; use absolute coordinates
M83 ; use relative distances for extrusion
; Filament gcode
M104 S210 ; set temperature
M109 S210 ; set temperature and wait for it to be reached
M190 S60 ; set bed temperature and wait for it to be reached
;LAYER_CHANGE
;Z:0.24
;HEIGHT:0.24
;BEFORE_LAYER_CHANGE
G92 E0.0

G1 E-0.4 F3600
G1 Z0.24 F360000
;AFTER_LAYER_CHANGE
;0.24
SET_VELOCITY_LIMIT ACCEL=5000


CALCULATE_PA MATERIAL=PLA BOWDEN_LENGTH=6.0 LAYER_HEIGHT=0.2 NOZZLE_SIZE=0.4 PRINT_SPEED=100


G92 E0
G1 Z0.4
G1 X41.75457 Y98.96659
G1 Z0.24
G1 E0.4 F3600
;TYPE:Skirt
;WIDTH:0.45
M107
G1 F2400
G1 X42.67347 Y98.70912 E0.03415
G1 F2399.99292
G1 X44.61973 Y98.56481 E.06984
G1 X49.04184 Y98.56537 Z.24 E.15825
G1 X53.46394 Y98.56592 Z.24 E.15825
G1 X57.88605 Y98.56647 Z.24 E.15825
G1 X62.30816 Y98.56702 Z.24 E.15825
G1 X66.73026 Y98.56758 Z.24 E.15825
G1 X71.15237 Y98.56813 Z.24 E.15825
G1 X75.57447 Y98.56869 Z.24 E.15825
G1 X76.85222 Y98.78928 E0.0464
G1 X78.11026 Y99.28632 E.04841
G1 X79.13171 Y99.95657 E.04372
G1 X79.99663 Y100.77303 E0.04256
G1 X80.72017 Y101.74588 E.04339
G1 X81.25941 Y102.8602 E0.0443
G1 X81.63808 Y104.66597 E.06603
G1 X81.63332 Y107.55056 Z.24 E.10323
G1 X81.62856 Y110.43515 Z.24 E.10323
G1 X81.31488 Y111.97234 E0.05614
G1 X80.76159 Y113.18764 E.04779
G1 X79.98056 Y114.24283 E.04698
G1 X79.15133 Y115.02869 E0.04088
G1 X78.22713 Y115.64988 E.03985
G1 X77.09546 Y116.13751 E.0441
G1 X75.86208 Y116.4025 E0.04514
G1 X71.39562 Y116.40704 Z.24 E.15984
G1 X66.92917 Y116.4116 Z.24 E.15984
G1 X62.46271 Y116.41615 Z.24 E.15984
G1 X57.99625 Y116.4207 Z.24 E.15984
G1 X53.52979 Y116.42525 Z.24 E.15984
M73 P1 R37
G1 X49.06333 Y116.4298 Z.24 E.15984
G1 X44.59687 Y116.43435 Z.24 E.15984
G1 X43.07839 Y116.35475 E.05441
G1 X41.97611 Y116.10911 E.04041
G1 X40.92677 Y115.67241 E0.04067
G1 X39.64272 Y114.77393 E.05608
G1 X38.48703 Y113.45834 E.06267
G1 X37.97948 Y112.53253 E0.03778
G1 X37.6238 Y111.54309 E.03763
G1 X37.42117 Y110.22509 E0.04772
G1 X37.42841 Y107.3877 Z.24 E.10154
G1 F2400
G1 X37.43565 Y104.55029 Z.24 E.10154
G1 F2399.8689
G1 X37.71676 Y103.14956 E.05113
G1 X38.31868 Y101.80897 E.05259
G1 X38.98403 Y100.8983 E.04036
G1 X39.6862 Y100.18757 E0.03575
G1 X40.80862 Y99.39449 E.04918
G1 X41.6999 Y98.99132 E.03501
M107
G1 X41.86269 Y99.35262 F360000
M107
G1 F2399.75757
G1 X42.72325 Y99.10501 E.03205
G1 X44.6271 Y98.96331 E.06832
G1 X75.55716 Y98.96718 E1.10686
G1 X76.76327 Y99.17827 E.04382
G1 X77.94371 Y99.64892 E.04548
G1 X78.8974 Y100.27937 E0.04091
G1 X79.70971 Y101.05012 E0.04007
G1 X80.3886 Y101.96773 E.04085
G1 X80.88976 Y103.011 E.04142
G1 X81.23955 Y104.686 E0.06123
G1 X81.23483 Y107.55032 Z.24 E.1025
G1 F2400
G1 X81.2301 Y110.41465 Z.24 E.1025
G1 F2399.96387
G1 X80.9425 Y111.82872 E.05164
G1 X80.42826 Y112.96824 E.04474
G1 X79.6931 Y113.9663 E.04436
G1 X78.91503 Y114.70737 E0.03845
G1 X78.02037 Y115.30871 E.03858
G1 X76.95639 Y115.76358 E0.04141
G1 X75.84061 Y116.00402 E.04085
G1 X44.6018 Y116.03585 E1.11791
G1 X43.11617 Y115.95769 E.05324
G1 X42.08081 Y115.72422 E0.03798
G1 X41.10077 Y115.31326 E.03803
G1 X39.89148 Y114.46172 E.05293
G1 X38.82559 Y113.24704 E0.05783
G1 X38.34913 Y112.38284 E.03532
G1 X38.00533 Y111.42645 E0.03637
G1 X37.8197 Y110.21075 E.04401
G1 X37.8269 Y107.39073 Z.24 E.10091
G1 X37.8341 Y104.57071 Z.24 E.10091
G1 X38.08948 Y103.29233 E0.04665
G1 X38.67359 Y101.9914 E.05103
G1 X39.27839 Y101.16729 E.03658
G1 X39.93077 Y100.5027 E.03333
G1 X41.02296 Y99.73098 E.04786
G1 F2398.99097
G1 X41.80799 Y99.37727 E.03081
M107
G1 X41.97014 Y99.73901 F360000
M107
G1 F2400
G1 X42.00205 Y99.72471 E0.00125
G1 F2398.8374
G1 X42.77361 Y99.50086 E.02875
G1 F2399.98438
G1 X44.63449 Y99.3618 E.06678
G1 X49.04951 Y99.36236 Z.24 E.158
G1 X53.46452 Y99.36291 Z.24 E.158
G1 X57.87954 Y99.36346 Z.24 E.158
G1 X62.29455 Y99.36401 Z.24 E.158
G1 X66.70956 Y99.36457 Z.24 E.158
G1 X71.12458 Y99.36512 Z.24 E.158
G1 X75.5396 Y99.36568 Z.24 E.158
G1 X76.67327 Y99.56701 E0.0412
G1 X77.77592 Y100.01094 E.04254
G1 X78.66199 Y100.60137 E0.0381
G1 X79.42205 Y101.32644 E.03759
G1 X80.05642 Y102.18866 E.03831
G1 X80.51974 Y103.16085 E0.03854
G1 X80.84102 Y104.70595 E.05648
G1 X80.83633 Y107.55008 Z.24 E.10178
G1 X80.83164 Y110.39421 Z.24 E.10178
G1 X80.56973 Y111.68617 E0.04717
G1 X80.09432 Y112.74977 E.04169
G1 X79.40546 Y113.68994 E.04171
G1 X78.65261 Y114.40699 E.03721
G1 X77.81457 Y114.96695 E.03607
G1 X76.8181 Y115.38938 E0.03873
G1 X75.81906 Y115.60555 E.03658
G1 X71.36016 Y115.61009 Z.24 E.15957
G1 X66.90126 Y115.61464 Z.24 E.15957
G1 X62.44236 Y115.61918 Z.24 E.15957
G1 X57.98346 Y115.62373 Z.24 E.15956
G1 X53.52456 Y115.62827 Z.24 E.15957
G1 X49.06566 Y115.63281 Z.24 E.15957
G1 X44.60676 Y115.63735 Z.24 E.15957
G1 X43.15399 Y115.56064 E0.05206
G1 X42.21878 Y115.34996 E.03431
G1 X41.27508 Y114.95424 E0.03662
G1 X40.14103 Y114.15017 E.04975
G1 X39.16416 Y113.03579 E0.05303
G1 X38.70586 Y112.20452 E.03397
G1 X38.3871 Y111.31064 E0.03396
G1 X38.21823 Y110.19651 E.04033
G1 X38.23254 Y104.59103 E0.2006
G1 X38.46224 Y103.435 E.04218
G1 X39.0284 Y102.17406 E0.04946
G1 X39.57329 Y101.43565 E.03284
G1 X40.17564 Y100.81761 E0.03088
G1 X41.23714 Y100.06758 E.04651
G1 X41.91539 Y99.76356 E.0266
M107
G1 X42.07667 Y100.12583 F360000
M107
G1 F2400
G1 X42.12774 Y100.10309 E0.002
G1 F2399.60571
G1 X42.82462 Y99.89664 E.02601
G1 X44.64191 Y99.7603 E.06522
G1 X75.52177 Y99.76417 E1.10506
G1 X76.58212 Y99.9555 E.03856
G1 X77.60679 Y100.37235 E.03959
G1 X78.4254 Y100.92249 E.0353
G1 X79.13361 Y101.60194 E.03512
G1 X79.72359 Y102.40861 E.03576
G1 X80.14933 Y103.30969 E0.03566
G1 X80.4425 Y104.72581 E.05175
G1 X80.43784 Y107.54983 Z.24 E.10106
G1 F2400
G1 X80.43318 Y110.37385 Z.24 E.10106
G1 F2399.88135
G1 X80.19692 Y111.54368 E.04271
G1 X79.7392 Y112.56773 E0.04014
G1 X79.11732 Y113.41413 E.03759
G1 X78.41672 Y114.08534 E.03472
G1 X77.60905 Y114.62501 E.03476
G1 X76.68065 Y115.01489 E0.03603
G1 X75.79739 Y115.20708 E.03235
G1 X71.3423 Y115.21162 Z.24 E.15943
G1 X66.88721 Y115.21616 Z.24 E.15943
G1 X62.43211 Y115.2207 Z.24 E.15943
G1 X57.97701 Y115.22523 Z.24 E.15943
G1 X53.52192 Y115.22977 Z.24 E.15943
G1 X49.06682 Y115.23431 Z.24 E.15943
G1 X44.61173 Y115.23885 Z.24 E.15943
G1 X43.19217 Y115.16361 E0.05087
G1 X42.32459 Y114.96537 E.03185
G1 X41.4505 Y114.59576 E.03396
G1 X40.39142 Y113.8393 E0.04657
G1 X39.50277 Y112.82459 E.04827
G1 X39.06273 Y112.02645 E.03262
G1 X38.76915 Y111.19576 E.03153
G1 X38.61676 Y110.1824 E0.03667
G1 X38.62387 Y107.39703 Z.24 E.09968
G1 F2400
G1 X38.63098 Y104.61167 Z.24 E.09968
G1 F2399.96729
G1 X38.84837 Y103.53606 E.03927
G1 X39.38255 Y102.35798 E.04629
G1 X39.86877 Y101.70334 E.02918
G1 X40.42084 Y101.13229 E0.02842
G1 X41.45112 Y100.40432 E.04514
G1 X42.02185 Y100.15023 E.02236
M107
G1 X42.18194 Y100.51313 F360000
M107
G1 F2398.01099
G1 X42.25497 Y100.48092 E.00286
G1 F2399.98071
G1 X42.87637 Y100.29237 E.02324
G1 X44.64937 Y100.15879 E.06363
G1 X75.50363 Y100.16266 E1.10415
G1 X76.48969 Y100.34368 E.03588
G1 X77.43621 Y100.73307 E.03663
G1 X78.18755 Y101.24268 E0.03249
G1 X78.84461 Y101.87684 E.03268
G1 X79.37141 Y102.59605 E0.0319
G1 X79.77887 Y103.45844 E.03413
G1 X80.04397 Y104.74557 E.04703
G1 X80.03934 Y107.54958 Z.24 E.10034
G1 X80.03471 Y110.35358 Z.24 E.10035
G1 X79.82409 Y111.40128 E0.03824
G1 X79.38414 Y112.38555 E.03858
G1 X78.82863 Y113.13892 E.0335
G1 X78.18056 Y113.76387 E.03222
G1 X77.40357 Y114.28304 E0.03344
G1 X76.57661 Y114.62981 E.03209
G1 X75.7752 Y114.80861 E0.02938
G1 X71.32399 Y114.81314 Z.24 E.15929
G1 X66.87278 Y114.81768 Z.24 E.15929
G1 X62.42157 Y114.82221 Z.24 E.15929
G1 X57.97035 Y114.82674 Z.24 E.15929
G1 X53.51914 Y114.83128 Z.24 E.15929
G1 X49.06793 Y114.83582 Z.24 E.15929
G1 F2400
G1 X44.61672 Y114.84035 Z.24 E.15929
G1 F2399.96387
G1 X43.23076 Y114.7666 E.04967
G1 X42.4317 Y114.58114 E.02936
G1 X41.62712 Y114.23787 E0.0313
G1 X40.64271 Y113.52918 E.04341
G1 X39.84089 Y112.61266 E.04358
G1 X39.4329 Y111.87795 E0.03007
G1 X39.15124 Y111.08101 E.03025
G1 X39.0153 Y110.16842 E.03302
G1 X39.02237 Y107.40055 Z.24 E.09905
G1 X39.02943 Y104.63268 Z.24 E.09905
G1 X39.23412 Y103.63856 E.03632
G1 X39.73598 Y102.54328 E.04311
G1 X40.16491 Y101.97026 E0.02561
G1 X40.66641 Y101.44671 E.02594
G1 X41.66481 Y100.74126 E.04375
G1 X42.12705 Y100.53735 E.01808
M107
G1 X42.28789 Y100.90194 F360000
M107
G1 F2400
G1 X42.40458 Y100.85047 E0.00456
G1 F2399.07471
G1 X42.97023 Y100.68027 E.02114
G1 X44.65659 Y100.55729 E.06051
G1 X75.48515 Y100.56116 E1.10323
G1 X76.39586 Y100.73154 E.03316
G1 X77.26406 Y101.09305 E.03366
G1 X77.94834 Y101.56184 E0.02968
G1 X78.55473 Y102.15081 E.03025
G1 X79.03794 Y102.81505 E0.02939
G1 X79.40797 Y103.60602 E.03125
G1 X79.64544 Y104.76523 E0.04234
G1 X79.64085 Y107.54932 Z.24 E.09963
G1 F2400
G1 X79.63625 Y110.33341 Z.24 E.09963
G1 F2399.8623
G1 X79.4512 Y111.25897 E.03378
G1 X79.02917 Y112.20316 E0.03701
G1 X78.53937 Y112.86436 E.02945
G1 X77.94409 Y113.44261 E.0297
G1 X77.19817 Y113.94102 E0.0321
G1 X76.47089 Y114.24522 E.02821
G1 X75.75239 Y114.41013 E.02638
G1 X71.30515 Y114.41467 Z.24 E.15915
G1 X66.85792 Y114.4192 Z.24 E.15915
G1 X62.41068 Y114.42373 Z.24 E.15915
G1 X57.96344 Y114.42825 Z.24 E.15915
G1 X53.5162 Y114.43279 Z.24 E.15915
G1 X49.06897 Y114.43732 Z.24 E.15915
G1 F2400
G1 X44.62173 Y114.44185 Z.24 E.15915
G1 F2399.97461
G1 X43.26979 Y114.36962 E.04845
G1 X42.54025 Y114.19732 E.02683
G1 X41.80504 Y113.88061 E0.02865
G1 X40.89495 Y113.21987 E.04025
G1 X40.17904 Y112.40077 E.03893
G1 X39.78954 Y111.69936 E0.02871
G1 X39.53367 Y110.96738 E.02775
G1 X39.41383 Y110.1546 E0.0294
G1 X39.42085 Y107.4041 Z.24 E.09843
G1 F2400
G1 X39.42787 Y104.65359 Z.24 E.09843
G1 F2399.80005
G1 X39.60624 Y103.78285 E.03181
G1 X40.06829 Y102.76424 E.04003
G1 X40.46119 Y102.23703 E.02353
G1 X40.94098 Y101.73615 E.02482
G1 X41.84389 Y101.09781 E0.03957
G1 X42.23299 Y100.92616 E.01522
M107
G1 X42.39432 Y101.28934 F360000
M107
G1 F2399.5459
G1 X42.5314 Y101.22845 E.00537
G1 X43.06384 Y101.06825 E.0199
G1 X44.66354 Y100.95579 E.05739
G1 X49.06393 Y100.95634 Z.24 E.15747
G1 X53.46433 Y100.95689 Z.24 E.15747
G1 X57.86472 Y100.95744 Z.24 E.15747
G1 X62.26512 Y100.95799 Z.24 E.15747
G1 X66.66551 Y100.95854 Z.24 E.15747
G1 X71.06591 Y100.9591 Z.24 E.15747
G1 X75.4663 Y100.95965 Z.24 E.15747
G1 X76.30047 Y101.11902 E.03039
G1 X77.09018 Y101.4522 E0.03067
G1 X77.70764 Y101.87987 E.02688
G1 X78.26393 Y102.4238 E0.02784
G1 X78.70366 Y103.0328 E.02688
G1 X79.03658 Y103.75232 E0.02837
G1 X79.24691 Y104.78477 E.03771
G1 X79.24236 Y107.54907 Z.24 E.09892
G1 X79.23779 Y110.31337 Z.24 E.09892
G1 X79.07827 Y111.11678 E.02931
G1 X78.67433 Y112.0205 E0.03542
G1 X78.24947 Y112.5905 E.02544
G1 X77.70728 Y113.12157 E.02716
G1 X76.99289 Y113.59892 E.03075
G1 X76.36323 Y113.8612 E.02441
G1 X75.72886 Y114.01166 E0.02333
G1 X71.28571 Y114.01618 Z.24 E.159
G1 X66.84254 Y114.02071 Z.24 E.159
G1 X62.39939 Y114.02524 Z.24 E.159
G1 X57.95624 Y114.02977 Z.24 E.159
G1 X53.51308 Y114.03429 Z.24 E.159
G1 X49.06993 Y114.03883 Z.24 E.159
G1 X44.62677 Y114.04335 Z.24 E.159
G1 X43.30933 Y113.97268 E.04721
G1 X42.65045 Y113.81397 E0.02425
G1 X41.98394 Y113.52388 E.02601
G1 X41.17937 Y112.9399 E.03558
G1 X40.51638 Y112.18758 E0.03588
G1 X40.15997 Y111.55145 E.02609
G1 X39.91615 Y110.85393 E.02644
G1 X39.81236 Y110.14095 E0.02578
G1 X39.81934 Y107.40767 Z.24 E.09781
G1 F2400
G1 X39.82631 Y104.67439 Z.24 E.09781
G1 F2399.66895
G1 X39.97883 Y103.92588 E.02734
G1 X40.40124 Y102.98427 E.03693
G1 X40.75764 Y102.50363 E0.02141
G1 X41.21556 Y102.02558 E.02369
G1 X42.02367 Y101.45399 E0.03542
G1 X42.33948 Y101.3137 E.01237
M107
G1 X42.50192 Y101.67646 F360000
M107
G1 F2400
G1 X42.6585 Y101.60635 E0.00614
G1 F2399.46484
G1 X43.15717 Y101.45631 E.01864
G1 X44.67021 Y101.35428 E.05427
G1 X75.447 Y101.35814 E1.10137
G1 X76.20331 Y101.50606 E.02758
G1 X76.9144 Y101.81043 E0.02768
G1 X77.46531 Y102.19665 E.02408
G1 X77.97214 Y102.69574 E0.02545
G1 X78.36848 Y103.24919 E.02436
G1 X78.66466 Y103.89721 E.0255
G1 X78.84838 Y104.80421 E.03312
G1 X78.83933 Y110.29351 E0.19644
G1 X78.70526 Y110.97474 E.02485
G1 X78.31965 Y111.83747 E0.03382
G1 X77.95889 Y112.31742 E.02149
G1 X77.47008 Y112.8008 E.0246
G1 X76.7878 Y113.25669 E0.02936
G1 X76.25327 Y113.47789 E.0207
G1 X75.70445 Y113.61319 E.02023
G1 X44.63182 Y113.64485 E1.11196
G1 X43.34946 Y113.57576 E.04596
G1 X42.76252 Y113.43117 E.02163
G1 X42.16392 Y113.16771 E0.0234
G1 X41.46283 Y112.65899 E.031
G1 X40.85277 Y111.97291 E0.03285
G1 X40.53027 Y111.40313 E.02343
G1 X40.29871 Y110.7407 E0.02511
G1 X40.21089 Y110.12754 E.02217
G1 X40.22476 Y104.69509 E0.19441
G1 X40.35194 Y104.06751 E.02292
G1 X40.7349 Y103.20323 E.03383
G1 X41.05428 Y102.77003 E0.01926
G1 X41.49015 Y102.315 E.02255
G1 X42.20424 Y101.80975 E.0313
G1 X42.44716 Y101.70098 E0.00952
M107
G1 X42.61001 Y102.06468 F360000
M107
G1 F2397.78833
G1 X42.80934 Y101.97543 E.00782
G1 X43.24924 Y101.84467 E0.01642
G1 F2399.91479
G1 X44.67658 Y101.75278 E.05118
G1 X49.06952 Y101.75333 Z.24 E.15721
G1 X53.46247 Y101.75388 Z.24 E.15721
G1 X57.85542 Y101.75443 Z.24 E.15721
G1 X62.24836 Y101.75498 Z.24 E.15721
G1 X66.64131 Y101.75553 Z.24 E.15721
G1 X71.03426 Y101.75608 Z.24 E.15721
G1 F2400
G1 X75.4272 Y101.75663 Z.24 E.15721
G1 F2399.86108
G1 X76.10411 Y101.89259 E.02471
G1 X76.7365 Y102.1676 E0.02468
G1 X77.22119 Y102.51203 E.02128
G1 X77.67928 Y102.96653 E0.02309
G1 X78.03232 Y103.46405 E.02183
G1 X78.29215 Y104.04053 E.02263
G1 X78.44986 Y104.82353 E0.02858
G1 X78.44537 Y107.54831 Z.24 E.09751
G1 X78.44087 Y110.27308 Z.24 E.09751
G1 X78.31918 Y110.87353 E0.02192
G1 X77.96595 Y111.65255 E.03061
G1 X77.66756 Y112.04519 E.01765
G1 X77.23241 Y112.48034 E0.02202
G1 X76.58302 Y112.91425 E.02795
G1 X76.14047 Y113.09545 E0.01711
G1 X75.67892 Y113.21472 E.01706
G1 X71.24435 Y113.21924 Z.24 E.1587
G1 X66.80977 Y113.22376 Z.24 E.1587
