; generated by SuperSlicer 2.5.59.8 on 2024-05-04 at 08:34:01 UTC


;
;

;
;

;
;

;
;

;
;
; 

; external perimeters extrusion width = 0.40mm
; perimeters extrusion width = 0.40mm
; infill extrusion width = 0.40mm
; solid infill extrusion width = 0.40mm
; top infill extrusion width = 0.40mm

; object:{"name":"smart_compact_temp_calibration","id":"smart_compact_temp_calibration id:0 copy 0","object_center":[87.500000,109.800000,0.000000],"boundingbox_center":[87.500000,109.800000,45.000000],"boundingbox_size":[44.487499,5.400000,90.000000]}
EXCLUDE_OBJECT_DEFINE NAME=smart_compact_temp_calibration_id_0_copy_0 CENTER=87.500000,109.800000 POLYGON=[[65.26,108.91],[65.27,108.89],[65.30,108.86],[65.32,108.84],[65.37,108.79],[65.48,108.70],[65.50,108.68],[65.78,108.48],[65.88,108.42],[66.32,108.18],[66.37,108.16],[66.85,107.96],[66.98,107.92],[67.39,107.80],[67.51,107.77],[67.71,107.72],[67.74,107.71],[67.77,107.71],[67.91,107.68],[67.91,107.68],[67.95,107.67],[68.06,107.65],[68.09,107.64],[68.20,107.62],[68.33,107.60],[68.39,107.59],[68.60,107.57],[68.64,107.56],[68.69,107.56],[69.00,107.53],[69.03,107.53],[69.11,107.52],[69.15,107.52],[69.17,107.52],[76.25,107.10],[91.25,107.10],[109.74,107.50],[109.74,112.50],[69.71,112.50],[69.45,112.50],[69.35,112.49],[69.27,112.49],[69.21,112.49],[69.20,112.48],[69.16,112.48],[69.15,112.48],[69.11,112.48],[69.07,112.48],[69.03,112.47],[69.00,112.47],[68.80,112.45],[68.64,112.44],[68.60,112.43],[68.45,112.41],[68.34,112.40],[68.21,112.38],[68.09,112.36],[68.06,112.35],[68.02,112.35],[67.91,112.32],[67.86,112.31],[67.76,112.29],[67.74,112.29],[67.71,112.28],[67.52,112.24],[67.30,112.18],[67.06,112.11],[66.69,111.98],[66.65,111.96],[66.17,111.75],[66.14,111.73],[65.72,111.47],[65.71,111.47],[65.52,111.33],[65.40,111.23],[65.39,111.22],[65.33,111.17],[65.28,111.12],[65.26,111.10],[65.26,108.91]]
; plater:{"center":[87.500000,109.800000,0.000000],"boundingbox_center":[87.500000,109.800000,45.000000],"boundingbox_size":[44.487499,5.400000,90.000000]}

M73 P0 R73
M107
;TYPE:Custom
CALCULATE_PA MATERIAL=ASA BOWDEN_LENGTH=6 LAYER_HEIGHT=0.24 NOZZLE_SIZE=0.4 PRINT_SPEED=95%


START_PRINT EXTRUDER=250 BED=105

M107
G21 ; set units to millimeters
G90 ; use absolute coordinates
M83 ; use relative distances for extrusion
ACTIVATE_EXTRUDER EXTRUDER=extruder
; Filament gcode
M104 S250 T0 ; set temperature
M109 S250 T0 ; set temperature and wait for it to be reached
M190 S105 ; set bed temperature and wait for it to be reached
;LAYER_CHANGE
;Z:0.24
;HEIGHT:0.24
;BEFORE_LAYER_CHANGE
G92 E0.0

G1 E-1.5 F3000
M73 P0 R72
G1 Z0.24 F3600000
;AFTER_LAYER_CHANGE
;0.24




CALCULATE_PA MATERIAL=ASA BOWDEN_LENGTH=6.0 LAYER_HEIGHT=0.2 NOZZLE_SIZE=0.4 PRINT_SPEED=0.9025


G92 E0
G1 Z0.4
G1 X63.63993 Y99.53708
G1 Z0.24
G1 E1.5 F3000
;TYPE:Skirt
;WIDTH:0.4
M107
G1 X65.16633 Y98.72808 E0.06157
G1 X66.86772 Y98.18873 E0.06362
G1 X69.5448 Y97.95636 E0.09578
G1 X100.75945 Y97.95978 E1.11256
G1 X102.55763 Y98.23995 E0.06486
G1 X104.2893 Y98.86546 E0.06562
G1 X105.87132 Y99.8255 E0.06596
G1 X107.25312 Y101.06562 E0.06618
G1 X108.88327 Y103.49712 E0.10434
G1 X109.42352 Y104.99625 E0.0568
G1 X109.70766 Y106.53746 E0.05586
G1 X109.74019 Y113.10561 E0.23411
G1 X109.28862 Y115.46696 E0.08569
G1 X108.75236 Y116.75712 E0.0498
G1 X108.02359 Y117.97616 E0.05062
G1 X106.74476 Y119.44112 E0.06931
G1 X105.18738 Y120.64404 E0.07014
G1 X103.38075 Y121.50899 E0.07139
G1 X101.19341 Y122.00174 E0.07992
G1 X69.5964 Y122.0432 E1.12619
G1 X67.84107 Y121.97261 E0.06261
G1 X65.14183 Y121.26202 E0.09949
G1 X62.73095 Y119.78351 E0.1008
G1 X61.07272 Y117.98418 E0.08721
G1 X60.09539 Y116.26619 E0.07045
G1 X59.47984 Y114.30092 E0.0734
G1 X59.3624 Y106.65747 E0.27246
G1 X59.6294 Y105.06892 E0.05741
G1 X60.45735 Y102.9947 E0.0796
G1 X61.73045 Y101.19738 E0.0785
G1 X63.59465 Y99.57644 E0.08805
M107
G1 X63.82271 Y99.83979 F3600000
M107
G1 F3000
G1 X63.85297 Y99.81359 E0.00143
G1 X65.31507 Y99.04362 E0.0589
G1 X66.91714 Y98.53424 E0.05992
G1 X69.55234 Y98.30485 E0.09428
G1 X100.74585 Y98.30827 E1.11181
G1 X102.48698 Y98.58163 E0.06282
G1 X104.15402 Y99.1871 E0.06321
G1 X105.67615 Y100.11467 E0.06353
G1 X107.0039 Y101.31017 E0.06368
G1 X108.56281 Y103.6357 E0.09979
G1 X109.08341 Y105.07358 E0.05451
G1 X109.36213 Y106.58544 E0.05479
G1 X109.39472 Y113.05676 E0.23066
G1 X108.94973 Y115.38371 E0.08444
G1 X108.43568 Y116.61113 E0.04743
G1 X107.75048 Y117.75913 E0.04765
G1 X106.51812 Y119.17583 E0.06693
G1 X104.98906 Y120.35687 E0.06886
G1 X103.24844 Y121.18601 E0.06872
G1 X101.17375 Y121.65327 E0.0758
G1 X69.59956 Y121.6947 E1.12538
G1 X67.87415 Y121.62517 E0.06155
G1 X65.25585 Y120.93171 E0.09654
G1 X62.93443 Y119.49957 E0.09722
G1 X61.343 Y117.7633 E0.08395
G1 X60.4077 Y116.11047 E0.06769
G1 X59.82791 Y114.27027 E0.06877
G1 X59.7111 Y106.66791 E0.271
G1 X59.96016 Y105.18024 E0.05376
G1 X60.75377 Y103.17914 E0.07673
G1 X62.00269 Y101.41595 E0.07701
G1 X63.77736 Y99.87907 E0.08368
M107
G1 X64.00482 Y100.14282 F3600000
M107
G1 F3000
G1 X64.0654 Y100.09058 E0.00285
G1 X65.46323 Y99.35941 E0.05623
G1 X66.96672 Y98.87974 E0.05625
G1 X69.5599 Y98.65335 E0.09278
G1 X100.7323 Y98.65677 E1.11106
G1 X102.38435 Y98.91508 E0.0596
G1 X103.98763 Y99.49381 E0.06075
G1 X105.48084 Y100.40375 E0.06232
G1 X106.75438 Y101.5544 E0.06117
G1 X108.24235 Y103.77428 E0.09525
G1 X108.75079 Y105.17856 E0.05323
G1 X109.01656 Y106.63298 E0.0527
G1 X109.04615 Y113.04151 E0.22842
G1 X108.62128 Y115.26581 E0.08071
G1 X108.11904 Y116.46502 E0.04634
G1 X107.45944 Y117.56682 E0.04577
G1 X106.26684 Y118.93375 E0.06466
G1 X104.79126 Y120.06934 E0.06636
G1 X103.11664 Y120.86282 E0.06605
G1 X101.15409 Y121.3048 E0.0717
G1 X69.60273 Y121.3462 E1.12457
G1 X67.90739 Y121.27773 E0.06048
G1 X65.37048 Y120.6016 E0.09358
G1 X63.13871 Y119.21619 E0.09363
G1 X61.61387 Y117.54314 E0.08068
G1 X60.72019 Y115.95517 E0.06495
G1 X60.17597 Y114.23945 E0.06415
G1 X60.0598 Y106.67829 E0.26953
G1 X60.29094 Y105.29149 E0.05011
G1 X61.06997 Y103.32716 E0.07532
G1 X62.27443 Y101.63514 E0.07403
G1 X63.95938 Y100.18201 E0.0793
M107
G1 X64.18621 Y100.44618 F3600000
M107
G1 F3000
G1 X64.27717 Y100.36808 E0.00427
G1 X65.61077 Y99.67548 E0.05356
G1 X67.01646 Y99.22521 E0.05261
G1 X69.56748 Y99.00184 E0.09127
G1 X100.71864 Y99.00526 E1.1103
G1 X102.31355 Y99.25672 E0.05755
G1 X103.85222 Y99.8154 E0.05834
G1 X105.28497 Y100.69246 E0.05988
G1 X106.50453 Y101.79828 E0.05868
G1 X107.92207 Y103.91325 E0.09075
G1 X108.41061 Y105.25564 E0.05092
G1 X108.67097 Y106.68048 E0.05163
G1 X108.69759 Y113.02617 E0.22618
G1 X108.29271 Y115.14827 E0.077
G1 X107.81358 Y116.2968 E0.04436
G1 X107.16847 Y117.37438 E0.04476
G1 X106.01595 Y118.69126 E0.06237
G1 X104.59402 Y119.78143 E0.06386
G1 X102.98535 Y120.53944 E0.06338
G1 X101.13443 Y120.95633 E0.06762
G1 X69.60592 Y120.9977 E1.12375
G1 X67.9408 Y120.9303 E0.0594
G1 X65.48576 Y120.27171 E0.0906
G1 X63.34381 Y118.93341 E0.09002
G1 X61.88525 Y117.32363 E0.07743
G1 X61.04656 Y115.83173 E0.061
G1 X60.52403 Y114.20826 E0.06079
G1 X60.40849 Y106.68861 E0.26805
G1 X60.62193 Y105.40208 E0.04648
G1 X61.3662 Y103.51196 E0.0724
G1 X62.54606 Y101.85449 E0.07252
G1 X64.14069 Y100.48527 E0.07491
M107
G1 X64.36684 Y100.74987 F3600000
M107
G1 F3000
G1 X64.48825 Y100.64611 E0.00569
G1 X65.75768 Y99.99182 E0.0509
G1 X67.06639 Y99.57066 E0.049
G1 X69.57508 Y99.35034 E0.08976
G1 X100.70486 Y99.35375 E1.10954
G1 X102.24223 Y99.59825 E0.05548
G1 X103.71616 Y100.13671 E0.05593
G1 X105.08852 Y100.98076 E0.05742
G1 X106.25436 Y102.04181 E0.05619
G1 X107.60179 Y104.05222 E0.08626
G1 X108.07805 Y105.36089 E0.04964
G1 X108.32532 Y106.7275 E0.0495
G1 X108.34904 Y113.01074 E0.22395
G1 X107.96413 Y115.03075 E0.07329
G1 X107.49684 Y116.15091 E0.04326
G1 X106.87779 Y117.18151 E0.04285
G1 X105.76547 Y118.44834 E0.06009
G1 X104.39735 Y119.49313 E0.06136
G1 X102.85461 Y120.21585 E0.06072
G1 X101.11476 Y120.60786 E0.06357
G1 X69.60911 Y120.6492 E1.12294
G1 X67.97411 Y120.58287 E0.05832
G1 X65.64838 Y119.96239 E0.08579
G1 X63.54914 Y118.65078 E0.08823
G1 X62.15715 Y117.1048 E0.07415
G1 X61.3725 Y115.70722 E0.05713
G1 X60.87208 Y114.17667 E0.05739
G1 X60.75718 Y106.69886 E0.26656
G1 X60.95315 Y105.51196 E0.04288
G1 X61.66255 Y103.69657 E0.06947
G1 X62.81758 Y102.074 E0.07099
G1 X64.32123 Y100.78885 E0.0705
M107
G1 X64.54669 Y101.05391 F3600000
M107
G1 F3000
G1 X64.69862 Y100.92469 E0.00711
G1 X65.90393 Y100.30845 E0.04825
G1 X67.11652 Y99.91609 E0.04543
G1 X69.58271 Y99.69884 E0.08824
G1 X100.69096 Y99.70225 E1.10877
G1 X102.17038 Y99.93968 E0.0534
G1 X103.57943 Y100.45774 E0.05351
G1 X104.89145 Y101.26865 E0.05497
G1 X106.00384 Y102.28497 E0.0537
G1 X107.28151 Y104.1912 E0.08179
G1 X107.74545 Y105.46599 E0.04835
G1 X107.97961 Y106.774 E0.04736
G1 X108.00049 Y112.99522 E0.22174
G1 X107.63542 Y114.91364 E0.0696
G1 X107.19149 Y115.98247 E0.04125
G1 X106.58719 Y116.98852 E0.04183
G1 X105.51542 Y118.20499 E0.05779
G1 X104.20127 Y119.20443 E0.05885
G1 X102.72443 Y119.89204 E0.05806
G1 X101.09507 Y120.25939 E0.05953
G1 X69.6123 Y120.3007 E1.12212
G1 X68.00761 Y120.23545 E0.05724
G1 X65.76403 Y119.63261 E0.0828
G1 X63.75536 Y118.3688 E0.08459
G1 X62.42962 Y116.88668 E0.07088
G1 X61.69796 Y115.58154 E0.05333
G1 X61.22012 Y114.14463 E0.05397
G1 X61.10588 Y106.70903 E0.26505
G1 X61.2844 Y105.62176 E0.03927
G1 X61.97925 Y103.84363 E0.06804
G1 X63.08852 Y102.29421 E0.06792
G1 X64.50099 Y101.09279 E0.06609
M107
G1 X64.72571 Y101.35831 F3600000
M107
G1 F3000
G1 X64.90834 Y101.20375 E0.00853
G1 X66.02517 Y100.63545 E0.04466
G1 X67.16704 Y100.26148 E0.04283
G1 X69.59036 Y100.04733 E0.08671
G1 X100.67693 Y100.05074 E1.108
G1 X102.09795 Y100.28098 E0.05131
G1 X103.44199 Y100.77847 E0.05108
G1 X104.69374 Y101.55609 E0.05252
G1 X105.75296 Y102.52774 E0.05123
G1 X106.96145 Y104.33064 E0.07736
G1 X107.40508 Y105.54232 E0.04599
G1 X107.63389 Y106.82046 E0.04628
G1 X107.65195 Y112.97962 E0.21953
G1 X107.30669 Y114.79654 E0.06592
G1 X106.87462 Y115.83681 E0.04015
G1 X106.29691 Y116.79503 E0.03988
G1 X105.26582 Y117.96117 E0.05548
G1 X104.00583 Y118.91529 E0.05633
G1 X102.59484 Y119.56801 E0.05541
G1 X101.07537 Y119.91092 E0.05552
G1 X69.61551 Y119.9522 E1.1213
G1 X68.04129 Y119.88804 E0.05616
G1 X65.88041 Y119.30307 E0.07979
G1 X63.96253 Y118.08751 E0.08093
G1 X62.70268 Y116.66932 E0.06761
G1 X62.0229 Y115.45458 E0.04961
G1 X61.56816 Y114.11211 E0.05052
G1 X61.45457 Y106.71943 E0.26352
G1 X61.62514 Y105.6971 E0.03694
G1 X62.29562 Y103.99138 E0.06532
G1 X63.35885 Y102.51517 E0.06484
G1 X64.67992 Y101.39708 E0.06169
M107
G1 X64.90389 Y101.66307 F3600000
M107
G1 F3000
G1 X65.11736 Y101.48333 E0.00995
G1 X66.14718 Y100.96214 E0.04114
G1 X67.21797 Y100.60683 E0.04021
G1 X69.59804 Y100.39583 E0.08516
G1 X100.66296 Y100.39923 E1.10723
G1 X101.99289 Y100.6137 E0.04801
G1 X103.30435 Y101.09913 E0.04984
G1 X104.49536 Y101.84307 E0.05005
G1 X105.50172 Y102.77012 E0.04877
G1 X106.64138 Y104.47008 E0.07295
G1 X107.07255 Y105.64773 E0.0447
G1 X107.28811 Y106.86635 E0.04411
G1 X107.30341 Y112.96392 E0.21733
G1 X106.97781 Y114.67991 E0.06225
G1 X106.5694 Y115.66812 E0.03811
G1 X106.00671 Y116.60141 E0.03884
G1 X105.01669 Y117.71686 E0.05316
G1 X103.81104 Y118.6257 E0.05381
G1 X102.46586 Y119.24375 E0.05276
G1 X101.05565 Y119.56245 E0.05153
G1 X69.61873 Y119.6037 E1.12049
G1 X68.07516 Y119.54064 E0.05506
G1 X65.99758 Y118.97381 E0.07676
G1 X64.17069 Y117.80694 E0.07726
G1 X62.97636 Y116.45277 E0.06436
G1 X62.34725 Y115.32619 E0.04599
G1 X61.91619 Y114.07905 E0.04703
G1 X61.80327 Y106.73007 E0.26197
G1 X61.96568 Y105.77335 E0.03459
G1 X62.61165 Y104.13987 E0.06261
G1 X63.62854 Y102.73691 E0.06176
G1 X64.85799 Y101.70172 E0.05729
M107
G1 X65.08117 Y101.96821 F3600000
M107
G1 F3000
G1 X65.32566 Y101.76345 E0.01137
G1 X66.27003 Y101.2885 E0.03768
G1 X67.26934 Y100.95213 E0.03758
G1 X69.60574 Y100.74432 E0.0836
G1 X100.64885 Y100.74773 E1.10645
G1 X101.92002 Y100.95491 E0.04591
G1 X103.16593 Y101.41945 E0.04739
G1 X104.29627 Y102.12956 E0.04758
G1 X105.25009 Y103.01209 E0.04632
G1 X106.32156 Y104.61005 E0.06857
G1 X106.73209 Y105.72373 E0.04231
G1 X106.94231 Y106.9122 E0.04302
G1 X106.95488 Y112.94814 E0.21514
G1 X106.64892 Y114.56329 E0.05859
G1 X106.2524 Y115.52272 E0.037
G1 X105.71688 Y116.40724 E0.03685
G1 X104.76807 Y117.47204 E0.05083
G1 X103.61695 Y118.33565 E0.05129
G1 X102.33752 Y118.91926 E0.05012
G1 X101.03588 Y119.21398 E0.04757
G1 X69.62195 Y119.2552 E1.11967
G1 X68.10925 Y119.19325 E0.05396
G1 X66.11557 Y118.64482 E0.0737
G1 X64.37988 Y117.52715 E0.07358
G1 X63.2507 Y116.23707 E0.06111
G1 X62.67093 Y115.19621 E0.04247
G1 X62.26421 Y114.04538 E0.0435
G1 X62.15198 Y106.74099 E0.26038
G1 X62.306 Y105.85057 E0.03221
G1 X62.92734 Y104.28912 E0.0599
G1 X63.89755 Y102.95947 E0.05867
G1 X65.03517 Y102.00673 E0.05289
M107
G1 X65.25752 Y102.27372 F3600000
M107
G1 F3000
G1 X65.53317 Y102.04415 E0.01279
G1 X66.3938 Y101.61449 E0.03429
G1 X67.32121 Y101.29738 E0.03493
G1 X69.61347 Y101.09282 E0.08203
G1 X100.63458 Y101.09622 E1.10567
M73 P1 R72
G1 X101.84648 Y101.29599 E0.04378
G1 X103.02668 Y101.73941 E0.04494
G1 X104.09643 Y102.41552 E0.04511
G1 X104.99806 Y103.25362 E0.04388
G1 X106.00174 Y104.75004 E0.06422
G1 X106.39966 Y105.8295 E0.04101
G1 X106.59644 Y106.9574 E0.04081
G1 X106.60636 Y112.93228 E0.21296
G1 X106.31985 Y114.4472 E0.05495
G1 X105.94731 Y115.35375 E0.03493
G1 X105.42715 Y116.21291 E0.0358
G1 X104.51998 Y117.22668 E0.04849
G1 X103.42359 Y118.0451 E0.04876
G1 X102.20984 Y118.59452 E0.04749
G1 X101.01607 Y118.86551 E0.04363
G1 X69.62518 Y118.9067 E1.11885
G1 X68.14356 Y118.84587 E0.05285
G1 X66.23443 Y118.31614 E0.07062
G1 X64.59018 Y117.24819 E0.06988
G1 X63.52574 Y116.02229 E0.05787
G1 X62.99386 Y115.06445 E0.03905
G1 X62.61221 Y114.01102 E0.03993
G1 X62.50069 Y106.75221 E0.25875
G1 X62.64606 Y105.92887 E0.0298
G1 X63.24265 Y104.43916 E0.0572
G1 X64.16584 Y103.18289 E0.05557
G1 X65.21142 Y102.31211 E0.0485
M107
G1 X65.43281 Y102.57651 F3600000
M107
G1 F3000
G1 X65.7071 Y102.34683 E0.01275
G1 X66.53892 Y101.93155 E0.03314
G1 X67.41355 Y101.63407 E0.03293
G1 X69.62103 Y101.44132 E0.07898
G1 X100.62014 Y101.44471 E1.10488
G1 X101.77221 Y101.63691 E0.04163
G1 X102.88657 Y102.059 E0.04247
G1 X103.8958 Y102.70092 E0.04263
G1 X104.74562 Y103.49469 E0.04145
G1 X105.68193 Y104.89004 E0.05989
G1 X106.06716 Y105.93507 E0.0397
G1 X106.25048 Y107.00191 E0.03858
G1 X106.25784 Y112.91634 E0.2108
G1 X105.99078 Y114.33114 E0.05132
G1 X105.63016 Y115.20866 E0.03381
G1 X105.13783 Y116.01796 E0.03376
G1 X104.27244 Y116.98075 E0.04614
G1 X103.23101 Y117.75404 E0.04623
G1 X102.08286 Y118.26952 E0.04486
G1 X100.9962 Y118.51705 E0.03972
G1 X69.62842 Y118.5582 E1.11802
G1 X68.1781 Y118.4985 E0.05174
G1 X66.35422 Y117.98779 E0.06751
G1 X64.80147 Y116.97 E0.06617
G1 X63.82168 Y115.83739 E0.05338
G1 X63.30536 Y114.90756 E0.03791
G1 X62.94991 Y113.92021 E0.0374
G1 X62.84938 Y106.76372 E0.2551
G1 X62.97655 Y106.04083 E0.02616
G1 X63.53717 Y104.62677 E0.05422
G1 X64.40585 Y103.43646 E0.05252
G1 X65.38681 Y102.61503 E0.0456
M107
G1 X65.60897 Y102.87881 F3600000
M107
G1 F3000
G1 X65.88165 Y102.64916 E0.01271
G1 X66.66243 Y102.25764 E0.03113
G1 X67.50571 Y101.97083 E0.03175
G1 X69.62841 Y101.78981 E0.07593
G1 X100.60552 Y101.79321 E1.1041
G1 X101.69716 Y101.97766 E0.03946
G1 X102.74553 Y102.37818 E0.04
G1 X103.69434 Y102.98574 E0.04016
G1 X104.49273 Y103.73529 E0.03903
G1 X105.36243 Y105.0307 E0.05561
G1 X105.72644 Y106.01004 E0.03724
G1 X105.90452 Y107.04638 E0.03748
G1 X105.90934 Y112.90032 E0.20865
G1 X105.66169 Y114.21511 E0.04769
G1 X105.31309 Y115.06338 E0.03269
G1 X104.84896 Y115.82234 E0.03171
G1 X104.0255 Y116.73423 E0.04379
G1 X103.03906 Y117.46257 E0.0437
G1 X101.98767 Y117.93386 E0.04107
G1 X100.97597 Y118.16858 E0.03702
G1 X69.63167 Y118.2097 E1.11719
G1 X68.21289 Y118.15114 E0.05061
G1 X66.475 Y117.65978 E0.06437
G1 X65.01383 Y116.69264 E0.06245
G1 X64.11739 Y115.65215 E0.04895
G1 X63.62843 Y114.77611 E0.03576
G1 X63.28765 Y113.82952 E0.03586
G1 X63.19805 Y106.77553 E0.25144
G1 X63.30736 Y106.15182 E0.02257
G1 X63.83234 Y104.81333 E0.05125
