; generated by PrusaSlicer 2.7.2+MacOS-arm64 on 2024-03-09 at 03:08:06 UTC


;
;

;
;

;
;

;
;

;
;
; 

; external perimeters extrusion width = 0.45mm
; perimeters extrusion width = 0.45mm
; infill extrusion width = 0.45mm
; solid infill extrusion width = 0.45mm
; top infill extrusion width = 0.40mm

; external perimeters extrusion width = 0.45mm
; perimeters extrusion width = 0.45mm
; infill extrusion width = 0.45mm
; solid infill extrusion width = 0.45mm
; top infill extrusion width = 0.40mm

; external perimeters extrusion width = 0.45mm
; perimeters extrusion width = 0.45mm
; infill extrusion width = 0.45mm
; solid infill extrusion width = 0.45mm
; top infill extrusion width = 0.40mm

M73 P0 R32

EXCLUDE_OBJECT_DEFINE NAME='Tennessee_stl' CENTER=28.906,66.904 POLYGON=[[37.192,43.767],[36.424,56.153],[33.811,79.394],[32.299,79.413],[31.796,80.812],[30.253,81.077],[28.994,84.546],[27.383,86.669],[27.294,86.876],[25.701,86.828],[24.855,87.938],[25.596,88.882],[24.052,90.161],[24.016,91.386],[22.288,93.072],[20.236,93.255],[21.612,82.360],[24.016,57.868],[23.902,56.151],[25.275,56.266],[25.732,48.828],[28.329,46.990],[29.856,47.208],[31.305,47.027],[32.029,45.488],[33.116,46.303],[33.931,44.491],[35.562,45.306]]
EXCLUDE_OBJECT_DEFINE NAME='Texas_stl' CENTER=91.477,107.183 POLYGON=[[97.343,86.765],[97.873,86.967],[96.842,89.652],[97.971,94.393],[108.658,100.565],[108.224,100.935],[108.585,101.223],[108.945,102.377],[108.801,103.674],[109.305,104.467],[109.377,105.908],[109.303,105.756],[109.378,105.908],[109.089,106.629],[108.368,107.422],[108.441,108.431],[107.792,109.080],[107.720,112.828],[107.576,114.846],[106.711,114.702],[106.278,115.062],[104.169,116.094],[101.872,115.766],[100.747,115.344],[99.247,115.953],[98.591,115.297],[98.028,115.906],[96.762,116.234],[95.872,115.906],[95.309,116.656],[92.462,116.961],[92.055,117.775],[91.242,117.775],[90.021,118.487],[90.224,125.708],[81.274,126.318],[80.031,109.872],[69.035,110.828],[69.445,109.748],[73.810,105.307],[75.015,100.716],[79.079,98.458],[81.111,101.920],[85.175,101.017],[88.412,94.996],[90.595,92.286],[91.498,88.673],[94.462,87.438],[97.120,86.681]]
EXCLUDE_OBJECT_DEFINE NAME='Massachussetts_stl' CENTER=35.875,174.837 POLYGON=[[53.085,168.865],[59.521,170.598],[54.694,178.519],[52.837,176.292],[55.436,175.301],[56.303,173.073],[52.837,171.464],[47.886,176.415],[43.678,178.519],[47.391,184.956],[44.668,184.584],[43.554,187.060],[40.991,185.484],[39.099,183.215],[16.908,177.793],[16.782,166.823],[24.482,168.525],[35.985,170.860],[40.482,172.330],[41.866,169.044],[44.288,168.006],[46.277,165.152],[49.990,169.608],[49.495,165.028]]

;TYPE:Custom
CALCULATE_PA MATERIAL=PLA BOWDEN_LENGTH=6 LAYER_HEIGHT=0.2 NOZZLE_SIZE=0.4 PRINT_SPEED=70


START_PRINT EXTRUDER=230 BED=65
G21 ; set units to millimeters
G90 ; use absolute coordinates
M83 ; use relative distances for extrusion
; Filament gcode
M107
;LAYER_CHANGE
;Z:0.2
;HEIGHT:0.2
G1 E-1 F3000
G1 Z.2 F60000
G1 X16.05 Y162.077
G1 Z.2
G1 E1 F3000
;TYPE:Skirt/Brim
;WIDTH:0.45
G1 F1800
G1 X17.426 Y162.069 E.05123
G1 X25.474 Y163.847 E.30688
G1 X37.064 Y166.2 E.44034
G1 X37.872 Y166.457 E.03157
G1 X38.286 Y165.87 E.02675
G1 X38.976 Y165.23 E.03504
G1 X39.719 Y164.768 E.03258
G1 X41.146 Y164.152 E.05787
G1 X42.663 Y162.001 E.098
G1 X43.471 Y161.253 E.041
G1 X44.363 Y160.748 E.03817
G1 X45.514 Y160.417 E.04459
G1 X46.747 Y160.377 E.04593
G1 X47.765 Y160.577 E.03863
G1 X48.181 Y160.401 E.01682
G1 X48.835 Y160.253 E.02497
G1 X50.108 Y160.248 E.0474
G1 X51.364 Y160.576 E.04833
G1 X51.912 Y160.856 E.02291
G1 X52.441 Y161.223 E.02397
G1 X55.642 Y164.603 E.17333
G1 X61.201 Y166.104 E.21439
G1 X62.375 Y166.734 E.04961
G1 X63.224 Y167.542 E.04364
G1 X63.863 Y168.566 E.04494
G1 X64.27 Y169.857 E.0504
G1 X64.323 Y170.66 E.02996
G1 X64.251 Y171.448 E.02946
G1 X63.807 Y172.752 E.05129
G1 X58.569 Y181.348 E.3748
G1 X57.87 Y182.123 E.03886
G1 X56.898 Y182.789 E.04387
G1 X55.627 Y183.224 E.05002
G1 X54.398 Y183.31 E.04587
G1 X53.288 Y183.112 E.04198
G1 X52.336 Y182.704 E.03856
G1 X51.703 Y182.248 E.02905
G1 X51.459 Y182.466 E.01218
G1 X51.848 Y183.161 E.02966
G1 X52.122 Y184.109 E.03674
G1 X52.194 Y184.626 E.01944
G1 X52.125 Y185.815 E.04435
G1 X52.023 Y186.251 E.01667
G1 X51.614 Y187.241 E.03988
G1 X51.041 Y188.074 E.03765
G1 X50.463 Y188.66 E.03065
G1 X49.713 Y189.17 E.03377
G1 X48.894 Y189.525 E.03324
G1 X48.241 Y189.694 E.02511
G1 X47.516 Y189.751 E.02708
G1 X47.015 Y190.386 E.03012
G1 X46.455 Y190.884 E.0279
G1 X45.782 Y191.311 E.02968
G1 X44.725 Y191.705 E.042
G1 X43.728 Y191.858 E.03756
G1 X42.646 Y191.771 E.04042
G1 X41.646 Y191.46 E.03899
G1 X38.072 Y189.272 E.15603
G1 X37.458 Y188.71 E.03099
G1 X36.437 Y187.486 E.05935
G1 X15.495 Y182.37 E.80268
G1 X14.535 Y181.958 E.0389
G1 X13.672 Y181.33 E.03974
G1 X13.045 Y180.621 E.03524
G1 X12.623 Y179.937 E.02992
G1 X12.291 Y179.074 E.03443
G1 X12.13 Y178.13 E.03566
G1 X12.017 Y166.289 E.4409
G1 X12.304 Y165.092 E.04583
G1 X12.915 Y163.971 E.04754
G1 X13.474 Y163.353 E.03103
G1 X14.084 Y162.86 E.0292
G1 X14.735 Y162.475 E.02816
G1 X15.992 Y162.094 E.04891
G1 X15.992 Y162.094 F60000
G1 X16.097 Y162.483
G1 F1800
G1 X17.362 Y162.472 E.0471
G1 X25.389 Y164.246 E.30609
G1 X36.972 Y166.597 E.44007
G1 X38.036 Y166.937 E.04159
G1 X38.581 Y166.151 E.03561
G1 X39.209 Y165.565 E.03198
G1 X39.895 Y165.135 E.03015
G1 X41.413 Y164.48 E.06156
G1 X42.955 Y162.285 E.09988
G1 X43.73 Y161.569 E.03929
G1 X44.541 Y161.114 E.03462
G1 X45.552 Y160.823 E.03917
G1 X46.737 Y160.784 E.04415
G1 X47.761 Y161.023 E.03915
G1 X48.29 Y160.793 E.02148
G1 X48.903 Y160.654 E.0234
G1 X50.032 Y160.649 E.04204
G1 X51.199 Y160.949 E.04486
G1 X51.714 Y161.212 E.02153
G1 X52.191 Y161.545 E.02166
G1 X55.425 Y164.966 E.17528
G1 X61.072 Y166.491 E.21779
G1 X62.116 Y167.05 E.04409
G1 X62.895 Y167.782 E.0398
G1 X63.484 Y168.716 E.04111
G1 X63.866 Y169.91 E.04668
G1 X63.916 Y170.64 E.02724
G1 X63.848 Y171.387 E.02793
G1 X63.448 Y172.56 E.04614
G1 X58.232 Y181.119 E.3732
G1 X57.584 Y181.832 E.03587
G1 X56.74 Y182.413 E.03815
G1 X55.522 Y182.83 E.04793
G1 X54.397 Y182.902 E.04197
G1 X53.427 Y182.729 E.03669
G1 X52.518 Y182.34 E.03681
G1 X51.74 Y181.77 E.03591
G1 X50.299 Y180.065 E.08312
G1 X49.789 Y180.364 E.02201
G1 X51.464 Y183.298 E.12579
G1 X51.728 Y184.209 E.03532
G1 X51.787 Y184.624 E.01561
G1 X51.724 Y185.742 E.04169
G1 X51.639 Y186.114 E.01421
G1 X51.266 Y187.028 E.03676
G1 X50.715 Y187.828 E.03617
G1 X50.216 Y188.335 E.02649
G1 X49.533 Y188.805 E.03087
G1 X48.748 Y189.145 E.03185
G1 X48.158 Y189.295 E.02267
G1 X47.306 Y189.357 E.03181
G1 X46.73 Y190.094 E.03483
G1 X46.197 Y190.568 E.02656
G1 X45.584 Y190.955 E.02699
G1 X44.604 Y191.316 E.03889
G1 X43.693 Y191.451 E.03429
G1 X42.704 Y191.368 E.03695
G1 X41.793 Y191.08 E.03557
G1 X38.332 Y188.959 E.15114
G1 X37.762 Y188.438 E.02875
G1 X36.663 Y187.122 E.06384
G1 X15.608 Y181.978 E.80701
G1 X14.742 Y181.607 E.03508
G1 X13.942 Y181.024 E.03686
G1 X13.363 Y180.366 E.03263
G1 X12.98 Y179.741 E.02729
G1 X12.679 Y178.949 E.03155
G1 X12.537 Y178.11 E.03168
G1 X12.419 Y166.357 E.43763
G1 X12.675 Y165.261 E.04191
G1 X13.234 Y164.225 E.04383
G1 X13.744 Y163.659 E.02837
G1 X14.305 Y163.203 E.02692
G1 X14.921 Y162.838 E.02666
G1 X16.04 Y162.501 E.04351
G1 X16.04 Y162.501 F60000
G1 X16.155 Y162.891
G1 F1800
G1 X16.185 Y162.882 E.00117
G1 X17.296 Y162.874 E.04137
G1 X25.305 Y164.644 E.3054
G1 X36.879 Y166.994 E.43974
G1 X38.239 Y167.43 E.05318
G1 X38.877 Y166.432 E.0441
G1 X39.443 Y165.898 E.02897
G1 X40.071 Y165.503 E.02762
G1 X41.681 Y164.808 E.06529
G1 X43.247 Y162.569 E.10173
G1 X43.987 Y161.885 E.03752
M73 P0 R31
G1 X44.717 Y161.482 E.03105
G1 X45.591 Y161.229 E.03388
G1 X46.726 Y161.192 E.04228
G1 X47.448 Y161.339 E.02743
G1 X47.768 Y161.466 E.01282
G1 X48.4 Y161.186 E.02574
G1 X48.972 Y161.056 E.02184
G1 X49.958 Y161.05 E.03671
G1 X51.035 Y161.322 E.04136
G1 X51.516 Y161.568 E.02012
G1 X51.939 Y161.866 E.01927
G1 X55.208 Y165.329 E.17731
G1 X60.944 Y166.878 E.22122
G1 X61.859 Y167.366 E.03861
G1 X62.566 Y168.024 E.03596
G1 X63.105 Y168.867 E.03726
G1 X63.461 Y169.963 E.04291
G1 X63.508 Y170.651 E.02568
G1 X63.445 Y171.324 E.02517
G1 X63.089 Y172.367 E.04103
G1 X57.895 Y180.89 E.37163
G1 X57.301 Y181.539 E.03276
G1 X56.534 Y182.061 E.03454
G1 X55.469 Y182.426 E.04192
G1 X54.396 Y182.494 E.04003
G1 X53.564 Y182.345 E.03147
G1 X52.739 Y181.997 E.03334
G1 X52.001 Y181.456 E.03407
G1 X50.373 Y179.519 E.09421
G1 X49.846 Y179.865 E.02347
G1 X49.216 Y180.182 E.02626
G1 X51.098 Y183.479 E.14135
G1 X51.379 Y184.624 E.0439
G1 X51.323 Y185.672 E.03908
G1 X51.256 Y185.977 E.01163
G1 X50.898 Y186.853 E.03524
G1 X50.391 Y187.581 E.03303
G1 X49.968 Y188.012 E.02249
G1 X49.352 Y188.44 E.02793
G1 X48.601 Y188.765 E.03047
G1 X48.111 Y188.891 E.01884
G1 X47.373 Y188.944 E.02755
G1 X47.057 Y188.913 E.01182
G1 X46.911 Y189.201 E.01202
G1 X46.446 Y189.802 E.02829
G1 X45.939 Y190.252 E.02524
G1 X45.387 Y190.598 E.02426
G1 X44.485 Y190.926 E.03574
G1 X43.703 Y191.044 E.02945
G1 X42.762 Y190.964 E.03516
G1 X41.941 Y190.7 E.03211
G1 X38.591 Y188.644 E.14635
G1 X38.065 Y188.166 E.02646
G1 X36.89 Y186.759 E.06825
G1 X15.721 Y181.587 E.81138
G1 X14.949 Y181.256 E.03128
G1 X14.213 Y180.72 E.0339
G1 X13.682 Y180.112 E.03006
G1 X13.338 Y179.546 E.02466
G1 X13.076 Y178.86 E.02734
G1 X12.944 Y178.089 E.02912
G1 X12.821 Y166.426 E.43428
G1 X13.065 Y165.381 E.03996
G1 X13.579 Y164.442 E.03986
G1 X14.013 Y163.964 E.02404
G1 X14.525 Y163.545 E.02463
G1 X15.106 Y163.202 E.02512
G1 X16.098 Y162.908 E.03852
G1 X16.098 Y162.908 F60000
G1 X16.212 Y163.29
G1 F1800
G1 X16.219 Y163.289 E.00026
G1 X17.231 Y163.277 E.03768
G1 X25.22 Y165.042 E.30463
G1 X36.787 Y167.39 E.43947
G1 X38.471 Y167.932 E.06587
G1 X38.701 Y167.407 E.02134
G1 X39.2 Y166.68 E.03283
G1 X39.678 Y166.231 E.02442
G1 X40.247 Y165.87 E.02509
G1 X41.949 Y165.136 E.06901
G1 X43.54 Y162.853 E.10361
G1 X44.244 Y162.202 E.0357
G1 X44.892 Y161.85 E.02746
G1 X45.63 Y161.635 E.02862
G1 X46.714 Y161.6 E.04038
G1 X47.344 Y161.733 E.02397
G1 X47.775 Y161.91 E.01735
G1 X48.511 Y161.578 E.03006
G1 X49.041 Y161.458 E.02023
G1 X49.885 Y161.451 E.03143
G1 X50.872 Y161.696 E.03786
G1 X51.295 Y161.91 E.01765
G1 X51.688 Y162.187 E.0179
G1 X54.99 Y165.692 E.1793
G1 X60.816 Y167.265 E.22469
G1 X61.603 Y167.684 E.0332
G1 X62.239 Y168.268 E.03215
G1 X62.727 Y169.021 E.03341
G1 X63.057 Y170.018 E.0391
G1 X63.101 Y170.63 E.02285
G1 X63.042 Y171.262 E.02363
G1 X62.73 Y172.174 E.03589
G1 X57.558 Y180.661 E.37006
G1 X57.019 Y181.245 E.02959
G1 X56.329 Y181.708 E.03094
G1 X55.416 Y182.021 E.03594
G1 X54.396 Y182.086 E.03806
G1 X53.661 Y181.949 E.02784
G1 X52.96 Y181.654 E.02832
G1 X52.262 Y181.142 E.03223
G1 X50.399 Y178.916 E.10808
G1 X50.064 Y179.235 E.01722
G1 X49.652 Y179.507 E.01838
G1 X48.649 Y180.012 E.04181
G1 X50.713 Y183.614 E.15457
G1 X50.973 Y184.662 E.0402
G1 X50.871 Y185.841 E.04406
G1 X50.551 Y186.64 E.03205
G1 X50.067 Y187.335 E.03153
G1 X49.718 Y187.69 E.01854
G1 X49.17 Y188.075 E.02494
G1 X48.481 Y188.376 E.028
G1 X48.062 Y188.486 E.01613
G1 X47.365 Y188.537 E.02602
G1 X46.813 Y188.471 E.0207
G1 X46.574 Y188.973 E.0207
G1 X46.159 Y189.512 E.02533
G1 X45.708 Y189.917 E.02257
G1 X45.19 Y190.241 E.02275
G1 X44.368 Y190.536 E.03252
G1 X43.669 Y190.637 E.0263
G1 X42.823 Y190.561 E.03163
G1 X42.091 Y190.321 E.02868
G1 X38.85 Y188.33 E.14163
G1 X38.368 Y187.894 E.0242
G1 X37.117 Y186.395 E.0727
G1 X15.834 Y181.195 E.81575
G1 X15.155 Y180.904 E.02751
M73 P1 R31
G1 X14.484 Y180.416 E.03089
G1 X14.001 Y179.859 E.02745
G1 X13.696 Y179.353 E.022
G1 X13.464 Y178.736 E.02454
G1 X13.351 Y178.069 E.02519
G1 X13.223 Y166.492 E.43108
G1 X13.437 Y165.549 E.036
G1 X13.898 Y164.697 E.03607
G1 X14.304 Y164.25 E.02248
G1 X14.77 Y163.871 E.02236
G1 X15.291 Y163.565 E.0225
G1 X16.155 Y163.308 E.03356
G1 X16.155 Y163.308 F60000
G1 X16.268 Y163.698
G1 F1800
G1 X16.305 Y163.687 E.00144
G1 X17.166 Y163.679 E.03206
G1 X25.136 Y165.44 E.30391
G1 X36.695 Y167.787 E.43917
G1 X38.7 Y168.434 E.07844
G1 X39.049 Y167.62 E.03298
G1 X39.522 Y166.93 E.03115
G1 X39.94 Y166.543 E.02121
G1 X40.423 Y166.237 E.02129
G1 X42.216 Y165.464 E.0727
G1 X43.862 Y163.103 E.10716
G1 X44.463 Y162.546 E.03051
G1 X45.031 Y162.233 E.02415
G1 X45.673 Y162.041 E.02495
G1 X46.655 Y162.003 E.03659
G1 X47.24 Y162.127 E.02227
G1 X47.779 Y162.355 E.02179
G1 X48.658 Y161.958 E.03591
G1 X49.107 Y161.86 E.01711
G1 X49.815 Y161.852 E.02636
G1 X50.71 Y162.071 E.03431
G1 X51.435 Y162.506 E.03148
G1 X54.773 Y166.055 E.18141
G1 X60.688 Y167.653 E.22813
G1 X61.35 Y168.003 E.02788
G1 X61.914 Y168.514 E.02834
G1 X62.35 Y169.177 E.02955
G1 X62.653 Y170.074 E.03525
G1 X62.694 Y170.641 E.02117
G1 X62.639 Y171.198 E.02084
G1 X62.371 Y171.981 E.03081
G1 X57.221 Y180.431 E.36845
G1 X56.738 Y180.949 E.02637
G1 X56.128 Y181.353 E.02724
G1 X55.314 Y181.626 E.03197
G1 X54.399 Y181.678 E.03412
G1 X53.761 Y181.554 E.0242
G1 X53.142 Y181.29 E.02506
G1 X52.558 Y180.862 E.02696
G1 X50.427 Y178.315 E.12365
G1 X49.822 Y178.906 E.03149
G1 X49.438 Y179.16 E.01714
G1 X48.081 Y179.841 E.05653
G1 X50.329 Y183.75 E.1679
G1 X50.567 Y184.697 E.03636
G1 X50.487 Y185.708 E.03776
G1 X50.203 Y186.427 E.02878
G1 X49.742 Y187.088 E.03001
G1 X49.467 Y187.369 E.01464
G1 X48.986 Y187.711 E.02197
G1 X48.358 Y187.987 E.02554
G1 X48.012 Y188.082 E.01336
G1 X47.356 Y188.129 E.02449
G1 X46.568 Y188.027 E.02958
G1 X46.236 Y188.745 E.02945
G1 X45.871 Y189.224 E.02242
G1 X45.477 Y189.581 E.0198
G1 X44.993 Y189.884 E.02126
G1 X44.253 Y190.145 E.02922
G1 X43.638 Y190.231 E.02312
G1 X42.886 Y190.158 E.02813
G1 X42.243 Y189.943 E.02524
G1 X39.108 Y188.015 E.13704
G1 X38.671 Y187.622 E.02188
G1 X37.343 Y186.031 E.07716
G1 X15.946 Y180.804 E.82012
G1 X15.361 Y180.553 E.0237
G1 X14.756 Y180.113 E.02785
G1 X14.322 Y179.608 E.02479
G1 X14.056 Y179.161 E.01937
G1 X13.853 Y178.613 E.02176
G1 X13.758 Y178.048 E.02133
G1 X13.626 Y166.556 E.42792
G1 X13.81 Y165.715 E.03205
G1 X14.217 Y164.951 E.03223
G1 X14.573 Y164.555 E.01983
G1 X15.014 Y164.197 E.02115
G1 X15.473 Y163.93 E.01977
G1 X16.211 Y163.715 E.02862
G1 X16.211 Y163.715 F60000
G1 X16.323 Y164.098
G1 F1800
G1 X16.34 Y164.094 E.00065
G1 X17.102 Y164.082 E.02838
G1 X25.052 Y165.839 E.30315
G1 X36.603 Y168.184 E.43886
G1 X38.932 Y168.937 E.09114
G1 X39.397 Y167.833 E.0446
G1 X39.844 Y167.18 E.02946
G1 X40.2 Y166.857 E.0179
G1 X40.599 Y166.605 E.01757
G1 X42.484 Y165.791 E.07645
G1 X44.183 Y163.354 E.11061
G1 X44.684 Y162.889 E.02545
G1 X45.173 Y162.615 E.02087
G1 X45.718 Y162.446 E.02125
G1 X46.596 Y162.407 E.03272
G1 X47.135 Y162.521 E.02051
G1 X47.783 Y162.837 E.02684
G1 X48.77 Y162.35 E.04098
G1 X49.137 Y162.267 E.01401
G1 X49.747 Y162.255 E.02272
G1 X50.549 Y162.445 E.03069
G1 X51.181 Y162.825 E.02746
G1 X54.555 Y166.418 E.18352
G1 X60.56 Y168.04 E.2316
G1 X61.098 Y168.324 E.02265
G1 X61.592 Y168.763 E.02461
G1 X61.975 Y169.336 E.02566
G1 X62.25 Y170.132 E.03136
G1 X62.287 Y170.62 E.01822
G1 X62.237 Y171.135 E.01927
G1 X62.012 Y171.787 E.02568
G1 X56.885 Y180.2 E.36683
G1 X56.46 Y180.651 E.02307
G1 X55.929 Y180.997 E.0236
G1 X55.215 Y181.231 E.02798
G1 X54.406 Y181.271 E.03016
G1 X53.865 Y181.16 E.02056
G1 X53.326 Y180.926 E.02188
G1 X52.854 Y180.582 E.02175
G1 X50.456 Y177.716 E.13914
G1 X49.553 Y178.601 E.04708
G1 X49.227 Y178.812 E.01446
G1 X47.512 Y179.671 E.07142
G1 X49.944 Y183.886 E.18119
G1 X50.161 Y184.729 E.03241
G1 X50.101 Y185.576 E.03162
G1 X49.854 Y186.216 E.02554
G1 X49.418 Y186.842 E.0284
G1 X49.215 Y187.05 E.01082
G1 X48.802 Y187.347 E.01894
G1 X47.927 Y187.683 E.0349
G1 X47.351 Y187.722 E.0215
G1 X46.326 Y187.582 E.03852
G1 X45.876 Y188.553 E.03985
G1 X45.562 Y188.959 E.01911
G1 X45.219 Y189.265 E.01711
G1 X44.799 Y189.526 E.01841
G1 X44.139 Y189.754 E.026
G1 X43.65 Y189.823 E.01839
G1 X42.989 Y189.764 E.02471
G1 X42.435 Y189.583 E.0217
G1 X39.365 Y187.698 E.13413
G1 X38.974 Y187.349 E.01951
G1 X37.57 Y185.668 E.08155
G1 X16.059 Y180.412 E.8245
G1 X15.566 Y180.201 E.01997
G1 X15.029 Y179.81 E.02473
G1 X14.644 Y179.358 E.02211
G1 X14.416 Y178.971 E.01672
G1 X14.251 Y178.524 E.01774
