; generated by PrusaSlicer 2.7.2+MacOS-arm64 on 2024-03-08 at 23:58:29 UTC


;
;

;
;

;
;

;
;

;
;
; 

; external perimeters extrusion width = 0.45mm
; perimeters extrusion width = 0.45mm
; infill extrusion width = 0.45mm
; solid infill extrusion width = 0.45mm
; top infill extrusion width = 0.40mm

; external perimeters extrusion width = 0.45mm
; perimeters extrusion width = 0.45mm
; infill extrusion width = 0.45mm
; solid infill extrusion width = 0.45mm
; top infill extrusion width = 0.40mm

; external perimeters extrusion width = 0.45mm
; perimeters extrusion width = 0.45mm
; infill extrusion width = 0.45mm
; solid infill extrusion width = 0.45mm
; top infill extrusion width = 0.40mm

M73 P0 R8

EXCLUDE_OBJECT_DEFINE NAME='Tennessee_stl' CENTER=21.190,36.152 POLYGON=[[27.130,19.563],[26.580,28.443],[24.707,45.105],[23.622,45.118],[23.262,46.121],[22.156,46.311],[21.253,48.798],[20.034,50.469],[18.892,50.434],[18.286,51.230],[18.817,51.907],[17.710,52.824],[17.685,53.702],[16.446,54.910],[14.975,55.042],[15.961,47.231],[17.684,29.672],[17.602,28.442],[18.587,28.524],[18.915,23.192],[20.776,21.874],[21.871,22.030],[22.910,21.900],[23.429,20.796],[24.208,21.381],[24.793,20.082],[25.962,20.667]]
EXCLUDE_OBJECT_DEFINE NAME='Texas_stl' CENTER=77.085,93.503 POLYGON=[[81.591,77.716],[82.027,77.882],[81.231,79.956],[82.103,83.620],[90.362,88.389],[90.026,88.675],[90.305,88.898],[90.583,89.789],[90.472,90.792],[90.862,91.404],[90.917,92.518],[90.695,93.075],[90.138,93.688],[90.193,94.468],[89.692,94.969],[89.636,97.865],[89.525,99.425],[88.857,99.314],[88.522,99.592],[86.892,100.389],[85.118,100.135],[84.248,99.809],[83.089,100.280],[82.582,99.773],[82.147,100.244],[81.169,100.498],[80.481,100.244],[80.046,100.824],[77.846,101.059],[77.532,101.688],[76.903,101.688],[75.960,102.238],[76.117,107.818],[69.201,108.290],[68.241,95.581],[59.744,96.320],[60.060,95.485],[63.433,92.053],[64.364,88.506],[67.505,86.761],[69.075,89.436],[72.216,88.738],[74.717,84.086],[76.403,81.992],[77.101,79.200],[79.392,78.246],[81.446,77.660]]
EXCLUDE_OBJECT_DEFINE NAME='Massachussetts_stl' CENTER=36.474,175.155 POLYGON=[[49.155,170.754],[53.898,172.031],[50.341,177.868],[48.973,176.226],[50.888,175.497],[51.527,173.855],[48.973,172.669],[45.325,176.318],[42.224,177.868],[44.960,182.611],[42.953,182.337],[42.133,184.161],[40.244,183.000],[38.850,181.328],[22.498,177.333],[22.405,169.249],[28.079,170.503],[36.555,172.224],[39.869,173.308],[40.889,170.886],[42.673,170.121],[44.139,168.018],[46.875,171.301],[46.510,167.927]]

;TYPE:Custom
CALCULATE_PA MATERIAL=PLA BOWDEN_LENGTH=6 LAYER_HEIGHT=0.2 NOZZLE_SIZE=0.4 PRINT_SPEED=70


START_PRINT EXTRUDER=230 BED=65
G21 ; set units to millimeters
G90 ; use absolute coordinates
M83 ; use relative distances for extrusion
; Filament gcode
M107
;LAYER_CHANGE
;Z:0.2
;HEIGHT:0.2
G1 E-1 F3000
G1 Z.2 F60000
G1 X21.672 Y164.503
G1 Z.2
G1 E1 F3000
;TYPE:Skirt/Brim
;WIDTH:0.45
G1 F1800
G1 X23.049 Y164.495 E.05127
G1 X29.07 Y165.826 E.2296
G1 X37.493 Y167.536 E.32002
G1 X38.067 Y167.021 E.02871
G1 X38.75 Y166.605 E.02978
G1 X39.536 Y166.265 E.03189
G1 X40.603 Y164.777 E.06818
G1 X41.333 Y164.121 E.03654
G1 X42.184 Y163.631 E.03656
G1 X43.312 Y163.291 E.04387
G1 X44.409 Y163.231 E.04091
G1 X45.119 Y163.33 E.02669
G1 X45.845 Y163.154 E.02781
G1 X47.115 Y163.144 E.04729
G1 X48.377 Y163.474 E.04857
G1 X48.91 Y163.745 E.02226
G1 X49.399 Y164.073 E.02192
G1 X51.709 Y166.49 E.12449
G1 X55.52 Y167.516 E.14695
G1 X56.79 Y168.194 E.0536
G1 X57.581 Y168.948 E.04069
G1 X58.175 Y169.862 E.04059
G1 X58.615 Y171.127 E.04987
G1 X58.7 Y171.984 E.03207
G1 X58.617 Y172.925 E.03517
G1 X58.192 Y174.173 E.04909
G1 X54.138 Y180.8 E.28926
G1 X53.401 Y181.571 E.03971
G1 X52.497 Y182.162 E.04021
G1 X51.249 Y182.579 E.04899
G1 X50.102 Y182.661 E.04282
G1 X49.748 Y182.615 E.01329
G1 X49.7 Y183.439 E.03073
G1 X49.556 Y184.038 E.02294
G1 X49.212 Y184.841 E.03253
G1 X48.573 Y185.772 E.04204
G1 X48.045 Y186.305 E.02793
G1 X47.37 Y186.776 E.03065
G1 X46.439 Y187.192 E.03797
G1 X45.721 Y187.333 E.02724
G1 X45.07 Y187.956 E.03355
G1 X44.447 Y188.369 E.02783
G1 X43.333 Y188.797 E.04443
G1 X42.311 Y188.958 E.03852
G1 X40.913 Y188.804 E.05237
G1 X39.931 Y188.421 E.03925
G1 X37.461 Y186.891 E.10818
G1 X36.75 Y186.266 E.03525
G1 X36.188 Y185.6 E.03245
G1 X21.02 Y181.888 E.58143
G1 X20.125 Y181.498 E.03635
G1 X19.261 Y180.869 E.03979
G1 X18.64 Y180.167 E.0349
G1 X18.242 Y179.537 E.02775
G1 X17.886 Y178.634 E.03614
G1 X17.72 Y177.67 E.03642
G1 X17.654 Y168.594 E.33794
G1 X17.974 Y167.398 E.0461
G1 X18.568 Y166.355 E.04469
G1 X19.076 Y165.8 E.02801
G1 X19.657 Y165.321 E.02804
G1 X20.358 Y164.901 E.03043
G1 X21.615 Y164.52 E.04891
G1 X21.615 Y164.52 F60000
G1 X21.72 Y164.91
G1 F1800
G1 X22.984 Y164.898 E.04707
G1 X28.986 Y166.224 E.22887
G1 X37.615 Y167.976 E.32785
G1 X38.295 Y167.358 E.03421
M73 P1 R8
G1 X38.949 Y166.961 E.02849
G1 X39.801 Y166.594 E.03454
G1 X40.892 Y165.065 E.06994
G1 X41.588 Y164.439 E.03485
G1 X42.365 Y163.997 E.03328
G1 X43.359 Y163.697 E.03866
G1 X44.411 Y163.638 E.03923
G1 X45.14 Y163.744 E.02743
G1 X45.876 Y163.56 E.02825
G1 X47.041 Y163.545 E.04338
G1 X48.214 Y163.847 E.0451
G1 X48.694 Y164.09 E.02003
G1 X49.153 Y164.399 E.0206
G1 X51.493 Y166.853 E.12625
G1 X55.392 Y167.903 E.15035
G1 X56.531 Y168.509 E.04804
G1 X57.253 Y169.19 E.03695
G1 X57.82 Y170.063 E.03876
G1 X58.222 Y171.235 E.04613
G1 X58.294 Y172.003 E.02872
G1 X58.223 Y172.819 E.0305
G1 X57.833 Y173.98 E.0456
G1 X53.802 Y180.569 E.2876
G1 X53.157 Y181.245 E.03479
G1 X52.34 Y181.786 E.03648
G1 X51.193 Y182.175 E.0451
G1 X50.101 Y182.253 E.04076
G1 X49.369 Y182.131 E.02763
G1 X49.295 Y183.396 E.04718
G1 X49.165 Y183.925 E.02028
G1 X48.864 Y184.628 E.02847
G1 X48.27 Y185.5 E.03928
G1 X47.796 Y185.983 E.0252
G1 X47.154 Y186.431 E.02915
G1 X46.297 Y186.81 E.03489
G1 X45.503 Y186.959 E.03008
G1 X45.267 Y187.239 E.01363
G1 X44.812 Y187.642 E.02263
G1 X44.242 Y188.017 E.0254
G1 X43.208 Y188.409 E.04117
G1 X42.326 Y188.551 E.03326
G1 X41.033 Y188.414 E.04841
G1 X40.129 Y188.065 E.03608
G1 X37.69 Y186.554 E.10683
G1 X37.032 Y185.971 E.03273
G1 X36.414 Y185.236 E.03575
G1 X21.165 Y181.507 E.58451
G1 X20.332 Y181.147 E.03379
G1 X19.531 Y180.564 E.03689
G1 X18.957 Y179.911 E.03237
G1 X18.597 Y179.337 E.02523
G1 X18.273 Y178.506 E.03321
G1 X18.126 Y177.651 E.0323
G1 X18.055 Y168.671 E.33437
G1 X18.342 Y167.575 E.04218
G1 X18.885 Y166.612 E.04116
G1 X19.366 Y166.085 E.02657
G1 X19.902 Y165.646 E.0258
G1 X20.544 Y165.264 E.02782
G1 X21.662 Y164.927 E.04348
G1 X21.662 Y164.927 F60000
G1 X21.778 Y165.317
G1 F1800
G1 X21.807 Y165.308 E.00113
G1 X22.918 Y165.3 E.04137
G1 X28.902 Y166.622 E.22818
G1 X37.764 Y168.455 E.33695
G1 X37.921 Y168.249 E.00964
G1 X38.525 Y167.695 E.03052
G1 X39.123 Y167.329 E.02611
G1 X40.067 Y166.922 E.03828
G1 X41.181 Y165.352 E.07168
G1 X41.843 Y164.757 E.03314
G1 X42.545 Y164.362 E.02999
G1 X43.406 Y164.102 E.03349
G1 X44.412 Y164.046 E.03752
G1 X45.204 Y164.166 E.02983
G1 X45.907 Y163.967 E.0272
G1 X46.968 Y163.947 E.03951
G1 X48.051 Y164.221 E.04159
G1 X48.907 Y164.723 E.03695
G1 X51.276 Y167.216 E.12805
G1 X55.265 Y168.29 E.15381
G1 X56.272 Y168.824 E.04244
G1 X56.955 Y169.469 E.03498
G1 X57.463 Y170.261 E.03503
G1 X57.828 Y171.341 E.04245
G1 X57.887 Y172.02 E.02538
G1 X57.829 Y172.715 E.02597
G1 X57.473 Y173.789 E.04213
G1 X53.492 Y180.305 E.28431
G1 X52.911 Y180.92 E.0315
G1 X52.181 Y181.41 E.03274
G1 X51.137 Y181.77 E.04112
G1 X50.098 Y181.845 E.03879
G1 X48.855 Y181.623 E.04701
G1 X48.949 Y182.334 E.0267
G1 X48.894 Y183.32 E.03677
G1 X48.784 Y183.781 E.01765
G1 X48.498 Y184.449 E.02706
G1 X47.965 Y185.229 E.03518
M73 P2 R8
G1 X47.546 Y185.66 E.02238
G1 X46.937 Y186.086 E.02767
G1 X46.157 Y186.427 E.0317
G1 X45.284 Y186.584 E.03303
G1 X44.985 Y186.945 E.01745
G1 X44.553 Y187.327 E.02147
G1 X44.039 Y187.664 E.02288
G1 X43.084 Y188.021 E.03796
G1 X42.339 Y188.143 E.02811
G1 X41.153 Y188.024 E.04438
G1 X40.327 Y187.709 E.03292
G1 X37.92 Y186.218 E.10542
G1 X37.314 Y185.678 E.03022
G1 X36.641 Y184.872 E.0391
G1 X21.31 Y181.126 E.58762
G1 X20.538 Y180.796 E.03126
G1 X19.802 Y180.26 E.0339
G1 X19.275 Y179.656 E.02985
G1 X18.953 Y179.138 E.02271
G1 X18.67 Y178.415 E.02891
G1 X18.533 Y177.63 E.02967
G1 X18.456 Y168.745 E.33083
G1 X18.71 Y167.749 E.03827
G1 X19.202 Y166.868 E.03757
G1 X19.636 Y166.39 E.02404
G1 X20.148 Y165.971 E.02463
G1 X20.729 Y165.628 E.02512
G1 X21.72 Y165.334 E.03849
G1 X21.72 Y165.334 F60000
G1 X21.835 Y165.717
G1 F1800
G1 X21.841 Y165.715 E.00024
G1 X22.854 Y165.703 E.03772
G1 X28.817 Y167.02 E.22738
G1 X37.357 Y168.754 E.32446
G1 X37.928 Y168.935 E.0223
G1 X38.215 Y168.531 E.01845
G1 X38.756 Y168.03 E.02745
G1 X39.298 Y167.697 E.02369
G1 X40.334 Y167.251 E.042
G1 X41.47 Y165.64 E.0734
G1 X42.098 Y165.075 E.03145
G1 X42.723 Y164.729 E.0266
G1 X43.453 Y164.507 E.02841
G1 X44.412 Y164.453 E.03576
G1 X45.214 Y164.606 E.0304
G1 X45.942 Y164.373 E.02846
G1 X46.898 Y164.349 E.03561
G1 X47.888 Y164.595 E.03798
G1 X48.659 Y165.047 E.03328
G1 X51.059 Y167.58 E.12992
G1 X55.137 Y168.678 E.15725
G1 X56.013 Y169.139 E.03686
G1 X56.656 Y169.747 E.03295
G1 X57.105 Y170.456 E.03125
G1 X57.434 Y171.445 E.03881
G1 X57.48 Y172.036 E.02207
G1 X57.434 Y172.612 E.02151
G1 X57.113 Y173.597 E.03857
G1 X53.181 Y180.041 E.28107
G1 X52.631 Y180.623 E.02982
G1 X51.979 Y181.056 E.02914
G1 X51.033 Y181.376 E.03718
G1 X50.096 Y181.437 E.03496
G1 X49.295 Y181.294 E.0303
G1 X47.992 Y180.726 E.05292
G1 X48.318 Y181.354 E.02635
G1 X48.487 Y181.948 E.02299
G1 X48.542 Y182.333 E.01448
G1 X48.494 Y183.246 E.03404
G1 X48.402 Y183.637 E.01496
G1 X48.131 Y184.271 E.02567
G1 X47.66 Y184.96 E.03108
G1 X47.295 Y185.34 E.01962
G1 X46.755 Y185.721 E.02461
G1 X46.017 Y186.044 E.03
G1 X45.065 Y186.208 E.03597
G1 X44.702 Y186.651 E.02132
G1 X44.295 Y187.012 E.02026
G1 X43.837 Y187.31 E.02035
G1 X42.961 Y187.633 E.03476
G1 X42.35 Y187.735 E.02306
G1 X41.27 Y187.634 E.04039
G1 X40.524 Y187.352 E.02969
G1 X38.149 Y185.881 E.10402
G1 X37.617 Y185.406 E.02655
G1 X36.868 Y184.509 E.04351
G1 X21.423 Y180.735 E.59199
G1 X20.744 Y180.444 E.02751
G1 X20.073 Y179.956 E.03089
G1 X19.594 Y179.403 E.02724
G1 X19.31 Y178.942 E.02016
G1 X19.057 Y178.288 E.02611
G1 X18.94 Y177.61 E.02562
G1 X18.857 Y168.818 E.32737
G1 X19.08 Y167.921 E.03442
G1 X19.52 Y167.123 E.03393
G1 X19.927 Y166.676 E.02251
G1 X20.392 Y166.297 E.02234
M73 P3 R8
G1 X20.914 Y165.991 E.02253
G1 X21.777 Y165.734 E.03353
G1 X21.777 Y165.734 F60000
G1 X21.891 Y166.124
G1 F1800
G1 X21.927 Y166.113 E.0014
G1 X22.788 Y166.105 E.03206
G1 X28.733 Y167.419 E.2267
G1 X37.265 Y169.151 E.32416
G1 X38.092 Y169.415 E.03232
G1 X38.51 Y168.812 E.02732
G1 X38.988 Y168.365 E.02437
G1 X39.473 Y168.064 E.02125
G1 X40.601 Y167.579 E.04572
G1 X41.76 Y165.927 E.07514
G1 X42.352 Y165.395 E.02964
G1 X42.899 Y165.096 E.02321
G1 X43.501 Y164.912 E.02344
G1 X44.412 Y164.861 E.03397
G1 X44.97 Y164.954 E.02106
G1 X45.226 Y165.047 E.01014
G1 X45.981 Y164.779 E.02983
G1 X46.83 Y164.751 E.03163
G1 X47.725 Y164.969 E.0343
G1 X48.411 Y165.37 E.02959
G1 X50.842 Y167.943 E.1318
G1 X55.01 Y169.065 E.16071
G1 X55.756 Y169.456 E.03136
G1 X56.329 Y169.99 E.02916
G1 X56.728 Y170.612 E.02751
G1 X57.03 Y171.504 E.03506
G1 X57.072 Y172.02 E.01928
G1 X57.03 Y172.556 E.02002
G1 X56.753 Y173.406 E.03329
G1 X52.869 Y179.779 E.27789
G1 X52.386 Y180.297 E.02637
G1 X51.777 Y180.701 E.02721
G1 X50.93 Y180.981 E.03322
G1 X50.141 Y181.032 E.02944
G1 X49.432 Y180.91 E.02679
G1 X48.765 Y180.625 E.02701
G1 X48.152 Y180.159 E.02867
G1 X47.12 Y178.922 E.05998
G1 X46.628 Y179.195 E.02095
G1 X47.934 Y181.493 E.09842
G1 X48.136 Y182.369 E.03347
G1 X48.093 Y183.174 E.03002
G1 X48.021 Y183.495 E.01225
G1 X47.765 Y184.091 E.02415
G1 X47.334 Y184.715 E.02824
G1 X47.042 Y185.02 E.01572
G1 X46.569 Y185.359 E.02167
G1 X45.921 Y185.648 E.02642
G1 X45.148 Y185.784 E.02922
G1 X44.855 Y185.767 E.01093
G1 X44.419 Y186.358 E.02735
G1 X44.037 Y186.697 E.01902
G1 X43.636 Y186.955 E.01775
G1 X42.841 Y187.243 E.03148
G1 X42.311 Y187.329 E.01999
G1 X41.386 Y187.243 E.03459
G1 X40.721 Y186.995 E.02643
G1 X38.379 Y185.544 E.10258
G1 X37.92 Y185.134 E.02292
G1 X37.095 Y184.145 E.04795
G1 X21.536 Y180.344 E.59636
G1 X20.951 Y180.093 E.0237
G1 X20.345 Y179.653 E.02788
G1 X19.914 Y179.15 E.02466
G1 X19.667 Y178.746 E.01763
G1 X19.455 Y178.197 E.02191
G1 X19.347 Y177.589 E.02299
G1 X19.258 Y168.888 E.32399
G1 X19.451 Y168.091 E.03053
G1 X19.839 Y167.377 E.03026
G1 X20.196 Y166.981 E.01985
G1 X20.636 Y166.623 E.02112
G1 X21.096 Y166.356 E.0198
G1 X21.833 Y166.141 E.02859
G1 X21.833 Y166.141 F60000
G1 X21.946 Y166.524
G1 F1800
G1 X21.962 Y166.52 E.00061
G1 X22.724 Y166.508 E.02838
G1 X28.648 Y167.817 E.22589
G1 X37.173 Y169.547 E.32389
G1 X38.316 Y169.915 E.04471
G1 X38.457 Y169.605 E.01268
G1 X38.806 Y169.092 E.0231
G1 X39.222 Y168.699 E.02131
G1 X39.649 Y168.432 E.01875
G1 X40.869 Y167.907 E.04945
G1 X42.049 Y166.214 E.07684
G1 X42.605 Y165.715 E.02782
G1 X43.073 Y165.465 E.01976
G1 X43.551 Y165.317 E.01863
G1 X44.368 Y165.267 E.03048
G1 X44.881 Y165.351 E.01936
G1 X45.237 Y165.491 E.01424
G1 X45.718 Y165.272 E.01968
G1 X46.066 Y165.178 E.01342
G1 X46.763 Y165.153 E.02597
G1 X47.564 Y165.343 E.03065
G1 X48.161 Y165.692 E.02575
G1 X50.625 Y168.306 E.13375
G1 X54.883 Y169.452 E.16418
G1 X55.501 Y169.775 E.02596
G1 X56.003 Y170.235 E.02535
G1 X56.353 Y170.77 E.0238
G1 X56.627 Y171.563 E.03124
G1 X56.665 Y172.036 E.01767
G1 X56.627 Y172.498 E.01726
G1 X56.393 Y173.214 E.02805
G1 X52.533 Y179.549 E.27621
G1 X52.107 Y180 E.0231
M73 P4 R8
G1 X51.578 Y180.345 E.02352
G1 X50.876 Y180.577 E.02753
G1 X50.182 Y180.627 E.02591
G1 X49.565 Y180.525 E.02328
G1 X48.988 Y180.284 E.02328
G1 X48.449 Y179.88 E.02508
G1 X47.187 Y178.366 E.07339
G1 X46.713 Y178.687 E.02132
G1 X46.057 Y179.018 E.02736
G1 X47.549 Y181.628 E.11194
G1 X47.728 Y182.367 E.02831
G1 X47.638 Y183.355 E.03694
G1 X47.418 Y183.878 E.02113
G1 X47.008 Y184.47 E.02681
G1 X46.787 Y184.702 E.01193
G1 X46.383 Y184.996 E.0186
G1 X45.779 Y185.265 E.02462
G1 X45.111 Y185.378 E.02523
G1 X44.608 Y185.331 E.01881
G1 X44.422 Y185.708 E.01565
G1 X44.135 Y186.066 E.01708
G1 X43.802 Y186.363 E.01661
G1 X43.436 Y186.6 E.01624
G1 X42.724 Y186.853 E.02813
G1 X42.274 Y186.923 E.01696
G1 X41.501 Y186.851 E.02891
G1 X40.917 Y186.638 E.02315
G1 X38.609 Y185.208 E.10109
G1 X38.224 Y184.862 E.01927
G1 X37.321 Y183.781 E.05244
G1 X21.649 Y179.952 E.60069
G1 X21.156 Y179.741 E.01997
G1 X20.618 Y179.35 E.02476
G1 X20.235 Y178.9 E.022
G1 X20.025 Y178.552 E.01513
G1 X19.842 Y178.071 E.01916
G1 X19.754 Y177.568 E.01901
G1 X19.66 Y168.956 E.32068
G1 X19.823 Y168.259 E.02665
G1 X20.16 Y167.629 E.0266
G1 X20.466 Y167.287 E.01709
G1 X20.88 Y166.95 E.01988
G1 X21.278 Y166.721 E.0171
G1 X21.888 Y166.541 E.02368
G1 X21.888 Y166.541 F60000
G1 X22 Y166.932
G1 F1800
G1 X22.047 Y166.919 E.00182
G1 X22.659 Y166.91 E.02279
G1 X28.564 Y168.215 E.22517
G1 X37.08 Y169.944 E.32355
G1 X38.547 Y170.417 E.05739
G1 X38.805 Y169.816 E.02435
G1 X39.13 Y169.34 E.02146
G1 X39.457 Y169.032 E.01673
G1 X39.825 Y168.799 E.01622
G1 X41.137 Y168.235 E.05317
G1 X42.37 Y166.466 E.08029
G1 X42.82 Y166.061 E.02254
G1 X43.218 Y165.846 E.01684
G1 X43.605 Y165.721 E.01514
G1 X44.326 Y165.672 E.02691
G1 X44.79 Y165.749 E.01751
G1 X45.243 Y165.935 E.01823
G1 X45.87 Y165.65 E.02564
G1 X46.147 Y165.577 E.01067
G1 X46.699 Y165.556 E.02057
G1 X47.403 Y165.718 E.0269
G1 X47.909 Y166.013 E.02181
G1 X50.408 Y168.669 E.13578
G1 X54.756 Y169.84 E.16766
G1 X55.249 Y170.095 E.02067
G1 X55.679 Y170.483 E.02156
G1 X55.978 Y170.931 E.02005
G1 X56.224 Y171.625 E.02742
G1 X56.258 Y172.02 E.01476
G1 X56.223 Y172.441 E.01573
G1 X56.033 Y173.022 E.02276
G1 X52.197 Y179.317 E.27448
G1 X51.831 Y179.7 E.01972
G1 X51.38 Y179.989 E.01994
G1 X50.822 Y180.173 E.02188
G1 X50.179 Y180.219 E.024
G1 X49.66 Y180.129 E.01961
G1 X49.173 Y179.92 E.01973
G1 X48.715 Y179.571 E.02144
G1 X47.199 Y177.744 E.0884
G1 X46.784 Y178.147 E.02154
G1 X46.518 Y178.33 E.01202
G1 X45.49 Y178.848 E.04286
G1 X47.165 Y181.764 E.12521
G1 X47.322 Y182.4 E.02439
