; generated by PrusaSlicer 2.7.2+MacOS-arm64 on 2024-03-09 at 03:53:06 UTC


;
;

;
;

;
;

;
;

;
;
; 

; external perimeters extrusion width = 0.45mm
; perimeters extrusion width = 0.45mm
; infill extrusion width = 0.45mm
; solid infill extrusion width = 0.45mm
; top infill extrusion width = 0.40mm

; external perimeters extrusion width = 0.45mm
; perimeters extrusion width = 0.45mm
; infill extrusion width = 0.45mm
; solid infill extrusion width = 0.45mm
; top infill extrusion width = 0.40mm

; external perimeters extrusion width = 0.45mm
; perimeters extrusion width = 0.45mm
; infill extrusion width = 0.45mm
; solid infill extrusion width = 0.45mm
; top infill extrusion width = 0.40mm

M73 P0 R31

EXCLUDE_OBJECT_DEFINE NAME='Tennessee_stl' CENTER=28.559,32.918 POLYGON=[[36.845,9.781],[36.077,22.167],[33.464,45.408],[31.952,45.427],[31.449,46.826],[29.906,47.091],[28.647,50.560],[27.036,52.683],[26.947,52.891],[25.354,52.842],[24.508,53.952],[25.249,54.896],[23.705,56.175],[23.669,57.400],[21.941,59.086],[19.889,59.269],[21.265,48.375],[23.669,23.882],[23.554,22.165],[24.928,22.280],[25.385,14.843],[27.982,13.004],[29.509,13.222],[30.958,13.041],[31.682,11.502],[32.769,12.317],[33.584,10.505],[35.215,11.320]]
EXCLUDE_OBJECT_DEFINE NAME='Texas_stl' CENTER=87.145,116.739 POLYGON=[[94.822,92.475],[93.585,95.697],[94.940,101.388],[107.768,108.796],[107.247,109.240],[107.680,109.586],[108.112,110.971],[107.939,112.528],[108.545,113.480],[108.631,115.210],[108.285,116.075],[107.420,117.027],[107.507,118.238],[106.728,119.016],[106.641,123.515],[106.468,125.938],[105.430,125.764],[104.911,126.197],[102.379,127.435],[99.622,127.041],[98.272,126.535],[96.472,127.266],[95.684,126.478],[95.009,127.210],[93.490,127.604],[92.421,127.210],[91.745,128.110],[88.328,128.476],[87.840,129.453],[86.863,129.453],[85.398,130.307],[85.642,138.974],[74.899,139.707],[73.408,119.967],[60.210,121.115],[60.701,119.818],[65.940,114.488],[67.386,108.977],[72.265,106.267],[74.704,110.423],[79.582,109.338],[83.467,102.111],[86.087,98.859],[87.171,94.523],[90.729,93.040],[93.919,92.131]]
EXCLUDE_OBJECT_DEFINE NAME='Massachussetts_stl' CENTER=33.599,189.275 POLYGON=[[50.809,183.303],[57.245,185.036],[52.418,192.958],[50.562,190.730],[53.161,189.740],[54.027,187.512],[50.562,185.903],[45.611,190.854],[41.402,192.958],[45.115,199.394],[42.392,199.023],[41.279,201.498],[38.715,199.922],[36.824,197.653],[14.633,192.231],[14.506,181.262],[22.206,182.963],[33.709,185.298],[38.207,186.769],[39.591,183.482],[42.012,182.444],[44.002,179.590],[47.715,184.046],[47.220,179.466]]

;TYPE:Custom
CALCULATE_PA MATERIAL=PLA BOWDEN_LENGTH=6 LAYER_HEIGHT=0.2 NOZZLE_SIZE=0.4 PRINT_SPEED=70


START_PRINT EXTRUDER=230 BED=65
G21 ; set units to millimeters
G90 ; use absolute coordinates
M83 ; use relative distances for extrusion
; Filament gcode
M107
;LAYER_CHANGE
;Z:0.2
;HEIGHT:0.2
G1 E-1 F3000
G1 Z.2 F60000
G1 X21.338 Y12.289
G1 Z.2
G1 E1 F3000
;TYPE:Skirt/Brim
;WIDTH:0.45
G1 F1800
G1 X22.215 Y11.26 E.05034
G1 X25.935 Y8.674 E.16869
G1 X26.591 Y8.426 E.02611
G1 X27.267 Y8.274 E.0258
G1 X28.171 Y8.233 E.03369
G1 X29.108 Y7.449 E.04549
G1 X29.875 Y7.057 E.03207
G1 X30.447 Y6.896 E.02213
G1 X30.726 Y6.653 E.01378
G1 X31.44 Y6.217 E.03115
G1 X32.416 Y5.856 E.03875
G1 X33.505 Y5.71 E.04091
G1 X34.232 Y5.756 E.02712
G1 X34.607 Y5.515 E.0166
G1 X35.538 Y5.143 E.03733
G1 X36.499 Y4.975 E.03632
G1 X37.461 Y5.003 E.03583
G1 X38.387 Y5.234 E.03554
G1 X39.304 Y5.653 E.03754
G1 X40.419 Y6.538 E.053
G1 X40.758 Y6.983 E.02083
G1 X41.325 Y7.997 E.04326
G1 X41.528 Y8.661 E.02585
G1 X41.646 Y9.614 E.03575
G1 X40.836 Y22.629 E.48553
G1 X38.152 Y46.204 E.88345
G1 X38.003 Y46.845 E.0245
G1 X37.627 Y47.705 E.03495
G1 X37.211 Y48.342 E.02833
G1 X36.372 Y49.168 E.04384
G1 X35.545 Y49.69 E.03641
G1 X35.027 Y49.898 E.02078
G1 X34.795 Y50.173 E.0134
G1 X34.136 Y50.726 E.03203
G1 X33.475 Y51.072 E.02778
G1 X32.698 Y53.014 E.07788
G1 X30.596 Y55.899 E.13291
G1 X29.889 Y56.586 E.03671
G1 X29.588 Y56.792 E.01358
G1 X29.042 Y57.735 E.04057
G1 X28.548 Y58.292 E.02772
G1 X28.256 Y58.538 E.01422
G1 X28.135 Y58.996 E.01764
G1 X27.554 Y60.122 E.04718
G1 X27.18 Y60.576 E.0219
G1 X25.152 Y62.607 E.10687
G1 X23.985 Y63.382 E.05216
G1 X22.664 Y63.791 E.05149
G1 X19.944 Y64.045 E.10172
G1 X18.543 Y63.859 E.05262
G1 X17.858 Y63.597 E.02731
G1 X17.216 Y63.241 E.02733
G1 X15.958 Y62.001 E.06577
G1 X15.534 Y61.266 E.03159
G1 X15.246 Y60.474 E.03138
G1 X15.098 Y59.037 E.05379
G1 X16.513 Y47.848 E.41993
G1 X18.874 Y23.782 E.90037
G1 X18.796 Y21.5 E.08502
G1 X18.992 Y20.677 E.0315
G1 X19.312 Y19.92 E.0306
G1 X19.809 Y19.171 E.03347
G1 X20.363 Y18.614 E.02925
G1 X20.628 Y14.309 E.16059
G1 X20.802 Y13.451 E.0326
G1 X21.313 Y12.343 E.04543
M73 P0 R30
G1 X21.313 Y12.343 F60000
G1 X21.682 Y12.515
G1 F1800
G1 X21.695 Y12.487 E.00115
G1 X22.506 Y11.546 E.04625
G1 X26.103 Y9.046 E.1631
G1 X26.695 Y8.82 E.02359
G1 X27.342 Y8.674 E.0247
G1 X27.982 Y8.625 E.0239
G1 X28.345 Y8.663 E.01359
G1 X28.558 Y8.413 E.01223
G1 X29.313 Y7.802 E.03616
G1 X30.041 Y7.429 E.03046
G1 X30.647 Y7.263 E.02339
G1 X30.956 Y6.99 E.01535
G1 X31.601 Y6.592 E.02822
G1 X32.535 Y6.246 E.03709
G1 X33.536 Y6.116 E.03758
G1 X34.341 Y6.172 E.03005
G1 X34.778 Y5.886 E.01945
G1 X35.669 Y5.529 E.03574
G1 X36.546 Y5.38 E.03312
G1 X37.424 Y5.409 E.03271
G1 X38.267 Y5.624 E.03239
G1 X39.112 Y6.012 E.03462
G1 X40.112 Y6.806 E.04754
G1 X40.411 Y7.196 E.0183
G1 X40.943 Y8.139 E.04031
G1 X41.126 Y8.73 E.02304
G1 X41.238 Y9.608 E.03296
G1 X40.431 Y22.588 E.48423
G1 X37.749 Y46.146 E.88282
G1 X37.611 Y46.733 E.02245
G1 X37.261 Y47.525 E.03224
G1 X36.883 Y48.1 E.02562
G1 X36.104 Y48.86 E.04052
G1 X35.346 Y49.334 E.03329
G1 X34.779 Y49.558 E.0227
G1 X34.519 Y49.874 E.01524
G1 X33.893 Y50.399 E.03042
G1 X33.152 Y50.779 E.03101
G1 X32.354 Y52.796 E.08076
G1 X30.277 Y55.645 E.13128
G1 X29.62 Y56.279 E.034
G1 X29.255 Y56.524 E.01637
G1 X28.724 Y57.48 E.04072
G1 X28.254 Y58.01 E.02638
G1 X27.892 Y58.309 E.01748
G1 X27.762 Y58.833 E.0201
G1 X27.225 Y59.881 E.04385
G1 X26.885 Y60.296 E.01998
G1 X24.879 Y62.304 E.10568
G1 X23.797 Y63.018 E.04827
G1 X22.605 Y63.388 E.04647
G1 X19.929 Y63.637 E.10007
G1 X18.665 Y63.47 E.04747
G1 X18.042 Y63.234 E.02481
G1 X17.438 Y62.898 E.02573
G1 X16.296 Y61.773 E.05969
G1 X15.91 Y61.109 E.0286
G1 X15.637 Y60.359 E.02972
G1 X15.504 Y59.065 E.04843
G1 X16.918 Y47.893 E.41929
G1 X19.282 Y23.794 E.9016
G1 X19.199 Y21.566 E.08301
G1 X19.374 Y20.819 E.02857
G1 X19.679 Y20.096 E.02922
G1 X20.136 Y19.415 E.03054
G1 X20.759 Y18.793 E.03278
G1 X21.033 Y14.348 E.16582
G1 X21.196 Y13.557 E.03007
G1 X21.656 Y12.569 E.04058
G1 X21.656 Y12.569 F60000
G1 X22.024 Y12.743
G1 F1800
G1 X22.05 Y12.687 E.0023
G1 X22.796 Y11.833 E.04222
G1 X26.271 Y9.417 E.15759
G1 X26.826 Y9.206 E.02211
G1 X27.415 Y9.075 E.02247
G1 X27.991 Y9.033 E.0215
G1 X28.52 Y9.094 E.01983
G1 X28.833 Y8.714 E.01833
G1 X29.518 Y8.154 E.03294
G1 X30.207 Y7.802 E.02881
G1 X30.847 Y7.632 E.02466
G1 X31.188 Y7.325 E.01708
G1 X31.762 Y6.966 E.02521
G1 X32.654 Y6.636 E.03541
G1 X33.566 Y6.522 E.03422
G1 X34.41 Y6.616 E.03162
G1 X34.952 Y6.254 E.02427
G1 X35.761 Y5.926 E.0325
G1 X36.554 Y5.788 E.02997
G1 X37.388 Y5.815 E.03107
G1 X38.146 Y6.013 E.02917
G1 X38.918 Y6.371 E.03168
G1 X39.805 Y7.075 E.04216
G1 X40.064 Y7.411 E.0158
G1 X40.562 Y8.283 E.03739
G1 X40.725 Y8.802 E.02025
G1 X40.831 Y9.603 E.03008
G1 X40.026 Y22.547 E.48288
G1 X37.346 Y46.088 E.88218
G1 X37.219 Y46.62 E.02036
G1 X36.897 Y47.343 E.02947
G1 X36.557 Y47.856 E.02292
G1 X35.837 Y48.552 E.03729
G1 X35.149 Y48.977 E.03011
G1 X34.53 Y49.218 E.02473
G1 X34.241 Y49.575 E.0171
G1 X33.65 Y50.071 E.02873
G1 X32.83 Y50.485 E.0342
G1 X32.009 Y52.577 E.08368
G1 X29.959 Y55.39 E.1296
G1 X29.353 Y55.972 E.03128
G1 X28.92 Y56.256 E.01928
G1 X28.814 Y56.535 E.01111
G1 X28.406 Y57.225 E.02985
G1 X27.961 Y57.727 E.02498
G1 X27.527 Y58.082 E.02088
G1 X27.387 Y58.672 E.02258
G1 X26.896 Y59.641 E.04045
G1 X26.589 Y60.015 E.01802
G1 X24.605 Y62.002 E.10455
G1 X23.648 Y62.639 E.0428
G1 X22.545 Y62.985 E.04304
G1 X19.914 Y63.23 E.09839
G1 X18.787 Y63.081 E.04233
G1 X18.201 Y62.859 E.02333
G1 X17.661 Y62.557 E.02304
G1 X16.634 Y61.545 E.05368
G1 X16.272 Y60.921 E.02686
G1 X16.028 Y60.245 E.02676
G1 X15.911 Y59.093 E.04311
G1 X17.322 Y47.938 E.41865
G1 X19.69 Y23.805 E.90288
G1 X19.602 Y21.63 E.08105
G1 X19.757 Y20.959 E.02564
G1 X20.029 Y20.306 E.02634
G1 X20.462 Y19.659 E.02899
G1 X21.156 Y18.974 E.03631
G1 X21.438 Y14.388 E.17108
G1 X21.589 Y13.665 E.0275
G1 X21.998 Y12.797 E.03573
G1 X21.998 Y12.797 F60000
G1 X22.365 Y12.972
G1 F1800
G1 X22.405 Y12.889 E.00343
G1 X23.084 Y12.121 E.03817
G1 X26.439 Y9.789 E.15213
G1 X26.957 Y9.592 E.02063
G1 X27.487 Y9.476 E.0202
G1 X27.998 Y9.44 E.01907
G1 X28.696 Y9.527 E.02619
G1 X29.109 Y9.014 E.02452
G1 X29.723 Y8.506 E.02967
G1 X30.371 Y8.175 E.02709
G1 X31.047 Y8.001 E.02599
G1 X31.419 Y7.66 E.01879
G1 X31.96 Y7.323 E.02373
G1 X32.771 Y7.027 E.03214
G1 X33.555 Y6.93 E.02941
G1 X34.16 Y6.975 E.02259
G1 X34.532 Y7.067 E.01427
G1 X35.127 Y6.622 E.02766
G1 X35.854 Y6.323 E.02927
G1 X36.603 Y6.192 E.02831
G1 X37.349 Y6.22 E.0278
G1 X38.022 Y6.401 E.02595
G1 X38.724 Y6.73 E.02887
G1 X39.499 Y7.344 E.03681
G1 X39.719 Y7.627 E.01335
G1 X40.181 Y8.429 E.03446
G1 X40.325 Y8.876 E.01749
G1 X40.423 Y9.598 E.02713
G1 X39.621 Y22.506 E.48154
G1 X36.943 Y46.029 E.88151
G1 X36.828 Y46.505 E.01823
G1 X36.533 Y47.159 E.02671
G1 X36.231 Y47.61 E.02021
G1 X35.572 Y48.242 E.034
G1 X34.953 Y48.62 E.02701
G1 X34.305 Y48.846 E.02555
G1 X33.963 Y49.277 E.02049
G1 X33.407 Y49.743 E.02701
G1 X32.508 Y50.19 E.03738
G1 X31.665 Y52.359 E.08665
G1 X29.641 Y55.135 E.12792
G1 X29.087 Y55.663 E.0285
G1 X28.584 Y55.988 E.0223
G1 X28.452 Y56.347 E.01424
G1 X28.088 Y56.97 E.02687
G1 X27.668 Y57.444 E.02358
G1 X27.16 Y57.854 E.02431
G1 X27.011 Y58.513 E.02516
G1 X26.566 Y59.402 E.03702
G1 X26.294 Y59.735 E.01601
G1 X24.332 Y61.7 E.10339
G1 X23.448 Y62.283 E.03943
G1 X22.486 Y62.581 E.0375
G1 X19.899 Y62.822 E.09674
G1 X18.908 Y62.692 E.03721
G1 X18.386 Y62.496 E.02076
G1 X17.883 Y62.215 E.02145
G1 X16.971 Y61.315 E.04771
G1 X16.648 Y60.765 E.02375
G1 X16.42 Y60.131 E.02509
G1 X16.318 Y59.121 E.0378
G1 X17.727 Y47.984 E.41798
G1 X20.098 Y23.816 E.90418
G1 X20.005 Y21.693 E.07912
M73 P1 R30
G1 X20.14 Y21.097 E.02275
G1 X20.38 Y20.513 E.02351
G1 X20.764 Y19.934 E.02587
G1 X21.549 Y19.213 E.03969
G1 X21.844 Y14.429 E.17846
G1 X21.982 Y13.773 E.02496
G1 X22.339 Y13.026 E.03083
G1 X22.339 Y13.026 F60000
G1 X22.705 Y13.203
G1 F1800
G1 X22.758 Y13.093 E.00455
G1 X23.37 Y12.411 E.03412
G1 X26.608 Y10.16 E.14683
G1 X27.088 Y9.977 E.01913
G1 X27.533 Y9.88 E.01696
G1 X27.969 Y9.847 E.01628
G1 X28.927 Y9.965 E.03594
G1 X29.387 Y9.312 E.02974
G1 X29.929 Y8.858 E.02633
G1 X30.535 Y8.549 E.02533
G1 X31.247 Y8.371 E.02733
G1 X31.652 Y7.995 E.02058
G1 X32.156 Y7.68 E.02213
G1 X32.887 Y7.417 E.02893
G1 X33.544 Y7.337 E.02464
G1 X34.11 Y7.38 E.02113
G1 X34.646 Y7.519 E.02062
G1 X34.959 Y7.228 E.01591
G1 X35.338 Y6.971 E.01705
G1 X35.946 Y6.72 E.02449
G1 X36.65 Y6.597 E.02661
G1 X37.308 Y6.626 E.02452
G1 X37.865 Y6.777 E.02149
G1 X38.53 Y7.088 E.02733
G1 X39.194 Y7.615 E.03156
G1 X39.802 Y8.577 E.04237
G1 X39.924 Y8.952 E.01468
G1 X40.016 Y9.594 E.02415
G1 X39.216 Y22.465 E.48016
G1 X36.54 Y45.97 E.88083
G1 X36.438 Y46.389 E.01606
G1 X36.17 Y46.974 E.02396
G1 X35.907 Y47.363 E.01748
G1 X35.308 Y47.932 E.03076
G1 X34.79 Y48.247 E.02257
G1 X34.072 Y48.48 E.02811
G1 X33.685 Y48.98 E.02354
G1 X33.165 Y49.415 E.02524
G1 X32.432 Y49.774 E.03039
G1 X32.208 Y49.834 E.00863
G1 X31.32 Y52.141 E.09204
G1 X29.323 Y54.88 E.12621
G1 X28.822 Y55.353 E.02565
G1 X28.247 Y55.719 E.02538
G1 X28.09 Y56.161 E.01746
G1 X27.77 Y56.716 E.02385
G1 X27.375 Y57.16 E.02213
G1 X26.792 Y57.627 E.02781
G1 X26.635 Y58.357 E.0278
G1 X26.235 Y59.163 E.0335
G1 X25.998 Y59.455 E.014
G1 X24.058 Y61.398 E.10223
G1 X23.297 Y61.904 E.03403
G1 X22.427 Y62.178 E.03396
G1 X19.884 Y62.415 E.0951
G1 X19.029 Y62.302 E.03211
G1 X18.544 Y62.12 E.01929
G1 X18.107 Y61.874 E.01867
G1 X17.309 Y61.086 E.04176
G1 X17.009 Y60.576 E.02203
G1 X16.812 Y60.018 E.02203
G1 X16.725 Y59.15 E.03248
G1 X18.131 Y48.029 E.41737
G1 X20.506 Y23.825 E.90553
G1 X20.408 Y21.754 E.0772
G1 X20.524 Y21.233 E.01987
G1 X20.732 Y20.718 E.02068
G1 X21.065 Y20.208 E.02268
G1 X21.631 Y19.649 E.02962
G1 X21.943 Y19.445 E.01388
G1 X22.249 Y14.469 E.18562
G1 X22.375 Y13.883 E.02232
G1 X22.678 Y13.257 E.0259
G1 X22.678 Y13.257 F60000
G1 X23.042 Y13.437
G1 F1800
G1 X23.11 Y13.3 E.00569
G1 X23.655 Y12.703 E.0301
G1 X26.776 Y10.532 E.14156
G1 X27.218 Y10.363 E.01762
G1 X27.941 Y10.254 E.02722
G1 X29.166 Y10.405 E.04596
G1 X29.386 Y9.967 E.01825
G1 X29.693 Y9.581 E.01836
G1 X30.135 Y9.21 E.02149
G1 X30.698 Y8.922 E.02355
G1 X31.448 Y8.742 E.02872
G1 X31.885 Y8.329 E.02239
G1 X32.352 Y8.038 E.02049
G1 X33.001 Y7.809 E.02562
G1 X33.534 Y7.745 E.01999
G1 X34.06 Y7.784 E.01964
G1 X34.725 Y8.006 E.0261
G1 X35.202 Y7.555 E.02444
G1 X35.549 Y7.32 E.0156
G1 X36.077 Y7.107 E.0212
G1 X36.695 Y7.003 E.02333
G1 X37.264 Y7.031 E.02121
G1 X37.708 Y7.153 E.01714
G1 X38.336 Y7.447 E.02582
G1 X38.891 Y7.887 E.02637
G1 X39.423 Y8.728 E.03705
G1 X39.525 Y9.031 E.0119
G1 X39.608 Y9.591 E.02108
G1 X38.811 Y22.425 E.47878
G1 X36.137 Y45.91 E.88008
G1 X36.047 Y46.271 E.01385
G1 X35.809 Y46.786 E.02112
G1 X35.584 Y47.114 E.01481
G1 X35.046 Y47.62 E.0275
G1 X34.627 Y47.873 E.01822
G1 X33.839 Y48.114 E.03068
G1 X33.405 Y48.683 E.02665
G1 X32.924 Y49.086 E.02336
G1 X32.279 Y49.396 E.02665
G1 X31.906 Y49.484 E.01427
G1 X30.975 Y51.923 E.0972
G1 X29.006 Y54.624 E.12445
G1 X28.559 Y55.042 E.02279
G1 X28.133 Y55.311 E.01876
G1 X27.902 Y55.4 E.00922
G1 X27.726 Y55.977 E.02246
G1 X27.449 Y56.463 E.02083
G1 X27.107 Y56.854 E.01934
G1 X26.385 Y57.431 E.03441
G1 X26.257 Y58.202 E.0291
G1 X25.904 Y58.926 E.02999
G1 X23.785 Y61.095 E.1129
G1 X23.098 Y61.548 E.03064
G1 X22.368 Y61.775 E.02846
G1 X19.869 Y62.007 E.09345
G1 X19.149 Y61.913 E.02704
G1 X18.73 Y61.758 E.01663
G1 X18.331 Y61.532 E.01707
G1 X17.645 Y60.855 E.03589
G1 X17.386 Y60.421 E.01882
G1 X17.204 Y59.906 E.02034
G1 X17.131 Y59.178 E.02724
G1 X18.536 Y48.075 E.4167
G1 X20.914 Y23.835 E.90688
G1 X20.812 Y21.813 E.07538
G1 X20.909 Y21.366 E.01703
G1 X21.086 Y20.921 E.01783
G1 X21.368 Y20.481 E.01946
G1 X21.9 Y19.956 E.02783
G1 X22.336 Y19.679 E.01923
G1 X22.654 Y14.51 E.19282
G1 X22.767 Y13.996 E.0196
G1 X23.016 Y13.49 E.021
G1 X23.016 Y13.49 F60000
G1 X23.378 Y13.672
G1 F1800
G1 X23.46 Y13.509 E.00679
G1 X23.906 Y13.024 E.02453
G1 X26.946 Y10.903 E.13802
G1 X27.322 Y10.757 E.01502
G1 X27.954 Y10.661 E.0238
G1 X29.405 Y10.847 E.05447
G1 X29.72 Y10.202 E.02673
G1 X29.999 Y9.85 E.01672
G1 X30.344 Y9.56 E.01678
G1 X30.822 Y9.311 E.02007
G1 X31.408 Y9.164 E.02249
G1 X31.665 Y9.149 E.00959
G1 X32.118 Y8.664 E.02471
G1 X32.547 Y8.396 E.01883
G1 X33.111 Y8.201 E.02222
G1 X33.558 Y8.152 E.01674
G1 X34.006 Y8.188 E.01673
G1 X34.36 Y8.286 E.01368
G1 X34.798 Y8.497 E.0181
G1 X35.468 Y7.863 E.03435
G1 X35.756 Y7.671 E.01289
G1 X36.204 Y7.494 E.01794
G1 X36.736 Y7.408 E.02007
G1 X37.218 Y7.436 E.01798
G1 X37.551 Y7.529 E.01287
G1 X38.142 Y7.805 E.02429
G1 X38.589 Y8.161 E.02128
G1 X39.046 Y8.882 E.03178
G1 X39.2 Y9.589 E.02694
G1 X38.406 Y22.384 E.47732
G1 X35.734 Y45.85 E.87937
G1 X35.658 Y46.152 E.0116
G1 X35.448 Y46.596 E.01829
G1 X35.263 Y46.863 E.01209
G1 X34.785 Y47.307 E.02429
G1 X34.464 Y47.5 E.01395
G1 X34.089 Y47.644 E.01496
G1 X33.568 Y47.724 E.01963
G1 X33.126 Y48.386 E.02964
G1 X32.683 Y48.756 E.02149
G1 X32.129 Y49.017 E.0228
G1 X31.604 Y49.132 E.02001
G1 X30.629 Y51.706 E.10248
G1 X28.689 Y54.369 E.12267
G1 X28.326 Y54.708 E.01849
G1 X27.939 Y54.952 E.01703
G1 X27.526 Y55.094 E.01626
G1 X27.476 Y55.457 E.01364
G1 X27.361 Y55.796 E.01333
G1 X27.128 Y56.213 E.01779
G1 X26.837 Y56.548 E.01652
G1 X25.981 Y57.233 E.04082
G1 X25.971 Y57.573 E.01266
G1 X25.879 Y58.051 E.01812
G1 X25.571 Y58.69 E.02641
G1 X23.511 Y60.794 E.10964
G1 X22.947 Y61.169 E.02522
G1 X22.308 Y61.371 E.02495
G1 X19.854 Y61.6 E.09177
