; generated by SuperSlicer 2.5.59.8 on 2024-04-21 at 14:18:12 UTC


;
;

;
;

;
;

;
;

;
;
; 

; external perimeters extrusion width = 0.40mm
; perimeters extrusion width = 0.40mm
; infill extrusion width = 0.40mm
; solid infill extrusion width = 0.40mm
; top infill extrusion width = 0.40mm

; object:{"name":"top_no_endstop","id":"top_no_endstop.stl id:0 copy 0","object_center":[92.953486,51.204467,0.000000],"boundingbox_center":[92.953486,51.204467,5.000000],"boundingbox_size":[44.000000,34.800001,10.000000]}
EXCLUDE_OBJECT_DEFINE NAME=top_no_endstop_stl_id_0_copy_0 CENTER=92.953486,51.204467 POLYGON=[[70.95,33.80],[114.95,33.80],[114.95,68.60],[70.95,68.60],[70.95,33.80]]
; plater:{"center":[92.953486,51.204467,0.000000],"boundingbox_center":[92.953486,51.204467,5.000000],"boundingbox_size":[44.000000,34.800001,10.000000]}

M73 P0 R61
M107
;TYPE:Custom
CALCULATE_PA MATERIAL=ABS BOWDEN_LENGTH=6 LAYER_HEIGHT=0.24 NOZZLE_SIZE=0.4 PRINT_SPEED=95


START_PRINT EXTRUDER=275 BED=100

G21 ; set units to millimeters
G90 ; use absolute coordinates
M83 ; use relative distances for extrusion
ACTIVATE_EXTRUDER EXTRUDER=extruder
; Filament gcode
M104 S275 T0 ; set temperature
M109 S275 T0 ; set temperature and wait for it to be reached
M190 S100 ; set bed temperature and wait for it to be reached
;LAYER_CHANGE
;Z:0.24
;HEIGHT:0.24
;BEFORE_LAYER_CHANGE
G92 E0.0

G1 E-1.5 F3000
M73 P0 R60
G1 Z0.2 F3600000
G1 Z0.24
;AFTER_LAYER_CHANGE
;0.24




CALCULATE_PA MATERIAL=ABS BOWDEN_LENGTH=6.0 LAYER_HEIGHT=0.2 NOZZLE_SIZE=0.4 PRINT_SPEED=95


G92 E0
G1 Z0.44
G1 X58.579 Y27.643
G1 Z0.24
G1 E1.5 F3000
;TYPE:Skirt
;WIDTH:0.4
M107
G1 F2400
G1 X60.16 Y25.004 E0.11232
G1 X62.006 Y22.988 E0.09979
G1 X64.153 Y21.365 E0.0983
G1 X66.682 Y20.125 E0.10282
G1 X70.657 Y19.26 E0.14854
G1 X85.357 Y19.29 E0.53673
G1 X87.941 Y19.701 E0.09551
G1 X90.382 Y20.487 E0.09364
G1 X92.544 Y21.568 E0.08826
G1 X92.972 Y21.858 E0.01886
G1 X93.633 Y21.411 E0.02916
G1 X95.904 Y20.337 E0.09171
G1 X99.08 Y19.467 E0.12023
G1 X101.323 Y19.248 E0.08229
G1 X114.994 Y19.248 E0.49914
G1 X117.703 Y19.659 E0.10004
G1 X120.295 Y20.563 E0.10023
G1 X124.163 Y23.215 E0.17126
G1 X125.855 Y25.15 E0.09381
G1 X127.191 Y27.354 E0.09414
G1 X128.093 Y29.708 E0.09203
G1 X128.573 Y32.213 E0.09314
G1 X128.623 Y69.606 E1.36528
G1 X128.2 Y72.311 E0.09995
G1 X127.263 Y74.91 E0.1009
G1 X125.644 Y77.535 E0.1126
G1 X123.778 Y79.532 E0.09978
G1 X121.631 Y81.119 E0.09748
G1 X119.159 Y82.309 E0.10017
G1 X115.048 Y83.167 E0.15333
G1 X71.003 Y83.167 E1.60818
G1 X68.263 Y82.765 E0.10109
G1 X65.616 Y81.835 E0.10246
G1 X62.939 Y80.203 E0.11446
G1 X60.933 Y78.339 E0.1
G1 X59.337 Y76.192 E0.09765
G1 X58.129 Y73.691 E0.10142
G1 X57.271 Y69.579 E0.15336
G1 X57.271 Y32.967 E1.33679
G1 X57.666 Y30.264 E0.09974
G1 X58.559 Y27.7 E0.09914
M107
G1 X58.888 Y27.815 F3600000
M107
G1 F2400
G1 X58.902 Y27.775 E0.00154
G1 X60.429 Y25.226 E0.10847
G1 X62.229 Y23.257 E0.09742
G1 X64.322 Y21.67 E0.0959
G1 X66.777 Y20.461 E0.0999
G1 X70.675 Y19.609 E0.1457
G1 X85.316 Y19.636 E0.53456
G1 X87.873 Y20.043 E0.09452
G1 X90.262 Y20.815 E0.09168
G1 X92.377 Y21.875 E0.08639
G1 X92.971 Y22.28 E0.02624
G1 X93.795 Y21.72 E0.03635
G1 X96.039 Y20.659 E0.09066
G1 X99.129 Y19.813 E0.11695
G1 X101.332 Y19.597 E0.08082
G1 X114.981 Y19.597 E0.49835
G1 X117.603 Y19.993 E0.09685
G1 X120.158 Y20.884 E0.0988
G1 X123.916 Y23.461 E0.16635
G1 X125.565 Y25.344 E0.09137
G1 X126.872 Y27.494 E0.09187
G1 X127.762 Y29.818 E0.09089
G1 X128.228 Y32.263 E0.09085
G1 X128.275 Y69.593 E1.36299
G1 X127.858 Y72.24 E0.09784
G1 X126.941 Y74.775 E0.09843
G1 X125.377 Y77.31 E0.10876
G1 X123.558 Y79.261 E0.09741
G1 X121.465 Y80.812 E0.09512
G1 X119.067 Y81.972 E0.09726
G1 X115.03 Y82.819 E0.15058
G1 X71.016 Y82.819 E1.60706
G1 X68.331 Y82.423 E0.09909
G1 X65.749 Y81.513 E0.09996
G1 X63.163 Y79.936 E0.11057
G1 X61.203 Y78.118 E0.09762
G1 X59.644 Y76.025 E0.09528
G1 X58.466 Y73.599 E0.09849
G1 X57.619 Y69.561 E0.15061
G1 X57.619 Y32.98 E1.33566
G1 X58.008 Y30.331 E0.09774
G1 X58.868 Y27.871 E0.09514
M107
G1 X59.197 Y27.987 F3600000
M107
G1 F2400
G1 X59.225 Y27.907 E0.00309
G1 X60.698 Y25.448 E0.10465
G1 X62.453 Y23.524 E0.09506
G1 X64.492 Y21.975 E0.09351
G1 X66.872 Y20.796 E0.09698
G1 X70.694 Y19.957 E0.14285
G1 X85.275 Y19.982 E0.53237
G1 X87.804 Y20.385 E0.09353
G1 X90.142 Y21.142 E0.08972
G1 X92.211 Y22.181 E0.0845
G1 X92.971 Y22.702 E0.03365
G1 X93.956 Y22.03 E0.04355
G1 X96.174 Y20.98 E0.0896
G1 X99.177 Y20.158 E0.11368
G1 X101.34 Y19.945 E0.07935
G1 X114.968 Y19.945 E0.49756
G1 X117.535 Y20.336 E0.09482
G1 X120.022 Y21.205 E0.09618
G1 X123.668 Y23.707 E0.16146
G1 X125.292 Y25.562 E0.09002
G1 X126.565 Y27.661 E0.08963
G1 X127.431 Y29.928 E0.08861
G1 X127.883 Y32.311 E0.08857
G1 X127.926 Y69.579 E1.36072
G1 X127.517 Y72.169 E0.09573
G1 X126.62 Y74.639 E0.09596
G1 X125.111 Y77.085 E0.10494
G1 X123.337 Y78.991 E0.09505
G1 X121.298 Y80.506 E0.09276
G1 X118.974 Y81.636 E0.09434
G1 X115.012 Y82.47 E0.14783
G1 X71.028 Y82.47 E1.60593
M73 P1 R60
G1 X68.398 Y82.081 E0.09707
G1 X65.882 Y81.19 E0.09746
G1 X63.387 Y79.668 E0.1067
G1 X61.472 Y77.897 E0.09525
G1 X59.95 Y75.858 E0.09291
G1 X58.802 Y73.506 E0.09555
G1 X57.968 Y69.543 E0.14785
G1 X57.968 Y32.992 E1.33454
G1 X58.351 Y30.398 E0.09574
G1 X59.177 Y28.043 E0.09113
M107
G1 X59.506 Y28.159 F3600000
M107
G1 F2400
G1 X59.548 Y28.039 E0.00464
G1 X60.968 Y25.67 E0.10084
G1 X62.676 Y23.792 E0.0927
G1 X64.662 Y22.28 E0.09113
G1 X66.968 Y21.132 E0.09405
G1 X70.712 Y20.306 E0.13999
G1 X85.233 Y20.329 E0.53019
G1 X87.736 Y20.727 E0.09253
G1 X90.022 Y21.47 E0.08775
G1 X92.043 Y22.487 E0.08262
G1 X92.97 Y23.125 E0.04108
G1 X94.118 Y22.339 E0.05078
G1 X96.31 Y21.302 E0.08854
G1 X99.226 Y20.503 E0.1104
G1 X101.349 Y20.294 E0.07787
G1 X114.954 Y20.294 E0.49676
G1 X117.466 Y20.678 E0.09278
G1 X119.884 Y21.527 E0.09357
G1 X123.42 Y23.954 E0.15659
G1 X125.003 Y25.756 E0.08757
G1 X126.246 Y27.8 E0.08736
G1 X127.092 Y30.008 E0.08633
G1 X127.537 Y32.36 E0.08741
G1 X127.578 Y69.566 E1.35844
G1 X127.175 Y72.098 E0.0936
G1 X126.298 Y74.503 E0.09348
G1 X124.844 Y76.861 E0.10114
G1 X123.116 Y78.721 E0.09269
G1 X121.13 Y80.2 E0.09041
G1 X118.881 Y81.299 E0.0914
G1 X114.994 Y82.122 E0.14506
G1 X71.041 Y82.122 E1.60479
G1 X68.466 Y81.738 E0.09505
G1 X66.016 Y80.868 E0.09496
G1 X63.611 Y79.401 E0.10285
G1 X61.742 Y77.675 E0.09288
G1 X60.255 Y75.69 E0.09055
G1 X59.139 Y73.413 E0.0926
G1 X58.316 Y69.525 E0.14508
G1 X58.316 Y33.005 E1.33341
G1 X58.693 Y30.466 E0.09372
G1 X59.486 Y28.216 E0.08712
M107
G1 X59.814 Y28.332 F3600000
M107
G1 F2400
G1 X59.871 Y28.172 E0.00619
G1 X61.237 Y25.891 E0.09706
G1 X62.901 Y24.059 E0.09034
G1 X64.832 Y22.584 E0.08876
G1 X67.065 Y21.468 E0.09112
G1 X70.731 Y20.655 E0.13712
G1 X85.192 Y20.675 E0.528
G1 X87.668 Y21.069 E0.09154
G1 X89.901 Y21.797 E0.08577
G1 X91.876 Y22.793 E0.08074
G1 X92.97 Y23.548 E0.04854
G1 X94.279 Y22.648 E0.05801
G1 X96.445 Y21.623 E0.08748
G1 X99.275 Y20.849 E0.10714
G1 X101.357 Y20.642 E0.07639
G1 X114.941 Y20.642 E0.49596
G1 X117.397 Y21.02 E0.09074
G1 X119.747 Y21.848 E0.09096
G1 X123.173 Y24.2 E0.15173
G1 X124.731 Y25.974 E0.08622
G1 X125.94 Y27.968 E0.08512
G1 X126.76 Y30.118 E0.08404
G1 X127.192 Y32.409 E0.08512
G1 X127.229 Y69.553 E1.35617
G1 X126.842 Y71.994 E0.09027
G1 X125.977 Y74.367 E0.09222
G1 X124.576 Y76.636 E0.09736
G1 X122.895 Y78.451 E0.09033
G1 X120.962 Y79.894 E0.08808
G1 X118.787 Y80.963 E0.08847
G1 X114.976 Y81.773 E0.14228
G1 X71.054 Y81.773 E1.60366
G1 X68.567 Y81.404 E0.0918
G1 X66.149 Y80.545 E0.09368
G1 X63.834 Y79.133 E0.09902
G1 X62.011 Y77.453 E0.09052
G1 X60.561 Y75.521 E0.0882
G1 X59.475 Y73.319 E0.08964
G1 X58.665 Y69.507 E0.1423
G1 X58.665 Y33.018 E1.33227
G1 X59.035 Y30.534 E0.0917
G1 X59.794 Y28.388 E0.0831
M107
G1 X60.123 Y28.505 F3600000
M107
G1 F2400
G1 X60.194 Y28.304 E0.00775
G1 X61.507 Y26.113 E0.0933
G1 X63.125 Y24.327 E0.08799
G1 X65.004 Y22.888 E0.08639
G1 X67.161 Y21.803 E0.08818
G1 X70.75 Y21.003 E0.13423
G1 X85.151 Y21.021 E0.5258
G1 X87.599 Y21.411 E0.09054
G1 X89.78 Y22.124 E0.08378
G1 X91.708 Y23.098 E0.07885
G1 X92.969 Y23.971 E0.05602
G1 X94.441 Y22.957 E0.06526
G1 X96.58 Y21.945 E0.08641
G1 X99.324 Y21.194 E0.10387
G1 X101.366 Y20.991 E0.07491
G1 X114.928 Y20.991 E0.49516
G1 X117.328 Y21.362 E0.08868
G1 X119.609 Y22.169 E0.08835
G1 X122.925 Y24.446 E0.14689
G1 X124.441 Y26.168 E0.08376
G1 X125.62 Y28.107 E0.08283
G1 X126.429 Y30.228 E0.08289
G1 X126.846 Y32.457 E0.08282
G1 X126.881 Y69.539 E1.35392
G1 X126.501 Y71.923 E0.08814
G1 X125.656 Y74.231 E0.08974
G1 X124.309 Y76.412 E0.0936
G1 X122.674 Y78.182 E0.08798
G1 X120.793 Y79.589 E0.08575
G1 X118.693 Y80.627 E0.08552
G1 X114.957 Y81.425 E0.13948
G1 X71.067 Y81.425 E1.60252
G1 X68.635 Y81.062 E0.08977
G1 X66.283 Y80.223 E0.09118
G1 X64.058 Y78.865 E0.0952
G1 X62.28 Y77.231 E0.08816
G1 X60.866 Y75.352 E0.08586
G1 X59.811 Y73.225 E0.08668
G1 X59.013 Y69.488 E0.1395
G1 X59.013 Y33.031 E1.33113
G1 X59.369 Y30.634 E0.08846
G1 X60.103 Y28.561 E0.08029
M107
G1 X60.431 Y28.678 F3600000
M107
G1 F2400
G1 X60.516 Y28.437 E0.00931
G1 X61.777 Y26.334 E0.08955
G1 X63.35 Y24.593 E0.08564
G1 X65.175 Y23.192 E0.08404
G1 X67.259 Y22.139 E0.08523
G1 X70.769 Y21.352 E0.13134
G1 X85.109 Y21.368 E0.5236
G1 X87.531 Y21.753 E0.08953
G1 X89.659 Y22.451 E0.08178
G1 X91.54 Y23.404 E0.07696
G1 X92.874 Y24.329 E0.05927
G1 X93.065 Y24.329 E0.007
G1 X94.603 Y23.266 E0.06825
G1 X96.715 Y22.266 E0.08533
G1 X99.374 Y21.539 E0.10061
G1 X101.375 Y21.339 E0.07343
G1 X114.914 Y21.339 E0.49436
G1 X117.227 Y21.696 E0.08544
G1 X119.471 Y22.489 E0.08692
G1 X122.678 Y24.693 E0.14206
G1 X124.151 Y26.363 E0.0813
G1 X125.314 Y28.274 E0.08168
G1 X126.098 Y30.337 E0.08058
G1 X126.501 Y32.505 E0.08053
G1 X126.532 Y69.525 E1.35167
G1 X126.159 Y71.851 E0.086
G1 X125.335 Y74.094 E0.08727
G1 X124.041 Y76.188 E0.08986
G1 X122.452 Y77.913 E0.08563
G1 X120.624 Y79.284 E0.08343
G1 X118.599 Y80.29 E0.08256
G1 X114.939 Y81.076 E0.13668
G1 X71.08 Y81.076 E1.60137
G1 X68.704 Y80.72 E0.08773
G1 X66.417 Y79.901 E0.08867
G1 X64.281 Y78.596 E0.0914
G1 X62.527 Y76.985 E0.08696
G1 X61.171 Y75.182 E0.08238
G1 X60.148 Y73.13 E0.08371
G1 X59.362 Y69.47 E0.13669
G1 X59.362 Y33.044 E1.32998
G1 X59.712 Y30.702 E0.08644
G1 X60.411 Y28.734 E0.07626
M107
G1 X60.739 Y28.851 F3600000
M107
G1 F2400
G1 X60.839 Y28.571 E0.01087
G1 X62.047 Y26.555 E0.08582
G1 X63.598 Y24.839 E0.08445
G1 X65.348 Y23.495 E0.08056
G1 X67.357 Y22.474 E0.08228
G1 X70.788 Y21.7 E0.12843
G1 X85.068 Y21.714 E0.5214
G1 X87.462 Y22.095 E0.08852
G1 X89.538 Y22.778 E0.07977
G1 X91.371 Y23.709 E0.07508
G1 X92.764 Y24.678 E0.06195
G1 X93.174 Y24.677 E0.01497
G1 X94.765 Y23.575 E0.07066
G1 X96.851 Y22.588 E0.08425
G1 X99.423 Y21.885 E0.09736
G1 X101.383 Y21.688 E0.07194
G1 X114.901 Y21.688 E0.49355
G1 X117.158 Y22.037 E0.08338
G1 X119.333 Y22.81 E0.0843
G1 X122.431 Y24.939 E0.13724
G1 X123.879 Y26.582 E0.07995
G1 X125.007 Y28.441 E0.07941
G1 X125.766 Y30.446 E0.07826
G1 X126.155 Y32.553 E0.07824
G1 X126.184 Y69.512 E1.34942
G1 X125.818 Y71.779 E0.08385
G1 X125.014 Y73.957 E0.08479
G1 X123.774 Y75.964 E0.08613
G1 X122.206 Y77.665 E0.08444
G1 X120.454 Y78.979 E0.07998
G1 X118.504 Y79.954 E0.0796
G1 X114.92 Y80.728 E0.13385
G1 X71.093 Y80.728 E1.60022
G1 X68.773 Y80.378 E0.08568
G1 X66.552 Y79.579 E0.08616
G1 X64.504 Y78.328 E0.08761
G1 X62.775 Y76.739 E0.08576
G1 X61.475 Y75.012 E0.07893
G1 X60.484 Y73.035 E0.08074
G1 X59.71 Y69.451 E0.13386
G1 X59.71 Y33.057 E1.32883
G1 X60.054 Y30.771 E0.0844
G1 X60.718 Y28.908 E0.07223
M107
G1 X61.046 Y29.025 F3600000
M107
G1 F2400
G1 X61.161 Y28.704 E0.01244
G1 X62.317 Y26.776 E0.0821
G1 X63.846 Y25.084 E0.08325
M73 P1 R59
G1 X65.52 Y23.798 E0.0771
G1 X67.455 Y22.809 E0.07933
G1 X70.807 Y22.049 E0.1255
G1 X85.027 Y22.06 E0.51919
G1 X87.394 Y22.437 E0.08751
G1 X89.416 Y23.105 E0.07776
G1 X91.202 Y24.014 E0.07319
G1 X92.655 Y25.026 E0.06464
G1 X93.284 Y25.026 E0.02295
G1 X94.927 Y23.884 E0.07306
G1 X96.986 Y22.91 E0.08317
G1 X99.472 Y22.23 E0.09411
G1 X101.392 Y22.036 E0.07046
G1 X114.887 Y22.036 E0.49274
G1 X117.088 Y22.379 E0.08131
G1 X119.195 Y23.131 E0.08168
G1 X122.184 Y25.186 E0.13245
G1 X123.59 Y26.776 E0.07748
G1 X124.687 Y28.58 E0.0771
G1 X125.427 Y30.524 E0.07596
G1 X125.81 Y32.601 E0.07708
G1 X125.835 Y69.498 E1.34718
G1 X125.476 Y71.706 E0.08169
G1 X124.693 Y73.82 E0.08231
G1 X123.506 Y75.74 E0.08242
G1 X121.961 Y77.417 E0.08326
G1 X120.284 Y78.675 E0.07655
G1 X118.409 Y79.619 E0.07664
G1 X114.902 Y80.379 E0.13102
G1 X71.106 Y80.379 E1.59906
G1 X68.842 Y80.036 E0.08362
G1 X66.687 Y79.257 E0.08365
G1 X64.728 Y78.06 E0.08384
G1 X63.022 Y76.493 E0.08456
M73 P2 R59
G1 X61.779 Y74.841 E0.0755
G1 X60.819 Y72.94 E0.07776
G1 X60.059 Y69.433 E0.13102
G1 X60.059 Y33.07 E1.32768
G1 X60.396 Y30.84 E0.08235
G1 X61.026 Y29.082 E0.06819
M107
G1 X61.353 Y29.199 F3600000
M107
G1 F2400
G1 X61.483 Y28.839 E0.014
G1 X62.607 Y26.97 E0.07961
G1 X64.093 Y25.33 E0.08082
G1 X65.72 Y24.084 E0.07479
G1 X67.594 Y23.129 E0.0768
G1 X70.826 Y22.397 E0.12101
G1 X84.985 Y22.407 E0.51698
G1 X87.325 Y22.779 E0.08649
G1 X89.294 Y23.432 E0.07573
G1 X91.033 Y24.319 E0.07131
G1 X92.419 Y25.282 E0.06159
G1 X92.525 Y25.375 E0.00516
G1 X93.393 Y25.374 E0.03169
G1 X95.089 Y24.192 E0.07547
G1 X97.121 Y23.231 E0.08208
G1 X99.522 Y22.575 E0.09086
G1 X101.401 Y22.385 E0.06897
G1 X114.874 Y22.385 E0.49192
G1 X117.018 Y22.721 E0.07923
G1 X119.056 Y23.451 E0.07906
G1 X121.937 Y25.433 E0.12768
G1 X123.3 Y26.971 E0.07502
G1 X124.367 Y28.719 E0.07478
G1 X125.095 Y30.633 E0.07479
G1 X125.464 Y32.648 E0.07477
G1 X125.489 Y69.456 E1.34392
G1 X125.135 Y71.633 E0.08055
G1 X124.373 Y73.682 E0.07982
G1 X123.219 Y75.543 E0.07992
G1 X121.716 Y77.169 E0.08086
G1 X120.113 Y78.371 E0.07314
G1 X118.272 Y79.297 E0.07526
G1 X114.883 Y80.031 E0.12658
G1 X71.119 Y80.031 E1.5979
G1 X68.911 Y79.694 E0.08155
G1 X66.822 Y78.936 E0.08113
G1 X64.924 Y77.772 E0.0813
G1 X63.27 Y76.248 E0.08212
G1 X62.067 Y74.644 E0.0732
G1 X61.141 Y72.803 E0.07526
G1 X60.407 Y69.414 E0.12658
G1 X60.407 Y33.083 E1.32652
G1 X60.738 Y30.909 E0.0803
G1 X61.333 Y29.256 E0.06414
M107
G1 X61.66 Y29.374 F3600000
M107
G1 F2400
G1 X61.805 Y28.973 E0.01557
G1 X62.896 Y27.165 E0.07713
G1 X64.341 Y25.576 E0.07839
G1 X65.919 Y24.371 E0.07249
G1 X67.732 Y23.45 E0.07428
G1 X70.846 Y22.746 E0.11654
G1 X84.944 Y22.753 E0.51477
G1 X87.256 Y23.121 E0.08547
G1 X89.171 Y23.758 E0.07369
G1 X90.844 Y24.612 E0.06858
G1 X92.211 Y25.563 E0.0608
G1 X92.394 Y25.723 E0.00888
G1 X93.503 Y25.722 E0.04049
G1 X95.251 Y24.501 E0.07786
G1 X97.256 Y23.553 E0.08098
G1 X99.571 Y22.92 E0.08762
G1 X101.41 Y22.733 E0.06747
G1 X114.86 Y22.733 E0.4911
G1 X116.916 Y23.055 E0.07595
G1 X118.917 Y23.772 E0.07763
G1 X121.691 Y25.68 E0.12292
G1 X123.029 Y27.19 E0.07367
G1 X124.061 Y28.886 E0.07249
G1 X124.764 Y30.742 E0.07245
G1 X125.118 Y32.695 E0.07246
G1 X125.143 Y69.414 E1.34069
G1 X124.802 Y71.528 E0.07819
G1 X124.067 Y73.513 E0.07729
G1 X122.932 Y75.345 E0.07867
G1 X121.471 Y76.92 E0.07845
G1 X119.917 Y78.082 E0.07085
G1 X118.135 Y78.976 E0.07277
G1 X114.865 Y79.682 E0.12216
G1 X71.132 Y79.682 E1.59674
G1 X69.014 Y79.361 E0.07824
G1 X66.958 Y78.614 E0.07985
G1 X65.121 Y77.484 E0.07874
G1 X63.519 Y76.003 E0.07969
G1 X62.356 Y74.448 E0.07089
G1 X61.462 Y72.666 E0.07277
G1 X60.756 Y69.396 E0.12216
G1 X60.756 Y33.096 E1.32536
G1 X61.08 Y30.978 E0.07823
G1 X61.639 Y29.431 E0.06009
M107
G1 X61.965 Y29.548 F3600000
M107
G1 F2400
G1 X62.112 Y29.138 E0.01588
G1 X63.186 Y27.359 E0.07587
G1 X64.587 Y25.822 E0.07595
G1 X66.117 Y24.658 E0.07019
G1 X67.871 Y23.77 E0.07176
G1 X70.865 Y23.094 E0.11208
G1 X84.903 Y23.099 E0.51256
G1 X87.187 Y23.463 E0.08445
G1 X89.049 Y24.084 E0.07165
G1 X90.655 Y24.905 E0.06586
G1 X92.004 Y25.843 E0.05999
G1 X92.262 Y26.072 E0.01259
G1 X93.637 Y26.071 E0.05022
G1 X93.774 Y25.947 E0.00674
G1 X95.413 Y24.81 E0.07283
G1 X97.392 Y23.874 E0.0799
G1 X99.621 Y23.266 E0.08438
G1 X101.419 Y23.082 E0.06598
G1 X114.847 Y23.082 E0.49028
G1 X116.845 Y23.396 E0.07386
G1 X118.778 Y24.092 E0.07501
G1 X121.444 Y25.927 E0.11818
G1 X122.74 Y27.385 E0.0712
