; generated by SuperSlicer 2.5.59 on 2024-02-27 at 05:59:53 UTC


;
;

;
;
; 

; external perimeters extrusion width = 0.56mm
; perimeters extrusion width = 0.56mm
; infill extrusion width = 0.56mm
; solid infill extrusion width = 0.56mm
; top infill extrusion width = 0.56mm
; first layer extrusion width = 0.56mm

; object:{"name":"TOP","id":"TOP.stl id:0 copy 0","object_center":[87.500000,112.500000,0.000000],"boundingbox_center":[87.500000,112.500000,8.333830],"boundingbox_size":[99.778647,91.420601,16.667659]}
EXCLUDE_OBJECT_DEFINE NAME=TOP_stl_id_0_copy_0 CENTER=87.500000,112.500000 POLYGON=[[37.61,113.65],[37.63,113.28],[37.68,112.92],[37.78,112.57],[37.91,112.23],[38.08,111.90],[38.28,111.60],[38.52,111.32],[38.78,111.07],[39.08,110.85],[87.40,79.27],[106.09,67.05],[106.31,66.93],[106.32,66.93],[106.55,66.85],[106.56,66.84],[106.79,66.80],[106.82,66.80],[107.04,66.79],[107.07,66.79],[107.29,66.81],[107.33,66.82],[107.53,66.87],[107.57,66.89],[107.76,66.97],[107.81,66.99],[107.98,67.10],[108.03,67.13],[108.17,67.25],[108.22,67.30],[108.34,67.43],[108.39,67.49],[108.39,67.50],[108.44,67.57],[136.97,111.23],[137.12,111.46],[137.24,111.71],[137.32,111.97],[137.37,112.24],[137.39,112.51],[137.37,112.78],[137.32,113.05],[137.23,113.30],[137.11,113.55],[136.96,113.78],[120.95,124.24],[69.82,157.66],[69.52,157.84],[69.19,157.99],[68.86,158.10],[68.51,158.17],[68.16,158.21],[67.80,158.21],[67.45,158.17],[67.10,158.10],[66.76,157.99],[66.44,157.85],[66.13,157.67],[65.84,157.46],[65.58,157.23],[65.34,156.96],[65.13,156.68],[63.55,154.26],[38.13,115.37],[37.95,115.06],[37.81,114.72],[37.70,114.37],[37.64,114.01],[37.61,113.65]]
; plater:{"center":[87.500000,112.500000,0.000000],"boundingbox_center":[87.500000,112.500000,8.333830],"boundingbox_size":[99.778647,91.420601,16.667659]}

M73 P0 R41
;TYPE:Custom
CALCULATE_PA MATERIAL=PLA BOWDEN_LENGTH=6 LAYER_HEIGHT=0.2 NOZZLE_SIZE=0.4 PRINT_SPEED=75


START_PRINT EXTRUDER=220 BED=60
; Filament gcode
;_TOOLCHANGE 0
M107
;LAYER_CHANGE
;Z:0.2
;HEIGHT:0.2
;print_cfg variables
SET_GCODE_VARIABLE MACRO=_printcfg VARIABLE=material_type VALUE="'PLA'"
SET_GCODE_VARIABLE MACRO=_printcfg VARIABLE=material_color VALUE=65280
SET_GCODE_VARIABLE MACRO=_printcfg VARIABLE=layer_count VALUE=55
SET_GCODE_VARIABLE MACRO=_printcfg VARIABLE=layer_num VALUE=0
SET_GCODE_VARIABLE MACRO=_printcfg VARIABLE=layer_z VALUE=0.2
G1 E-0.4 F3600
G1 Z0.2 F180000
;print_cfg variables
SET_GCODE_VARIABLE MACRO=_printcfg VARIABLE=material_type VALUE="'PLA'"
SET_GCODE_VARIABLE MACRO=_printcfg VARIABLE=material_color VALUE=65280
SET_GCODE_VARIABLE MACRO=_printcfg VARIABLE=layer_count VALUE=55
SET_GCODE_VARIABLE MACRO=_printcfg VARIABLE=layer_num VALUE=0
SET_GCODE_VARIABLE MACRO=_printcfg VARIABLE=layer_z VALUE=0.2

; Increment layer in Klipper
SET_PRINT_STATS_INFO TOTAL_LAYER=55 CURRENT_LAYER=0
_BEGIN_LAYER
G92 E0
M204 S1500
G1 Z1
G1 X60.499 Y92.554
G1 Z0.2
G1 E0.4 F2400
;TYPE:Skirt
;WIDTH:0.48
M107
G1 F1200
G1 X37.11 Y107.842 E1.47645
G1 X36.309 Y108.464 E1.51549
G1 X35.571 Y109.237 E1.55668
G1 X34.876 Y110.266 E1.60451
G1 X34.542 Y110.96 E1.6342
G1 X34.287 Y111.688 E1.66389
G1 X34.074 Y112.713 E1.70424
G1 X34.046 Y114.223 E1.76243
G1 X34.356 Y115.731 E1.82172
G1 X34.635 Y116.45 E1.85141
G1 X35.12 Y117.341 E1.8905
G1 X62.119 Y158.646 E3.7915
M73 P1 R41
G1 X62.681 Y159.388 E3.82738
G1 X63.456 Y160.155 E3.86937
G1 X64.37 Y160.809 E3.91267
G1 X65.345 Y161.296 E3.95466
G1 X66.043 Y161.537 E3.9831
G1 X67.037 Y161.745 E4.02222
G1 X68.511 Y161.786 E4.07903
G1 X69.587 Y161.617 E4.12101
G1 X70.296 Y161.408 E4.14946
G1 X70.978 Y161.126 E4.17791
G1 X71.791 Y160.671 E4.21379
G1 X138.921 Y116.792 E7.30337
G1 X139.99 Y115.718 E7.36171
G1 X140.455 Y114.897 E7.3981
G1 X140.889 Y113.527 E7.45346
G1 X140.964 Y112.051 E7.51038
G1 X140.742 Y110.859 E7.5571
G1 X140.138 Y109.51 E7.61403
G1 X111.398 Y65.528 E9.63806
G1 X110.57 Y64.577 E9.68664
G1 X109.759 Y63.972 E9.72561
G1 X108.472 Y63.406 E9.77979
G1 X107.512 Y63.221 E9.81745
G1 X106.745 Y63.203 E9.84701
G1 X105.948 Y63.302 E9.87794
G1 X105.175 Y63.519 E9.90887
G1 X104.125 Y64.037 E9.95398
G1 X60.499 Y92.554 E11.96183
M107
G1 X60.738 Y92.92 F180000
M107
G1 F1200
G1 X37.349 Y108.208 E13.03828
G1 X36.609 Y108.781 E13.07432
G1 X35.904 Y109.521 E13.11368
G1 X35.264 Y110.467 E13.1577
G1 X34.95 Y111.117 E13.18551
G1 X34.711 Y111.798 E13.21332
G1 X34.506 Y112.779 E13.25193
G1 X34.482 Y114.195 E13.30649
G1 X34.775 Y115.607 E13.36203
G1 X35.038 Y116.279 E13.38984
G1 X35.485 Y117.102 E13.42593
G1 X62.485 Y158.406 E15.32692
G1 X63.005 Y159.094 E15.36013
G1 X63.746 Y159.828 E15.40034
G1 X64.585 Y160.429 E15.44009
G1 X65.519 Y160.895 E15.48029
G1 X66.174 Y161.12 E15.50696
G1 X67.084 Y161.31 E15.54279
G1 X68.466 Y161.351 E15.59605
G1 X69.497 Y161.19 E15.63625
G1 X70.161 Y160.993 E15.66292
G1 X71.552 Y160.305 E15.7227
G1 X138.682 Y116.426 E18.81227
G1 X139.623 Y115.481 E18.86364
G1 X140.062 Y114.706 E18.89797
G1 X140.461 Y113.438 E18.94917
G1 X140.528 Y112.075 E19.00174
G1 X140.326 Y110.994 E19.0441
G1 X139.771 Y109.747 E19.09668
G1 X111.032 Y65.767 E21.12062
G1 X110.284 Y64.907 E21.16455
G1 X109.521 Y64.339 E21.20116
G1 X108.361 Y63.828 E21.25002
G1 X107.461 Y63.655 E21.28533
G1 X106.755 Y63.64 E21.31251
G1 X106.024 Y63.732 E21.3409
G1 X105.315 Y63.933 E21.36928
G1 X104.364 Y64.403 E21.41016
G1 X60.738 Y92.92 E23.418
M107
M104 S220 ; set temperature
G92 E0
M73 P2 R41
G1 E-0.28 F3600
;WIPE_START
G1 F144000
G1 X64.756 Y90.293 E-0.394
;WIPE_END
G1 E-0.4 F3600
G1 Z1 F180000
; printing object TOP.stl id:0 copy 0
EXCLUDE_OBJECT_START NAME=TOP_stl_id_0_copy_0
G1 X88.923 Y97.315
G1 Z0.2
G1 E0 F2400
;TYPE:Internal perimeter
;WIDTH:0.56292
M107
G1 F1200
G1 X88.046 Y97.246 E0.04032
G1 X87.032 Y97.23 E0.08679
G1 X86.409 Y97.248 E0.11537
G1 X85.592 Y97.313 E0.15292
G1 X84.779 Y97.421 E0.19052
G1 X83.973 Y97.571 E0.22811
G1 X83.175 Y97.764 E0.2657
G1 X82.389 Y97.998 E0.30329
G1 X81.617 Y98.274 E0.34088
G1 X80.86 Y98.589 E0.37847
G1 X80.12 Y98.944 E0.41607
G1 X79.401 Y99.337 E0.45366
G1 X78.702 Y99.768 E0.49125
G1 X78.028 Y100.235 E0.52884
G1 X77.379 Y100.736 E0.56643
G1 X76.906 Y101.142 E0.59498
G1 X76.167 Y101.835 E0.64142
G1 X75.602 Y102.435 E0.6792
G1 X75.072 Y103.061 E0.71679
G1 X74.576 Y103.714 E0.75439
G1 X74.114 Y104.392 E0.79198
G1 X73.689 Y105.093 E0.82957
G1 X73.301 Y105.816 E0.86716
G1 X72.953 Y106.557 E0.90471
G1 X72.716 Y107.134 E0.93329
G1 X72.354 Y108.145 E0.98248
G1 X71.861 Y107.703 E1.01283
G1 X71.556 Y107.514 E1.02925
G1 X71.224 Y107.381 E1.04567
G1 X70.873 Y107.308 E1.06209
G1 X70.515 Y107.296 E1.07851
G1 X70.16 Y107.347 E1.09493
G1 X69.82 Y107.459 E1.11136
G1 X69.504 Y107.628 E1.12778
G1 X69.222 Y107.849 E1.1442
G1 X68.983 Y108.116 E1.16062
G1 X68.794 Y108.421 E1.17704
G1 X68.661 Y108.753 E1.19346
G1 X68.588 Y109.104 E1.20988
G1 X68.576 Y109.462 E1.22631
G1 X68.627 Y109.817 E1.24273
G1 X68.739 Y110.157 E1.25915
G1 X68.908 Y110.473 E1.27557
G1 X69.13 Y110.755 E1.29199
G1 X69.397 Y110.994 E1.30841
G1 X69.701 Y111.183 E1.32483
G1 X70.034 Y111.316 E1.34126
G1 X70.384 Y111.389 E1.35768
G1 X70.742 Y111.401 E1.3741
G1 X71.097 Y111.35 E1.39052
G1 X71.723 Y111.144 E1.42074
G1 X71.654 Y112.118 E1.4655
G1 X71.638 Y112.938 E1.50309
G1 X71.665 Y113.758 E1.54068
G1 X71.736 Y114.575 E1.57827
G1 X71.849 Y115.386 E1.61577
G1 X71.964 Y115.999 E1.64438
G1 X72.202 Y116.986 E1.6909
G1 X72.442 Y117.773 E1.72863
G1 X72.723 Y118.544 E1.76622
G1 X73.043 Y119.299 E1.80381
G1 X73.403 Y120.036 E1.8414
G1 X73.801 Y120.753 E1.87899
G1 X74.235 Y121.446 E1.91646
G1 X74.589 Y121.957 E1.94496
G1 X75.084 Y122.608 E1.98243
G1 X75.615 Y123.233 E2.02002
G1 X76.178 Y123.829 E2.05761
G1 X76.771 Y124.396 E2.0952
G1 X77.394 Y124.93 E2.13279
G1 X78.043 Y125.43 E2.17038
G1 X78.718 Y125.896 E2.20797
G1 X79.417 Y126.326 E2.24556
G1 X80.14 Y126.72 E2.2833
G1 X81.059 Y127.151 E2.32981
G1 X81.636 Y127.388 E2.35841
G1 X82.554 Y127.714 E2.40309
G1 X82.115 Y128.205 E2.43331
G1 X81.926 Y128.51 E2.44973
G1 X81.793 Y128.842 E2.46616
G1 X81.719 Y129.193 E2.48258
G1 X81.708 Y129.551 E2.499
G1 X81.759 Y129.906 E2.51542
G1 X81.87 Y130.246 E2.53184
G1 X82.039 Y130.562 E2.54826
G1 X82.261 Y130.844 E2.56468
G1 X82.528 Y131.083 E2.58111
G1 X82.832 Y131.272 E2.59753
G1 X83.165 Y131.405 E2.61395
G1 X83.516 Y131.478 E2.63037
G1 X83.874 Y131.49 E2.64679
G1 X84.228 Y131.439 E2.66321
G1 X84.569 Y131.327 E2.67963
G1 X84.885 Y131.158 E2.69606
G1 X85.166 Y130.937 E2.71248
G1 X85.405 Y130.67 E2.7289
G1 X85.594 Y130.365 E2.74532
G1 X85.727 Y130.033 E2.76174
G1 X85.801 Y129.682 E2.77816
G1 X85.812 Y129.324 E2.79458
G1 X85.761 Y128.969 E2.81101
G1 X85.555 Y128.339 E2.84139
G1 X86.428 Y128.408 E2.88154
G1 X87.248 Y128.429 E2.91914
G1 X88.068 Y128.407 E2.95673
G1 X88.886 Y128.342 E2.99432
G1 X89.699 Y128.234 E3.03191
G1 X90.505 Y128.083 E3.0695
G1 X91.302 Y127.891 E3.1071
G1 X92.092 Y127.655 E3.14487
G1 X93.043 Y127.305 E3.19131
G1 X93.618 Y127.065 E3.21988
G1 X94.357 Y126.71 E3.25746
G1 X95.077 Y126.317 E3.29505
G1 X95.775 Y125.887 E3.33264
G1 X96.45 Y125.42 E3.37023
G1 X97.099 Y124.918 E3.40782
G1 X97.72 Y124.384 E3.44541
G1 X98.313 Y123.817 E3.48301
G1 X98.876 Y123.22 E3.5206
G1 X99.406 Y122.594 E3.55819
G1 X99.902 Y121.941 E3.59578
G1 X100.363 Y121.263 E3.63337
G1 X100.789 Y120.561 E3.67097
G1 X101.176 Y119.838 E3.70856
G1 X101.525 Y119.097 E3.7461
G1 X101.762 Y118.52 E3.77468
G1 X102.123 Y117.51 E3.82388
G1 X102.617 Y117.951 E3.85422
G1 X102.921 Y118.14 E3.87064
G1 X103.254 Y118.274 E3.88707
G1 X103.605 Y118.347 E3.90349
G1 X103.963 Y118.358 E3.91991
G1 X104.317 Y118.307 E3.93633
G1 X104.658 Y118.196 E3.95275
G1 X104.974 Y118.027 E3.96917
G1 X105.255 Y117.805 E3.98559
G1 X105.494 Y117.538 E4.00202
G1 X105.683 Y117.234 E4.01844
G1 X105.816 Y116.901 E4.03486
G1 X105.89 Y116.55 E4.05128
G1 X105.901 Y116.192 E4.0677
G1 X105.85 Y115.838 E4.08412
G1 X105.739 Y115.497 E4.10054
G1 X105.569 Y115.181 E4.11697
G1 X105.348 Y114.9 E4.13339
G1 X105.081 Y114.661 E4.14981
G1 X104.777 Y114.472 E4.16623
G1 X104.444 Y114.339 E4.18265
G1 X104.093 Y114.265 E4.19907
G1 X103.735 Y114.254 E4.2155
G1 X103.381 Y114.305 E4.23192
G1 X102.754 Y114.51 E4.26214
G1 X102.824 Y113.536 E4.3069
G1 X102.84 Y112.716 E4.34449
G1 X102.812 Y111.896 E4.38208
G1 X102.742 Y111.079 E4.41967
G1 X102.629 Y110.267 E4.45726
G1 X102.473 Y109.462 E4.49485
G1 X102.275 Y108.666 E4.53244
G1 X102.035 Y107.881 E4.57003
G1 X101.756 Y107.113 E4.60751
G1 X101.516 Y106.539 E4.63602
G1 X101.167 Y105.8 E4.67347
G1 X100.779 Y105.078 E4.71106
G1 X100.353 Y104.377 E4.74865
G1 X99.891 Y103.699 E4.78624
G1 X99.393 Y103.047 E4.82383
G1 X98.861 Y102.42 E4.86155
G1 X98.159 Y101.686 E4.90808
G1 X97.705 Y101.258 E4.9367
G1 X97.084 Y100.725 E4.97419
G1 X96.434 Y100.224 E5.01178
G1 X95.759 Y99.758 E5.04937
G1 X95.061 Y99.329 E5.08696
G1 X94.341 Y98.936 E5.12455
G1 X93.601 Y98.582 E5.16214
G1 X92.843 Y98.267 E5.19973
G1 X91.923 Y97.941 E5.24449
M73 P2 R40
G1 X92.363 Y97.449 E5.27471
G1 X92.552 Y97.145 E5.29113
G1 X92.685 Y96.812 E5.30755
G1 X92.758 Y96.462 E5.32398
G1 X92.77 Y96.103 E5.3404
G1 X92.719 Y95.749 E5.35682
G1 X92.607 Y95.408 E5.37324
G1 X92.438 Y95.092 E5.38966
G1 X92.217 Y94.811 E5.40608
G1 X91.95 Y94.572 E5.4225
G1 X91.645 Y94.383 E5.43893
G1 X91.313 Y94.25 E5.45535
G1 X90.962 Y94.176 E5.47177
G1 X90.604 Y94.165 E5.48819
G1 X90.249 Y94.216 E5.50461
G1 X89.909 Y94.327 E5.52103
G1 X89.593 Y94.497 E5.53746
G1 X89.311 Y94.718 E5.55388
G1 X89.072 Y94.985 E5.5703
G1 X88.883 Y95.289 E5.58672
G1 X88.75 Y95.622 E5.60314
G1 X88.677 Y95.973 E5.61956
G1 X88.665 Y96.331 E5.63598
G1 X88.716 Y96.685 E5.65241
G1 X88.923 Y97.315 E5.68279
M107
G1 X89.599 Y97.932 F180000
;TYPE:External perimeter
M107
G1 F1200
G1 X88.813 Y97.828 E5.71913
G1 X88.021 Y97.766 E5.75552
G1 X87.035 Y97.75 E5.80071
G1 X86.437 Y97.767 E5.82815
G1 X85.647 Y97.83 E5.86447
G1 X84.861 Y97.934 E5.90081
G1 X84.082 Y98.08 E5.93715
G1 X83.311 Y98.266 E5.97349
G1 X82.551 Y98.493 E6.00982
G1 X81.804 Y98.759 E6.04616
G1 X81.072 Y99.064 E6.0825
G1 X80.358 Y99.407 E6.11884
G1 X79.662 Y99.787 E6.15518
G1 X78.987 Y100.203 E6.19152
G1 X78.335 Y100.654 E6.22786
G1 X77.708 Y101.139 E6.26419
G1 X77.254 Y101.529 E6.29162
G1 X76.534 Y102.203 E6.3368
G1 X75.99 Y102.782 E6.3732
G1 X75.478 Y103.387 E6.40954
G1 X74.998 Y104.018 E6.44588
G1 X74.552 Y104.673 E6.48222
G1 X74.141 Y105.351 E6.51855
G1 X73.766 Y106.05 E6.55489
G1 X73.429 Y106.767 E6.59122
G1 X73.201 Y107.321 E6.61865
G1 X72.869 Y108.249 E6.66384
G1 X72.648 Y109.012 E6.70024
G1 X72.468 Y109.784 E6.73658
G1 X72.328 Y110.564 E6.77291
G1 X72.23 Y111.351 E6.80925
G1 X72.173 Y112.142 E6.84559
G1 X72.158 Y112.935 E6.88193
G1 X72.185 Y113.727 E6.91827
G1 X72.253 Y114.517 E6.9546
G1 X72.362 Y115.301 E6.99091
G1 X72.473 Y115.89 E7.01835
G1 X72.704 Y116.849 E7.06356
G1 X72.936 Y117.608 E7.09995
G1 X73.207 Y118.353 E7.13628
G1 X73.517 Y119.083 E7.17262
G1 X73.864 Y119.795 E7.20896
G1 X74.249 Y120.489 E7.2453
G1 X74.669 Y121.16 E7.28159
G1 X75.009 Y121.652 E7.309
G1 X75.489 Y122.281 E7.34529
G1 X76.003 Y122.886 E7.38163
G1 X76.547 Y123.463 E7.41796
G1 X77.12 Y124.01 E7.4543
G1 X77.722 Y124.526 E7.49064
G1 X78.35 Y125.01 E7.52697
G1 X79.002 Y125.461 E7.56331
G1 X79.678 Y125.876 E7.59965
G1 X80.375 Y126.256 E7.63604
G1 X81.268 Y126.675 E7.68124
G1 X81.822 Y126.902 E7.70868
G1 X82.568 Y127.167 E7.74499
G1 X83.328 Y127.393 E7.78133
G1 X84.099 Y127.578 E7.81767
G1 X84.879 Y127.723 E7.85401
G1 X85.665 Y127.826 E7.89035
G1 X86.455 Y127.888 E7.92668
G1 X87.248 Y127.909 E7.96302
G1 X88.04 Y127.887 E7.99936
G1 X88.831 Y127.825 E8.0357
G1 X89.617 Y127.72 E8.07204
G1 X90.396 Y127.575 E8.10838
G1 X91.167 Y127.388 E8.14471
G1 X91.928 Y127.161 E8.18112
G1 X92.853 Y126.821 E8.22629
G1 X93.405 Y126.591 E8.25373
G1 X94.12 Y126.248 E8.29006
G1 X94.816 Y125.867 E8.3264
G1 X95.491 Y125.451 E8.36274
G1 X96.143 Y125 E8.39908
G1 X96.77 Y124.515 E8.43541
G1 X97.371 Y123.998 E8.47175
G1 X97.944 Y123.45 E8.50809
G1 X98.488 Y122.873 E8.54443
G1 X99 Y122.268 E8.58077
G1 X99.48 Y121.637 E8.61711
G1 X99.926 Y120.981 E8.65344
G1 X100.337 Y120.303 E8.68978
G1 X100.712 Y119.605 E8.72612
G1 X101.049 Y118.888 E8.76244
G1 X101.276 Y118.334 E8.78988
G1 X101.609 Y117.405 E8.83507
G1 X101.83 Y116.643 E8.87147
G1 X102.01 Y115.871 E8.90781
G1 X102.149 Y115.09 E8.94414
G1 X102.248 Y114.303 E8.98048
G1 X102.304 Y113.513 E9.01682
G1 X102.32 Y112.72 E9.05316
G1 X102.293 Y111.928 E9.08949
G1 X102.225 Y111.138 E9.12583
G1 X102.115 Y110.352 E9.16217
G1 X101.965 Y109.574 E9.19851
G1 X101.773 Y108.805 E9.23484
G1 X101.542 Y108.046 E9.27118
G1 X101.271 Y107.302 E9.30748
G1 X101.041 Y106.75 E9.33489
G1 X100.703 Y106.034 E9.37118
G1 X100.327 Y105.336 E9.40751
G1 X99.915 Y104.659 E9.44385
G1 X99.469 Y104.004 E9.48018
G1 X98.988 Y103.373 E9.51652
G1 X98.474 Y102.768 E9.5529
G1 X97.792 Y102.055 E9.59812
G1 X97.357 Y101.644 E9.62556
G1 X96.756 Y101.128 E9.66186
G1 X96.128 Y100.644 E9.6982
G1 X95.475 Y100.194 E9.73454
G1 X94.8 Y99.779 E9.77088
G1 X94.104 Y99.399 E9.80721
G1 X93.389 Y99.057 E9.84355
G1 X92.656 Y98.753 E9.87989
G1 X91.909 Y98.487 E9.91623
G1 X91.149 Y98.262 E9.95257
G1 X90.378 Y98.076 E9.9889
G1 X89.599 Y97.932 E10.02524
M107
;WIPE_START
G1 X89.452 Y97.56 F180000
;WIPE_END
G1 X90.025 Y97.586
M107
G1 F1200
G1 X90.274 Y97.685 E10.03749
G1 X90.535 Y97.74 E10.04974
G1 X90.802 Y97.748 E10.06199
G1 X91.067 Y97.71 E10.07425
G1 X91.321 Y97.627 E10.0865
G1 X91.557 Y97.501 E10.09875
G1 X91.767 Y97.335 E10.111
G1 X91.945 Y97.136 E10.12325
G1 X92.086 Y96.909 E10.1355
G1 X92.185 Y96.661 E10.14775
G1 X92.24 Y96.399 E10.16
G1 X92.249 Y96.132 E10.17226
G1 X92.211 Y95.868 E10.18451
G1 X92.127 Y95.614 E10.19676
G1 X92.001 Y95.378 E10.20901
G1 X91.836 Y95.168 E10.22126
G1 X91.637 Y94.99 E10.23351
G1 X91.41 Y94.849 E10.24576
G1 X91.162 Y94.749 E10.25801
G1 X90.9 Y94.694 E10.27027
G1 X90.633 Y94.686 E10.28252
G1 X90.368 Y94.724 E10.29477
G1 X90.114 Y94.807 E10.30702
G1 X89.879 Y94.934 E10.31927
G1 X89.668 Y95.099 E10.33152
G1 X89.49 Y95.298 E10.34377
G1 X89.349 Y95.525 E10.35602
G1 X89.25 Y95.773 E10.36828
G1 X89.195 Y96.035 E10.38053
G1 X89.186 Y96.302 E10.39278
