; generated by SuperSlicer 2.5.59 on 2024-02-27 at 13:31:18 UTC


;
;

;
;
; 

; external perimeters extrusion width = 0.56mm
; perimeters extrusion width = 0.56mm
; infill extrusion width = 0.56mm
; solid infill extrusion width = 0.56mm
; top infill extrusion width = 0.56mm
; first layer extrusion width = 0.56mm

; object:{"name":"TOP","id":"TOP.stl id:0 copy 0","object_center":[87.500000,112.500000,0.000000],"boundingbox_center":[87.500000,112.500000,8.333830],"boundingbox_size":[56.484498,85.303362,16.667659]}
EXCLUDE_OBJECT_DEFINE NAME=TOP_stl_id_0_copy_0 CENTER=87.500000,112.500000 POLYGON=[[59.26,71.84],[59.28,71.59],[59.28,71.59],[59.34,71.35],[59.34,71.34],[59.43,71.12],[59.44,71.10],[59.56,70.91],[59.57,70.88],[59.71,70.71],[59.74,70.68],[59.89,70.54],[59.93,70.51],[60.10,70.40],[60.14,70.37],[60.32,70.29],[60.38,70.26],[60.56,70.21],[60.62,70.19],[60.80,70.16],[60.88,70.16],[60.88,70.16],[60.97,70.15],[113.13,69.85],[113.40,69.85],[113.67,69.88],[113.93,69.95],[114.19,70.05],[114.42,70.19],[114.64,70.35],[114.84,70.54],[115.01,70.75],[115.15,70.98],[115.26,71.23],[115.38,90.36],[115.68,141.36],[115.74,151.44],[115.73,151.80],[115.67,152.15],[115.58,152.49],[115.46,152.82],[115.30,153.14],[115.11,153.44],[114.88,153.72],[114.64,153.97],[114.36,154.19],[114.06,154.39],[113.75,154.55],[113.42,154.68],[113.08,154.78],[112.73,154.83],[112.37,154.85],[109.48,154.87],[63.03,155.15],[62.66,155.13],[62.30,155.07],[61.95,154.97],[61.61,154.83],[61.29,154.65],[60.99,154.44],[60.72,154.20],[60.47,153.93],[60.26,153.63],[60.08,153.31],[59.94,152.98],[59.83,152.63],[59.77,152.27],[59.74,151.90],[59.39,94.18],[59.26,71.84]]
; plater:{"center":[87.500000,112.500000,0.000000],"boundingbox_center":[87.500000,112.500000,8.333830],"boundingbox_size":[56.484498,85.303362,16.667659]}

M73 P0 R40
;TYPE:Custom
CALCULATE_PA MATERIAL=PLA BOWDEN_LENGTH=6 LAYER_HEIGHT=0.2 NOZZLE_SIZE=0.4 PRINT_SPEED=75


START_PRINT EXTRUDER=220 BED=60
; Filament gcode
;_TOOLCHANGE 0
M107
;LAYER_CHANGE
;Z:0.2
;HEIGHT:0.2
;print_cfg variables
SET_GCODE_VARIABLE MACRO=_printcfg VARIABLE=material_type VALUE="'PLA'"
SET_GCODE_VARIABLE MACRO=_printcfg VARIABLE=material_color VALUE=65280
SET_GCODE_VARIABLE MACRO=_printcfg VARIABLE=layer_count VALUE=55
SET_GCODE_VARIABLE MACRO=_printcfg VARIABLE=layer_num VALUE=0
SET_GCODE_VARIABLE MACRO=_printcfg VARIABLE=layer_z VALUE=0.2
G1 E-0.4 F3600
G1 Z0.2 F180000
;print_cfg variables
SET_GCODE_VARIABLE MACRO=_printcfg VARIABLE=material_type VALUE="'PLA'"
SET_GCODE_VARIABLE MACRO=_printcfg VARIABLE=material_color VALUE=65280
SET_GCODE_VARIABLE MACRO=_printcfg VARIABLE=layer_count VALUE=55
SET_GCODE_VARIABLE MACRO=_printcfg VARIABLE=layer_num VALUE=0
SET_GCODE_VARIABLE MACRO=_printcfg VARIABLE=layer_z VALUE=0.2

; Increment layer in Klipper
SET_PRINT_STATS_INFO TOTAL_LAYER=55 CURRENT_LAYER=0
_BEGIN_LAYER
G92 E0
M204 S1500
G1 Z1
G1 X57.505 Y67.828
G1 Z0.2
G1 E0.4 F2400
;TYPE:Skirt
;WIDTH:0.48
M107
G1 F1200
G1 X56.953 Y68.378 E0.43004
G1 X56.347 Y69.23 E0.47029
G1 X55.837 Y70.459 E0.52158
G1 X55.642 Y71.865 E0.57626
G1 X56.124 Y151.926 E3.66057
M73 P1 R40
G1 X56.212 Y152.934 E3.69956
G1 X56.375 Y153.687 E3.72924
G1 X56.764 Y154.751 E3.77288
G1 X57.126 Y155.431 E3.80255
G1 X58.064 Y156.65 E3.86181
G1 X58.889 Y157.379 E3.90422
G1 X59.53 Y157.806 E3.9339
G1 X60.241 Y158.171 E3.96469
G1 X61.289 Y158.539 E4.0075
G1 X62.037 Y158.691 E4.03688
G1 X63.047 Y158.767 E4.07592
G1 X112.585 Y158.464 E5.98434
G1 X113.316 Y158.401 E6.01262
G1 X114.356 Y158.174 E6.05362
G1 X115.703 Y157.613 E6.10983
G1 X116.349 Y157.213 E6.13909
G1 X117.22 Y156.499 E6.18249
G1 X117.91 Y155.724 E6.22246
G1 X118.328 Y155.115 E6.2509
G1 X118.679 Y154.466 E6.27933
G1 X119.088 Y153.378 E6.32411
G1 X119.299 Y152.349 E6.36458
G1 X119.358 Y151.42 E6.40043
G1 X118.876 Y71.219 E9.49014
G1 X118.446 Y69.501 E9.55839
G1 X118.085 Y68.854 E9.58691
G1 X117.373 Y67.962 E9.6309
G1 X116.608 Y67.305 E9.66975
G1 X115.555 Y66.707 E9.71638
G1 X114.823 Y66.447 E9.74628
G1 X113.865 Y66.262 E9.78388
G1 X60.857 Y66.542 E11.82601
G1 X60.136 Y66.609 E11.85387
G1 X59.385 Y66.786 E11.88362
G1 X58.132 Y67.365 E11.93677
G1 X57.505 Y67.828 E11.96679
M107
G1 X57.797 Y68.153 F180000
M107
G1 F1200
G1 X57.29 Y68.656 E11.9943
G1 X56.722 Y69.455 E12.03206
G1 X56.261 Y70.565 E12.07838
G1 X56.079 Y71.862 E12.12884
G1 X56.561 Y151.923 E15.21315
G1 X56.641 Y152.854 E15.24915
G1 X56.793 Y153.56 E15.27695
G1 X57.166 Y154.578 E15.31872
G1 X57.506 Y155.214 E15.34652
G1 X58.386 Y156.355 E15.40203
G1 X59.142 Y157.023 E15.44088
G1 X59.742 Y157.424 E15.46868
G1 X60.406 Y157.766 E15.49746
G1 X61.411 Y158.119 E15.5385
G1 X62.112 Y158.261 E15.56604
G1 X63.045 Y158.33 E15.60208
G1 X112.559 Y158.028 E17.50962
G1 X113.245 Y157.97 E17.53614
G1 X114.243 Y157.751 E17.57549
G1 X115.502 Y157.225 E17.62807
G1 X116.11 Y156.848 E17.65561
G1 X116.909 Y156.191 E17.69545
G1 X117.57 Y155.449 E17.73374
G1 X117.961 Y154.878 E17.7604
G1 X118.289 Y154.269 E17.78706
G1 X118.665 Y153.268 E17.82826
G1 X118.867 Y152.283 E17.86699
G1 X118.921 Y151.423 E17.90018
G1 X118.439 Y71.222 E20.98989
G1 X118.047 Y69.679 E21.0512
G1 X117.484 Y68.758 E21.09278
G1 X116.875 Y68.086 E21.12773
G1 X115.998 Y67.426 E21.17003
G1 X115.39 Y67.112 E21.19638
G1 X114.716 Y66.871 E21.22394
G1 X113.81 Y66.696 E21.25951
G1 X60.859 Y66.979 E23.2994
M73 P2 R40
G1 X59.507 Y67.206 E23.35222
G1 X58.374 Y67.729 E23.40028
G1 X57.797 Y68.153 E23.42787
M107
M104 S220 ; set temperature
G92 E0
G1 E-0.28 F3600
;WIPE_START
G1 F144000
G1 X58.374 Y67.729 E-0.29701
G1 X59.507 Y67.206 E-0.32664
G1 X60.859 Y66.979 E-0.3592
G1 X62.324 Y66.971 E-0.394
;WIPE_END
G1 E-0.4 F3600
G1 Z1 F180000
; printing object TOP.stl id:0 copy 0
EXCLUDE_OBJECT_START NAME=TOP_stl_id_0_copy_0
G1 X97.333 Y100.378
G1 Z0.2
G1 E0 F2400
;TYPE:Internal perimeter
;WIDTH:0.56292
M107
G1 F1200
G1 X96.552 Y99.791 E0.04476
G1 X95.871 Y99.334 E0.08235
G1 X95.168 Y98.912 E0.11994
G1 X94.443 Y98.528 E0.15753
G1 X93.701 Y98.184 E0.19503
G1 X93.123 Y97.949 E0.22364
G1 X92.164 Y97.614 E0.27016
G1 X91.373 Y97.389 E0.30789
G1 X90.573 Y97.207 E0.34548
G1 X89.765 Y97.067 E0.38307
G1 X88.95 Y96.969 E0.42066
G1 X88.132 Y96.915 E0.45825
G1 X87.315 Y96.904 E0.49571
G1 X86.693 Y96.924 E0.52422
G1 X85.878 Y96.988 E0.56169
G1 X85.065 Y97.095 E0.59928
G1 X84.258 Y97.245 E0.63687
G1 X83.461 Y97.436 E0.67446
G1 X82.675 Y97.67 E0.71205
G1 X81.902 Y97.944 E0.74964
G1 X81.144 Y98.259 E0.78723
G1 X80.405 Y98.613 E0.82482
G1 X79.682 Y99.007 E0.86256
G1 X78.822 Y99.546 E0.90907
G1 X78.31 Y99.902 E0.93767
G1 X77.537 Y100.497 E0.98235
M73 P2 R39
G1 X77.363 Y99.861 E1.01257
G1 X77.209 Y99.538 E1.02899
G1 X77.002 Y99.245 E1.04541
G1 X76.747 Y98.993 E1.06184
G1 X76.453 Y98.79 E1.07826
G1 X76.127 Y98.64 E1.09468
G1 X75.78 Y98.55 E1.1111
G1 X75.423 Y98.521 E1.12752
G1 X75.067 Y98.554 E1.14394
G1 X74.721 Y98.649 E1.16036
G1 X74.397 Y98.802 E1.17679
G1 X74.105 Y99.009 E1.19321
G1 X73.853 Y99.264 E1.20963
G1 X73.649 Y99.559 E1.22605
G1 X73.5 Y99.885 E1.24247
G1 X73.409 Y100.231 E1.25889
G1 X73.38 Y100.588 E1.27531
G1 X73.414 Y100.945 E1.29174
G1 X73.508 Y101.291 E1.30816
G1 X73.662 Y101.614 E1.32458
G1 X73.869 Y101.907 E1.341
G1 X74.124 Y102.158 E1.35742
G1 X74.419 Y102.362 E1.37384
G1 X74.744 Y102.512 E1.39026
G1 X75.386 Y102.679 E1.42065
G1 X74.854 Y103.376 E1.4608
G1 X74.392 Y104.054 E1.49839
G1 X73.966 Y104.755 E1.53599
G1 X73.576 Y105.48 E1.57375
G1 X73.152 Y106.401 E1.62021
G1 X72.917 Y106.979 E1.64878
G1 X72.647 Y107.752 E1.68634
G1 X72.418 Y108.54 E1.72394
G1 X72.23 Y109.338 E1.76153
G1 X72.085 Y110.146 E1.79912
G1 X71.982 Y110.959 E1.83671
G1 X71.923 Y111.777 E1.8743
G1 X71.906 Y112.597 E1.9119
G1 X71.933 Y113.417 E1.94949
G1 X72.002 Y114.234 E1.98708
G1 X72.115 Y115.047 E2.02467
G1 X72.27 Y115.852 E2.06227
G1 X72.467 Y116.649 E2.09986
G1 X72.705 Y117.433 E2.13745
G1 X72.985 Y118.204 E2.17501
G1 X73.227 Y118.778 E2.20358
G1 X73.662 Y119.694 E2.25004
G1 X74.061 Y120.415 E2.28781
G1 X74.495 Y121.111 E2.3254
G1 X74.965 Y121.782 E2.36299
G1 X75.505 Y122.473 E2.40315
G1 X74.865 Y122.648 E2.43353
G1 X74.542 Y122.802 E2.44995
G1 X74.249 Y123.009 E2.46637
G1 X73.998 Y123.264 E2.48279
G1 X73.794 Y123.559 E2.49922
G1 X73.644 Y123.884 E2.51564
G1 X73.554 Y124.231 E2.53206
G1 X73.525 Y124.588 E2.54848
G1 X73.558 Y124.945 E2.5649
G1 X73.653 Y125.29 E2.58132
G1 X73.806 Y125.614 E2.59774
G1 X74.013 Y125.906 E2.61417
G1 X74.268 Y126.158 E2.63059
G1 X74.563 Y126.362 E2.64701
G1 X74.889 Y126.511 E2.66343
G1 X75.235 Y126.602 E2.67985
G1 X75.592 Y126.631 E2.69627
G1 X75.949 Y126.598 E2.71269
G1 X76.295 Y126.503 E2.72912
G1 X76.619 Y126.349 E2.74554
G1 X76.911 Y126.142 E2.76196
G1 X77.163 Y125.887 E2.77838
G1 X77.366 Y125.593 E2.7948
G1 X77.516 Y125.267 E2.81122
G1 X77.683 Y124.629 E2.84144
G1 X78.463 Y125.216 E2.8862
G1 X79.144 Y125.674 E2.92379
G1 X79.847 Y126.095 E2.96138
G1 X80.572 Y126.479 E2.99898
G1 X81.315 Y126.823 E3.03647
G1 X81.893 Y127.058 E3.06508
G1 X82.851 Y127.393 E3.11161
G1 X83.643 Y127.618 E3.14933
G1 X84.442 Y127.8 E3.18692
G1 X85.251 Y127.94 E3.22451
G1 X86.065 Y128.038 E3.2621
G1 X86.883 Y128.092 E3.29969
G1 X87.701 Y128.103 E3.33716
G1 X88.322 Y128.083 E3.36566
G1 X89.137 Y128.019 E3.40314
G1 X89.95 Y127.912 E3.44072
G1 X90.757 Y127.762 E3.47831
G1 X91.554 Y127.571 E3.5159
G1 X92.341 Y127.337 E3.5535
G1 X93.113 Y127.063 E3.59109
G1 X93.871 Y126.748 E3.62868
G1 X94.611 Y126.394 E3.66627
G1 X95.334 Y126 E3.704
G1 X96.194 Y125.461 E3.75051
G1 X96.706 Y125.105 E3.77911
G1 X97.478 Y124.51 E3.82379
G1 X97.652 Y125.146 E3.85401
G1 X97.806 Y125.47 E3.87044
G1 X98.013 Y125.762 E3.88686
G1 X98.268 Y126.014 E3.90328
G1 X98.563 Y126.217 E3.9197
G1 X98.888 Y126.367 E3.93612
G1 X99.235 Y126.457 E3.95254
G1 X99.592 Y126.487 E3.96896
G1 X99.949 Y126.453 E3.98539
G1 X100.294 Y126.358 E4.00181
G1 X100.618 Y126.205 E4.01823
G1 X100.91 Y125.998 E4.03465
G1 X101.162 Y125.743 E4.05107
G1 X101.366 Y125.448 E4.06749
G1 X101.515 Y125.122 E4.08391
G1 X101.606 Y124.776 E4.10034
G1 X101.635 Y124.419 E4.11676
G1 X101.602 Y124.062 E4.13318
G1 X101.507 Y123.716 E4.1496
G1 X101.354 Y123.393 E4.16602
G1 X101.146 Y123.1 E4.18244
G1 X100.891 Y122.849 E4.19887
G1 X100.597 Y122.645 E4.21529
G1 X100.271 Y122.495 E4.23171
G1 X99.63 Y122.328 E4.26209
G1 X100.161 Y121.631 E4.30225
G1 X100.623 Y120.953 E4.33984
G1 X101.049 Y120.252 E4.37743
G1 X101.439 Y119.527 E4.4152
G1 X101.863 Y118.606 E4.46166
G1 X102.098 Y118.029 E4.49023
G1 X102.368 Y117.255 E4.52779
G1 X102.597 Y116.467 E4.56538
G1 X102.785 Y115.669 E4.60297
G1 X102.93 Y114.861 E4.64056
G1 X103.033 Y114.048 E4.67816
G1 X103.092 Y113.23 E4.71575
G1 X103.109 Y112.41 E4.75334
G1 X103.083 Y111.59 E4.79093
G1 X103.013 Y110.773 E4.82853
G1 X102.901 Y109.96 E4.86612
G1 X102.746 Y109.155 E4.90371
G1 X102.549 Y108.359 E4.9413
G1 X102.31 Y107.574 E4.97889
G1 X102.031 Y106.803 E5.01645
G1 X101.789 Y106.229 E5.04502
G1 X101.354 Y105.313 E5.09149
G1 X100.955 Y104.592 E5.12925
G1 X100.52 Y103.897 E5.16684
G1 X100.05 Y103.225 E5.20444
G1 X99.511 Y102.534 E5.24459
G1 X100.15 Y102.359 E5.27497
G1 X100.474 Y102.205 E5.2914
G1 X100.766 Y101.998 E5.30782
G1 X101.018 Y101.743 E5.32424
G1 X101.221 Y101.449 E5.34066
G1 X101.371 Y101.123 E5.35708
G1 X101.462 Y100.776 E5.3735
G1 X101.491 Y100.419 E5.38992
G1 X101.457 Y100.062 E5.40635
G1 X101.362 Y99.717 E5.42277
G1 X101.209 Y99.393 E5.43919
G1 X101.002 Y99.101 E5.45561
G1 X100.747 Y98.849 E5.47203
G1 X100.452 Y98.645 E5.48845
G1 X100.127 Y98.496 E5.50487
G1 X99.78 Y98.405 E5.5213
G1 X99.423 Y98.376 E5.53772
G1 X99.066 Y98.409 E5.55414
G1 X98.721 Y98.504 E5.57056
G1 X98.397 Y98.658 E5.58698
G1 X98.104 Y98.865 E5.6034
G1 X97.853 Y99.12 E5.61982
G1 X97.649 Y99.415 E5.63625
G1 X97.499 Y99.74 E5.65267
G1 X97.333 Y100.378 E5.68289
M107
G1 X98.266 Y101.424 F180000
;TYPE:External perimeter
M107
G1 F1200
G1 X98.457 Y101.612 E5.69514
G1 X98.676 Y101.764 E5.70739
G1 X98.919 Y101.876 E5.71964
G1 X99.178 Y101.943 E5.73189
G1 X99.444 Y101.965 E5.74414
G1 X99.711 Y101.94 E5.7564
G1 X99.968 Y101.869 E5.76865
G1 X100.21 Y101.755 E5.7809
G1 X100.428 Y101.6 E5.79315
G1 X100.616 Y101.41 E5.8054
G1 X100.768 Y101.19 E5.81765
G1 X100.879 Y100.947 E5.8299
G1 X100.947 Y100.689 E5.84215
G1 X100.969 Y100.422 E5.85441
G1 X100.944 Y100.156 E5.86666
G1 X100.873 Y99.898 E5.87891
G1 X100.759 Y99.657 E5.89116
G1 X100.604 Y99.439 E5.90341
G1 X100.414 Y99.251 E5.91566
G1 X100.194 Y99.099 E5.92791
G1 X99.951 Y98.987 E5.94016
G1 X99.692 Y98.92 E5.95242
G1 X99.426 Y98.898 E5.96467
G1 X99.16 Y98.923 E5.97692
G1 X98.902 Y98.994 E5.98917
G1 X98.66 Y99.108 E6.00142
G1 X98.442 Y99.263 E6.01367
G1 X98.255 Y99.453 E6.02592
G1 X98.103 Y99.673 E6.03817
G1 X97.991 Y99.916 E6.05043
G1 X97.923 Y100.174 E6.06268
G1 X97.902 Y100.441 E6.07493
G1 X97.927 Y100.707 E6.08718
G1 X97.997 Y100.965 E6.09943
G1 X98.112 Y101.206 E6.11168
G1 X98.266 Y101.424 E6.12393
M107
;WIPE_START
G1 X98.143 Y101.805 F180000
;WIPE_END
G1 X98.072 Y101.741
M107
G1 F1200
G1 X97.492 Y101.201 E6.16027
G1 X96.884 Y100.692 E6.19661
G1 X96.251 Y100.215 E6.23295
G1 X95.593 Y99.773 E6.26928
G1 X94.912 Y99.365 E6.30562
G1 X94.212 Y98.994 E6.34196
G1 X93.493 Y98.661 E6.37827
G1 X92.939 Y98.435 E6.40571
G1 X92.007 Y98.11 E6.45092
G1 X91.244 Y97.893 E6.4873
G1 X90.471 Y97.717 E6.52364
G1 X89.69 Y97.581 E6.55998
G1 X88.902 Y97.487 E6.59632
G1 X88.111 Y97.435 E6.63265
G1 X87.319 Y97.424 E6.66894
G1 X86.722 Y97.443 E6.69635
G1 X85.932 Y97.505 E6.73265
G1 X85.146 Y97.609 E6.76898
G1 X84.367 Y97.753 E6.80532
G1 X83.596 Y97.939 E6.84166
G1 X82.836 Y98.164 E6.87799
G1 X82.089 Y98.43 E6.91433
G1 X81.357 Y98.734 E6.95067
G1 X80.641 Y99.076 E6.98701
G1 X79.944 Y99.456 E7.02339
G1 X79.108 Y99.98 E7.0686
G1 X78.617 Y100.322 E7.09604
G1 X77.989 Y100.805 E7.13235
G1 X77.388 Y101.322 E7.16869
G1 X76.814 Y101.869 E7.20503
G1 X76.27 Y102.446 E7.24136
G1 X75.757 Y103.05 E7.2777
G1 X75.276 Y103.681 E7.31404
G1 X74.83 Y104.336 E7.35038
G1 X74.418 Y105.013 E7.38672
G1 X74.042 Y105.712 E7.42312
G1 X73.629 Y106.608 E7.4683
G1 X73.404 Y107.162 E7.49573
G1 X73.142 Y107.911 E7.53206
G1 X72.921 Y108.672 E7.5684
G1 X72.74 Y109.444 E7.60474
G1 X72.599 Y110.224 E7.64108
G1 X72.5 Y111.011 E7.67742
G1 X72.442 Y111.802 E7.71376
G1 X72.426 Y112.594 E7.75009
G1 X72.452 Y113.387 E7.78643
G1 X72.519 Y114.177 E7.82277
G1 X72.628 Y114.962 E7.85911
G1 X72.778 Y115.741 E7.89545
G1 X72.968 Y116.51 E7.93179
G1 X73.199 Y117.269 E7.96813
G1 X73.469 Y118.014 E8.00445
G1 X73.701 Y118.566 E8.03188
G1 X74.124 Y119.456 E8.07707
G1 X74.509 Y120.151 E8.11347
G1 X74.929 Y120.824 E8.14981
G1 X75.383 Y121.473 E8.18615
G1 X75.872 Y122.098 E8.22249
G1 X76.392 Y122.696 E8.25882
G1 X76.943 Y123.266 E8.29516
G1 X77.523 Y123.806 E8.3315
G1 X78.131 Y124.316 E8.36784
G1 X78.765 Y124.792 E8.40417
G1 X79.423 Y125.234 E8.44051
G1 X80.103 Y125.642 E8.47685
G1 X80.804 Y126.013 E8.51319
G1 X81.522 Y126.346 E8.54949
G1 X82.077 Y126.572 E8.57694
G1 X83.008 Y126.898 E8.62215
G1 X83.772 Y127.114 E8.65853
G1 X84.545 Y127.29 E8.69487
G1 X85.326 Y127.426 E8.73121
G1 X86.113 Y127.52 E8.76754
G1 X86.904 Y127.572 E8.80388
G1 X87.696 Y127.583 E8.84017
G1 X88.294 Y127.564 E8.86758
G1 X89.083 Y127.502 E8.90388
G1 X89.869 Y127.398 E8.94021
G1 X90.649 Y127.254 E8.97655
G1 X91.419 Y127.068 E9.01288
G1 X92.179 Y126.843 E9.04922
G1 X92.927 Y126.577 E9.08556
G1 X93.659 Y126.273 E9.1219
G1 X94.374 Y125.931 E9.15823
G1 X95.071 Y125.551 E9.19462
G1 X95.907 Y125.027 E9.23983
G1 X96.398 Y124.685 E9.26727
G1 X97.026 Y124.202 E9.30358
G1 X97.627 Y123.685 E9.33992
G1 X98.201 Y123.138 E9.37626
G1 X98.745 Y122.562 E9.41259
G1 X99.258 Y121.957 E9.44893
G1 X99.739 Y121.326 E9.48527
G1 X100.186 Y120.671 E9.52161
G1 X100.597 Y119.994 E9.55795
G1 X100.974 Y119.295 E9.59435
G1 X101.386 Y118.399 E9.63953
G1 X101.612 Y117.845 E9.66696
G1 X101.873 Y117.096 E9.70329
G1 X102.094 Y116.335 E9.73963
G1 X102.276 Y115.563 E9.77597
G1 X102.416 Y114.783 E9.81231
G1 X102.515 Y113.996 E9.84865
G1 X102.573 Y113.205 E9.88498
G1 X102.589 Y112.413 E9.92132
G1 X102.563 Y111.62 E9.95766
G1 X102.496 Y110.83 E9.994
G1 X102.387 Y110.045 E10.03034
G1 X102.238 Y109.266 E10.06668
