; generated by SuperSlicer 2.5.59.8 on 2024-04-12 at 02:59:56 UTC


;
;

;
;

;
;

;
;

;
;
; 

; external perimeters extrusion width = 0.40mm
; perimeters extrusion width = 0.40mm
; infill extrusion width = 0.40mm
; solid infill extrusion width = 0.40mm
; top infill extrusion width = 0.40mm

; object:{"name":"top_endstop_mgn12c_fi","id":"top_endstop_mgn12c_fi.stl id:0 copy 0","object_center":[87.500000,110.000000,0.000000],"boundingbox_center":[87.500000,110.000000,5.000000],"boundingbox_size":[47.000000,27.299999,10.000000]}
EXCLUDE_OBJECT_DEFINE NAME=top_endstop_mgn12c_fi_stl_id_0_copy_0 CENTER=87.500000,110.000000 POLYGON=[[64.00,96.35],[111.00,96.35],[111.00,123.65],[64.00,123.65],[64.00,96.35]]
; plater:{"center":[87.500000,110.000000,0.000000],"boundingbox_center":[87.500000,110.000000,5.000000],"boundingbox_size":[47.000000,27.299999,10.000000]}

M73 P0 R59
M107
;TYPE:Custom
CALCULATE_PA MATERIAL=ABS BOWDEN_LENGTH=6 LAYER_HEIGHT=0.24 NOZZLE_SIZE=0.4 PRINT_SPEED=95


START_PRINT EXTRUDER=270 BED=100

M107
G21 ; set units to millimeters
G90 ; use absolute coordinates
M83 ; use relative distances for extrusion
ACTIVATE_EXTRUDER EXTRUDER=extruder
; Filament gcode
M104 S270 T0 ; set temperature
M109 S270 T0 ; set temperature and wait for it to be reached
M190 S100 ; set bed temperature and wait for it to be reached
;LAYER_CHANGE
;Z:0.24
;HEIGHT:0.24
;BEFORE_LAYER_CHANGE
G92 E0.0

G1 E-1.5 F3000
G1 Z0.2 F3600000
G1 Z0.24
;AFTER_LAYER_CHANGE
;0.24




CALCULATE_PA MATERIAL=ABS BOWDEN_LENGTH=6.0 LAYER_HEIGHT=0.2 NOZZLE_SIZE=0.4 PRINT_SPEED=95


G92 E0
G1 Z0.44
G1 X61.238 Y87.855
G1 Z0.24
G1 E1.5 F3000
;TYPE:Skirt
;WIDTH:0.4
M107
G1 F2400
G1 X62.674 Y86.906 E0.05987
G1 X64.121 Y86.238 E0.05541
G1 X67.12 Y85.621 E0.10647
G1 X110.867 Y85.624 E1.52122
G1 X112.887 Y85.94 E0.0711
G1 X114.849 Y86.658 E0.07264
G1 X116.572 Y87.711 E0.07023
G1 X118.087 Y89.07 E0.07075
G1 X119.973 Y91.944 E0.11954
G1 X120.523 Y93.557 E0.05926
G1 X120.814 Y95.241 E0.05942
G1 X120.818 Y124.715 E1.02488
G1 X120.415 Y126.829 E0.07483
G1 X119.587 Y128.821 E0.07502
G1 X118.347 Y130.615 E0.07585
G1 X116.76 Y132.147 E0.0767
G1 X115.326 Y133.094 E0.05976
G1 X113.879 Y133.762 E0.05541
G1 X110.881 Y134.379 E0.10645
G1 X67.17 Y134.379 E1.51994
G1 X64.962 Y134.02 E0.07779
G1 X62.877 Y133.207 E0.07782
G1 X60.955 Y131.911 E0.08063
G1 X59.385 Y130.292 E0.0784
G1 X58.436 Y128.856 E0.05987
G1 X57.768 Y127.409 E0.05541
G1 X57.151 Y124.411 E0.10646
G1 X57.151 Y95.64 E1.00043
G1 X57.51 Y93.432 E0.07778
G1 X58.323 Y91.347 E0.07782
G1 X59.619 Y89.425 E0.08063
G1 X61.195 Y87.897 E0.07631
M107
G1 X61.437 Y88.147 F3600000
M107
G1 F2400
G1 X61.468 Y88.117 E0.00152
G1 X62.855 Y87.204 E0.05772
G1 X64.248 Y86.563 E0.05335
G1 X67.138 Y85.969 E0.10256
G1 X110.853 Y85.973 E1.52013
G1 X112.816 Y86.282 E0.06909
G1 X114.713 Y86.979 E0.07026
G1 X116.377 Y88 E0.06788
G1 X117.837 Y89.314 E0.06831
G1 X119.65 Y92.078 E0.11494
G1 X120.189 Y93.657 E0.05801
G1 X120.468 Y95.285 E0.05746
G1 X120.473 Y124.666 E1.02165
G1 X120.087 Y126.711 E0.07239
G1 X119.273 Y128.67 E0.07375
G1 X118.071 Y130.402 E0.07332
G1 X116.53 Y131.885 E0.07435
G1 X115.145 Y132.796 E0.05764
G1 X113.752 Y133.437 E0.05335
G1 X110.863 Y134.031 E0.10254
G1 X67.184 Y134.031 E1.51883
G1 X65.037 Y133.679 E0.07567
G1 X63.022 Y132.89 E0.07524
G1 X61.165 Y131.632 E0.07799
G1 X59.647 Y130.062 E0.07596
G1 X58.734 Y128.675 E0.05772
G1 X58.093 Y127.282 E0.05335
G1 X57.499 Y124.393 E0.10254
G1 X57.499 Y95.655 E0.99932
G1 X57.851 Y93.507 E0.07567
G1 X58.64 Y91.492 E0.07523
G1 X59.898 Y89.635 E0.07799
G1 X61.394 Y88.189 E0.07235
M107
G1 X61.635 Y88.44 F3600000
M107
G1 F2400
G1 X61.698 Y88.379 E0.00304
G1 X63.035 Y87.503 E0.05557
G1 X64.376 Y86.888 E0.0513
G1 X67.155 Y86.318 E0.09866
G1 X110.84 Y86.321 E1.51904
M73 P0 R58
G1 X112.745 Y86.623 E0.06707
G1 X114.576 Y87.3 E0.06788
G1 X116.18 Y88.288 E0.06553
G1 X117.587 Y89.558 E0.06588
G1 X119.327 Y92.211 E0.11035
G1 X119.848 Y93.729 E0.0558
G1 X120.122 Y95.33 E0.05646
G1 X120.127 Y124.618 E1.01843
G1 X119.758 Y126.595 E0.06995
G1 X118.976 Y128.487 E0.07118
G1 X117.794 Y130.189 E0.07207
G1 X116.3 Y131.622 E0.07198
G1 X114.965 Y132.497 E0.05551
G1 X113.624 Y133.112 E0.0513
G1 X110.845 Y133.682 E0.09864
G1 X67.199 Y133.682 E1.51773
G1 X65.147 Y133.348 E0.07229
G1 X63.168 Y132.572 E0.07391
G1 X61.376 Y131.354 E0.07534
G1 X59.909 Y129.832 E0.07352
G1 X59.033 Y128.495 E0.05557
G1 X58.418 Y127.154 E0.0513
G1 X57.848 Y124.375 E0.09864
G1 X57.848 Y95.669 E0.99822
M73 P1 R58
G1 X58.182 Y93.617 E0.07229
G1 X58.958 Y91.638 E0.07391
G1 X60.176 Y89.846 E0.07534
G1 X61.592 Y88.481 E0.06839
M107
G1 X61.833 Y88.733 F3600000
M107
G1 F2400
G1 X61.928 Y88.642 E0.00456
G1 X63.215 Y87.802 E0.05342
G1 X64.503 Y87.213 E0.04926
G1 X67.173 Y86.666 E0.09477
G1 X110.826 Y86.67 E1.51795
G1 X112.673 Y86.965 E0.06503
G1 X114.438 Y87.621 E0.06549
G1 X115.984 Y88.576 E0.06319
G1 X117.336 Y89.801 E0.06346
G1 X119.005 Y92.345 E0.10578
G1 X119.514 Y93.829 E0.05455
G1 X119.776 Y95.374 E0.05448
G1 X119.782 Y124.57 E1.01524
G1 X119.428 Y126.479 E0.06752
G1 X118.678 Y128.304 E0.06859
G1 X117.518 Y129.976 E0.0708
G1 X116.071 Y131.359 E0.06959
G1 X114.785 Y132.198 E0.05338
G1 X113.497 Y132.787 E0.04926
G1 X110.828 Y133.334 E0.09476
G1 X67.213 Y133.334 E1.51662
G1 X65.222 Y133.007 E0.07017
G1 X63.314 Y132.255 E0.07131
G1 X61.587 Y131.076 E0.07269
G1 X60.172 Y129.602 E0.07108
G1 X59.332 Y128.315 E0.05342
G1 X58.743 Y127.027 E0.04925
G1 X58.196 Y124.358 E0.09476
G1 X58.196 Y95.683 E0.99711
G1 X58.523 Y93.692 E0.07017
G1 X59.275 Y91.784 E0.07131
G1 X60.454 Y90.058 E0.07269
G1 X61.79 Y88.774 E0.06443
M107
G1 X62.031 Y89.026 F3600000
M107
G1 F2400
G1 X62.157 Y88.905 E0.00608
G1 X63.394 Y88.101 E0.05128
G1 X64.629 Y87.538 E0.04723
G1 X67.19 Y87.015 E0.0909
G1 X110.812 Y87.018 E1.51685
G1 X112.6 Y87.306 E0.06299
G1 X114.3 Y87.941 E0.06309
G1 X115.786 Y88.864 E0.06084
G1 X117.086 Y90.045 E0.06104
G1 X118.682 Y92.479 E0.10123
G1 X119.179 Y93.929 E0.0533
G1 X119.43 Y95.417 E0.0525
G1 X119.436 Y124.522 E1.01206
G1 X119.089 Y126.398 E0.06633
G1 X118.364 Y128.153 E0.06604
G1 X117.242 Y129.763 E0.06823
G1 X115.842 Y131.096 E0.06721
G1 X114.606 Y131.899 E0.05125
G1 X113.371 Y132.462 E0.04722
G1 X110.81 Y132.985 E0.09088
G1 X67.227 Y132.985 E1.51552
G1 X65.297 Y132.666 E0.06803
G1 X63.46 Y131.939 E0.06869
G1 X61.799 Y130.799 E0.07003
G1 X60.435 Y129.373 E0.06864
G1 X59.631 Y128.136 E0.05128
G1 X59.068 Y126.901 E0.04722
G1 X58.545 Y124.34 E0.09088
G1 X58.545 Y95.697 E0.99601
G1 X58.864 Y93.767 E0.06803
G1 X59.591 Y91.93 E0.06869
G1 X60.731 Y90.269 E0.07003
G1 X61.987 Y89.067 E0.06048
M107
G1 X62.228 Y89.319 F3600000
M107
G1 F2400
G1 X62.386 Y89.168 E0.0076
G1 X63.572 Y88.401 E0.04913
G1 X64.756 Y87.864 E0.0452
G1 X67.208 Y87.363 E0.08703
G1 X110.798 Y87.367 E1.51575
G1 X112.527 Y87.647 E0.06093
G1 X114.161 Y88.261 E0.06069
G1 X115.588 Y89.151 E0.05849
G1 X116.835 Y90.287 E0.05864
G1 X118.36 Y92.613 E0.0967
G1 X118.838 Y94.001 E0.05105
G1 X119.084 Y95.461 E0.05149
G1 X119.091 Y124.475 E1.00891
G1 X118.76 Y126.282 E0.06387
G1 X118.049 Y128.002 E0.06473
G1 X116.966 Y129.548 E0.06563
G1 X115.614 Y130.832 E0.06482
G1 X114.428 Y131.599 E0.04913
G1 X113.244 Y132.136 E0.0452
G1 X110.793 Y132.637 E0.08702
G1 X67.241 Y132.637 E1.51441
G1 X65.407 Y132.335 E0.06463
G1 X63.641 Y131.64 E0.066
G1 X62.012 Y130.522 E0.06871
G1 X60.698 Y129.144 E0.06619
G1 X59.931 Y127.958 E0.04913
G1 X59.394 Y126.775 E0.0452
G1 X58.893 Y124.323 E0.08702
G1 X58.893 Y95.711 E0.9949
G1 X59.195 Y93.877 E0.06463
G1 X59.89 Y92.111 E0.066
G1 X61.008 Y90.482 E0.06871
G1 X62.184 Y89.36 E0.0565
M107
G1 X62.424 Y89.613 F3600000
M107
G1 F2400
G1 X62.614 Y89.432 E0.00912
G1 X63.75 Y88.701 E0.04698
G1 X64.881 Y88.189 E0.04319
G1 X67.225 Y87.712 E0.08318
G1 X110.784 Y87.715 E1.51466
G1 X112.421 Y87.98 E0.05767
G1 X114.022 Y88.581 E0.05948
G1 X115.39 Y89.438 E0.05612
G1 X116.583 Y90.53 E0.05624
G1 X118.037 Y92.747 E0.09219
G1 X118.504 Y94.101 E0.04979
G1 X118.738 Y95.504 E0.04948
G1 X118.745 Y124.428 E1.00578
G1 X118.431 Y126.166 E0.06142
G1 X117.752 Y127.819 E0.06211
G1 X116.714 Y129.308 E0.06313
G1 X115.386 Y130.568 E0.06364
G1 X114.25 Y131.299 E0.04698
G1 X113.119 Y131.811 E0.04318
G1 X110.775 Y132.288 E0.08317
G1 X67.256 Y132.288 E1.51331
G1 X65.482 Y131.994 E0.0625
G1 X63.788 Y131.323 E0.06338
G1 X62.224 Y130.245 E0.06603
G1 X60.962 Y128.916 E0.06374
G1 X60.231 Y127.78 E0.04698
G1 X59.719 Y126.649 E0.04318
G1 X59.242 Y124.305 E0.08317
G1 X59.242 Y95.726 E0.9938
G1 X59.536 Y93.952 E0.0625
G1 X60.207 Y92.258 E0.06338
G1 X61.284 Y90.694 E0.06603
G1 X62.38 Y89.654 E0.05253
M107
G1 X62.619 Y89.907 F3600000
M107
G1 F2400
G1 X62.841 Y89.697 E0.01063
G1 X63.927 Y89.001 E0.04484
G1 X65.007 Y88.515 E0.04118
G1 X67.243 Y88.06 E0.07934
G1 X110.77 Y88.064 E1.51356
G1 X112.348 Y88.321 E0.0556
G1 X113.883 Y88.901 E0.05706
G1 X115.191 Y89.725 E0.05376
G1 X116.332 Y90.772 E0.05385
G1 X117.715 Y92.881 E0.08771
G1 X118.163 Y94.172 E0.04752
G1 X118.392 Y95.547 E0.04847
G1 X118.399 Y124.382 E1.00266
G1 X118.091 Y126.086 E0.06023
G1 X117.437 Y127.668 E0.05951
G1 X116.438 Y129.093 E0.06053
G1 X115.159 Y130.303 E0.06124
G1 X114.073 Y130.999 E0.04484
G1 X112.993 Y131.485 E0.04118
G1 X110.758 Y131.94 E0.07933
G1 X67.27 Y131.94 E1.5122
G1 X65.558 Y131.654 E0.06035
G1 X63.935 Y131.007 E0.06076
G1 X62.438 Y129.969 E0.06335
G1 X61.227 Y128.689 E0.06129
G1 X60.531 Y127.603 E0.04484
G1 X60.045 Y126.523 E0.04118
G1 X59.59 Y124.288 E0.07933
G1 X59.59 Y95.74 E0.99269
G1 X59.876 Y94.028 E0.06035
G1 X60.523 Y92.405 E0.06076
G1 X61.561 Y90.908 E0.06335
G1 X62.575 Y89.948 E0.04857
M107
G1 X62.814 Y90.201 F3600000
M107
G1 F2400
G1 X63.068 Y89.962 E0.01215
G1 X64.104 Y89.302 E0.04269
G1 X65.132 Y88.841 E0.03919
G1 X67.26 Y88.409 E0.07552
G1 X110.756 Y88.412 E1.51246
G1 X112.274 Y88.662 E0.05351
G1 X113.742 Y89.221 E0.05463
G1 X114.991 Y90.011 E0.05139
G1 X116.08 Y91.014 E0.05147
G1 X117.393 Y93.016 E0.08325
G1 X117.828 Y94.273 E0.04625
G1 X118.046 Y95.59 E0.04644
G1 X118.053 Y124.336 E0.99957
G1 X117.762 Y125.971 E0.05776
G1 X117.141 Y127.484 E0.05686
G1 X116.163 Y128.879 E0.05924
G1 X114.932 Y130.038 E0.05881
G1 X113.896 Y130.698 E0.04269
G1 X112.868 Y131.159 E0.03919
G1 X110.74 Y131.591 E0.07551
G1 X67.285 Y131.591 E1.51108
G1 X65.635 Y131.313 E0.05818
G1 X64.083 Y130.691 E0.05813
G1 X62.652 Y129.694 E0.06066
G1 X61.492 Y128.462 E0.05884
G1 X60.832 Y127.426 E0.04269
G1 X60.371 Y126.398 E0.03918
G1 X59.939 Y124.27 E0.07551
G1 X59.939 Y95.755 E0.99157
G1 X60.217 Y94.105 E0.05818
G1 X60.839 Y92.553 E0.05813
G1 X61.836 Y91.122 E0.06066
G1 X62.77 Y90.242 E0.0446
M107
G1 X63.008 Y90.496 F3600000
M107
G1 F2400
G1 X63.295 Y90.227 E0.01367
G1 X64.28 Y89.603 E0.04055
G1 X65.256 Y89.167 E0.03721
G1 X67.278 Y88.757 E0.07171
G1 X110.741 Y88.761 E1.51136
G1 X112.2 Y89.003 E0.05141
G1 X113.601 Y89.54 E0.0522
G1 X114.791 Y90.297 E0.04903
G1 X115.828 Y91.255 E0.0491
G1 X117.071 Y93.15 E0.0788
G1 X117.494 Y94.372 E0.04498
G1 X117.7 Y95.632 E0.04439
G1 X117.708 Y124.29 E0.99652
G1 X117.432 Y125.856 E0.05528
G1 X116.826 Y127.333 E0.05553
G1 X115.889 Y128.664 E0.05659
G1 X114.705 Y129.773 E0.05639
G1 X113.72 Y130.397 E0.04055
G1 X112.744 Y130.833 E0.0372
G1 X110.723 Y131.243 E0.0717
G1 X67.299 Y131.243 E1.50997
G1 X65.712 Y130.973 E0.056
G1 X64.232 Y130.375 E0.05548
G1 X62.866 Y129.419 E0.05798
G1 X61.757 Y128.235 E0.05639
G1 X61.133 Y127.25 E0.04055
G1 X60.697 Y126.274 E0.0372
G1 X60.287 Y124.253 E0.0717
G1 X60.287 Y95.769 E0.99046
G1 X60.557 Y94.182 E0.056
G1 X61.155 Y92.702 E0.05548
G1 X62.111 Y91.336 E0.05798
G1 X62.964 Y90.537 E0.04064
M107
G1 X63.201 Y90.791 F3600000
M107
G1 F2400
G1 X63.52 Y90.493 E0.01518
G1 X64.455 Y89.905 E0.0384
G1 X65.381 Y89.493 E0.03524
G1 X67.295 Y89.106 E0.06792
G1 X110.727 Y89.109 E1.51025
M73 P2 R58
G1 X112.125 Y89.344 E0.04929
G1 X113.46 Y89.859 E0.04976
G1 X114.59 Y90.582 E0.04666
G1 X115.575 Y91.496 E0.04674
G1 X116.749 Y93.285 E0.07439
G1 X117.153 Y94.444 E0.04266
G1 X117.354 Y95.675 E0.04337
G1 X117.362 Y124.245 E0.99349
G1 X117.102 Y125.742 E0.05281
G1 X116.529 Y127.149 E0.05282
G1 X115.614 Y128.448 E0.05527
G1 X114.48 Y129.507 E0.05395
G1 X113.545 Y130.095 E0.0384
G1 X112.619 Y130.507 E0.03524
G1 X110.705 Y130.894 E0.06791
G1 X67.314 Y130.894 E1.50885
G1 X65.825 Y130.643 E0.05252
G1 X64.381 Y130.059 E0.05413
G1 X63.082 Y129.144 E0.05527
G1 X62.023 Y128.01 E0.05395
G1 X61.435 Y127.075 E0.0384
G1 X61.023 Y126.149 E0.03523
G1 X60.636 Y124.235 E0.06791
G1 X60.636 Y95.784 E0.98934
G1 X60.887 Y94.295 E0.05252
G1 X61.471 Y92.851 E0.05413
G1 X62.386 Y91.552 E0.05527
G1 X63.157 Y90.832 E0.03669
M107
G1 X63.394 Y91.087 F3600000
M107
G1 F2400
G1 X63.745 Y90.76 E0.01669
G1 X64.629 Y90.207 E0.03625
G1 X65.504 Y89.819 E0.03328
G1 X67.312 Y89.454 E0.06414
G1 X110.712 Y89.458 E1.50914
G1 X112.049 Y89.684 E0.04715
G1 X113.317 Y90.177 E0.04731
G1 X114.388 Y90.866 E0.0443
G1 X115.322 Y91.737 E0.04439
G1 X116.427 Y93.42 E0.07
G1 X116.819 Y94.544 E0.04138
G1 X117.007 Y95.716 E0.04129
G1 X117.016 Y124.201 E0.99051
G1 X116.772 Y125.628 E0.05033
G1 X116.214 Y126.999 E0.05146
G1 X115.34 Y128.232 E0.05257
G1 X114.255 Y129.24 E0.05151
G1 X113.371 Y129.793 E0.03625
G1 X112.496 Y130.181 E0.03328
G1 X110.688 Y130.546 E0.06413
G1 X67.329 Y130.546 E1.50774
G1 X65.902 Y130.302 E0.05033
G1 X64.531 Y129.744 E0.05146
G1 X63.298 Y128.87 E0.05257
G1 X62.29 Y127.785 E0.05151
G1 X61.737 Y126.901 E0.03625
G1 X61.349 Y126.026 E0.03328
G1 X60.984 Y124.218 E0.06413
G1 X60.984 Y95.799 E0.98823
G1 X61.228 Y94.372 E0.05033
G1 X61.786 Y93.001 E0.05146
G1 X62.66 Y91.768 E0.05257
G1 X63.35 Y91.127 E0.03273
M107
G1 X63.585 Y91.382 F3600000
M107
G1 F2400
G1 X63.97 Y91.027 E0.0182
G1 X64.803 Y90.509 E0.0341
G1 X65.628 Y90.146 E0.03134
G1 X67.33 Y89.803 E0.06038
G1 X110.697 Y89.806 E1.50802
G1 X111.973 Y90.025 E0.04499
G1 X113.174 Y90.495 E0.04486
G1 X114.186 Y91.151 E0.04193
G1 X115.069 Y91.977 E0.04206
G1 X116.105 Y93.555 E0.06563
G1 X116.484 Y94.644 E0.0401
G1 X116.661 Y95.757 E0.0392
G1 X116.667 Y124.187 E0.98857
G1 X116.432 Y125.55 E0.04812
G1 X115.899 Y126.848 E0.04878
G1 X115.067 Y128.015 E0.04986
G1 X114.03 Y128.973 E0.04908
G1 X113.197 Y129.491 E0.0341
G1 X112.372 Y129.854 E0.03134
G1 X110.671 Y130.197 E0.06037
G1 X67.343 Y130.197 E1.50662
G1 X65.98 Y129.962 E0.04811
G1 X64.682 Y129.429 E0.04878
G1 X63.515 Y128.597 E0.04986
G1 X62.557 Y127.56 E0.04908
G1 X62.039 Y126.727 E0.0341
G1 X61.676 Y125.903 E0.03134
G1 X61.333 Y124.201 E0.06037
G1 X61.333 Y95.813 E0.98711
G1 X61.568 Y94.45 E0.04811
G1 X62.101 Y93.152 E0.04878
G1 X62.933 Y91.985 E0.04986
G1 X63.541 Y91.423 E0.02879
M107
G1 X63.776 Y91.678 F3600000
M107
G1 F2400
G1 X64.193 Y91.295 E0.01971
G1 X64.975 Y90.812 E0.03195
G1 X65.75 Y90.472 E0.02942
G1 X67.347 Y90.151 E0.05664
G1 X110.682 Y90.155 E1.5069
G1 X111.862 Y90.356 E0.04161
G1 X113.03 Y90.813 E0.04362
G1 X113.983 Y91.434 E0.03955
G1 X114.815 Y92.217 E0.03974
G1 X115.783 Y93.691 E0.0613
G1 X116.143 Y94.714 E0.03772
G1 X116.315 Y95.798 E0.03818
G1 X116.319 Y124.172 E0.98662
G1 X116.092 Y125.471 E0.04588
G1 X115.585 Y126.696 E0.04609
G1 X114.794 Y127.797 E0.04715
G1 X113.807 Y128.705 E0.04665
G1 X113.025 Y129.188 E0.03195
G1 X112.25 Y129.528 E0.02942
G1 X110.653 Y129.849 E0.05663
G1 X67.358 Y129.849 E1.50549
G1 X66.059 Y129.622 E0.04588
G1 X64.834 Y129.115 E0.04609
G1 X63.733 Y128.324 E0.04715
G1 X62.825 Y127.337 E0.04665
G1 X62.342 Y126.555 E0.03195
G1 X62.002 Y125.78 E0.02942
G1 X61.681 Y124.183 E0.05663
G1 X61.681 Y95.828 E0.98598
G1 X61.908 Y94.529 E0.04588
G1 X62.415 Y93.304 E0.04609
G1 X63.206 Y92.203 E0.04715
G1 X63.732 Y91.719 E0.02485
M107
G1 X63.966 Y91.975 F3600000
M107
G1 F2400
G1 X64.416 Y91.563 E0.02122
G1 X65.147 Y91.115 E0.0298
G1 X65.872 Y90.799 E0.02752
G1 X67.364 Y90.5 E0.05291
G1 X110.668 Y90.503 E1.50579
G1 X111.785 Y90.696 E0.03944
G1 X112.885 Y91.131 E0.04113
G1 X113.779 Y91.717 E0.03716
G1 X114.561 Y92.456 E0.03743
G1 X115.461 Y93.826 E0.05699
G1 X115.809 Y94.814 E0.03643
G1 X115.968 Y95.839 E0.03605
G1 X115.97 Y124.156 E0.98469
G1 X115.752 Y125.392 E0.04363
G1 X115.271 Y126.543 E0.04339
