; generated by PrusaSlicer 2.7.1+MacOS-arm64 on 2024-02-27 at 13:56:32 UTC


;
;

;
;

;
;

;
;

;
;
; 

; external perimeters extrusion width = 0.45mm
; perimeters extrusion width = 0.45mm
; infill extrusion width = 0.45mm
; solid infill extrusion width = 0.45mm
; top infill extrusion width = 0.40mm

M73 P0 R46

EXCLUDE_OBJECT_DEFINE NAME=TOP_stl CENTER=85.712,109.358 POLYGON=[[61.393,67.440],[113.748,67.567],[114.532,67.779],[114.985,68.079],[115.347,68.484],[115.594,68.968],[115.551,88.096],[109.937,88.083],[109.820,139.083],[115.433,139.096],[115.391,149.532],[115.114,150.557],[114.758,151.170],[114.282,151.696],[113.707,152.111],[113.059,152.398],[112.365,152.544],[109.117,152.555],[109.126,148.555],[98.726,148.532],[98.717,152.532],[62.664,152.449],[61.940,152.359],[61.254,152.112],[60.367,151.477],[59.913,150.906],[59.595,150.249],[59.406,149.174],[59.589,69.112],[59.769,68.391],[60.078,67.956],[60.665,67.563]]

;TYPE:Custom
CALCULATE_PA MATERIAL=PLA BOWDEN_LENGTH=6 LAYER_HEIGHT=0.2 NOZZLE_SIZE=0.4 PRINT_SPEED=90


START_PRINT EXTRUDER=210 BED=65
G21 ; set units to millimeters
G90 ; use absolute coordinates
M83 ; use relative distances for extrusion
; Filament gcode
M107
;LAYER_CHANGE
;Z:0.2
;HEIGHT:0.2
;BEFORE_LAYER_CHANGE
G92 E0.0
;0.2
;M201 X4000 Y4000
;M74 W0

G1 Z.2 F60000
;AFTER_LAYER_CHANGE
;0.2
CALCULATE_PA MATERIAL=PLA BOWDEN_LENGTH=6.0 LAYER_HEIGHT=0.24 NOZZLE_SIZE=0.4PRINT_SPEED=90
G1 E-2 F3000
G1 X56.96 Y64.733 F60000
G1 Z.2
G1 E2 F3000
;TYPE:Skirt/Brim
;WIDTH:0.45
G1 F1800
G1 X58.273 Y63.75 E.05552
G1 X59.32 Y63.284 E.03879
G1 X60.191 Y63.058 E.03046
G1 X61.067 Y62.96 E.02984
G1 X113.888 Y63.086 E1.78793
G1 X114.935 Y63.218 E.03572
G1 X115.909 Y63.499 E.03431
G1 X116.819 Y63.924 E.034
G1 X117.566 Y64.408 E.03013
G1 X118.23 Y64.98 E.02967
G1 X118.763 Y65.573 E.02699
G1 X119.2 Y66.191 E.02562
G1 X119.767 Y67.332 E.04313
G1 X119.968 Y68 E.02361
G1 X120.05 Y68.558 E.01909
G1 X120.032 Y88.131 E.66252
G1 X119.896 Y88.991 E.02947
G1 X119.557 Y89.909 E.03312
G1 X119.013 Y90.765 E.03433
G1 X118.197 Y91.578 E.03899
G1 X117.407 Y92.079 E.03166
G1 X116.561 Y92.411 E.03076
G1 X115.702 Y92.566 E.02955
G1 X114.408 Y92.571 E.0438
G1 X114.312 Y134.622 E1.42338
G1 X115.765 Y134.643 E.04919
G1 X116.675 Y134.854 E.03162
G1 X117.521 Y135.236 E.03142
G1 X118.329 Y135.827 E.03389
G1 X119.007 Y136.567 E.03397
G1 X119.444 Y137.294 E.02871
G1 X119.752 Y138.107 E.02943
G1 X119.915 Y139.069 E.03303
G1 X119.886 Y149.418 E.3503
G1 X119.82 Y150.231 E.02761
G1 X119.688 Y150.946 E.02461
G1 X119.497 Y151.63 E.02404
G1 X119.175 Y152.451 E.02985
G1 X118.767 Y153.225 E.02962
G1 X118.213 Y154.028 E.03302
G1 X117.564 Y154.757 E.03304
G1 X116.818 Y155.41 E.03356
G1 X116.008 Y155.957 E.03308
G1 X115.231 Y156.358 E.0296
G1 X114.415 Y156.669 E.02956
G1 X113.563 Y156.891 E.0298
G1 X112.175 Y157.041 E.04726
G1 X108.813 Y157.011 E.1138
G1 X108.005 Y156.84 E.02796
G1 X107.218 Y156.519 E.02877
G1 X106.387 Y155.968 E.03375
G1 X105.508 Y155.036 E.04336
G1 X105.07 Y154.28 E.02957
G1 X104.795 Y153.541 E.02669
G1 X104.699 Y153.027 E.0177
G1 X103.13 Y153.023 E.05311
G1 X103.004 Y153.638 E.02125
G1 X102.661 Y154.466 E.03034
G1 X102.18 Y155.202 E.02976
G1 X101.51 Y155.89 E.03251
G1 X100.708 Y156.445 E.03301
G1 X99.804 Y156.822 E.03315
G1 X98.744 Y157.013 E.03646
G1 X62.549 Y156.93 E1.22516
G1 X61.575 Y156.848 E.03309
G1 X60.621 Y156.646 E.03301
G1 X59.919 Y156.414 E.02503
G1 X59.224 Y156.107 E.02572
G1 X58.448 Y155.661 E.0303
G1 X57.68 Y155.088 E.03243
G1 X56.962 Y154.397 E.03373
G1 X56.348 Y153.633 E.03318
G1 X55.861 Y152.849 E.03124
G1 X55.462 Y151.989 E.03209
G1 X55.179 Y151.109 E.03129
G1 X54.994 Y150.183 E.03196
G1 X54.924 Y149.249 E.0317
G1 X55.108 Y68.96 E2.71769
G1 X55.301 Y67.615 E.04599
G1 X55.599 Y66.743 E.03119
G1 X56.013 Y65.931 E.03085
G1 X56.454 Y65.301 E.02603
G1 X56.921 Y64.778 E.02373
G1 X57.224 Y65.05 F60000
G1 F1800
G1 X57.25 Y65.02 E.00134
G1 X58.46 Y64.112 E.05121
G1 X59.439 Y63.673 E.03632
G1 X60.252 Y63.461 E.02844
G1 X61.078 Y63.367 E.02814
G1 X113.875 Y63.493 E1.78712
G1 X114.838 Y63.614 E.03285
G1 X115.753 Y63.876 E.03222
G1 X116.61 Y64.273 E.03197
G1 X117.332 Y64.742 E.02914
G1 X117.954 Y65.28 E.02784
G1 X118.438 Y65.819 E.02452
G1 X118.843 Y66.388 E.02364
G1 X119.383 Y67.467 E.04084
G1 X119.574 Y68.102 E.02245
G1 X119.643 Y68.573 E.01611
G1 X119.625 Y88.114 E.66144
G1 X119.498 Y88.905 E.02712
G1 X119.184 Y89.746 E.03039
G1 X118.682 Y90.526 E.0314
G1 X117.96 Y91.246 E.03451
G1 X117.205 Y91.724 E.03025
G1 X116.467 Y92.014 E.02684
G1 X115.682 Y92.159 E.02702
G1 X114.002 Y92.165 E.05687
G1 X113.904 Y135.025 E1.45076
G1 X115.696 Y135.045 E.06066
G1 X116.528 Y135.234 E.02888
G1 X117.299 Y135.578 E.02858
G1 X118.071 Y136.143 E.03238
G1 X118.691 Y136.825 E.0312
G1 X119.085 Y137.486 E.02605
G1 X119.354 Y138.196 E.0257
G1 X119.508 Y139.086 E.03057
G1 X119.479 Y149.394 E.34891
G1 X119.417 Y150.169 E.02632
G1 X119.294 Y150.846 E.02329
G1 X119.108 Y151.51 E.02334
G1 X118.8 Y152.291 E.02842
G1 X118.413 Y153.023 E.02803
G1 X117.885 Y153.786 E.03141
G1 X117.269 Y154.476 E.03131
G1 X116.56 Y155.095 E.03186
G1 X115.81 Y155.601 E.03062
G1 X115.074 Y155.982 E.02805
G1 X114.301 Y156.278 E.02802
G1 X113.49 Y156.49 E.02837
G1 X112.831 Y156.592 E.02257
G1 X112.157 Y156.634 E.02286
G1 X108.838 Y156.604 E.11235
G1 X108.11 Y156.446 E.02522
G1 X107.391 Y156.15 E.02632
G1 X106.666 Y155.671 E.02941
G1 X105.848 Y154.81 E.0402
G1 X105.446 Y154.121 E.027
G1 X105.183 Y153.417 E.02544
G1 X105.043 Y152.62 E.02739
G1 X102.794 Y152.615 E.07613
G1 X102.619 Y153.503 E.03064
G1 X102.309 Y154.261 E.02772
G1 X101.874 Y154.933 E.0271
G1 X101.233 Y155.592 E.03112
G1 X100.496 Y156.097 E.03024
G1 X99.669 Y156.438 E.03028
G1 X98.727 Y156.606 E.03239
G1 X62.558 Y156.523 E1.22428
G1 X61.646 Y156.447 E.03098
G1 X60.738 Y156.256 E.03141
G1 X60.056 Y156.03 E.02432
G1 X59.398 Y155.74 E.02434
G1 X58.662 Y155.315 E.02877
G1 X57.934 Y154.77 E.03078
G1 X57.255 Y154.113 E.03198
G1 X56.674 Y153.388 E.03145
G1 X56.214 Y152.645 E.02958
G1 X55.837 Y151.83 E.0304
G1 X55.57 Y150.996 E.02964
G1 X55.396 Y150.117 E.03033
G1 X55.331 Y149.242 E.0297
G1 X55.515 Y68.975 E2.71695
G1 X55.693 Y67.728 E.04264
G1 X55.969 Y66.914 E.02909
G1 X56.369 Y66.129 E.02982
G1 X56.78 Y65.545 E.02417
G1 X57.184 Y65.094 E.0205
G1 X57.487 Y65.366 F60000
G1 F1800
G1 X57.54 Y65.306 E.00271
G1 X58.648 Y64.473 E.04692
G1 X59.56 Y64.062 E.03386
G1 X60.313 Y63.864 E.02635
G1 X61.089 Y63.774 E.02644
G1 X113.862 Y63.9 E1.78631
G1 X114.742 Y64.01 E.03002
G1 X115.597 Y64.252 E.03008
G1 X116.401 Y64.623 E.02997
G1 X117.099 Y65.075 E.02815
G1 X117.677 Y65.578 E.02594
G1 X118.114 Y66.065 E.02215
G1 X118.487 Y66.586 E.02169
G1 X118.998 Y67.601 E.03846
G1 X119.18 Y68.205 E.02135
G1 X119.235 Y68.587 E.01306
G1 X119.218 Y88.097 E.66039
G1 X119.1 Y88.819 E.02476
G1 X118.811 Y89.58 E.02755
G1 X118.353 Y90.286 E.02849
G1 X117.691 Y90.94 E.0315
G1 X117.006 Y91.369 E.02736
G1 X116.339 Y91.627 E.02421
G1 X115.628 Y91.755 E.02445
G1 X113.596 Y91.758 E.06878
G1 X113.496 Y135.429 E1.47822
G1 X115.63 Y135.447 E.07224
G1 X116.383 Y135.615 E.02611
G1 X117.078 Y135.921 E.0257
G1 X117.784 Y136.432 E.0295
G1 X118.376 Y137.084 E.02981
G1 X118.711 Y137.649 E.02223
G1 X118.957 Y138.287 E.02315
G1 X119.101 Y139.104 E.02808
G1 X119.073 Y149.37 E.34749
G1 X119.015 Y150.106 E.02499
G1 X118.719 Y151.39 E.0446
G1 X118.426 Y152.13 E.02694
G1 X118.059 Y152.822 E.02651
G1 X117.573 Y153.525 E.02893
G1 X116.991 Y154.179 E.02963
G1 X116.321 Y154.765 E.03013
G1 X115.612 Y155.246 E.029
G1 X114.917 Y155.606 E.02649
G1 X114.187 Y155.888 E.02649
G1 X113.418 Y156.089 E.0269
G1 X112.139 Y156.227 E.04354
G1 X108.864 Y156.198 E.11086
G1 X108.216 Y156.053 E.02248
G1 X107.597 Y155.798 E.02266
G1 X106.943 Y155.371 E.02644
G1 X106.186 Y154.582 E.03701
G1 X105.821 Y153.962 E.02435
G1 X105.571 Y153.293 E.02417
G1 X105.457 Y152.626 E.0229
G1 X105.451 Y152.214 E.01395
G1 X102.384 Y152.207 E.10381
G1 X102.374 Y152.641 E.01469
G1 X102.234 Y153.369 E.02509
G1 X101.955 Y154.058 E.02516
G1 X101.568 Y154.664 E.02434
G1 X100.955 Y155.294 E.02975
G1 X100.321 Y155.729 E.02603
G1 X99.535 Y156.053 E.02878
G1 X98.71 Y156.199 E.02836
G1 X62.568 Y156.116 E1.22337
G1 X61.693 Y156.042 E.02972
M73 P1 R46
G1 X60.855 Y155.866 E.02898
G1 X60.211 Y155.654 E.02295
G1 X59.573 Y155.372 E.02361
G1 X58.877 Y154.969 E.02722
G1 X58.189 Y154.452 E.02913
G1 X57.547 Y153.83 E.03026
G1 X57 Y153.144 E.0297
G1 X56.567 Y152.442 E.02792
G1 X56.22 Y151.693 E.02794
G1 X55.967 Y150.904 E.02805
G1 X55.801 Y150.074 E.02865
G1 X55.738 Y149.235 E.02848
G1 X55.922 Y68.99 E2.7162
G1 X56.085 Y67.839 E.03935
G1 X56.339 Y67.085 E.02693
G1 X56.711 Y66.35 E.02788
G1 X57.091 Y65.808 E.02241
G1 X57.447 Y65.41 E.01807
G1 X57.749 Y65.682 F60000
G1 F1800
G1 X57.829 Y65.594 E.00403
G1 X58.874 Y64.813 E.04416
G1 X59.68 Y64.451 E.02991
G1 X60.375 Y64.266 E.02434
G1 X61.101 Y64.181 E.02474
G1 X113.848 Y64.307 E1.78543
G1 X114.676 Y64.412 E.02825
G1 X115.442 Y64.629 E.02695
G1 X116.192 Y64.972 E.02792
G1 X116.865 Y65.409 E.02716
G1 X117.399 Y65.876 E.02401
G1 X118.131 Y66.785 E.0395
G1 X118.614 Y67.736 E.0361
G1 X118.828 Y68.602 E.03019
G1 X118.811 Y88.079 E.65927
G1 X118.702 Y88.73 E.02234
G1 X118.44 Y89.413 E.02476
G1 X118.026 Y90.043 E.02552
G1 X117.423 Y90.633 E.02856
G1 X116.81 Y91.012 E.02439
G1 X116.213 Y91.24 E.02163
G1 X115.576 Y91.351 E.02189
G1 X113.19 Y91.351 E.08076
G1 X113.088 Y135.834 E1.5057
G1 X115.565 Y135.85 E.08385
G1 X116.238 Y135.996 E.02331
G1 X116.894 Y136.284 E.02425
G1 X117.497 Y136.722 E.02523
G1 X118.06 Y137.341 E.02832
G1 X118.351 Y137.84 E.01955
G1 X118.56 Y138.379 E.01957
G1 X118.693 Y139.121 E.02552
G1 X118.666 Y149.346 E.34611
G1 X118.613 Y150.044 E.02369
G1 X118.5 Y150.663 E.0213
G1 X118.33 Y151.27 E.02134
G1 X118.052 Y151.969 E.02546
G1 X117.705 Y152.62 E.02497
G1 X117.245 Y153.283 E.02731
G1 X116.713 Y153.881 E.02709
G1 X116.082 Y154.435 E.02842
G1 X115.413 Y154.89 E.02739
G1 X114.76 Y155.231 E.02494
G1 X114.071 Y155.497 E.025
G1 X113.344 Y155.689 E.02545
G1 X112.744 Y155.782 E.02055
G1 X112.121 Y155.82 E.02113
G1 X108.89 Y155.791 E.10937
G1 X108.353 Y155.669 E.01864
G1 X107.8 Y155.445 E.0202
G1 X107.218 Y155.071 E.02342
G1 X106.523 Y154.353 E.03382
G1 X106.196 Y153.802 E.02169
G1 X105.96 Y153.17 E.02284
G1 X105.862 Y152.577 E.02034
G1 X105.858 Y151.808 E.02603
G1 X101.978 Y151.799 E.13133
G1 X101.97 Y152.585 E.02661
G1 X101.849 Y153.237 E.02245
G1 X101.601 Y153.857 E.0226
G1 X101.261 Y154.396 E.02157
G1 X100.677 Y154.995 E.02832
G1 X100.144 Y155.361 E.02189
G1 X99.439 Y155.656 E.02587
G1 X98.692 Y155.792 E.0257
G1 X62.577 Y155.708 E1.22245
G1 X61.763 Y155.641 E.02765
G1 X60.971 Y155.476 E.02738
G1 X60.348 Y155.27 E.02221
G1 X59.749 Y155.004 E.02218
G1 X59.092 Y154.623 E.02571
G1 X58.445 Y154.135 E.02743
G1 X57.841 Y153.547 E.02853
G1 X57.326 Y152.901 E.02796
G1 X56.921 Y152.24 E.02624
G1 X56.595 Y151.535 E.02629
G1 X56.358 Y150.792 E.0264
G1 X56.202 Y150.007 E.02709
G1 X56.145 Y149.229 E.0264
G1 X56.329 Y69.005 E2.71549
G1 X56.477 Y67.951 E.03603
G1 X56.72 Y67.229 E.02579
G1 X57.067 Y66.549 E.02584
G1 X57.417 Y66.052 E.02058
G1 X57.709 Y65.727 E.01479
G1 X58.011 Y66 F60000
G1 F1800
G1 X58.118 Y65.881 E.00542
G1 X59.062 Y65.175 E.0399
G1 X59.801 Y64.84 E.02746
G1 X60.466 Y64.664 E.02328
G1 X61.112 Y64.589 E.02201
G1 X113.835 Y64.714 E1.78462
G1 X114.581 Y64.808 E.02545
G1 X115.288 Y65.006 E.02485
G1 X115.984 Y65.323 E.02589
G1 X116.609 Y65.726 E.02517
G1 X117.105 Y66.158 E.02226
G1 X117.792 Y67.01 E.03705
G1 X118.229 Y67.871 E.03268
G1 X118.421 Y68.616 E.02604
G1 X118.404 Y88.061 E.65819
G1 X118.304 Y88.64 E.01989
G1 X118.069 Y89.244 E.02194
G1 X117.7 Y89.798 E.02253
G1 X117.157 Y90.324 E.02559
G1 X116.615 Y90.654 E.02148
G1 X116.089 Y90.852 E.01902
G1 X115.526 Y90.946 E.01932
G1 X112.784 Y90.943 E.09281
G1 X112.68 Y136.24 E1.53325
G1 X115.499 Y136.252 E.09542
G1 X116.131 Y136.389 E.02189
G1 X116.708 Y136.647 E.02139
G1 X117.21 Y137.011 E.02099
G1 X117.744 Y137.599 E.02689
G1 X117.978 Y138.003 E.0158
G1 X118.163 Y138.473 E.0171
G1 X118.286 Y139.14 E.02296
G1 X118.26 Y149.323 E.34468
G1 X118.21 Y149.982 E.02237
G1 X117.941 Y151.149 E.04054
G1 X117.679 Y151.807 E.02397
G1 X117.352 Y152.417 E.02343
G1 X116.933 Y153.022 E.02491
G1 X116.434 Y153.584 E.02544
G1 X115.842 Y154.107 E.02674
G1 X115.214 Y154.535 E.02572
G1 X114.601 Y154.855 E.02341
G1 X113.956 Y155.106 E.02343
G1 X113.271 Y155.288 E.02399
G1 X112.104 Y155.414 E.03973
G1 X108.917 Y155.384 E.10788
G1 X108.462 Y155.277 E.01582
G1 X108.001 Y155.091 E.01683
G1 X107.493 Y154.769 E.02036
G1 X106.833 Y154.088 E.0321
G1 X106.556 Y153.613 E.01861
G1 X106.358 Y153.084 E.01912
G1 X106.266 Y152.528 E.01908
G1 X106.266 Y151.402 E.03811
G1 X101.571 Y151.391 E.15892
G1 X101.567 Y152.532 E.03862
G1 X101.462 Y153.108 E.01982
G1 X101.245 Y153.659 E.02004
G1 X100.953 Y154.128 E.0187
G1 X100.4 Y154.696 E.02683
G1 X99.933 Y155.013 E.01911
G1 X99.343 Y155.26 E.02165
G1 X98.673 Y155.385 E.02307
G1 X62.586 Y155.301 E1.22151
G1 X61.833 Y155.24 E.02557
G1 X61.087 Y155.085 E.02579
G1 X59.924 Y154.637 E.04219
G1 X59.308 Y154.278 E.02413
G1 X58.701 Y153.819 E.02576
G1 X58.135 Y153.266 E.02678
G1 X57.653 Y152.658 E.02626
G1 X57.274 Y152.038 E.0246
G1 X56.971 Y151.376 E.02464
G1 X56.755 Y150.7 E.02402
G1 X56.607 Y149.964 E.02541
G1 X56.552 Y149.222 E.02518
G1 X56.736 Y69.019 E2.71478
G1 X56.869 Y68.062 E.0327
G1 X57.09 Y67.399 E.02366
G1 X57.408 Y66.771 E.02383
G1 X57.742 Y66.297 E.01963
G1 X57.971 Y66.044 E.01155
G1 X58.273 Y66.317 F60000
G1 F1800
G1 X58.407 Y66.169 E.00676
G1 X59.251 Y65.536 E.03571
G1 X59.924 Y65.229 E.02504
G1 X60.529 Y65.066 E.02121
G1 X61.123 Y64.996 E.02025
G1 X113.821 Y65.121 E1.78377
G1 X114.487 Y65.204 E.02272
G1 X115.135 Y65.384 E.02276
G1 X115.777 Y65.674 E.02385
G1 X116.353 Y66.043 E.02315
G1 X116.811 Y66.44 E.02052
G1 X117.452 Y67.235 E.03457
G1 X117.844 Y68.005 E.02925
G1 X118.014 Y68.63 E.02192
G1 X117.997 Y88.042 E.65707
G1 X117.907 Y88.548 E.0174
G1 X117.699 Y89.072 E.01908
G1 X117.375 Y89.552 E.0196
G1 X116.893 Y90.014 E.0226
G1 X116.454 Y90.279 E.01736
G1 X115.966 Y90.463 E.01765
G1 X115.478 Y90.542 E.01673
G1 X112.378 Y90.535 E.10493
G1 X112.272 Y136.645 E1.56077
G1 X115.476 Y136.659 E.10845
M73 P2 R46
G1 X115.986 Y136.77 E.01767
G1 X116.49 Y136.991 E.01863
G1 X116.925 Y137.302 E.0181
G1 X117.404 Y137.824 E.02398
G1 X117.767 Y138.57 E.02808
G1 X117.879 Y139.159 E.02029
G1 X117.853 Y149.3 E.34326
G1 X117.707 Y150.48 E.04025
M73 P2 R45
G1 X117.552 Y151.028 E.01928
G1 X117.305 Y151.645 E.0225
G1 X116.999 Y152.214 E.02187
G1 X116.605 Y152.78 E.02334
G1 X116.155 Y153.288 E.02297
G1 X115.601 Y153.778 E.02503
G1 X115.013 Y154.181 E.02413
G1 X114.442 Y154.481 E.02183
G1 X113.839 Y154.716 E.02191
G1 X113.197 Y154.888 E.0225
G1 X112.638 Y154.975 E.01915
G1 X108.988 Y154.982 E.12355
G1 X108.571 Y154.884 E.0145
G1 X108.174 Y154.722 E.01451
G1 X107.734 Y154.44 E.01769
G1 X107.145 Y153.825 E.02882
G1 X106.932 Y153.455 E.01445
G1 X106.747 Y152.961 E.01786
G1 X106.671 Y152.481 E.01645
G1 X106.674 Y150.996 E.05027
G1 X101.166 Y150.983 E.18644
G1 X101.16 Y152.511 E.05172
G1 X101.066 Y153.012 E.01725
G1 X100.875 Y153.489 E.01739
G1 X100.621 Y153.892 E.01612
G1 X100.126 Y154.395 E.02389
G1 X99.724 Y154.663 E.01635
G1 X99.245 Y154.865 E.0176
G1 X98.654 Y154.978 E.02037
G1 X62.595 Y154.894 E1.22056
G1 X61.879 Y154.835 E.02432
G1 X61.203 Y154.695 E.02337
G1 X60.1 Y154.27 E.04001
G1 X59.524 Y153.933 E.02259
G1 X58.958 Y153.502 E.02408
G1 X58.429 Y152.984 E.02506
G1 X57.98 Y152.416 E.02451
G1 X57.628 Y151.837 E.02294
G1 X57.354 Y151.24 E.02223
G1 X57.152 Y150.608 E.02246
G1 X57.012 Y149.921 E.02373
G1 X56.959 Y149.215 E.02396
G1 X57.143 Y69.034 E2.71404
G1 X57.261 Y68.172 E.02945
G1 X57.471 Y67.542 E.02248
G1 X57.75 Y66.993 E.02084
G1 X58.053 Y66.56 E.01789
G1 X58.233 Y66.362 E.00906
G1 X58.562 Y66.624 F60000
G1 F1800
G1 X58.695 Y66.457 E.00723
G1 X59.441 Y65.896 E.03159
G1 X60.048 Y65.617 E.02261
G1 X60.593 Y65.468 E.01912
G1 X61.135 Y65.403 E.01848
G1 X113.808 Y65.528 E1.78292
G1 X114.421 Y65.606 E.02092
G1 X114.983 Y65.762 E.01974
