; generated by SuperSlicer 2.5.60.0 on 2024-07-15 at 23:00:02 UTC


;
;

;
;
; 

; external perimeters extrusion width = 0.48mm
; perimeters extrusion width = 0.48mm
; infill extrusion width = 0.48mm
; solid infill extrusion width = 0.48mm
; top infill extrusion width = 0.48mm
; support material extrusion width = 0.42mm
; first layer extrusion width = 0.48mm

; object:{"name":"Two Trees 20W mount_Part 1__Main_2024-07-15 17-51-19","id":"Two Trees 20W mount_Part 1__Main_2024-07-15 17-51-19.stl id:0 copy 0","object_center":[90.000000,92.500000,0.000000],"boundingbox_center":[90.000000,92.500000,7.500000],"boundingbox_size":[60.250000,70.000000,15.000000]}
EXCLUDE_OBJECT_DEFINE NAME=Two_Trees_20W_mount_Part_1__Main_2024_07_15_17_51_19_stl_id_0_copy_0 CENTER=90.000000,92.500000 POLYGON=[[59.88,57.50],[120.12,57.50],[120.12,127.50],[59.88,127.50],[59.88,57.50]]
; Total objects to print: 1
; plater:{"center":[90.000000,92.500000,0.000000],"boundingbox_center":[90.000000,92.500000,7.500000],"boundingbox_size":[60.250000,70.000000,15.000000]}

M107
;TYPE:Custom
START_PRINT EXTRUDER=250 BED=100
G21 ; set units to millimeters
G90 ; use absolute coordinates
M83 ; use relative distances for extrusion
; Filament gcode
FILAMENT_START MATERIAL=ASA COLOR=#368900 VENDOR=123-3D
SET_PRESSURE_ADVANCE ADVANCE=0.062
M104 S250 ; set temperature
M109 S250 ; set temperature and wait for it to be reached
M190 S100 ; set bed temperature and wait for it to be reached
;LAYER_CHANGE
;Z:0.24
;HEIGHT:0.24
G1 E-1 F3600
G1 Z0.24 F180000
G92 E0
G1 X56.252 Y54.629
G1 E1 F3600
;TYPE:Skirt
;WIDTH:0.48
G1 F2400
M204 S1000
G1 X56.905 Y53.958 E0.03681
G1 F2399.415
G1 X57.687 Y53.418 E.03738
G1 F2398.122
G1 X58.55 Y53.071 E.03661
G1 X59.425 Y52.918 E0.03493
G1 F2399.335
G1 X64.133 Y52.918 Z.24 E.18519
G1 X68.841 Y52.919 Z.24 E.18519
G1 X73.549 Y52.919 Z.24 E.18519
G1 X78.257 Y52.919 Z.24 E.18519
G1 X82.965 Y52.92 Z.24 E.18519
G1 X87.673 Y52.92 Z.24 E.18519
G1 X92.382 Y52.92 Z.24 E.18519
G1 X97.09 Y52.92 Z.24 E.18519
G1 X101.798 Y52.921 Z.24 E.18519
G1 X106.506 Y52.921 Z.24 E.18519
G1 X111.214 Y52.921 Z.24 E.18519
G1 X115.922 Y52.922 Z.24 E.18519
G1 F2400
G1 X120.63 Y52.922 Z.24 E.18519
G1 F2399.874
G1 X121.527 Y53.094 E.03593
G1 X122.376 Y53.452 E.03625
G1 X123.04 Y53.912 E0.03177
G1 X123.647 Y54.506 E.03342
G1 X124.272 Y55.451 E0.04457
G1 F2398.988
G1 X124.566 Y56.251 E.03353
G1 X124.695 Y57.045 E0.03162
G1 X124.695 Y61.773 Z.24 E.18599
G1 X124.695 Y66.501 Z.24 E.18599
G1 X124.695 Y71.23 Z.24 E.18599
G1 X124.695 Y75.958 Z.24 E.18599
G1 X124.695 Y80.686 Z.24 E.18599
G1 X124.695 Y85.414 Z.24 E.18599
G1 X124.695 Y90.142 Z.24 E.18599
G1 X124.695 Y94.871 Z.24 E.18599
G1 X124.695 Y99.599 Z.24 E.18599
G1 F2399.022
G1 X124.695 Y104.327 Z.24 E.18599
G1 X124.695 Y109.055 Z.24 E.18599
G1 X124.695 Y113.783 Z.24 E.18599
G1 X124.695 Y118.512 Z.24 E.18599
G1 X124.695 Y123.24 Z.24 E.18599
G1 X124.695 Y127.968 Z.24 E.18599
G1 X124.472 Y129.067 E0.0441
G1 F2398.46
G1 X124.162 Y129.759 E.02984
G1 F2399.201
G1 X123.748 Y130.371 E.02906
G1 X123.095 Y131.042 E0.0368
G1 F2398.743
G1 X122.313 Y131.582 E.03739
G1 X121.45 Y131.929 E.03661
G1 X120.575 Y132.082 E0.03492
G1 X115.872 Y132.082 Z.24 E.18501
G1 X111.168 Y132.082 Z.24 E.18501
G1 X106.465 Y132.082 Z.24 E.18501
G1 X101.762 Y132.082 Z.24 E.18501
G1 X97.058 Y132.082 Z.24 E.18501
G1 X92.355 Y132.082 Z.24 E.18501
G1 X87.652 Y132.082 Z.24 E.18501
G1 X82.949 Y132.082 Z.24 E.18501
G1 X78.245 Y132.082 Z.24 E.18501
G1 X73.542 Y132.082 Z.24 E.18501
G1 X68.839 Y132.082 Z.24 E.18501
G1 X64.135 Y132.082 Z.24 E.18501
G1 X59.432 Y132.082 Z.24 E.18501
G1 X58.638 Y131.953 E0.03162
G1 F2395.868
G1 X57.839 Y131.66 E.03351
G1 X56.929 Y131.064 E0.04276
G1 F2399.218
G1 X56.316 Y130.447 E.03421
G1 F2398.461
G1 X55.805 Y129.7 E.03562
G1 X55.458 Y128.837 E0.03658
G1 X55.305 Y127.963 E.03492
G1 X55.305 Y57.032 E2.79006
G1 F2399.994
G1 X55.528 Y55.933 E.04411
G1 F2397.584
G1 X55.838 Y55.241 E.02984
G1 X56.218 Y54.678 E0.02669
M204 S1500
G1 X56.596 Y54.885 F180000
G1 F2400
M204 S1000
G1 F2397.654
G1 X57.196 Y54.273 E.03372
G1 F2399.94
G1 X57.87 Y53.806 E.03224
G1 X58.648 Y53.489 E0.03303
G1 X59.444 Y53.347 E.03181
G1 X120.609 Y53.351 E2.40593
G1 F2398.668
G1 X121.422 Y53.51 E.0326
G1 X122.187 Y53.837 E0.03272
G1 X122.779 Y54.252 E.02845
G1 X123.331 Y54.795 E0.03044
G1 F2397.289
G1 X123.879 Y55.623 E.03908
G1 X124.147 Y56.341 E0.03013
G1 F2399.565
G1 X124.266 Y57.062 E.02874
G1 X124.266 Y61.788 Z.24 E.18588
G1 X124.266 Y66.513 Z.24 E.18588
G1 X124.266 Y71.239 Z.24 E.18588
G1 X124.266 Y75.965 Z.24 E.18588
G1 X124.266 Y80.69 Z.24 E.18588
G1 X124.266 Y85.416 Z.24 E.18588
G1 X124.266 Y90.142 Z.24 E.18588
G1 X124.266 Y94.867 Z.24 E.18588
G1 X124.266 Y99.593 Z.24 E.18588
G1 X124.266 Y104.319 Z.24 E.18588
G1 X124.266 Y109.044 Z.24 E.18588
G1 X124.266 Y113.77 Z.24 E.18588
G1 X124.266 Y118.496 Z.24 E.18588
G1 X124.266 Y123.221 Z.24 E.18588
G1 F2400
G1 X124.266 Y127.947 Z.24 E.18588
G1 F2399.638
G1 X124.07 Y128.915 E.03886
G1 X123.796 Y129.535 E.02668
G1 X123.404 Y130.115 E0.02754
G1 X122.804 Y130.727 E.03372
G1 X122.13 Y131.194 E.03224
G1 X121.352 Y131.511 E0.03303
G1 F2398.976
G1 X120.556 Y131.653 E.03181
G1 F2399.986
G1 X115.855 Y131.653 Z.24 E.18489
G1 X111.155 Y131.653 Z.24 E.1849
G1 X106.454 Y131.653 Z.24 E.18489
G1 X101.754 Y131.653 Z.24 E.1849
G1 X97.053 Y131.653 Z.24 E.18489
G1 X92.353 Y131.653 Z.24 E.1849
G1 X87.652 Y131.653 Z.24 E.18489
G1 X82.952 Y131.653 Z.24 E.1849
G1 X78.251 Y131.653 Z.24 E.18489
G1 X73.551 Y131.653 Z.24 E.1849
G1 X68.85 Y131.653 Z.24 E.18489
G1 X64.15 Y131.653 Z.24 E.1849
G1 X59.449 Y131.653 Z.24 E.18489
G1 X58.728 Y131.534 E0.02874
G1 F2396.06
G1 X58.011 Y131.267 E.03013
G1 X57.216 Y130.745 E0.03738
G1 F2398.312
G1 X56.657 Y130.188 E.03106
G1 X56.193 Y129.517 E.03211
G1 X55.876 Y128.74 E0.033
G1 F2399.281
G1 X55.734 Y127.944 E.03181
G1 X55.734 Y57.053 E2.78847
G1 X55.93 Y56.085 E.03886
G1 F2397.309
G1 X56.204 Y55.465 E.02668
G1 X56.563 Y54.934 E0.02518
M204 S1500
G1 X56.939 Y55.142 F180000
G1 F2400
M204 S1000
G1 F2399.142
G1 X57.459 Y54.612 E.02919
G1 X58.056 Y54.192 E.0287
G1 F2397.116
G1 X58.747 Y53.906 E.02944
G1 X59.463 Y53.775 E0.02862
G1 F2399.058
G1 X64.165 Y53.775 Z.24 E.18495
G1 X68.867 Y53.776 Z.24 E.18495
G1 X73.569 Y53.776 Z.24 E.18495
G1 X78.271 Y53.776 Z.24 E.18495
G1 X82.973 Y53.777 Z.24 E.18495
G1 X87.675 Y53.777 Z.24 E.18495
G1 X92.376 Y53.777 Z.24 E.18495
G1 X97.078 Y53.777 Z.24 E.18495
G1 X101.78 Y53.778 Z.24 E.18495
G1 X106.482 Y53.778 Z.24 E.18495
G1 X111.184 Y53.778 Z.24 E.18495
G1 X115.886 Y53.779 Z.24 E.18495
G1 X120.588 Y53.779 Z.24 E.18495
G1 X121.316 Y53.925 E0.0292
G1 X121.996 Y54.221 E.02917
G1 F2398.945
G1 X122.517 Y54.591 E.02515
G1 X123.013 Y55.084 E.02752
G1 X123.487 Y55.798 E0.03369
G1 F2396.51
G1 X123.728 Y56.433 E.02674
G1 X123.838 Y57.08 E0.0258
G1 F2398.66
G1 X123.838 Y61.803 Z.24 E.18578
G1 X123.838 Y66.526 Z.24 E.18578
G1 X123.838 Y71.249 Z.24 E.18578
G1 X123.838 Y75.972 Z.24 E.18578
G1 X123.838 Y80.695 Z.24 E.18578
G1 X123.838 Y85.418 Z.24 E.18578
G1 X123.838 Y90.141 Z.24 E.18578
G1 X123.838 Y94.864 Z.24 E.18578
G1 X123.838 Y99.587 Z.24 E.18578
G1 X123.838 Y104.31 Z.24 E.18578
G1 X123.838 Y109.033 Z.24 E.18578
G1 X123.838 Y113.756 Z.24 E.18578
G1 X123.838 Y118.479 Z.24 E.18578
G1 X123.838 Y123.202 Z.24 E.18578
G1 X123.838 Y127.925 Z.24 E.18578
G1 X123.669 Y128.763 E0.03361
G1 F2399.364
G1 X123.412 Y129.344 E.02499
G1 F2398.657
G1 X123.061 Y129.858 E.02449
G1 X122.541 Y130.388 E0.02919
G1 F2399.857
G1 X121.944 Y130.808 E.0287
G1 F2397.108
G1 X121.253 Y131.094 E.02944
G1 X120.537 Y131.225 E0.02862
G1 F2399.089
G1 X115.839 Y131.225 Z.24 E.18478
G1 X111.142 Y131.225 Z.24 E.18478
G1 X106.444 Y131.225 Z.24 E.18478
G1 X101.746 Y131.225 Z.24 E.18478
G1 X97.049 Y131.225 Z.24 E.18478
G1 X92.351 Y131.225 Z.24 E.18478
G1 X87.653 Y131.225 Z.24 E.18478
G1 X82.955 Y131.225 Z.24 E.18478
G1 X78.258 Y131.225 Z.24 E.18478
G1 X73.56 Y131.225 Z.24 E.18478
G1 X68.862 Y131.225 Z.24 E.18478
G1 X64.165 Y131.225 Z.24 E.18478
G1 F2400
G1 X59.467 Y131.225 Z.24 E.18478
G1 F2396.2
G1 X58.821 Y131.115 E.02581
G1 X58.185 Y130.874 E0.02674
G1 F2399.348
G1 X57.471 Y130.401 E.03369
G1 X56.975 Y129.899 E.02776
G1 X56.58 Y129.331 E0.02721
G1 X56.293 Y128.64 E.02943
G1 X56.162 Y127.924 E0.02863
G1 X56.162 Y123.201 Z.24 E.18579
G1 X56.162 Y118.477 Z.24 E.18579
G1 X56.162 Y113.754 Z.24 E.18579
G1 X56.162 Y109.031 Z.24 E.18579
G1 X56.162 Y104.308 Z.24 E.18579
G1 X56.162 Y99.584 Z.24 E.18579
G1 X56.162 Y94.861 Z.24 E.18579
G1 X56.162 Y90.138 Z.24 E.18579
G1 X56.162 Y85.415 Z.24 E.18579
G1 X56.162 Y80.691 Z.24 E.18579
G1 X56.162 Y75.968 Z.24 E.18579
G1 X56.162 Y71.245 Z.24 E.18579
G1 X56.162 Y66.522 Z.24 E.18579
G1 F2398.991
G1 X56.162 Y61.798 Z.24 E.18579
G1 X56.162 Y57.075 Z.24 E.18579
G1 X56.331 Y56.237 E0.03361
G1 F2399.018
G1 X56.588 Y55.656 E.02499
G1 X56.905 Y55.191 E.02213
M204 S1500
G1 X57.282 Y55.4 F180000
G1 F2400
M204 S1000
G1 X57.75 Y54.927 E0.02616
G1 F2399.979
G1 X58.244 Y54.578 E.02378
G1 X58.849 Y54.323 E.02583
G1 X59.483 Y54.204 E.02538
G1 X64.182 Y54.204 Z.24 E.18483
G1 X68.88 Y54.205 Z.24 E.18482
G1 X73.579 Y54.205 Z.24 E.18483
G1 X78.278 Y54.205 Z.24 E.18483
G1 F2398.892
G1 X82.976 Y54.206 Z.24 E.18482
G1 X87.675 Y54.206 Z.24 E.18483
G1 X92.374 Y54.206 Z.24 E.18483
G1 X97.073 Y54.206 Z.24 E.18483
G1 F2397.907
G1 X101.771 Y54.207 Z.24 E.18482
G1 X106.47 Y54.207 Z.24 E.18483
G1 X111.169 Y54.207 Z.24 E.18483
G1 X115.867 Y54.208 Z.24 E.18482
G1 F2396.799
G1 X120.566 Y54.208 Z.24 E.18483
G1 X121.166 Y54.327 E0.02403
G1 F2395.499
G1 X121.803 Y54.605 E.02736
G1 X122.252 Y54.929 E0.02176
G1 X122.695 Y55.372 E.02467
G1 X123.096 Y55.974 E0.02843
G1 F2398.711
G1 X123.309 Y56.528 E.02335
G1 X123.409 Y57.099 E0.0228
G1 F2399.746
G1 X123.409 Y61.819 Z.24 E.18568
G1 X123.409 Y66.54 Z.24 E.18568
G1 X123.409 Y71.26 Z.24 E.18568
G1 X123.409 Y75.98 Z.24 E.18567
G1 X123.409 Y80.701 Z.24 E.18568
G1 X123.409 Y85.421 Z.24 E.18568
G1 X123.409 Y90.141 Z.24 E.18568
G1 F2398.916
G1 X123.409 Y94.862 Z.24 E.18568
G1 X123.409 Y99.582 Z.24 E.18568
G1 X123.409 Y104.302 Z.24 E.18568
G1 X123.409 Y109.023 Z.24 E.18568
G1 X123.409 Y113.743 Z.24 E.18567
G1 X123.409 Y118.463 Z.24 E.18568
G1 X123.409 Y123.184 Z.24 E.18568
G1 X123.409 Y127.904 Z.24 E.18568
G1 X123.267 Y128.613 E0.02842
G1 F2397.473
G1 X123.047 Y129.119 E.02172
G1 F2399.403
G1 X122.718 Y129.6 E.02293
G1 X122.25 Y130.073 E.02617
G1 X121.756 Y130.422 E0.02377
G1 F2398.68
G1 X121.151 Y130.677 E.02583
G1 F2399.711
G1 X120.517 Y130.796 E.02538
G1 X59.486 Y130.796 E2.40066
G1 X58.915 Y130.697 E.0228
G1 X58.361 Y130.483 E.02336
G1 X57.759 Y130.083 E0.02842
G1 F2398.629
G1 X57.314 Y129.637 E.02478
G1 X56.965 Y129.143 E0.02377
G1 X56.71 Y128.538 E.02583
G1 F2399.666
G1 X56.591 Y127.904 E.02538
G1 X56.591 Y123.183 Z.24 E.18568
G1 X56.591 Y118.463 Z.24 E.18568
G1 X56.591 Y113.742 Z.24 E.18568
G1 X56.591 Y109.022 Z.24 E.18568
G1 X56.591 Y104.301 Z.24 E.18568
G1 X56.591 Y99.581 Z.24 E.18568
G1 X56.591 Y94.86 Z.24 E.18568
G1 X56.591 Y90.14 Z.24 E.18568
G1 F2398.894
G1 X56.591 Y85.419 Z.24 E.18568
G1 X56.591 Y80.699 Z.24 E.18568
G1 X56.591 Y75.978 Z.24 E.18568
G1 X56.591 Y71.258 Z.24 E.18568
G1 X56.591 Y66.537 Z.24 E.18568
G1 X56.591 Y61.817 Z.24 E.18568
G1 X56.591 Y57.096 Z.24 E.18568
G1 X56.733 Y56.387 E0.02842
G1 F2397.305
G1 X56.953 Y55.881 E.02172
G1 X57.248 Y55.449 E0.02058
M204 S1500
G1 X57.623 Y55.659 F180000
G1 F2400
M204 S1000
G1 F2397.349
G1 X58.04 Y55.243 E.02319
G1 X58.434 Y54.963 E0.019
G1 X58.953 Y54.739 E.02224
G1 X59.504 Y54.632 E0.02205
G1 F2396.851
G1 X64.199 Y54.632 Z.24 E.1847
G1 F2397.05
G1 X68.895 Y54.633 Z.24 E.1847
G1 X73.59 Y54.633 Z.24 E.18469
G1 X78.286 Y54.633 Z.24 E.1847
G1 X82.981 Y54.634 Z.24 E.1847
G1 X87.676 Y54.634 Z.24 E.1847
G1 F2398.044
G1 X92.372 Y54.634 Z.24 E.18469
G1 X97.067 Y54.634 Z.24 E.1847
G1 X101.762 Y54.635 Z.24 E.1847
G1 X106.458 Y54.635 Z.24 E.1847
G1 X111.153 Y54.635 Z.24 E.18469
G1 F2399.039
G1 X115.849 Y54.636 Z.24 E.1847
G1 X120.544 Y54.636 Z.24 E.1847
G1 X121.056 Y54.742 E.02056
G1 F2398.917
G1 X121.609 Y54.987 E.02378
G1 X121.961 Y55.244 E0.01712
G1 F2394.123
G1 X122.377 Y55.66 E.02318
G1 X122.705 Y56.152 E0.02325
G1 F2399.744
G1 X122.891 Y56.625 E.01999
G1 X122.981 Y57.118 E.01971
G1 X122.981 Y61.836 Z.24 E.18557
G1 X122.981 Y66.553 Z.24 E.18557
G1 X122.981 Y71.271 Z.24 E.18557
G1 X122.981 Y75.989 Z.24 E.18557
G1 X122.981 Y80.706 Z.24 E.18557
G1 X122.981 Y85.424 Z.24 E.18557
G1 X122.981 Y90.142 Z.24 E.18557
G1 X122.981 Y94.859 Z.24 E.18557
G1 F2398.983
G1 X122.981 Y99.577 Z.24 E.18557
G1 X122.981 Y104.295 Z.24 E.18557
G1 X122.981 Y109.012 Z.24 E.18557
G1 X122.981 Y113.73 Z.24 E.18557
G1 X122.981 Y118.448 Z.24 E.18557
G1 X122.981 Y123.165 Z.24 E.18557
G1 X122.981 Y127.883 Z.24 E.18557
G1 X122.865 Y128.463 E0.02325
G1 F2399.5
G1 X122.662 Y128.929 E.01999
G1 X122.377 Y129.341 E.01971
G1 F2397.434
G1 X121.96 Y129.757 E.02319
G1 X121.566 Y130.037 E0.019
G1 X121.047 Y130.261 E.02224
G1 X120.496 Y130.368 E0.02205
G1 F2396.931
G1 X115.804 Y130.368 Z.24 E.18454
G1 F2397.177
G1 X111.113 Y130.368 Z.24 E.18455
G1 X106.421 Y130.368 Z.24 E.18454
G1 X101.73 Y130.368 Z.24 E.18455
G1 X97.038 Y130.368 Z.24 E.18454
G1 F2398.159
G1 X92.346 Y130.368 Z.24 E.18455
G1 X87.655 Y130.368 Z.24 E.18454
G1 X82.963 Y130.368 Z.24 E.18455
G1 X78.271 Y130.368 Z.24 E.18454
G1 F2399.141
G1 X73.58 Y130.368 Z.24 E.18455
G1 X68.888 Y130.368 Z.24 E.18454
G1 X64.197 Y130.368 Z.24 E.18455
G1 F2400
G1 X59.505 Y130.368 Z.24 E.18454
G1 F2397.811
G1 X59.012 Y130.279 E.01972
G1 X58.539 Y130.093 E0.01998
G1 F2399.398
G1 X58.047 Y129.765 E.02326
G1 F2398.493
G1 X57.63 Y129.347 E.02323
G1 X57.35 Y128.953 E0.019
G1 X57.126 Y128.434 E.02224
G1 F2399.27
G1 X57.019 Y127.884 E.02205
G1 X57.019 Y123.166 Z.24 E.18557
G1 X57.019 Y118.448 Z.24 E.18557
G1 X57.019 Y113.731 Z.24 E.18557
G1 X57.019 Y109.013 Z.24 E.18558
G1 X57.019 Y104.295 Z.24 E.18557
G1 X57.019 Y99.577 Z.24 E.18557
G1 X57.019 Y94.859 Z.24 E.18557
G1 X57.019 Y90.142 Z.24 E.18557
G1 X57.019 Y85.424 Z.24 E.18557
G1 F2398.987
G1 X57.019 Y80.706 Z.24 E.18557
G1 X57.019 Y75.988 Z.24 E.18557
G1 X57.019 Y71.27 Z.24 E.18558
G1 X57.019 Y66.553 Z.24 E.18557
G1 X57.019 Y61.835 Z.24 E.18557
G1 X57.019 Y57.117 Z.24 E.18557
G1 X57.135 Y56.537 E0.02325
G1 F2399.487
G1 X57.338 Y56.071 E.01999
G1 F2398.095
G1 X57.589 Y55.709 E.01735
M204 S1500
G1 X57.941 Y55.948 F180000
G1 F2400
M204 S1000
G1 F2399.454
G1 X58.331 Y55.558 E.02172
G1 F2398.001
G1 X58.627 Y55.346 E.01433
G1 X59.061 Y55.154 E0.01865
G1 X59.525 Y55.061 E.01862
G1 F2399.949
G1 X64.217 Y55.061 Z.24 E.18456
G1 X68.909 Y55.062 Z.24 E.18456
G1 X73.601 Y55.062 Z.24 E.18456
G1 X78.293 Y55.062 Z.24 E.18456
G1 X82.985 Y55.063 Z.24 E.18456
G1 X87.677 Y55.063 Z.24 E.18456
G1 X92.369 Y55.063 Z.24 E.18456
G1 X97.061 Y55.063 Z.24 E.18456
G1 X101.753 Y55.064 Z.24 E.18456
G1 X106.445 Y55.064 Z.24 E.18456
G1 F2398.93
G1 X111.137 Y55.064 Z.24 E.18456
G1 X115.829 Y55.065 Z.24 E.18456
G1 X120.521 Y55.065 Z.24 E.18456
G1 X120.943 Y55.156 E0.01697
G1 F2399.621
G1 X121.412 Y55.368 E.02024
G1 X121.669 Y55.558 E.01257
G1 F2396.404
G1 X122.059 Y55.948 E.02171
G1 X122.316 Y56.333 E0.01818
G1 F2395.769
G1 X122.474 Y56.725 E.01664
G1 X122.552 Y57.138 E0.01653
G1 F2399.491
G1 X122.552 Y61.853 Z.24 E.18546
G1 X122.552 Y66.568 Z.24 E.18546
G1 X122.552 Y71.283 Z.24 E.18546
G1 X122.552 Y75.998 Z.24 E.18546
G1 X122.552 Y80.713 Z.24 E.18546
G1 X122.552 Y85.428 Z.24 E.18546
G1 X122.552 Y90.143 Z.24 E.18546
G1 X122.552 Y94.857 Z.24 E.18546
G1 X122.552 Y99.572 Z.24 E.18546
G1 X122.552 Y104.287 Z.24 E.18546
G1 X122.552 Y109.002 Z.24 E.18546
G1 X122.552 Y113.717 Z.24 E.18546
G1 X122.552 Y118.432 Z.24 E.18546
G1 X122.552 Y123.147 Z.24 E.18546
G1 F2400
G1 X122.552 Y127.862 Z.24 E.18546
G1 F2398.177
G1 X122.462 Y128.315 E.01817
G1 X122.296 Y128.705 E0.01665
G1 X122.059 Y129.052 E.01653
G1 F2399.201
G1 X121.669 Y129.442 E.02171
G1 F2396.698
G1 X121.373 Y129.654 E.01434
G1 X120.939 Y129.846 E0.01865
G1 F2398.269
G1 X120.475 Y129.939 E.01862
G1 X59.525 Y129.939 E2.39746
G1 X59.112 Y129.862 E.01653
