; generated by PrusaSlicer 2.7.1+MacOS-arm64 on 2024-02-11 at 03:36:44 UTC


;
;

;
;

;
;

;
;

;
;
; 

; external perimeters extrusion width = 0.45mm
; perimeters extrusion width = 0.45mm
; infill extrusion width = 0.45mm
; solid infill extrusion width = 0.45mm
; top infill extrusion width = 0.40mm

M73 P0 R46

EXCLUDE_OBJECT_DEFINE NAME=Voron_Design_Cube_v7_stl CENTER=87.500,110.000 POLYGON=[[102.500,125.000],[72.500,125.000],[72.500,95.000],[102.500,95.000]]

;TYPE:Custom
CALCULATE_PA MATERIAL=PLA BOWDEN_LENGTH=5.5 LAYER_HEIGHT=0.2 NOZZLE_SIZE=0.4 PRINT_SPEED=90


START_PRINT EXTRUDER=210 BED=65
G21 ; set units to millimeters
G90 ; use absolute coordinates
M83 ; use relative distances for extrusion
; Filament gcode
M107
;LAYER_CHANGE
;Z:0.2
;HEIGHT:0.2
;BEFORE_LAYER_CHANGE
G92 E0.0
;0.2
;M201 X4000 Y4000
;M74 W0

G1 Z.2 F60000
;AFTER_LAYER_CHANGE
;0.2
CALCULATE_PA MATERIAL=PLA BOWDEN_LENGTH=6.0 LAYER_HEIGHT=0.24 NOZZLE_SIZE=0.4 PRINT_SPEED=90
G1 E-2 F3000
G1 X75.204 Y91.544 F60000
G1 Z.2
G1 E2 F3000
;TYPE:Skirt/Brim
;WIDTH:0.45
G1 F1800
G1 X76.085 Y90.918 E.03658
G1 X77.062 Y90.509 E.03585
G1 X78.185 Y90.319 E.03855
G1 X96.874 Y90.323 E.6326
G1 X97.742 Y90.456 E.02972
G1 X98.556 Y90.734 E.02912
G1 X99.785 Y91.532 E.0496
G1 X105.954 Y97.702 E.29533
G1 X106.549 Y98.526 E.0344
G1 X106.967 Y99.484 E.03538
G1 X107.181 Y100.677 E.04103
G1 X107.181 Y119.335 E.63155
G1 X107.018 Y120.342 E.03453
G1 X106.633 Y121.321 E.03561
G1 X105.943 Y122.309 E.04079
G1 X99.792 Y128.461 E.29447
G1 X98.79 Y129.148 E.04112
G1 X97.71 Y129.553 E.03904
G1 X96.805 Y129.681 E.03094
G1 X78.165 Y129.681 E.63094
G1 X77.158 Y129.518 E.03453
G1 X76.179 Y129.133 E.03561
G1 X75.191 Y128.443 E.04079
G1 X69.039 Y122.292 E.29447
G1 X68.352 Y121.29 E.04112
G1 X67.947 Y120.21 E.03904
G1 X67.819 Y119.305 E.03094
G1 X67.819 Y100.665 E.63094
G1 X67.982 Y99.658 E.03453
G1 X68.367 Y98.679 E.03561
G1 X69.057 Y97.691 E.04079
G1 X75.161 Y91.586 E.29222
G1 X75.449 Y91.874 F60000
G1 F1800
G1 X75.48 Y91.844 E.00146
G1 X76.263 Y91.285 E.03256
G1 X77.198 Y90.894 E.0343
G1 X78.202 Y90.726 E.03446
G1 X96.858 Y90.73 E.63148
G1 X97.628 Y90.847 E.02636
G1 X98.4 Y91.111 E.02762
G1 X99.512 Y91.835 E.04491
G1 X105.654 Y97.978 E.29404
G1 X106.205 Y98.745 E.03197
G1 X106.584 Y99.623 E.03237
G1 X106.774 Y100.695 E.03685
G1 X106.774 Y119.318 E.63037
G1 X106.62 Y120.254 E.03211
G1 X106.264 Y121.147 E.03254
G1 X105.643 Y122.034 E.03665
G1 X99.517 Y128.16 E.29325
G1 X98.622 Y128.777 E.0368
G1 X97.629 Y129.153 E.03594
G1 X96.79 Y129.274 E.02869
G1 X78.182 Y129.274 E.62986
G1 X77.246 Y129.12 E.03211
G1 X76.353 Y128.764 E.03254
G1 X75.466 Y128.143 E.03665
G1 X69.34 Y122.017 E.29325
G1 X68.723 Y121.122 E.0368
G1 X68.347 Y120.129 E.03594
G1 X68.226 Y119.29 E.02869
G1 X68.226 Y100.682 E.62986
G1 X68.38 Y99.746 E.03211
G1 X68.736 Y98.853 E.03254
G1 X69.357 Y97.966 E.03665
G1 X75.407 Y91.917 E.28959
G1 X75.695 Y92.205 F60000
G1 F1800
G1 X75.755 Y92.144 E.0029
G1 X76.479 Y91.631 E.03003
G1 X77.331 Y91.279 E.0312
G1 X78.218 Y91.133 E.03043
G1 X96.842 Y91.137 E.6304
G1 X97.547 Y91.247 E.02415
G1 X98.243 Y91.487 E.02492
G1 X99.239 Y92.138 E.04028
G1 X105.354 Y98.253 E.29272
G1 X105.86 Y98.963 E.02951
G1 X106.2 Y99.761 E.02936
G1 X106.367 Y100.712 E.03268
G1 X106.367 Y119.301 E.62922
G1 X106.223 Y120.164 E.02962
G1 X105.896 Y120.973 E.02954
G1 X105.343 Y121.758 E.0325
G1 X99.242 Y127.858 E.29203
G1 X98.413 Y128.426 E.03402
G1 X97.508 Y128.764 E.0327
G1 X96.776 Y128.867 E.02502
G1 X78.199 Y128.867 E.62881
G1 X77.336 Y128.723 E.02962
G1 X76.527 Y128.396 E.02954
G1 X75.742 Y127.843 E.0325
G1 X69.642 Y121.742 E.29203
G1 X69.074 Y120.913 E.03402
G1 X68.736 Y120.008 E.0327
G1 X68.633 Y119.276 E.02502
G1 X68.633 Y100.699 E.62881
G1 X68.777 Y99.836 E.02962
G1 X69.104 Y99.027 E.02954
G1 X69.657 Y98.242 E.0325
G1 X75.652 Y92.247 E.28698
G1 X75.94 Y92.535 F60000
G1 F1800
G1 X76.03 Y92.444 E.00433
G1 X76.694 Y91.977 E.02748
G1 X77.462 Y91.665 E.02806
G1 X78.234 Y91.54 E.02647
G1 X96.826 Y91.544 E.62932
G1 X97.464 Y91.645 E.02186
G1 X98.085 Y91.863 E.02228
G1 X98.965 Y92.44 E.03562
G1 X105.054 Y98.529 E.29148
G1 X105.515 Y99.179 E.02697
G1 X105.816 Y99.896 E.02632
G1 X105.96 Y100.729 E.02861
G1 X105.96 Y119.283 E.62803
G1 X105.825 Y120.072 E.02709
G1 X105.528 Y120.796 E.02649
G1 X105.043 Y121.482 E.02844
G1 X98.968 Y127.557 E.29081
G1 X98.206 Y128.075 E.03119
G1 X97.39 Y128.374 E.02942
G1 X96.762 Y128.46 E.02146
G1 X78.217 Y128.46 E.62773
G1 X77.428 Y128.325 E.02709
G1 X76.704 Y128.028 E.02649
G1 X76.018 Y127.543 E.02844
G1 X69.943 Y121.468 E.29081
G1 X69.425 Y120.706 E.03119
G1 X69.126 Y119.89 E.02942
G1 X69.04 Y119.262 E.02146
G1 X69.04 Y100.717 E.62773
G1 X69.175 Y99.928 E.02709
G1 X69.472 Y99.204 E.02649
G1 X69.957 Y98.518 E.02844
G1 X75.898 Y92.577 E.28439
G1 X76.185 Y92.865 F60000
G1 F1800
G1 X76.305 Y92.745 E.00574
G1 X76.907 Y92.325 E.02485
G1 X77.591 Y92.052 E.02493
G1 X78.25 Y91.947 E.02259
G1 X96.809 Y91.951 E.6282
G1 X97.379 Y92.044 E.01955
G1 X97.925 Y92.238 E.01961
G1 X98.692 Y92.743 E.03108
G1 X104.754 Y98.805 E.29018
G1 X105.148 Y99.358 E.02298
G1 X105.432 Y100.032 E.02476
G1 X105.553 Y100.746 E.02451
G1 X105.553 Y119.267 E.62691
G1 X105.44 Y119.939 E.02307
G1 X105.16 Y120.62 E.02492
G1 X104.743 Y121.206 E.02434
G1 X98.694 Y127.256 E.28959
G1 X98.04 Y127.703 E.02681
G1 X97.311 Y127.974 E.02633
G1 X96.748 Y128.053 E.01924
G1 X78.233 Y128.053 E.62671
G1 X77.561 Y127.94 E.02307
G1 X76.88 Y127.66 E.02492
G1 X76.294 Y127.243 E.02434
G1 X70.244 Y121.194 E.28959
G1 X69.797 Y120.54 E.02681
G1 X69.526 Y119.811 E.02633
G1 X69.447 Y119.248 E.01924
G1 X69.447 Y100.733 E.62671
G1 X69.56 Y100.061 E.02307
G1 X69.84 Y99.38 E.02492
G1 X70.257 Y98.794 E.02434
G1 X76.143 Y92.908 E.28176
G1 X76.431 Y93.195 F60000
G1 F1800
G1 X76.58 Y93.046 E.00713
G1 X77.118 Y92.674 E.02214
G1 X77.717 Y92.439 E.02178
G1 X78.266 Y92.354 E.0188
G1 X96.791 Y92.358 E.62705
G1 X97.292 Y92.442 E.01719
G1 X97.763 Y92.612 E.01695
G1 X98.419 Y93.045 E.02661
G1 X104.454 Y99.08 E.28889
G1 X104.802 Y99.573 E.02043
G1 X105.046 Y100.165 E.02167
G1 X105.146 Y100.763 E.02052
G1 X105.146 Y119.249 E.62573
G1 X105.043 Y119.846 E.02051
G1 X104.794 Y120.441 E.02183
G1 X104.444 Y120.93 E.02035
G1 X98.42 Y126.954 E.28837
G1 X97.834 Y127.351 E.02396
G1 X97.193 Y127.584 E.02309
G1 X96.734 Y127.646 E.01568
G1 X78.251 Y127.646 E.62563
G1 X77.654 Y127.543 E.02051
G1 X77.059 Y127.294 E.02183
G1 X76.57 Y126.944 E.02035
G1 X70.546 Y120.92 E.28837
G1 X70.149 Y120.334 E.02396
G1 X69.916 Y119.693 E.02309
G1 X69.854 Y119.234 E.01568
G1 X69.854 Y100.751 E.62563
G1 X69.957 Y100.154 E.02051
G1 X70.206 Y99.559 E.02183
G1 X70.556 Y99.07 E.02035
G1 X76.388 Y93.238 E.27917
G1 X76.676 Y93.526 F60000
G1 F1800
G1 X76.854 Y93.348 E.00852
G1 X77.327 Y93.024 E.01941
G1 X77.841 Y92.828 E.01862
G1 X78.28 Y92.761 E.01503
G1 X96.773 Y92.765 E.62597
G1 X97.203 Y92.84 E.01477
G1 X97.599 Y92.986 E.01429
G1 X98.145 Y93.347 E.02216
G1 X104.153 Y99.355 E.2876
G1 X104.454 Y99.786 E.01779
G1 X104.66 Y100.296 E.01862
G1 X104.739 Y100.779 E.01657
G1 X104.739 Y119.23 E.62454
G1 X104.647 Y119.751 E.01791
M73 P1 R46
G1 X104.429 Y120.259 E.01871
G1 X104.145 Y120.653 E.01644
G1 X98.145 Y126.653 E.28722
G1 X97.668 Y126.978 E.01954
G1 X97.114 Y127.184 E.02001
G1 X96.72 Y127.239 E.01347
G1 X78.27 Y127.239 E.62451
G1 X77.749 Y127.147 E.01791
G1 X77.241 Y126.929 E.01871
G1 X76.847 Y126.645 E.01644
G1 X70.847 Y120.645 E.28722
G1 X70.522 Y120.168 E.01954
G1 X70.316 Y119.614 E.02001
G1 X70.261 Y119.22 E.01347
G1 X70.261 Y100.77 E.62451
G1 X70.353 Y100.249 E.01791
G1 X70.571 Y99.741 E.01871
G1 X70.855 Y99.347 E.01644
G1 X76.634 Y93.568 E.27664
G1 X76.922 Y93.856 F60000
G1 F1800
G1 X77.129 Y93.648 E.00993
G1 X77.498 Y93.394 E.01516
G1 X77.927 Y93.226 E.01559
G1 X78.297 Y93.168 E.01268
G1 X96.754 Y93.172 E.62475
G1 X97.111 Y93.237 E.01228
G1 X97.433 Y93.358 E.01164
G1 X97.872 Y93.649 E.01783
G1 X103.852 Y99.629 E.28626
G1 X104.106 Y99.998 E.01516
G1 X104.263 Y100.386 E.01417
G1 X104.332 Y100.796 E.01407
G1 X104.332 Y119.211 E.62333
G1 X104.251 Y119.652 E.01518
G1 X104.066 Y120.074 E.0156
G1 X103.846 Y120.376 E.01265
G1 X97.872 Y126.351 E.286
G1 X97.462 Y126.627 E.01673
G1 X97.034 Y126.784 E.01543
G1 X96.705 Y126.832 E.01125
G1 X78.289 Y126.832 E.62336
G1 X77.848 Y126.751 E.01518
M73 P1 R45
G1 X77.426 Y126.566 E.0156
G1 X77.124 Y126.346 E.01265
G1 X71.149 Y120.372 E.286
G1 X70.873 Y119.962 E.01673
G1 X70.716 Y119.534 E.01543
G1 X70.668 Y119.205 E.01125
G1 X70.668 Y100.789 E.62336
G1 X70.749 Y100.348 E.01518
G1 X70.934 Y99.926 E.0156
G1 X71.154 Y99.624 E.01265
G1 X76.879 Y93.898 E.27408
G1 X77.167 Y94.186 F60000
G1 F1800
G1 X77.403 Y93.95 E.0113
G1 X77.706 Y93.745 E.01238
G1 X78.049 Y93.615 E.01242
G1 X78.311 Y93.575 E.00897
G1 X96.734 Y93.579 E.6236
G1 X97.265 Y93.729 E.01868
G1 X97.598 Y93.951 E.01355
G1 X103.55 Y99.903 E.28492
G1 X103.756 Y100.206 E.0124
G1 X103.875 Y100.513 E.01114
G1 X103.925 Y100.813 E.01029
G1 X103.925 Y119.191 E.62207
G1 X103.856 Y119.551 E.01241
G1 X103.705 Y119.886 E.01244
G1 X103.548 Y120.099 E.00896
G1 X97.597 Y126.05 E.28487
G1 X97.294 Y126.255 E.01238
G1 X96.951 Y126.385 E.01242
G1 X96.689 Y126.425 E.00897
G1 X78.309 Y126.425 E.62214
G1 X77.949 Y126.356 E.01241
G1 X77.614 Y126.205 E.01244
G1 X77.401 Y126.048 E.00896
G1 X71.45 Y120.097 E.28487
G1 X71.245 Y119.794 E.01238
G1 X71.115 Y119.451 E.01242
G1 X71.075 Y119.189 E.00897
G1 X71.075 Y100.809 E.62214
G1 X71.144 Y100.449 E.01241
G1 X71.295 Y100.114 E.01244
G1 X71.452 Y99.901 E.00896
G1 X77.125 Y94.229 E.27154
G1 X77.413 Y94.516 F60000
G1 F1800
G1 X77.676 Y94.253 E.01259
G1 X77.91 Y94.097 E.00952
G1 X78.328 Y93.982 E.01467
G1 X96.712 Y93.986 E.62228
G1 X96.914 Y94.027 E.00698
G1 X97.324 Y94.253 E.01585
G1 X103.247 Y100.176 E.28353
G1 X103.403 Y100.41 E.00952
G1 X103.518 Y100.828 E.01467
G1 X103.518 Y119.17 E.62085
G1 X103.462 Y119.446 E.00953
G1 X103.248 Y119.823 E.01467
G1 X97.324 Y125.747 E.28358
G1 X97.09 Y125.903 E.00952
G1 X96.672 Y126.018 E.01467
G1 X78.33 Y126.018 E.62085
G1 X78.054 Y125.962 E.00953
G1 X77.677 Y125.748 E.01467
G1 X71.753 Y119.824 E.28358
G1 X71.597 Y119.59 E.00952
G1 X71.482 Y119.172 E.01467
G1 X71.482 Y100.83 E.62085
G1 X71.538 Y100.554 E.00953
G1 X71.752 Y100.177 E.01467
G1 X77.37 Y94.559 E.26893
G1 X77.659 Y94.847 F60000
G1 F1800
G1 X77.95 Y94.555 E.01395
G1 X78.227 Y94.41 E.01058
G1 X96.688 Y94.393 E.62488
G1 X97.05 Y94.555 E.01342
G1 X102.945 Y100.45 E.28219
G1 X103.09 Y100.727 E.01058
G1 X103.111 Y119.15 E.6236
G1 X103.017 Y119.449 E.01061
G1 X97.05 Y125.445 E.28633
G1 X96.773 Y125.59 E.01058
G1 X78.35 Y125.611 E.6236
G1 X78.051 Y125.517 E.01061
G1 X72.055 Y119.55 E.28633
G1 X71.91 Y119.273 E.01058
G1 X71.889 Y100.85 E.6236
G1 X71.983 Y100.551 E.01061
G1 X77.617 Y94.889 E.27037
G1 X77.905 Y95.176 F60000
G1 F1800
G1 X78.223 Y94.857 E.01525
G1 X78.33 Y94.804 E.00404
G1 X96.63 Y94.796 E.61943
G1 X96.777 Y94.857 E.00539
G1 X102.643 Y100.723 E.2808
G1 X102.696 Y100.83 E.00404
G1 X102.704 Y119.13 E.61943
G1 X102.665 Y119.243 E.00405
G1 X96.777 Y125.143 E.28214
G1 X96.67 Y125.196 E.00404
G1 X78.37 Y125.204 E.61943
G1 X78.257 Y125.165 E.00405
G1 X72.357 Y119.277 E.28214
G1 X72.304 Y119.17 E.00404
G1 X72.296 Y100.87 E.61943
G1 X72.335 Y100.757 E.00405
G1 X77.862 Y95.219 E.26484
EXCLUDE_OBJECT_START NAME=Voron_Design_Cube_v7_stl
G1 E-2 F3000
G1 X77.862 Y95.219 F60000
G1 X102.175 Y101.003
G1 E2 F3000
;TYPE:External perimeter
G1 F1800
G1 X102.175 Y118.997 E.60908
G1 X96.497 Y124.675 E.2718
G1 X78.503 Y124.675 E.60908
G1 X72.825 Y118.997 E.2718
G1 X72.825 Y101.003 E.60908
G1 X78.503 Y95.325 E.2718
G1 X96.497 Y95.325 E.60908
G1 X98.712 Y97.539 E.10601
G1 X102.133 Y100.96 E.16376
G1 X102.171 Y101.359 F60000
G1 X101.768 Y101.171
;TYPE:Perimeter
G1 F1800
G1 X101.768 Y118.829 E.5977
G1 X96.329 Y124.268 E.26036
G1 X78.671 Y124.268 E.5977
G1 X73.232 Y118.829 E.26036
G1 X73.232 Y101.171 E.5977
G1 X78.671 Y95.732 E.26036
M73 P2 R45
G1 X96.329 Y95.732 E.5977
G1 X98.424 Y97.827 E.10029
G1 X101.725 Y101.129 E.15804
G1 X101.361 Y101.34 F60000
G1 F1800
G1 X101.361 Y118.66 E.58626
G1 X96.16 Y123.861 E.24897
G1 X78.84 Y123.861 E.58626
G1 X73.639 Y118.66 E.24897
G1 X73.639 Y101.34 E.58626
G1 X78.84 Y96.139 E.24897
G1 X96.16 Y96.139 E.58626
G1 X98.136 Y98.115 E.09459
G1 X101.318 Y101.298 E.15234
G1 E-2 F3000
G1 X101.318 Y101.298 F60000
G1 X101.621 Y100.995
G1 X89.691 Y101.933
G1 X89.512 Y101.886
G1 X89.413 Y102.259
G1 E2 F3000
;TYPE:External perimeter
G1 F1800
G1 X89.788 Y102.36 E.01315
G1 X90.373 Y102.562 E.02095
G1 X90.938 Y102.804 E.02081
G1 X91.307 Y102.993 E.01403
G1 X91.664 Y103.199 E.01395
G1 X92.01 Y103.423 E.01395
G1 X92.344 Y103.665 E.01396
G1 X92.665 Y103.924 E.01396
G1 X92.972 Y104.199 E.01395
G1 X93.265 Y104.49 E.01398
G1 X93.542 Y104.795 E.01395
G1 X93.803 Y105.114 E.01395
G1 X94.047 Y105.446 E.01395
G1 X94.273 Y105.791 E.01396
G1 X94.483 Y106.148 E.01402
G1 X94.76 Y106.701 E.02094
G1 X94.993 Y107.27 E.02081
G1 X95.124 Y107.663 E.01402
G1 X95.235 Y108.06 E.01395
G1 X95.325 Y108.462 E.01394
G1 X95.394 Y108.869 E.01397
G1 X95.442 Y109.278 E.01394
G1 X95.469 Y109.691 E.01401
G1 X95.469 Y110.309 E.02092
G1 X95.442 Y110.722 E.01401
G1 X95.394 Y111.131 E.01394
G1 X95.325 Y111.538 E.01397
G1 X95.235 Y111.94 E.01394
G1 X95.124 Y112.337 E.01395
G1 X94.993 Y112.728 E.01396
G1 X94.842 Y113.112 E.01397
G1 X94.672 Y113.487 E.01394
G1 X94.482 Y113.853 E.01396
G1 X94.273 Y114.209 E.01397
G1 X94.047 Y114.554 E.01396
G1 X93.803 Y114.886 E.01395
G1 X93.542 Y115.205 E.01395
G1 X93.265 Y115.51 E.01395
G1 X92.972 Y115.801 E.01398
G1 X92.665 Y116.076 E.01395
G1 X92.344 Y116.335 E.01396
G1 X92.01 Y116.577 E.01396
G1 X91.664 Y116.801 E.01395
G1 X91.306 Y117.008 E.014
G1 X90.754 Y117.28 E.02083
G1 X90.18 Y117.511 E.02094
G1 X89.787 Y117.64 E.014
G1 X89.389 Y117.748 E.01396
G1 X88.986 Y117.835 E.01396
G1 X88.579 Y117.902 E.01396
G1 X88.169 Y117.947 E.01396
G1 X87.757 Y117.971 E.01397
G1 X87.345 Y117.973 E.01395
G1 X86.933 Y117.955 E.01396
G1 X86.523 Y117.915 E.01394
G1 X86.115 Y117.854 E.01396
G1 X85.711 Y117.772 E.01395
G1 X85.31 Y117.668 E.01402
G1 X84.726 Y117.475 E.02082
G1 X84.154 Y117.239 E.02094
G1 X83.783 Y117.056 E.014
G1 X83.423 Y116.854 E.01397
G1 X83.074 Y116.634 E.01396
G1 X82.737 Y116.397 E.01395
G1 X82.413 Y116.142 E.01396
G1 X82.102 Y115.871 E.01396
G1 X81.806 Y115.584 E.01396
G1 X81.525 Y115.282 E.01396
G1 X81.26 Y114.966 E.01396
G1 X81.012 Y114.637 E.01395
G1 X80.781 Y114.296 E.01394
G1 X80.568 Y113.943 E.01396
G1 X80.373 Y113.579 E.01398
G1 X80.198 Y113.206 E.01395
G1 X80.042 Y112.824 E.01397
G1 X79.906 Y112.435 E.01395
G1 X79.79 Y112.039 E.01397
G1 X79.695 Y111.638 E.01395
G1 X79.621 Y111.232 E.01397
G1 X79.567 Y110.821 E.01403
G1 X79.53 Y110.208 E.02079
G1 X79.535 Y109.59 E.02092
G1 X79.568 Y109.177 E.01402
G1 X79.621 Y108.768 E.01396
G1 X79.695 Y108.362 E.01397
G1 X79.79 Y107.961 E.01395
G1 X79.906 Y107.565 E.01397
G1 X80.042 Y107.176 E.01395
G1 X80.198 Y106.794 E.01397
G1 X80.373 Y106.421 E.01395
G1 X80.568 Y106.057 E.01398
G1 X80.781 Y105.704 E.01396
G1 X81.012 Y105.363 E.01394
G1 X81.26 Y105.034 E.01395
G1 X81.525 Y104.718 E.01396
G1 X81.806 Y104.416 E.01396
G1 X82.102 Y104.129 E.01396
G1 X82.413 Y103.858 E.01396
G1 X82.737 Y103.603 E.01396
G1 X83.074 Y103.366 E.01395
G1 X83.423 Y103.146 E.01396
G1 X83.785 Y102.943 E.01405
G1 X84.343 Y102.678 E.02091
G1 X84.916 Y102.455 E.02081
G1 X85.311 Y102.331 E.01401
G1 X85.711 Y102.228 E.01398
G1 X86.115 Y102.146 E.01395
G1 X86.523 Y102.085 E.01396
G1 X86.933 Y102.045 E.01394
G1 X87.345 Y102.027 E.01396
G1 X87.757 Y102.029 E.01395
G1 X88.169 Y102.053 E.01397
G1 X88.579 Y102.098 E.01396
G1 X88.986 Y102.165 E.01396
G1 X89.355 Y102.245 E.01278
G1 X89.741 Y102.349 F60000
G1 X89.52 Y101.866
;TYPE:Perimeter
G1 F1800
G1 X89.908 Y101.971 E.01361
G1 X90.52 Y102.182 E.02191
G1 X91.111 Y102.436 E.02177
G1 X91.501 Y102.635 E.01482
G1 X91.877 Y102.851 E.01468
G1 X92.24 Y103.087 E.01466
G1 X92.591 Y103.341 E.01467
G1 X92.929 Y103.614 E.01471
G1 X93.252 Y103.903 E.01467
G1 X93.559 Y104.208 E.01465
G1 X93.85 Y104.529 E.01467
G1 X94.125 Y104.865 E.0147
