; generated by SuperSlicer 2.5.59.10 on 2024-06-01 at 05:58:29 UTC


;
;

;
;
; 

; external perimeters extrusion width = 0.60mm
; perimeters extrusion width = 0.60mm
; infill extrusion width = 0.60mm
; solid infill extrusion width = 0.60mm
; top infill extrusion width = 0.60mm
; first layer extrusion width = 0.60mm

; external perimeters extrusion width = 0.60mm
; perimeters extrusion width = 0.60mm
; infill extrusion width = 0.60mm
; solid infill extrusion width = 0.60mm
; top infill extrusion width = 0.60mm
; first layer extrusion width = 0.60mm

; external perimeters extrusion width = 0.60mm
; perimeters extrusion width = 0.60mm
; infill extrusion width = 0.60mm
; solid infill extrusion width = 0.60mm
; top infill extrusion width = 0.60mm
; first layer extrusion width = 0.60mm

; object:{"name":"x_endstop_block_PLUS","id":"x_endstop_block_PLUS.stl id:0 copy 0","object_center":[81.850108,84.801684,0.000000],"boundingbox_center":[81.850108,84.801684,8.925000],"boundingbox_size":[12.000000,14.500000,17.850000]}
EXCLUDE_OBJECT_DEFINE NAME=x_endstop_block_PLUS_stl_id_0_copy_0 CENTER=81.850108,84.801684 POLYGON=[[75.85,79.05],[78.45,77.55],[85.25,77.55],[87.85,79.05],[87.85,89.55],[85.53,90.89],[83.52,92.05],[80.18,92.05],[78.17,90.89],[75.85,89.55],[75.85,79.05]]
; object:{"name":"a_FlangeSpacer_pair","id":"a_FlangeSpacer_pair.stl id:1 copy 0","object_center":[77.145323,102.250001,0.000000],"boundingbox_center":[77.145323,102.250001,4.925000],"boundingbox_size":[21.990849,10.396465,9.850000]}
EXCLUDE_OBJECT_DEFINE NAME=a_FlangeSpacer_pair_stl_id_1_copy_0 CENTER=77.145323,102.250001 POLYGON=[[66.15,102.45],[66.16,102.12],[66.16,102.12],[66.19,101.80],[66.19,101.79],[66.25,101.47],[66.25,101.46],[66.32,101.15],[66.32,101.14],[66.42,100.84],[66.42,100.82],[66.53,100.53],[66.54,100.52],[66.67,100.24],[66.68,100.22],[66.82,99.95],[66.83,99.92],[66.99,99.67],[67.01,99.64],[67.18,99.40],[67.20,99.38],[67.39,99.15],[67.42,99.12],[67.61,98.91],[67.64,98.88],[67.85,98.69],[67.89,98.66],[68.11,98.48],[68.14,98.45],[68.37,98.29],[68.42,98.26],[68.65,98.12],[68.70,98.09],[68.94,97.96],[68.99,97.94],[69.24,97.83],[69.29,97.81],[69.54,97.71],[69.60,97.69],[69.86,97.62],[69.92,97.60],[70.17,97.54],[70.25,97.53],[70.50,97.49],[70.57,97.48],[70.82,97.46],[70.90,97.45],[82.89,97.06],[83.14,97.05],[83.22,97.05],[83.47,97.06],[83.55,97.07],[83.79,97.09],[83.88,97.11],[84.12,97.15],[84.21,97.17],[84.43,97.22],[84.53,97.25],[84.75,97.32],[84.84,97.35],[85.05,97.43],[85.15,97.47],[85.35,97.57],[85.45,97.62],[85.64,97.72],[85.74,97.78],[85.92,97.89],[86.01,97.96],[86.18,98.09],[86.28,98.16],[86.44,98.29],[86.53,98.37],[86.68,98.52],[86.76,98.60],[86.90,98.76],[86.98,98.85],[87.11,99.01],[87.19,99.11],[87.30,99.27],[87.37,99.39],[87.47,99.55],[87.54,99.67],[87.63,99.84],[87.69,99.97],[87.76,100.14],[87.81,100.27],[87.88,100.44],[87.92,100.59],[87.97,100.76],[88.01,100.90],[88.04,101.08],[88.07,101.23],[88.10,101.40],[88.12,101.56],[88.13,101.72],[88.14,101.89],[88.14,102.05],[88.14,102.22],[88.13,102.38],[88.12,102.55],[88.10,102.70],[88.07,102.87],[88.04,103.03],[88.01,103.20],[87.97,103.35],[87.92,103.52],[87.88,103.66],[87.81,103.83],[87.76,103.97],[87.69,104.14],[87.63,104.26],[87.54,104.43],[87.47,104.55],[87.37,104.72],[87.30,104.83],[87.19,104.99],[87.11,105.10],[86.98,105.25],[86.90,105.35],[86.76,105.50],[86.68,105.59],[86.53,105.73],[86.44,105.81],[86.28,105.95],[86.18,106.02],[86.01,106.14],[85.92,106.21],[85.74,106.33],[85.64,106.38],[85.45,106.49],[85.35,106.54],[85.15,106.63],[85.05,106.67],[84.84,106.75],[84.75,106.79],[84.53,106.86],[84.43,106.88],[84.21,106.94],[84.12,106.96],[83.88,107.00],[83.79,107.01],[83.55,107.03],[83.47,107.04],[83.22,107.05],[71.23,107.45],[71.15,107.45],[70.90,107.44],[70.82,107.44],[70.57,107.41],[70.50,107.41],[70.25,107.37],[70.17,107.35],[69.92,107.30],[69.86,107.28],[69.60,107.20],[69.54,107.18],[69.29,107.09],[69.24,107.07],[68.99,106.96],[68.94,106.93],[68.70,106.81],[68.65,106.78],[68.42,106.63],[68.37,106.61],[68.14,106.44],[68.11,106.41],[67.89,106.24],[67.85,106.21],[67.64,106.01],[67.61,105.98],[67.42,105.77],[67.39,105.74],[67.20,105.52],[67.18,105.49],[67.01,105.25],[66.99,105.23],[66.83,104.97],[66.82,104.95],[66.68,104.68],[66.67,104.66],[66.54,104.38],[66.53,104.36],[66.42,104.07],[66.42,104.06],[66.32,103.76],[66.32,103.74],[66.25,103.43],[66.25,103.42],[66.19,103.11],[66.19,103.10],[66.16,102.78],[66.16,102.78],[66.15,102.45]]
; object:{"name":"a_Xjoint_8mm_Idler_Spacers","id":"a_Xjoint_8mm_Idler_Spacers.stl id:2 copy 0","object_center":[103.350108,93.166278,0.000000],"boundingbox_center":[103.350108,93.166278,6.425000],"boundingbox_size":[21.000000,20.999268,12.850000]}
EXCLUDE_OBJECT_DEFINE NAME=a_Xjoint_8mm_Idler_Spacers_stl_id_2_copy_0 CENTER=103.350108,93.166278 POLYGON=[[92.85,87.17],[92.85,87.00],[92.86,86.84],[92.88,86.68],[92.90,86.52],[92.92,86.36],[92.96,86.20],[92.99,86.04],[93.04,85.88],[93.09,85.73],[93.14,85.58],[93.20,85.43],[93.27,85.28],[93.34,85.13],[93.41,84.99],[93.49,84.85],[93.58,84.71],[93.67,84.57],[93.77,84.44],[93.87,84.32],[93.97,84.19],[94.08,84.07],[94.20,83.96],[94.31,83.84],[94.44,83.74],[94.56,83.63],[94.69,83.54],[94.82,83.44],[94.96,83.35],[95.10,83.27],[95.24,83.19],[95.39,83.12],[95.53,83.05],[95.68,82.99],[95.73,82.97],[95.74,82.96],[95.75,82.96],[95.76,82.96],[95.77,82.95],[95.79,82.95],[95.81,82.94],[95.83,82.93],[95.84,82.93],[95.86,82.92],[95.91,82.90],[95.92,82.90],[95.93,82.90],[95.94,82.89],[95.95,82.89],[95.96,82.89],[95.97,82.88],[95.99,82.88],[96.01,82.87],[96.03,82.86],[96.05,82.86],[96.10,82.84],[96.14,82.83],[96.18,82.82],[96.21,82.81],[96.24,82.81],[96.27,82.80],[96.29,82.79],[96.35,82.78],[96.37,82.77],[96.42,82.76],[96.47,82.75],[96.49,82.75],[96.52,82.74],[96.55,82.74],[96.58,82.73],[96.61,82.73],[96.63,82.73],[96.64,82.72],[96.66,82.72],[96.69,82.72],[96.71,82.71],[96.73,82.71],[96.77,82.70],[96.81,82.70],[96.82,82.70],[96.86,82.69],[96.88,82.69],[96.89,82.69],[96.91,82.69],[96.94,82.69],[96.97,82.68],[96.98,82.68],[97.01,82.68],[97.02,82.68],[97.06,82.68],[97.06,82.68],[97.07,82.68],[97.11,82.67],[97.14,82.67],[97.17,82.67],[97.18,82.67],[97.21,82.67],[97.22,82.67],[97.25,82.67],[97.27,82.67],[97.28,82.67],[97.30,82.67],[97.32,82.67],[97.33,82.67],[97.34,82.67],[109.35,82.67],[109.40,82.67],[109.43,82.67],[109.45,82.67],[109.49,82.67],[109.54,82.67],[109.59,82.67],[109.62,82.68],[109.66,82.68],[109.70,82.68],[109.73,82.68],[109.76,82.69],[109.79,82.69],[109.81,82.69],[109.82,82.69],[109.84,82.69],[109.85,82.69],[109.92,82.70],[110.08,82.73],[110.24,82.76],[110.40,82.79],[110.55,82.83],[110.71,82.88],[110.86,82.93],[111.02,82.99],[111.17,83.05],[111.31,83.12],[111.46,83.19],[111.60,83.27],[111.74,83.35],[111.88,83.44],[112.01,83.54],[112.14,83.63],[112.26,83.74],[112.39,83.84],[112.50,83.96],[112.62,84.07],[112.73,84.19],[112.83,84.32],[112.93,84.44],[113.03,84.57],[113.12,84.71],[113.21,84.85],[113.29,84.99],[113.36,85.13],[113.43,85.28],[113.50,85.43],[113.56,85.58],[113.61,85.73],[113.66,85.88],[113.71,86.04],[113.74,86.20],[113.78,86.36],[113.80,86.52],[113.82,86.68],[113.84,86.84],[113.85,87.00],[113.85,87.17],[113.85,99.17],[113.85,99.33],[113.84,99.49],[113.82,99.65],[113.80,99.81],[113.78,99.97],[113.74,100.13],[113.71,100.29],[113.66,100.45],[113.61,100.60],[113.56,100.76],[113.50,100.91],[113.43,101.06],[113.36,101.20],[113.29,101.35],[113.21,101.49],[113.12,101.62],[113.03,101.76],[112.93,101.89],[112.83,102.02],[112.73,102.14],[112.62,102.26],[112.50,102.38],[112.39,102.49],[112.26,102.60],[112.14,102.70],[112.01,102.80],[111.88,102.89],[111.74,102.98],[111.60,103.06],[111.46,103.14],[111.31,103.22],[111.17,103.28],[111.02,103.35],[110.86,103.40],[110.71,103.46],[110.55,103.50],[110.40,103.54],[110.24,103.58],[110.08,103.61],[109.92,103.63],[109.76,103.65],[109.59,103.66],[109.43,103.67],[97.27,103.67],[97.11,103.66],[96.94,103.65],[96.78,103.63],[96.62,103.61],[96.46,103.58],[96.30,103.54],[96.15,103.50],[95.99,103.46],[95.84,103.40],[95.68,103.35],[95.53,103.28],[95.39,103.22],[95.24,103.14],[95.10,103.06],[94.96,102.98],[94.82,102.89],[94.69,102.80],[94.56,102.70],[94.44,102.60],[94.31,102.49],[94.20,102.38],[94.08,102.26],[93.97,102.14],[93.87,102.02],[93.77,101.89],[93.67,101.76],[93.58,101.62],[93.49,101.49],[93.41,101.35],[93.34,101.20],[93.27,101.06],[93.20,100.91],[93.14,100.76],[93.09,100.60],[93.04,100.45],[92.99,100.29],[92.96,100.13],[92.92,99.97],[92.90,99.81],[92.88,99.65],[92.86,99.49],[92.85,99.33],[92.85,99.17],[92.85,87.17]]
; plater:{"center":[90.000003,92.499959,0.000000],"boundingbox_center":[90.000003,92.499959,8.925000],"boundingbox_size":[47.700209,29.896550,17.850000]}

M107
;TYPE:Custom
START_PRINT EXTRUDER=250 BED=100
M107
G21 ; set units to millimeters
G90 ; use absolute coordinates
M83 ; use relative distances for extrusion
ACTIVATE_EXTRUDER EXTRUDER=extruder
; Filament gcode
FILAMENT_START MATERIAL=ASA COLOR=#368900 VENDOR=123-3D
SET_PRESSURE_ADVANCE ADVANCE=0.062
M104 S250 T0 ; set temperature
M109 S250 T0 ; set temperature and wait for it to be reached
M190 S100 ; set bed temperature and wait for it to be reached
;LAYER_CHANGE
;Z:0.24
;HEIGHT:0.24
G1 E-1 F3600
G1 Z0.24 F360000
G92 E0
M204 S750
G1 X75.977 Y73.45
G1 E1 F3600
;TYPE:Skirt
;WIDTH:0.45
M107
G1 F2399.622
G1 X74.092 Y75.446 E.10046
G1 X72.188 Y79.23 Z.24 E.15496
G1 X70.284 Y83.014 Z.24 E.15496
G1 X68.38 Y86.799 Z.24 E.15496
G1 X66.476 Y90.583 Z.24 E.15496
G1 X64.572 Y94.367 Z.24 E.15496
G1 F2398.962
G1 X62.668 Y98.151 Z.24 E.15496
G1 X62.05 Y99.7 E0.06098
G1 F2399.316
G1 X61.805 Y100.722 E.03845
G1 F2398.924
G1 X61.655 Y101.969 E.04596
G1 X61.695 Y103.405 E0.05253
G1 F2399.453
G1 X61.84 Y104.362 E.03541
G1 F2398.752
G1 X62.09 Y105.318 E.03616
G1 X62.605 Y106.608 E0.05079
G1 F2399.387
G1 X63.107 Y107.514 E.03789
G1 X63.957 Y108.66 E0.05219
G1 X65.091 Y109.774 E.05816
G1 X66.636 Y110.813 E0.06811
G1 F2398.962
G1 X67.577 Y111.254 E.03803
G1 F2399.506
G1 X68.401 Y111.548 E.032
G1 X69.866 Y111.866 E0.05481
G1 F2398.297
G1 X71.308 Y111.954 E.05287
G1 X83.464 Y111.549 E0.4449
G1 F2399.816
G1 X88.051 Y110.987 Z.24 E.16904
G1 X92.637 Y110.425 Z.24 E.16904
G1 X97.224 Y109.863 Z.24 E.16904
G1 X101.811 Y109.3 Z.24 E.16904
G1 X106.397 Y108.738 Z.24 E.16904
G1 X110.984 Y108.176 Z.24 E.16904
G1 X112.184 Y107.872 E0.04528
G1 X113.122 Y107.508 E.03681
G1 X114.276 Y106.884 E.048
G1 X115.372 Y106.062 E0.05011
G1 X116.007 Y105.452 E.03221
G1 X116.817 Y104.465 E.04671
G1 X117.29 Y103.724 E.03216
G1 X117.742 Y102.825 E.03681
G1 X118.296 Y101.116 E0.06571
G1 X118.505 Y99.327 E.0659
G1 X118.505 Y95.327 Z.24 E.14632
G1 X118.505 Y91.327 Z.24 E.14632
G1 X118.505 Y87.327 Z.24 E.14632
G1 X118.414 Y85.877 E0.05313
G1 F2397.891
G1 X118.135 Y84.59 E.0482
G1 X117.657 Y83.316 E0.04976
G1 F2399.17
G1 X117.04 Y82.198 E.04671
G1 X116.22 Y81.116 E0.04964
G1 F2397.271
G1 X115.146 Y80.079 E.05464
G1 X114.144 Y79.366 E0.04495
G1 X112.814 Y78.692 E.05456
G1 X111.639 Y78.301 E0.04529
G1 F2399.469
G1 X107.408 Y77.396 Z.24 E.15829
G1 X103.177 Y76.49 Z.24 E.15829
G1 X98.945 Y75.585 Z.24 E.15829
G1 X94.714 Y74.68 Z.24 E.15829
G1 X90.483 Y73.774 Z.24 E.15829
G1 F2400
G1 X86.252 Y72.869 Z.24 E.15829
G1 F2399.535
G1 X85.251 Y72.763 E.03683
G1 X81.85 Y72.763 Z.24 E.12439
G1 X78.45 Y72.763 Z.24 E.12439
G1 X76.035 Y73.433 E0.09167
M107
G1 X76.176 Y73.795 F360000
M107
G1 F2398.856
G1 X74.448 Y75.625 E.09211
G1 F2399.947
G1 X72.544 Y79.409 Z.24 E.15496
G1 X70.64 Y83.193 Z.24 E.15496
G1 X68.736 Y86.978 Z.24 E.15496
G1 X66.832 Y90.762 Z.24 E.15496
G1 X64.928 Y94.546 Z.24 E.15496
G1 X63.024 Y98.33 Z.24 E.15496
G1 X62.429 Y99.824 E0.05881
G1 X62.195 Y100.805 E.03689
G1 X62.053 Y101.983 E.04341
G1 X62.093 Y103.378 E.05106
G1 F2398.884
G1 X62.232 Y104.289 E.03373
G1 X62.473 Y105.209 E0.03479
G1 X62.958 Y106.423 E.04783
G1 X63.439 Y107.294 E0.03637
G1 F2399.172
G1 X64.266 Y108.408 E.05075
G1 X65.35 Y109.471 E.05555
G1 X66.833 Y110.467 E0.06534
G1 F2398.487
G1 X68.525 Y111.169 E.06703
G1 X69.912 Y111.47 E0.05189
G1 X71.295 Y111.556 E.0507
G1 X83.437 Y111.152 E0.4444
G1 F2399.895
G1 X88.015 Y110.591 Z.24 E.16873
G1 X92.593 Y110.03 Z.24 E.16873
G1 X97.171 Y109.469 Z.24 E.16873
G1 X101.75 Y108.908 Z.24 E.16873
G1 X106.328 Y108.347 Z.24 E.16873
G1 F2400
G1 X110.906 Y107.786 Z.24 E.16873
G1 F2399.814
G1 X112.07 Y107.49 E.04394
G1 X112.967 Y107.141 E.03521
G1 X114.055 Y106.553 E0.04522
G1 F2398.785
G1 X115.118 Y105.755 E.04862
G1 X115.724 Y105.172 E0.03074
G1 X116.487 Y104.241 E.04405
G1 X116.939 Y103.534 E0.0307
G1 F2399.834
G1 X117.373 Y102.675 E.03521
G1 X117.905 Y101.039 E0.06293
G1 X118.107 Y99.327 E.06308
G1 X118.107 Y95.327 Z.24 E.14632
G1 X118.107 Y91.327 Z.24 E.14632
G1 X118.107 Y87.327 Z.24 E.14632
G1 X118.019 Y85.925 E0.05138
G1 X117.755 Y84.712 E.04541
G1 F2398.861
G1 X117.292 Y83.476 E.04829
G1 X116.71 Y82.421 E0.04405
G1 X115.914 Y81.372 E.04818
G1 F2399.802
G1 X114.9 Y80.393 E.05156
G1 X113.928 Y79.701 E0.04364
G1 X112.673 Y79.065 E.05148
G1 X111.533 Y78.685 E0.04395
G1 X107.306 Y77.781 Z.24 E.15814
G1 X103.078 Y76.876 Z.24 E.15814
G1 X98.851 Y75.972 Z.24 E.15814
G1 X94.624 Y75.068 Z.24 E.15814
G1 X90.396 Y74.163 Z.24 E.15814
G1 F2400
G1 X86.169 Y73.259 Z.24 E.15814
G1 F2399.937
G1 X85.251 Y73.162 E.03377
G1 X81.85 Y73.162 Z.24 E.12439
G1 X78.45 Y73.162 Z.24 E.1244
G1 X76.234 Y73.779 E0.08413
M107
G1 X76.375 Y74.14 F360000
M107
G1 F2399.166
G1 X74.804 Y75.805 E.08376
G1 X63.38 Y98.51 E0.92977
G1 F2398.919
G1 X62.808 Y99.948 E.05663
G1 X62.524 Y101.256 E0.04895
G1 F2397.717
G1 X62.441 Y102.313 E.03881
G1 X62.491 Y103.351 E0.038
G1 F2399.907
G1 X62.709 Y104.584 E.04579
G1 F2398.15
G1 X62.994 Y105.503 E.03521
G1 X63.56 Y106.716 E0.04894
G1 F2399.214
G1 X64.235 Y107.74 E.04487
G1 X64.847 Y108.457 E.03449
G1 X65.899 Y109.394 E0.05153
G1 X67.03 Y110.121 E.04918
G1 X68.65 Y110.79 E0.06411
G1 X69.958 Y111.074 E.04896
G1 X71.282 Y111.157 E.04854
G1 X83.41 Y110.754 E0.4439
G1 X87.98 Y110.194 Z.24 E.16842
G1 X92.549 Y109.634 Z.24 E.16842
G1 X97.119 Y109.074 Z.24 E.16841
G1 X101.689 Y108.515 Z.24 E.16842
G1 X106.258 Y107.955 Z.24 E.16842
G1 X110.828 Y107.395 Z.24 E.16842
G1 X111.957 Y107.108 E.04261
G1 X113.179 Y106.597 E0.04844
G1 X114.167 Y105.998 E.04227
G1 X114.864 Y105.448 E0.03247
G1 X115.44 Y104.893 E.02927
G1 X116.157 Y104.018 E0.04139
G1 X117.003 Y102.526 E.06276
G1 X117.514 Y100.963 E0.06014
G1 X117.708 Y99.327 E.06027
G1 X117.696 Y95.007 Z.24 E.15802
G1 X117.683 Y90.688 Z.24 E.15802
G1 F2398.71
G1 X117.671 Y86.368 Z.24 E.15802
G1 X117.481 Y85.229 E0.04222
G1 X117.086 Y84 E.04723
G1 X116.38 Y82.645 E0.05589
G1 F2399.543
G1 X115.609 Y81.627 E.04672
G1 X114.655 Y80.707 E0.04848
G1 X113.712 Y80.036 E.04234
G1 X112.532 Y79.438 E.0484
G1 X111.427 Y79.069 E.04262
G1 X86.085 Y73.649 E0.94798
G1 F2397.768
G1 X85.251 Y73.56 E.03071
G1 F2399.725
G1 X81.85 Y73.56 Z.24 E.1244
G1 F2398.901
G1 X78.45 Y73.56 Z.24 E.1244
G1 X76.433 Y74.124 E0.07658
M107
G1 X76.575 Y74.485 F360000
M107
G1 F2399.582
G1 X75.16 Y75.984 E.0754
G1 X73.256 Y79.768 Z.24 E.15496
G1 X71.352 Y83.552 Z.24 E.15496
G1 X69.448 Y87.337 Z.24 E.15496
G1 X67.544 Y91.121 Z.24 E.15496
G1 X65.64 Y94.905 Z.24 E.15496
G1 F2400
G1 X63.736 Y98.689 Z.24 E.15496
G1 F2399.185
G1 X63.186 Y100.072 E.05446
G1 X62.92 Y101.302 E0.04603
G1 X62.839 Y102.327 E.03762
G1 F2398.535
G1 X62.888 Y103.324 E.03653
G1 X63.093 Y104.475 E0.04274
G1 X63.364 Y105.354 E.03366
G1 F2399.073
G1 X63.913 Y106.531 E.04753
G1 X64.544 Y107.488 E.04192
G1 X65.129 Y108.176 E0.03301
G1 F2398.189
G1 X66.129 Y109.069 E.04906
G1 F2399.645
G1 X67.227 Y109.775 E.04775
G1 X68.774 Y110.412 E0.06118
G1 X70.004 Y110.678 E.04604
G1 X71.269 Y110.759 E0.04637
G1 X75.307 Y110.625 Z.24 E.1478
G1 X79.345 Y110.49 Z.24 E.1478
G1 X83.383 Y110.356 Z.24 E.1478
G1 X87.944 Y109.797 Z.24 E.1681
G1 X92.505 Y109.239 Z.24 E.1681
G1 X97.066 Y108.68 Z.24 E.1681
G1 X101.628 Y108.121 Z.24 E.1681
G1 X106.189 Y107.563 Z.24 E.1681
G1 F2398.667
G1 X110.75 Y107.004 Z.24 E.1681
G1 X111.844 Y106.726 E0.04127
G1 F2399.571
G1 X112.988 Y106.247 E.04536
G1 F2397.039
