; generated by SuperSlicer 2.5.60.0 on 2024-07-13 at 22:16:27 UTC


;
;

;
;
; 

; external perimeters extrusion width = 0.48mm
; perimeters extrusion width = 0.48mm
; infill extrusion width = 0.48mm
; solid infill extrusion width = 0.48mm
; top infill extrusion width = 0.48mm
; support material extrusion width = 0.42mm
; first layer extrusion width = 0.48mm

; object:{"name":"y_endstop","id":"y_endstop.stl id:0 copy 0","object_center":[90.000000,92.500000,0.000000],"boundingbox_center":[90.000000,92.500000,4.500000],"boundingbox_size":[32.000000,21.891451,9.000000]}
EXCLUDE_OBJECT_DEFINE NAME=y_endstop_stl_id_0_copy_0 CENTER=90.000000,92.500000 POLYGON=[[74.00,83.63],[74.04,83.43],[74.05,83.39],[74.14,83.25],[74.20,83.19],[74.30,83.11],[76.86,81.63],[77.01,81.57],[77.10,81.56],[77.16,81.55],[102.84,81.55],[102.99,81.57],[103.08,81.61],[103.14,81.63],[105.70,83.11],[105.86,83.25],[105.89,83.28],[105.96,83.43],[105.99,83.51],[106.00,83.63],[106.00,101.37],[105.96,101.57],[105.95,101.61],[105.86,101.75],[105.80,101.81],[105.70,101.89],[103.14,103.37],[102.99,103.43],[102.90,103.44],[102.84,103.45],[77.16,103.45],[77.01,103.43],[76.92,103.39],[76.86,103.37],[74.30,101.89],[74.14,101.75],[74.11,101.72],[74.04,101.57],[74.01,101.49],[74.00,101.37],[74.00,83.63]]
; Total objects to print: 1
; plater:{"center":[90.000000,92.500000,0.000000],"boundingbox_center":[90.000000,92.500000,4.500000],"boundingbox_size":[32.000000,21.891451,9.000000]}

M107
;TYPE:Custom
START_PRINT EXTRUDER=250 BED=100
G21 ; set units to millimeters
G90 ; use absolute coordinates
M83 ; use relative distances for extrusion
; Filament gcode
FILAMENT_START MATERIAL=ASA COLOR=#368900 VENDOR=123-3D
SET_PRESSURE_ADVANCE ADVANCE=0.062
M104 S250 ; set temperature
M109 S250 ; set temperature and wait for it to be reached
M190 S100 ; set bed temperature and wait for it to be reached
;LAYER_CHANGE
;Z:0.24
;HEIGHT:0.24
G1 E-1 F3600
G1 Z0.24 F180000
G92 E0
G1 X71.69 Y79.748
G1 E1 F3600
;TYPE:Skirt
;WIDTH:0.48
G1 F2400
M204 S1000
G1 F2399.967
G1 X74.971 Y77.822 E.14965
G1 X75.893 Y77.48 E0.03868
G1 X76.888 Y77.317 E.03966
G1 X81.284 Y77.318 Z.24 E.17291
G1 X85.679 Y77.319 Z.24 E.17291
G1 X90.075 Y77.32 Z.24 E.17291
G1 X94.471 Y77.322 Z.24 E.17291
G1 X98.866 Y77.323 Z.24 E.17291
G1 F2398.78
G1 X103.262 Y77.324 Z.24 E.17291
G1 X104.942 Y77.776 E0.0684
G1 X108.44 Y79.844 E.15985
G1 X109.09 Y80.47 E0.03548
G1 F2395.971
G1 X109.593 Y81.177 E.03417
G1 X109.973 Y82.011 E0.03603
G1 F2399.344
G1 X110.197 Y82.864 E.03469
G1 X110.21 Y87.552 Z.24 E.18442
G1 X110.223 Y92.241 Z.24 E.18442
G1 X110.236 Y96.929 Z.24 E.18442
G1 X110.249 Y101.618 Z.24 E.18442
G1 X110.085 Y102.658 E0.04141
G1 X109.679 Y103.675 E.04308
G1 X108.911 Y104.706 E.05059
G1 X108.307 Y105.256 E.03214
G1 X105.025 Y107.179 E.14962
G1 X104.07 Y107.53 E0.03999
G1 F2397.416
G1 X103.072 Y107.686 E.03976
G1 F2399.853
G1 X98.72 Y107.686 Z.24 E.17119
G1 X94.368 Y107.686 Z.24 E.17119
G1 X90.016 Y107.686 Z.24 E.17119
G1 F2398.972
G1 X85.664 Y107.687 Z.24 E.17119
G1 X81.312 Y107.687 Z.24 E.17119
G1 X76.96 Y107.687 Z.24 E.17119
G1 X75.889 Y107.516 E0.04263
G1 X74.897 Y107.143 E.0417
G1 F2399.755
G1 X71.894 Y105.403 E.13653
G1 X70.812 Y104.413 E0.05768
G1 X70.069 Y103.133 E.05822
G1 F2398.466
G1 X69.842 Y102.338 E.03253
G1 X69.746 Y101.53 E0.03198
G1 X69.748 Y96.978 Z.24 E.17905
G1 X69.751 Y92.426 Z.24 E.17905
G1 X69.753 Y87.875 Z.24 E.17905
G1 X69.755 Y83.323 Z.24 E.17905
G1 X69.949 Y82.224 E0.04388
G1 F2397.784
G1 X70.391 Y81.21 E.04353
G1 X70.942 Y80.432 E0.03748
G1 F2398.884
G1 X71.645 Y79.788 E.03751
M204 S1500
G1 X71.961 Y80.08 F180000
G1 F2400
M204 S1000
G1 F2399.679
G1 X75.138 Y78.217 E.14488
G1 X75.984 Y77.9 E0.03553
G1 X76.905 Y77.745 E.03674
G1 X103.234 Y77.753 E1.03564
G1 X104.749 Y78.16 E.06171
G1 X108.162 Y80.17 E.15581
G1 X108.753 Y80.736 E0.03217
G1 F2395.602
G1 X109.212 Y81.375 E.03098
G1 X109.564 Y82.138 E0.03302
G1 F2397.239
G1 X109.776 Y82.946 E.03288
G1 F2399.944
G1 X109.788 Y87.602 Z.24 E.18312
G1 X109.799 Y92.257 Z.24 E.18312
G1 X109.811 Y96.912 Z.24 E.18312
G1 X109.823 Y101.568 Z.24 E.18312
G1 X109.666 Y102.567 E0.03977
G1 X109.292 Y103.488 E.0391
G1 X108.581 Y104.432 E.04649
G1 X108.036 Y104.923 E.02886
G1 X104.858 Y106.784 E.14487
G1 X103.982 Y107.11 E0.03675
G1 F2398.111
G1 X103.055 Y107.257 E.03694
G1 X76.976 Y107.258 E1.02579
G1 F2397.654
G1 X76.019 Y107.107 E.03814
G1 X75.096 Y106.764 E0.03872
G1 F2399.723
G1 X72.129 Y105.044 E.13489
G1 F2398.232
G1 X71.127 Y104.12 E.05364
G1 X70.473 Y102.989 E0.05137
G1 F2397.981
G1 X70.265 Y102.27 E.02946
G1 X70.175 Y101.518 E0.02979
G1 F2399.994
G1 X70.177 Y96.974 Z.24 E.17874
G1 X70.179 Y92.43 Z.24 E.17874
G1 X70.181 Y87.885 Z.24 E.17874
G1 F2400
G1 X70.183 Y83.341 Z.24 E.17874
G1 F2399.532
G1 X70.352 Y82.372 E.0387
G1 X70.775 Y81.402 E0.04163
G1 F2397.679
G1 X71.277 Y80.701 E.03393
G1 X71.917 Y80.12 E0.03396
M204 S1500
G1 X72.231 Y80.413 F180000
G1 F2400
M204 S1000
G1 F2397.396
G1 X75.307 Y78.611 E.14024
G1 X76.077 Y78.318 E0.03238
G1 X76.923 Y78.174 E.03378
G1 F2399.98
G1 X81.303 Y78.175 Z.24 E.17231
G1 X85.684 Y78.176 Z.24 E.17231
G1 X90.064 Y78.178 Z.24 E.17231
G1 X94.445 Y78.179 Z.24 E.1723
G1 X98.826 Y78.18 Z.24 E.17231
G1 X103.206 Y78.181 Z.24 E.17231
G1 X104.557 Y78.544 E0.05502
G1 X107.885 Y80.498 E.15181
G1 X108.417 Y81.002 E.02883
G1 X108.852 Y81.608 E.02935
G1 X109.166 Y82.298 E0.02981
G1 F2398.276
G1 X109.354 Y83.027 E.02963
G1 X109.397 Y101.52 E0.7274
G1 X109.259 Y102.429 E.03618
G1 X108.906 Y103.301 E0.03698
G1 F2399.144
G1 X108.253 Y104.156 E.04232
G1 F2398.628
G1 X107.767 Y104.589 E.02562
G1 F2399.804
G1 X104.69 Y106.389 E.14024
G1 X103.893 Y106.69 E.03351
G1 X103.038 Y106.829 E0.03407
G1 X98.697 Y106.829 Z.24 E.17074
G1 X94.356 Y106.829 Z.24 E.17074
G1 X90.016 Y106.829 Z.24 E.17074
G1 X85.675 Y106.83 Z.24 E.17074
G1 X81.334 Y106.83 Z.24 E.17074
G1 F2400
G1 X76.993 Y106.83 Z.24 E.17074
G1 F2399.813
G1 X76.147 Y106.697 E.03369
G1 X75.295 Y106.384 E.03571
G1 X72.365 Y104.685 E0.13322
G1 X71.442 Y103.828 E.04955
G1 X70.878 Y102.845 E0.04456
G1 F2398.545
G1 X70.682 Y102.167 E.02777
G1 X70.603 Y101.505 E0.02622
G1 F2399.621
G1 X70.605 Y96.969 Z.24 E.17844
G1 X70.607 Y92.432 Z.24 E.17843
G1 X70.61 Y87.896 Z.24 E.17844
G1 X70.612 Y83.36 Z.24 E.17844
G1 X70.769 Y82.472 E0.03547
G1 F2397.789
G1 X71.157 Y81.596 E.03771
G1 X71.611 Y80.971 E0.03037
G1 F2398.92
G1 X72.187 Y80.454 E.03045
M204 S1500
G1 X72.5 Y80.748 F180000
G1 F2400
M204 S1000
G1 X75.508 Y78.99 E0.13704
G1 F2397.436
G1 X76.208 Y78.727 E.02944
G1 X76.941 Y78.602 E0.02924
G1 F2399.357
G1 X81.314 Y78.603 Z.24 E.172
G1 X85.687 Y78.605 Z.24 E.172
G1 X90.06 Y78.606 Z.24 E.172
G1 X94.432 Y78.607 Z.24 E.172
G1 X98.805 Y78.609 Z.24 E.172
G1 F2400
G1 X103.178 Y78.61 Z.24 E.172
G1 F2398.877
G1 X104.365 Y78.928 E.04836
G1 F2399.027
G1 X107.609 Y80.827 E.14787
G1 X108.082 Y81.271 E0.0255
G1 F2397.67
G1 X108.471 Y81.805 E.026
G1 X108.768 Y82.458 E0.02821
G1 F2399.662
G1 X108.932 Y83.107 E.02633
G1 X108.941 Y87.706 Z.24 E.18092
G1 X108.95 Y92.305 Z.24 E.18091
G1 X108.959 Y96.905 Z.24 E.18091
G1 F2398.685
G1 X108.968 Y101.504 Z.24 E.18092
G1 X108.84 Y102.339 E0.03321
G1 F2399.956
G1 X108.521 Y103.111 E.03284
G1 F2396.024
G1 X107.927 Y103.877 E.03816
G1 X107.499 Y104.254 E0.02241
G1 F2398.646
G1 X104.52 Y105.996 E.13574
G1 F2399.999
G1 X103.801 Y106.271 E.03028
G1 F2398.905
G1 X103.02 Y106.4 E.03115
G1 X77.009 Y106.401 E1.02313
G1 F2397.388
G1 X76.274 Y106.287 E.02928
G1 X75.493 Y106.003 E0.03267
G1 F2398.063
G1 X72.601 Y104.327 E.13151
G1 X71.758 Y103.537 E0.04542
G1 F2396.703
G1 X71.282 Y102.701 E.03786
G1 X71.105 Y102.098 E0.02469
G1 F2398.585
G1 X71.032 Y101.492 E.02401
G1 F2399.865
G1 X71.034 Y96.964 Z.24 E.17812
G1 X71.036 Y92.436 Z.24 E.17812
G1 X71.038 Y87.908 Z.24 E.17812
G1 X71.04 Y83.38 Z.24 E.17812
G1 F2398.809
G1 X71.186 Y82.575 E.03218
G1 X71.539 Y81.792 E0.03375
G1 F2397.477
G1 X71.943 Y81.243 E.02683
G1 F2399.49
G1 X72.455 Y80.788 E.02695
M204 S1500
G1 X72.767 Y81.084 F180000
G1 F2400
M204 S1000
G1 X75.708 Y79.369 E0.1339
G1 F2399.932
G1 X76.339 Y79.135 E.02647
G1 F2397.836
G1 X76.959 Y79.031 E.02475
G1 X103.15 Y79.038 E1.0302
G1 F2398.567
G1 X104.174 Y79.312 E.04172
G1 X107.335 Y81.158 E0.14398
G1 F2396.389
G1 X107.749 Y81.541 E.02221
G1 X108.09 Y82.003 E0.02257
G1 F2398.039
G1 X108.37 Y82.617 E.02655
G1 X108.51 Y83.185 E0.023
G1 F2399.09
G1 X108.518 Y87.761 Z.24 E.17999
G1 X108.525 Y92.337 Z.24 E.17999
G1 X108.533 Y96.913 Z.24 E.18
G1 F2400
G1 X108.54 Y101.489 Z.24 E.17999
G1 F2397.71
G1 X108.433 Y102.199 E.02826
G1 X108.136 Y102.92 E0.03065
G1 F2396.66
G1 X107.603 Y103.596 E.03389
G1 X107.233 Y103.917 E0.01926
G1 F2399.072
G1 X104.32 Y105.616 E.13267
G1 X103.67 Y105.863 E.02735
G1 X103.003 Y105.972 E0.02657
G1 F2398.582
G1 X98.674 Y105.972 Z.24 E.1703
G1 X94.344 Y105.972 Z.24 E.1703
G1 X90.014 Y105.973 Z.24 E.1703
G1 X85.685 Y105.973 Z.24 E.1703
G1 X81.355 Y105.973 Z.24 E.1703
G1 X77.026 Y105.973 Z.24 E.1703
G1 X76.399 Y105.877 E0.02493
G1 F2397.422
G1 X75.692 Y105.623 E.02957
G1 F2399.322
G1 X72.837 Y103.969 E.12978
G1 X72.076 Y103.248 E0.04121
G1 X71.685 Y102.555 E.03129
G1 F2397.878
G1 X71.528 Y102.028 E.02164
G1 X71.46 Y101.479 E0.02175
G1 F2398.97
G1 X71.462 Y96.959 Z.24 E.1778
G1 F2399.264
G1 X71.465 Y92.439 Z.24 E.17779
G1 X71.467 Y87.919 Z.24 E.1778
G1 F2400
G1 X71.469 Y83.399 Z.24 E.1778
G1 F2398.406
G1 X71.603 Y82.679 E.02883
G1 F2399.659
G1 X71.919 Y81.992 E.02975
G1 X72.273 Y81.517 E.0233
G1 X72.722 Y81.123 E0.02349
M204 S1500
G1 X73.032 Y81.421 F180000
G1 F2400
M204 S1000
G1 F2399.802
G1 X75.907 Y79.749 E.13081
G1 F2397.972
G1 X76.467 Y79.545 E.02346
G1 X76.977 Y79.459 E0.02034
G1 F2399.522
G1 X81.334 Y79.46 Z.24 E.1714
G1 X85.692 Y79.462 Z.24 E.1714
G1 X90.049 Y79.463 Z.24 E.1714
G1 X94.406 Y79.464 Z.24 E.1714
G1 X98.764 Y79.466 Z.24 E.1714
G1 X103.121 Y79.467 Z.24 E.1714
G1 X103.983 Y79.697 E0.03509
G1 X107.061 Y81.488 E.14008
G1 F2398.63
G1 X107.443 Y81.841 E.02046
G1 X107.731 Y82.237 E0.01924
G1 F2395.413
G1 X107.97 Y82.774 E.02314
G1 X108.088 Y83.261 E0.01969
G1 F2397.752
G1 X108.094 Y87.814 Z.24 E.17909
G1 F2398.395
G1 X108.1 Y92.367 Z.24 E.17909
G1 F2399.037
G1 X108.105 Y96.92 Z.24 E.1791
G1 F2400
G1 X108.111 Y101.473 Z.24 E.17909
G1 F2399.878
G1 X108.014 Y102.108 E.02527
G1 X107.753 Y102.725 E.02636
G1 X107.281 Y103.312 E0.02962
G1 X106.969 Y103.579 E.01615
G1 F2398.806
G1 X104.12 Y105.237 E.12967
G1 X103.539 Y105.454 E0.02438
G1 F2396.15
G1 X102.986 Y105.543 E.02206
G1 F2399.863
G1 X98.662 Y105.543 Z.24 E.17009
G1 X94.338 Y105.543 Z.24 E.17008
G1 X90.014 Y105.544 Z.24 E.17008
G1 X85.69 Y105.544 Z.24 E.17009
G1 F2398.765
G1 X81.366 Y105.544 Z.24 E.17008
G1 X77.042 Y105.544 Z.24 E.17009
G1 X76.523 Y105.466 E0.02063
G1 F2399.618
G1 X75.889 Y105.242 E.02644
G1 X73.073 Y103.61 E.12802
G1 F2397.22
G1 X72.432 Y103.008 E.03461
G1 X72.088 Y102.407 E0.02721
G1 X71.951 Y101.956 E.01855
G1 F2399.884
G1 X71.889 Y101.466 E.01943
G1 X71.891 Y96.954 Z.24 E.17747
G1 X71.893 Y92.443 Z.24 E.17746
G1 X71.895 Y87.932 Z.24 E.17747
G1 X71.897 Y83.42 Z.24 E.17747
G1 X72.018 Y82.786 E.02538
G1 X72.297 Y82.194 E0.02572
G1 F2395.801
G1 X72.601 Y81.794 E.01978
G1 X72.987 Y81.46 E0.02006
M204 S1500
G1 X73.295 Y81.76 F180000
G1 F2400
M204 S1000
G1 F2397.211
G1 X76.105 Y80.13 E.1278
G1 X76.594 Y79.954 E0.02042
G1 F2399.115
G1 X76.995 Y79.888 E.01598
G1 F2398.978
G1 X81.345 Y79.889 Z.24 E.1711
G1 X85.694 Y79.89 Z.24 E.1711
G1 X90.044 Y79.891 Z.24 E.1711
G1 X94.394 Y79.893 Z.24 E.1711
G1 X98.743 Y79.894 Z.24 E.1711
G1 X103.093 Y79.895 Z.24 E.1711
G1 X103.793 Y80.082 E0.02848
G1 F2399.224
G1 X106.79 Y81.82 E.13627
G1 F2397.801
G1 X107.109 Y82.111 E.017
G1 F2398.239
G1 X107.37 Y82.47 E.01746
G1 X107.57 Y82.928 E0.01963
G1 X107.665 Y83.335 E.01644
G1 F2399.973
G1 X107.67 Y87.866 Z.24 E.17821
G1 X107.674 Y92.396 Z.24 E.17821
G1 X107.678 Y96.926 Z.24 E.17821
G1 F2400
G1 X107.683 Y101.457 Z.24 E.17821
G1 F2399.978
G1 X107.595 Y102.015 E.02222
G1 F2396.956
G1 X107.372 Y102.527 E.02199
G1 X106.963 Y103.025 E0.02534
G1 X106.708 Y103.239 E.01311
G1 F2399.576
G1 X103.921 Y104.857 E.12676
G1 X103.411 Y105.044 E0.02136
G1 F2398.011
G1 X102.969 Y105.115 E.01762
G1 F2399.872
G1 X98.65 Y105.115 Z.24 E.16987
G1 X94.332 Y105.115 Z.24 E.16987
G1 X90.013 Y105.115 Z.24 E.16987
G1 X85.694 Y105.116 Z.24 E.16987
G1 F2398.846
G1 X81.376 Y105.116 Z.24 E.16987
G1 X77.057 Y105.116 Z.24 E.16987
G1 X76.644 Y105.055 E0.01641
G1 F2399.522
G1 X76.086 Y104.861 E.02323
G1 F2398.807
G1 X73.309 Y103.252 E.12627
G1 X72.787 Y102.764 E0.0281
G1 F2397.749
G1 X72.49 Y102.257 E.02313
G1 F2398.468
G1 X72.373 Y101.883 E.01541
G1 X72.317 Y101.452 E0.01707
G1 F2396.862
G1 X72.319 Y96.949 Z.24 E.17712
G1 F2397.759
G1 X72.322 Y92.447 Z.24 E.17712
G1 F2398.655
G1 X72.324 Y87.944 Z.24 E.17712
G1 F2400
G1 X72.326 Y83.441 Z.24 E.17712
G1 F2399.088
G1 X72.433 Y82.896 E.02185
G1 X72.673 Y82.401 E0.02163
G1 X72.926 Y82.073 E.01629
G1 F2398.313
G1 X73.249 Y81.799 E.01667
M204 S1500
G1 X73.555 Y82.101 F180000
G1 F2400
M204 S1000
G1 F2399.084
G1 X76.302 Y80.511 E.12486
G1 X76.718 Y80.365 E0.01733
G1 F2397.91
G1 X77.012 Y80.316 E.01173
G1 F2399.855
G1 X81.354 Y80.317 Z.24 E.1708
G1 X85.696 Y80.319 Z.24 E.1708
G1 X90.038 Y80.32 Z.24 E.1708
G1 F2398.986
G1 X94.381 Y80.321 Z.24 E.1708
G1 X98.723 Y80.323 Z.24 E.1708
G1 X103.065 Y80.324 Z.24 E.1708
G1 X103.603 Y80.467 E0.02188
G1 F2396.988
G1 X106.521 Y82.154 E.13259
G1 X106.779 Y82.385 E0.0136
G1 F2394.248
G1 X106.987 Y82.664 E.01371
G1 F2399.989
G1 X107.169 Y83.08 E.01786
G1 F2398.323
G1 X107.242 Y83.405 E.01311
G1 F2399.936
G1 X107.245 Y87.914 Z.24 E.17736
G1 X107.248 Y92.423 Z.24 E.17736
G1 X107.251 Y96.932 Z.24 E.17736
G1 X107.254 Y101.441 Z.24 E.17736
G1 X107.191 Y101.87 E0.01705
G1 X106.992 Y102.328 E.01964
G1 X106.648 Y102.733 E.02091
G1 F2398.603
G1 X106.449 Y102.897 E.01015
G1 F2399.85
G1 X103.723 Y104.477 E.12393
G1 X103.285 Y104.634 E0.0183
G1 X102.952 Y104.686 E.01326
G1 X77.072 Y104.687 E1.01797
G1 F2397.926
G1 X76.763 Y104.643 E.01229
G1 F2399.284
G1 X76.283 Y104.48 E.01995
G1 X73.544 Y102.893 E.12451
G1 X73.139 Y102.518 E0.0217
G1 F2398.595
G1 X72.891 Y102.102 E.01906
G1 F2395.333
G1 X72.795 Y101.807 E.01222
G1 X72.746 Y101.438 E0.01462
G1 F2397.011
G1 X72.748 Y96.944 Z.24 E.17677
G1 X72.75 Y92.451 Z.24 E.17677
G1 F2398.544
G1 X72.752 Y87.957 Z.24 E.17677
G1 F2399.693
G1 X72.754 Y83.463 Z.24 E.17677
G1 F2398.449
G1 X72.847 Y83.01 E.01819
G1 F2399.553
G1 X73.046 Y82.612 E.01748
G1 X73.249 Y82.356 E0.01283
G1 F2394.279
G1 X73.509 Y82.139 E.01334
M204 S1500
G1 X73.812 Y82.444 F180000
G1 F2400
M204 S1000
G1 F2396.977
G1 X76.498 Y80.892 E.12202
G1 X76.84 Y80.776 E0.01417
G1 F2393.112
G1 X77.03 Y80.745 E.00758
G1 F2396.709
G1 X81.365 Y80.746 Z.24 E.1705
G1 F2397.307
G1 X85.699 Y80.747 Z.24 E.1705
G1 X90.034 Y80.749 Z.24 E.1705
G1 F2398.504
G1 X94.368 Y80.75 Z.24 E.1705
G1 F2399.103
G1 X98.702 Y80.751 Z.24 E.1705
G1 F2400
G1 X103.037 Y80.752 Z.24 E.1705
G1 F2398.994
G1 X103.413 Y80.852 E.01531
G1 X106.252 Y82.489 E0.12887
G1 F2395.701
G1 X106.476 Y82.689 E.01183
G1 X106.626 Y82.896 E0.01005
G1 F2399.639
G1 X106.766 Y83.228 E.01417
G1 F2395.733
G1 X106.818 Y83.472 E.00983
G1 F2399.767
G1 X106.82 Y87.96 Z.24 E.17654
G1 X106.822 Y92.449 Z.24 E.17654
G1 F2398.833
G1 X106.824 Y96.937 Z.24 E.17654
G1 X106.826 Y101.425 Z.24 E.17654
G1 F2392.645
G1 X106.772 Y101.775 E.01395
G1 X106.614 Y102.122 E0.01496
G1 F2393.99
G1 X106.338 Y102.437 E.01649
G1 X106.194 Y102.553 E.00729
G1 X103.525 Y104.096 E0.12123
G1 F2396.749
G1 X103.162 Y104.224 E.01516
G1 F2399.823
G1 X102.936 Y104.258 E.00899
G1 X77.087 Y104.259 E1.01676
G1 F2397.973
G1 X76.879 Y104.23 E.00827
G1 F2399.142
G1 X76.479 Y104.098 E.01658
G1 X73.779 Y102.533 E.12274
G1 X73.488 Y102.269 E.01545
G1 X73.289 Y101.943 E0.01501
G1 F2398.01
G1 X73.217 Y101.727 E.00896
G1 F2399.45
G1 X73.174 Y101.423 E.01208
G1 X73.176 Y96.938 Z.24 E.17641
G1 X73.178 Y92.453 Z.24 E.17641
G1 X73.181 Y87.969 Z.24 E.17641
G1 X73.183 Y83.484 Z.24 E.17641
G1 X73.244 Y83.176 E.01235
G1 X73.419 Y82.825 E0.01542
G1 F2398.78
G1 X73.567 Y82.644 E.0092
