; generated by SuperSlicer 2.5.59.9 on 2024-05-11 at 23:31:58 UTC


;
;

;
;

;
;

;
;

;
;
; 

; external perimeters extrusion width = 0.44mm
; perimeters extrusion width = 0.48mm
; infill extrusion width = 0.45mm
; solid infill extrusion width = 0.45mm
; top infill extrusion width = 0.42mm

; object:{"name":"Z-Axis Stepper Odds and Ends_Z-Axis Stepper Thrust Bearing Shim__Main_2024-05-11 19-26-28","id":"Z-Axis Stepper Odds and Ends_Z-Axis Stepper Thrust Bearing Shim__Main_2024-05-11 19-26-28.stl id:0 copy 0","object_center":[83.588898,114.960778,0.000000],"boundingbox_center":[83.588898,114.960778,1.500000],"boundingbox_size":[21.500000,21.500000,3.000000]}
EXCLUDE_OBJECT_DEFINE NAME=Z_Axis_Stepper_Odds_and_Ends_Z_Axis_Stepper_Thrust_Bearing_Shim__Main_2024_05_11_19_26_28_stl_id_0_copy_0 CENTER=83.588898,114.960778 POLYGON=[[72.84,114.96],[72.85,114.49],[72.88,114.02],[72.93,113.56],[73.00,113.09],[73.09,112.63],[73.21,112.18],[73.34,111.73],[73.49,111.28],[73.66,110.85],[73.85,110.42],[74.05,110.00],[74.28,109.59],[74.52,109.18],[74.78,108.79],[75.06,108.42],[75.35,108.05],[75.66,107.70],[75.99,107.36],[76.33,107.04],[76.68,106.73],[77.04,106.43],[77.42,106.15],[77.81,105.89],[78.21,105.65],[78.63,105.43],[79.05,105.22],[79.48,105.03],[79.91,104.86],[80.36,104.71],[80.81,104.58],[81.26,104.47],[81.72,104.37],[82.19,104.30],[82.65,104.25],[83.12,104.22],[83.59,104.21],[84.06,104.22],[84.53,104.25],[84.99,104.30],[85.46,104.37],[85.92,104.47],[86.37,104.58],[86.82,104.71],[87.27,104.86],[87.70,105.03],[88.13,105.22],[88.55,105.43],[88.96,105.65],[89.36,105.89],[89.75,106.15],[90.13,106.43],[90.50,106.73],[90.85,107.04],[91.19,107.36],[91.51,107.70],[91.82,108.05],[92.12,108.42],[92.39,108.79],[92.66,109.18],[92.90,109.59],[93.12,110.00],[93.33,110.42],[93.52,110.85],[93.69,111.28],[93.84,111.73],[93.97,112.18],[94.08,112.63],[94.18,113.09],[94.25,113.56],[94.30,114.02],[94.33,114.49],[94.34,114.96],[94.33,115.43],[94.30,115.90],[94.25,116.36],[94.18,116.83],[94.08,117.29],[93.97,117.74],[93.84,118.19],[93.69,118.64],[93.52,119.07],[93.33,119.50],[93.12,119.92],[92.90,120.34],[92.66,120.74],[92.39,121.13],[92.12,121.50],[91.82,121.87],[91.51,122.22],[91.19,122.56],[90.85,122.89],[90.50,123.20],[90.13,123.49],[89.75,123.77],[89.36,124.03],[88.96,124.27],[88.55,124.50],[88.13,124.70],[87.70,124.89],[87.27,125.06],[86.82,125.21],[86.37,125.34],[85.92,125.46],[85.46,125.55],[84.99,125.62],[84.53,125.67],[84.06,125.70],[83.59,125.71],[83.12,125.70],[82.65,125.67],[82.19,125.62],[81.72,125.55],[81.26,125.46],[80.81,125.34],[80.36,125.21],[79.91,125.06],[79.48,124.89],[79.05,124.70],[78.63,124.50],[78.21,124.27],[77.81,124.03],[77.42,123.77],[77.04,123.49],[76.68,123.20],[76.33,122.89],[75.99,122.56],[75.66,122.22],[75.35,121.87],[75.06,121.50],[74.78,121.13],[74.52,120.74],[74.28,120.34],[74.05,119.92],[73.85,119.50],[73.66,119.07],[73.49,118.64],[73.34,118.19],[73.21,117.74],[73.09,117.29],[73.00,116.83],[72.93,116.36],[72.88,115.90],[72.85,115.43],[72.84,114.96]]
; plater:{"center":[83.588898,114.960778,0.000000],"boundingbox_center":[83.588898,114.960778,1.500000],"boundingbox_size":[21.500000,21.500000,3.000000]}

M73 P0 R2
M107
;TYPE:Custom
CALCULATE_PA MATERIAL=ASA BOWDEN_LENGTH=6 LAYER_HEIGHT=0.25 NOZZLE_SIZE=0.4 PRINT_SPEED=95


START_PRINT EXTRUDER=275 BED=105

G21 ; set units to millimeters
G90 ; use absolute coordinates
M83 ; use relative distances for extrusion
ACTIVATE_EXTRUDER EXTRUDER=extruder
; Filament gcode
M104 S275 T0 ; set temperature
M109 S275 T0 ; set temperature and wait for it to be reached
M190 S105 ; set bed temperature and wait for it to be reached
;LAYER_CHANGE
;Z:0.24
;HEIGHT:0.24
;BEFORE_LAYER_CHANGE
G92 E0.0

G1 E-0.4 F4800
M73 P12 R2
G1 Z0.24 F3600000
;AFTER_LAYER_CHANGE
;0.24




CALCULATE_PA MATERIAL=ASA BOWDEN_LENGTH=6.0 LAYER_HEIGHT=0.2 NOZZLE_SIZE=0.4 PRINT_SPEED=95


G92 E0
G1 Z0.4
; printing object Z-Axis Stepper Odds and Ends_Z-Axis Stepper Thrust Bearing Shim__Main_2024-05-11 19-26-28.stl id:0 copy 0
EXCLUDE_OBJECT_START NAME=Z_Axis_Stepper_Odds_and_Ends_Z_Axis_Stepper_Thrust_Bearing_Shim__Main_2024_05_11_19_26_28_stl_id_0_copy_0
G1 X74.96856 Y108.95688
G1 Z0.24
G1 E0.4 F4800
;TYPE:External perimeter
;WIDTH:0.451504
M107
G1 F3000
G1 X74.49025 Y109.70768 E0.03553
G1 X74.06804 Y110.51872 E0.03649
G1 X73.56841 Y111.80335 E0.05501
G1 X73.33171 Y112.68683 E0.03651
G1 X73.17253 Y113.58946 E0.03658
G1 X73.09265 Y114.50251 E0.03658
G1 X73.09265 Y115.41904 E0.03658
G1 X73.17253 Y116.3321 E0.03658
G1 X73.33133 Y117.23257 E0.03649
G1 X73.71636 Y118.55378 E0.05493
G1 X74.27073 Y119.81367 E0.05494
G1 X74.72804 Y120.60575 E0.0365
G1 X75.25377 Y121.35657 E0.03658
G1 X75.84151 Y122.05701 E0.03649
G1 X76.83714 Y123.01016 E0.05501
G1 X77.56278 Y123.56697 E0.03651
G1 X78.3358 Y124.05943 E0.03658
G1 X79.14684 Y124.48163 E0.03649
G1 X80.43147 Y124.98127 E0.05501
G1 X81.31495 Y125.21797 E0.03651
G1 X82.21758 Y125.37715 E0.03658
G1 X83.13063 Y125.45703 E0.03658
G1 X84.04716 Y125.45703 E0.03658
G1 X84.96022 Y125.37715 E0.03658
G1 X85.86069 Y125.21835 E0.03649
G1 X87.1819 Y124.83331 E0.05493
G1 X88.44179 Y124.27894 E0.05494
G1 X89.23387 Y123.82164 E0.0365
G1 X89.98469 Y123.2959 E0.03658
G1 X90.68513 Y122.70817 E0.03649
G1 X91.63828 Y121.71254 E0.05501
G1 X92.19509 Y120.9869 E0.03651
G1 X92.68755 Y120.21388 E0.03658
G1 X93.10976 Y119.40284 E0.03649
G1 X93.60939 Y118.1182 E0.05501
G1 X93.84609 Y117.23472 E0.03651
G1 X94.00527 Y116.3321 E0.03658
G1 X94.08515 Y115.41904 E0.03658
G1 X94.08515 Y114.50251 E0.03658
G1 X94.00527 Y113.58946 E0.03658
G1 X93.84647 Y112.68898 E0.03649
G1 X93.46143 Y111.36777 E0.05493
G1 X92.90706 Y110.10789 E0.05494
M73 P13 R2
G1 X92.44976 Y109.3158 E0.0365
G1 X91.92402 Y108.56498 E0.03658
G1 X91.33488 Y107.86287 E0.03658
G1 X90.68835 Y107.21634 E0.03649
G1 X89.6134 Y106.35356 E0.05501
G1 X88.842 Y105.86213 E0.03651
G1 X88.03096 Y105.43992 E0.03649
G1 X86.74632 Y104.94029 E0.05501
G1 X85.86284 Y104.70359 E0.03651
G1 X84.96022 Y104.54441 E0.03658
G1 X84.04716 Y104.46453 E0.03658
G1 X83.13063 Y104.46453 E0.03658
G1 X82.21758 Y104.54441 E0.03658
G1 X81.3171 Y104.70321 E0.03649
G1 X79.99589 Y105.08824 E0.05493
G1 X78.73601 Y105.64261 E0.05494
G1 X77.94393 Y106.09992 E0.0365
G1 X77.1931 Y106.62565 E0.03658
G1 X76.49099 Y107.21479 E0.03658
G1 X75.84446 Y107.86133 E0.03649
G1 X75.00395 Y108.90853 E0.05359
M107
;WIPE_START
G1 X75.14046 Y109.31805 F3600000
;WIPE_END
G1 X75.32358 Y109.18128
;TYPE:Internal perimeter
;WIDTH:0.491503
M106 S2.55
G1 F3000
G1 X74.85433 Y109.91788 E0.03834
G1 X74.45117 Y110.69232 E0.03833
G1 X73.96816 Y111.93421 E0.0585
G1 X73.74214 Y112.77782 E0.03834
G1 X73.58933 Y113.64434 E0.03863
G1 X73.51265 Y114.52085 E0.03863
G1 X73.51265 Y115.40071 E0.03863
G1 X73.58933 Y116.27722 E0.03863
G1 X73.74096 Y117.13706 E0.03833
G1 X74.11188 Y118.40983 E0.0582
G1 X74.64593 Y119.62353 E0.05822
G1 X75.0826 Y120.37987 E0.03834
G1 X75.5873 Y121.10065 E0.03863
G1 X76.14851 Y121.76948 E0.03833
G1 X77.11101 Y122.69091 E0.0585
G1 X77.80391 Y123.2226 E0.03834
G1 X78.546 Y123.69535 E0.03863
G1 X79.32044 Y124.09851 E0.03833
G1 X80.56233 Y124.58151 E0.0585
G1 X81.40594 Y124.80754 E0.03834
G1 X82.27246 Y124.96034 E0.03863
G1 X83.14897 Y125.03703 E0.03863
G1 X84.02883 Y125.03703 E0.03863
G1 X84.90534 Y124.96034 E0.03863
G1 X85.76518 Y124.80871 E0.03833
G1 X87.03795 Y124.43779 E0.0582
G1 X88.25165 Y123.90375 E0.05822
G1 X89.00799 Y123.46707 E0.03834
G1 X89.72877 Y122.96238 E0.03863
G1 X90.3976 Y122.40116 E0.03833
G1 X91.31903 Y121.43867 E0.0585
G1 X91.85072 Y120.74577 E0.03834
G1 X92.32347 Y120.00368 E0.03863
G1 X92.72663 Y119.22923 E0.03833
G1 X93.20963 Y117.98735 E0.0585
G1 X93.43565 Y117.14373 E0.03834
G1 X93.58846 Y116.27722 E0.03863
G1 X93.66515 Y115.40071 E0.03863
G1 X93.66515 Y114.52085 E0.03863
G1 X93.58846 Y113.64434 E0.03863
G1 X93.43683 Y112.78449 E0.03833
G1 X93.06592 Y111.51172 E0.0582
G1 X92.53187 Y110.29803 E0.05822
G1 X92.0952 Y109.54168 E0.03834
G1 X91.5905 Y108.8209 E0.03863
G1 X91.02493 Y108.14689 E0.03863
G1 X90.40757 Y107.52953 E0.03833
G1 X89.36839 Y106.69546 E0.0585
G1 X88.6318 Y106.2262 E0.03834
G1 X87.85735 Y105.82305 E0.03833
G1 X86.61547 Y105.34004 E0.0585
G1 X85.77185 Y105.11402 E0.03834
G1 X84.90534 Y104.96121 E0.03863
G1 X84.02883 Y104.88453 E0.03863
G1 X83.14897 Y104.88453 E0.03863
G1 X82.27246 Y104.96121 E0.03863
G1 X81.41261 Y105.11284 E0.03833
G1 X80.13984 Y105.48376 E0.0582
G1 X78.92615 Y106.01781 E0.05822
G1 X78.1698 Y106.45448 E0.03834
M73 P14 R2
G1 X77.44903 Y106.95918 E0.03863
G1 X76.77501 Y107.52474 E0.03863
G1 X76.15765 Y108.1421 E0.03833
G1 X75.36114 Y109.13449 E0.05587
M107
G1 E-0.4 F4800
G1 X75.36988 Y109.1409 F3600000
G1 X80.37808 Y117.19686
G1 X80.69841 Y117.59597
G1 X80.95371 Y117.85126
G1 X81.33726 Y118.1591
G1 X81.65022 Y118.35848
G1 X82.25037 Y118.63833
G1 X82.89002 Y118.80972
G1 X83.25791 Y118.85816
G1 X83.74958 Y118.86888
G1 X84.10929 Y118.83741
G1 X84.61119 Y118.73759
G1 X85.24282 Y118.50769
G1 X85.82498 Y118.17159
G1 X85.86972 Y118.13568
G1 X85.59773 Y117.79679
G1 E0.4 F4800
;TYPE:External perimeter
;WIDTH:0.451504
M107
G1 F3000
G1 X85.09214 Y118.09314 E0.02339
G1 X84.50825 Y118.31283 E0.0249
G1 X83.96608 Y118.39988 E0.02192
G1 X83.51896 Y118.42037 E0.01786
G1 X83.00072 Y118.38579 E0.02073
G1 X82.43688 Y118.23864 E0.02326
G1 X81.87146 Y117.9824 E0.02478
G1 X81.2597 Y117.53966 E0.03014
G1 X80.75289 Y116.96961 E0.03044
G1 X80.45653 Y116.46402 E0.02339
G1 X80.23684 Y115.88013 E0.0249
G1 X80.1165 Y115.1181 E0.03079
G1 X80.16389 Y114.3726 E0.02981
G1 X80.31103 Y113.80876 E0.02326
G1 X80.56728 Y113.24334 E0.02478
G1 X81.01002 Y112.63158 E0.03014
G1 X81.58007 Y112.12476 E0.03044
G1 X82.08566 Y111.82841 E0.02339
G1 X82.66954 Y111.60872 E0.0249
G1 X83.21172 Y111.52167 E0.02192
G1 X83.65883 Y111.50118 E0.01786
G1 X84.17708 Y111.53577 E0.02073
G1 X84.74091 Y111.68291 E0.02326
G1 X85.30634 Y111.93916 E0.02478
G1 X85.91809 Y112.3819 E0.03014
G1 X86.42491 Y112.95194 E0.03044
G1 X86.72127 Y113.45754 E0.02339
G1 X86.94095 Y114.04142 E0.0249
G1 X87.028 Y114.5836 E0.02192
G1 X87.0485 Y115.03071 E0.01786
G1 X87.01391 Y115.54895 E0.02073
G1 X86.86676 Y116.11279 E0.02326
G1 X86.61052 Y116.67822 E0.02478
G1 X86.16778 Y117.28997 E0.03014
G1 X85.64257 Y117.75692 E0.02805
M107
;WIPE_START
G1 X85.62655 Y118.19575 F3600000
;WIPE_END
G1 X85.81075 Y118.15095
;TYPE:Internal perimeter
;WIDTH:0.491503
M106 S2.55
G1 F3000
G1 X85.30213 Y118.45688 E0.02606
G1 X84.65191 Y118.7075 E0.03059
G1 X84.02974 Y118.81503 E0.02772
G1 X83.6875 Y118.85256 E0.01512
G1 X82.97275 Y118.80485 E0.03145
G1 X82.32818 Y118.64433 E0.02916
G1 X81.69396 Y118.36305 E0.03046
G1 X81.01175 Y117.87866 E0.03673
G1 X80.43726 Y117.24671 E0.0375
G1 X80.0928 Y116.67401 E0.02934
G1 X79.84217 Y116.02379 E0.03059
G1 X79.6981 Y115.1547 E0.03868
G1 X79.74482 Y114.34463 E0.03562
G1 X79.90534 Y113.70006 E0.02916
G1 X80.18663 Y113.06584 E0.03046
G1 X80.67102 Y112.38363 E0.03673
G1 X81.30297 Y111.80914 E0.0375
G1 X81.87566 Y111.46468 E0.02934
G1 X82.52589 Y111.21405 E0.03059
G1 X83.14806 Y111.10653 E0.02772
G1 X83.4903 Y111.069 E0.01512
G1 X84.20504 Y111.1167 E0.03145
G1 X84.84961 Y111.27722 E0.02916
G1 X85.48383 Y111.55851 E0.03046
G1 X86.16604 Y112.0429 E0.03673
G1 X86.74053 Y112.67485 E0.0375
G1 X87.085 Y113.24754 E0.02934
G1 X87.33562 Y113.89777 E0.03059
G1 X87.44315 Y114.51994 E0.02772
G1 X87.48068 Y114.86218 E0.01512
G1 X87.43297 Y115.57692 E0.03145
G1 X87.27245 Y116.22149 E0.02916
G1 X86.99117 Y116.85571 E0.03046
G1 X86.50678 Y117.53792 E0.03673
G1 X85.86217 Y118.12003 E0.03813
M107
G1 E-0.4 F4800
G1 X85.87277 Y118.13323 F3600000
G1 X86.22409 Y117.85126
M73 P15 R2
G1 X86.47938 Y117.59597
G1 X86.78722 Y117.21242
G1 X86.9866 Y116.89946
G1 X87.26645 Y116.2993
G1 X87.43784 Y115.65965
G1 X87.48628 Y115.29176
G1 X87.497 Y114.8001
G1 X87.46553 Y114.44038
G1 X87.36571 Y113.93848
G1 X87.20372 Y113.49343
G1 X89.21396 Y106.61409
G1 X89.1465 Y106.71998
G1 E0.4 F4800
;TYPE:Solid infill
;WIDTH:0.436434
M106 S2.55
G1 F2400
G1 X90.85438 Y108.42786 E0.09314
G1 X91.34332 Y109.01056 E0.02933
G1 X91.83244 Y109.70908 E0.03288
G1 X92.18814 Y110.32518 E0.02743
G1 X88.23188 Y106.36892 E0.21576
G1 X87.7287 Y106.10698 E0.02188
G1 X87.20124 Y105.90183 E0.02182
G1 X92.65886 Y111.35945 E0.29764
G1 X92.7728 Y111.61841 E0.01091
G1 X92.94494 Y112.2091 E0.02373
G1 X86.31858 Y105.58273 E0.36138
G1 X85.56608 Y105.39379 E0.02992
G1 X93.15588 Y112.9836 E0.41392
G1 X93.27654 Y113.66781 E0.02679
G1 X84.88186 Y105.27313 E0.45782
M73 P16 R2
G1 X84.27042 Y105.22525 E0.02365
G1 X93.33225 Y114.28708 E0.4942
G1 X93.35389 Y114.87227 E0.02258
G1 X83.6774 Y105.19578 E0.52772
G1 X83.11776 Y105.1997 E0.02158
G1 X93.34997 Y115.43191 E0.55803
G1 X93.30464 Y115.95013 E0.02006
G1 X82.59955 Y105.24504 E0.58382
M73 P17 R2
G1 X82.09883 Y105.30789 E0.01946
G1 X93.24179 Y116.45084 E0.6077
G1 X93.1573 Y116.92991 E0.01876
G1 X81.61976 Y105.39237 E0.62922
G1 X81.17123 Y105.50739 E0.01786
G1 X93.04879 Y117.38496 E0.64776
G1 X92.92971 Y117.82943 E0.01774
G1 X80.73484 Y105.63457 E0.66507
M73 P18 R2
G1 X80.29846 Y105.76174 E0.01753
G1 X92.77721 Y118.24049 E0.68055
G1 X92.6194 Y118.64624 E0.01679
G1 X87.54779 Y113.57463 E0.27659
G1 X87.65014 Y113.8558 E0.01154
G1 X87.72126 Y114.31166 E0.01779
G1 X92.46159 Y119.05199 E0.25852
G1 X92.27286 Y119.42682 E0.01618
G1 X87.7837 Y114.93766 E0.24482
G1 X87.74849 Y115.466 E0.02042
G1 X92.07993 Y119.79744 E0.23622
G1 X91.86421 Y120.14528 E0.01578
G1 X87.66524 Y115.94631 E0.229
M73 P19 R2
G1 X87.54527 Y116.38989 E0.01772
G1 X91.6449 Y120.48953 E0.22358
G1 X91.40593 Y120.81412 E0.01554
G1 X87.36791 Y116.77609 E0.22022
G1 X87.17583 Y117.14757 E0.01613
G1 X91.16125 Y121.13299 E0.21735
G1 X90.89559 Y121.43088 E0.01539
G1 X86.93624 Y117.47154 E0.21593
G1 X86.69665 Y117.7955 E0.01554
G1 X90.61995 Y121.7188 E0.21396
G1 X90.34431 Y122.00672 E0.01537
G1 X86.39949 Y118.0619 E0.21514
G1 X86.09891 Y118.32488 E0.0154
G1 X90.05574 Y122.2817 E0.21579
G1 X89.74931 Y122.53883 E0.01543
G1 X85.75925 Y118.54878 E0.2176
G1 X85.40127 Y118.75435 E0.01592
G1 X89.43502 Y122.7881 E0.21999
G1 X89.10355 Y123.02019 E0.0156
G1 X84.99556 Y118.9122 E0.22404
M73 P20 R2
G1 X84.69388 Y119.02201 E0.01238
G1 X84.56234 Y119.04254 E0.00513
G1 X88.76675 Y123.24695 E0.22929
G1 X88.40947 Y123.45322 E0.01591
G1 X84.07485 Y119.1186 E0.2364
G1 X83.77025 Y119.16613 E0.01189
G1 X83.54372 Y119.15103 E0.00875
G1 X88.04661 Y123.65391 E0.24557
G1 X87.65525 Y123.82612 E0.01649
G1 X82.93992 Y119.11079 E0.25716
G1 X82.85474 Y119.10511 E0.00329
G1 X82.19123 Y118.92566 E0.02651
G1 X87.3939 Y124.12832 E0.28374
M107
G1 E-0.4 F4800
G1 X87.44598 Y124.25403 F3600000
G1 X74.24003 Y111.23793
G1 X79.61078 Y105.71766
G1 X79.71955 Y105.6726
G1 X79.77174 Y105.79858
G1 E0.4 F4800
M106 S2.55
G1 F2400
G1 X84.96257 Y110.98941 E0.28309
M73 P21 R2
G1 X84.32305 Y110.81644 E0.02555
G1 X84.21912 Y110.80952 E0.00402
G1 X79.51039 Y106.10079 E0.2568
G1 X79.11904 Y106.27299 E0.01649
G1 X83.61532 Y110.76927 E0.24521
G1 X83.40756 Y110.75543 E0.00803
G1 X83.08781 Y110.80532 E0.01248
G1 X78.75723 Y106.47474 E0.23618
G1 X78.39995 Y106.68101 E0.01591
G1 X82.60031 Y110.88138 E0.22907
G1 X82.48392 Y110.89954 E0.00454
G1 X82.1694 Y111.01402 E0.01291
G1 X78.06395 Y106.90857 E0.2239
G1 X77.73249 Y107.14067 E0.0156
G1 X81.76541 Y111.17359 E0.21994
G1 X81.40743 Y111.37916 E0.01592
G1 X77.41897 Y107.39071 E0.21752
G1 X77.11254 Y107.64784 E0.01543
G1 X81.06958 Y111.60487 E0.2158
G1 X80.76909 Y111.86794 E0.0154
G1 X76.82054 Y107.91939 E0.21534
M73 P22 R2
G1 X76.53876 Y108.20117 E0.01537
G1 X80.47308 Y112.13549 E0.21457
G1 X80.23379 Y112.45975 E0.01554
G1 X76.27152 Y108.49749 E0.21609
G1 X76.0206 Y108.81012 E0.01546
G1 X79.9945 Y112.78402 E0.21672
G1 X79.80426 Y113.15734 E0.01616
G1 X75.76967 Y109.12275 E0.22003
G1 X75.52608 Y109.44272 E0.01551
G1 X79.6288 Y113.54544 E0.22375
G1 X79.50883 Y113.98902 E0.01772
G1 X75.30677 Y109.78697 E0.22917
G1 X75.09187 Y110.13563 E0.01579
G1 X79.42821 Y114.47196 E0.23649
G1 X79.393 Y115.00031 E0.02042
G1 X74.89894 Y110.50625 E0.24509
G1 X74.7113 Y110.88217 E0.0162
