; generated by SuperSlicer 2.5.59.9 on 2024-05-08 at 22:49:36 UTC


;
;

;
;

;
;

;
;

;
;
; 

; external perimeters extrusion width = 0.42mm
; perimeters extrusion width = 0.45mm
; infill extrusion width = 0.45mm
; solid infill extrusion width = 0.45mm
; top infill extrusion width = 0.42mm

; object:{"name":"z-Axis Servo Shim_Shim_Main_2024-05-08 18-42-56","id":"z-Axis Servo Shim_Shim_Main_2024-05-08 18-42-56.stl id:0 copy 0","object_center":[87.500000,110.000000,0.000000],"boundingbox_center":[87.500000,110.000000,1.500000],"boundingbox_size":[21.500000,21.500000,3.000000]}
EXCLUDE_OBJECT_DEFINE NAME=z_Axis_Servo_Shim_Shim_Main_2024_05_08_18_42_56_stl_id_0_copy_0 CENTER=87.500000,110.000000 POLYGON=[[76.75,110.00],[76.76,109.53],[76.79,109.06],[76.84,108.60],[76.91,108.13],[77.00,107.67],[77.12,107.22],[77.25,106.77],[77.40,106.32],[77.57,105.89],[77.76,105.46],[77.96,105.04],[78.19,104.62],[78.43,104.22],[78.69,103.83],[78.97,103.46],[79.27,103.09],[79.57,102.74],[79.90,102.40],[80.24,102.07],[80.59,101.77],[80.96,101.47],[81.33,101.19],[81.72,100.93],[82.12,100.69],[82.54,100.46],[82.96,100.26],[83.39,100.07],[83.82,99.90],[84.27,99.75],[84.72,99.62],[85.17,99.50],[85.63,99.41],[86.10,99.34],[86.56,99.29],[87.03,99.26],[87.50,99.25],[87.97,99.26],[88.44,99.29],[88.90,99.34],[89.37,99.41],[89.83,99.50],[90.28,99.62],[90.73,99.75],[91.18,99.90],[91.61,100.07],[92.04,100.26],[92.46,100.46],[92.88,100.69],[93.28,100.93],[93.67,101.19],[94.04,101.47],[94.41,101.77],[94.76,102.07],[95.10,102.40],[95.43,102.74],[95.73,103.09],[96.03,103.46],[96.31,103.83],[96.57,104.22],[96.81,104.62],[97.04,105.04],[97.24,105.46],[97.43,105.89],[97.60,106.32],[97.75,106.77],[97.88,107.22],[98.00,107.67],[98.09,108.13],[98.16,108.60],[98.21,109.06],[98.24,109.53],[98.25,110.00],[98.24,110.47],[98.21,110.94],[98.16,111.40],[98.09,111.87],[98.00,112.33],[97.88,112.78],[97.75,113.23],[97.60,113.68],[97.43,114.11],[97.24,114.54],[97.04,114.96],[96.81,115.38],[96.57,115.78],[96.31,116.17],[96.03,116.54],[95.73,116.91],[95.43,117.26],[95.10,117.60],[94.76,117.93],[94.41,118.23],[94.04,118.53],[93.67,118.81],[93.28,119.07],[92.88,119.31],[92.46,119.54],[92.04,119.74],[91.61,119.93],[91.18,120.10],[90.73,120.25],[90.28,120.38],[89.83,120.50],[89.37,120.59],[88.90,120.66],[88.44,120.71],[87.97,120.74],[87.50,120.75],[87.03,120.74],[86.56,120.71],[86.10,120.66],[85.63,120.59],[85.17,120.50],[84.72,120.38],[84.27,120.25],[83.82,120.10],[83.39,119.93],[82.96,119.74],[82.54,119.54],[82.12,119.31],[81.72,119.07],[81.33,118.81],[80.96,118.53],[80.59,118.23],[80.24,117.93],[79.90,117.60],[79.57,117.26],[79.27,116.91],[78.97,116.54],[78.69,116.17],[78.43,115.78],[78.19,115.38],[77.96,114.96],[77.76,114.54],[77.57,114.11],[77.40,113.68],[77.25,113.23],[77.12,112.78],[77.00,112.33],[76.91,111.87],[76.84,111.40],[76.79,110.94],[76.76,110.47],[76.75,110.00]]
; plater:{"center":[87.500000,110.000000,0.000000],"boundingbox_center":[87.500000,110.000000,1.500000],"boundingbox_size":[21.500000,21.500000,3.000000]}

M73 P0 R2
M107
;TYPE:Custom
CALCULATE_PA MATERIAL=ASA BOWDEN_LENGTH=6 LAYER_HEIGHT=0.25 NOZZLE_SIZE=0.4 PRINT_SPEED=95


START_PRINT EXTRUDER=260 BED=105

G21 ; set units to millimeters
G90 ; use absolute coordinates
M83 ; use relative distances for extrusion
ACTIVATE_EXTRUDER EXTRUDER=extruder
; Filament gcode
M104 S260 T0 ; set temperature
M109 S260 T0 ; set temperature and wait for it to be reached
M190 S105 ; set bed temperature and wait for it to be reached
;LAYER_CHANGE
;Z:0.24
;HEIGHT:0.24
;BEFORE_LAYER_CHANGE
G92 E0.0

G1 E-0.4 F3000
M73 P16 R1
G1 Z0.24 F3600000
;AFTER_LAYER_CHANGE
;0.24




CALCULATE_PA MATERIAL=ASA BOWDEN_LENGTH=6.0 LAYER_HEIGHT=0.2 NOZZLE_SIZE=0.4 PRINT_SPEED=95


G92 E0
G1 Z0.4
G1 X78.15126 Y97.75231
M73 P17 R1
G1 Z0.24
G1 E0.4 F3000
;TYPE:Skirt
;WIDTH:0.45
;HEIGHT:0.25
M107
G1 X79.29243 Y96.95973 E0.05724
G1 X80.42141 Y96.31364 E0.05359
G1 X81.10735 Y95.98149 E0.0314
G1 X82.18443 Y95.53788 E0.04799
G1 X83.53979 Y95.10947 E0.05856
G1 X84.90892 Y94.81124 E0.05773
G1 X86.23656 Y94.64365 E0.05513
G1 X87.39496 Y94.59297 E0.04777
G1 X88.15868 Y94.60564 E0.03147
G1 X89.52106 Y94.72499 E0.05634
G1 X90.86632 Y94.96363 E0.05628
G1 X91.60886 Y95.1506 E0.03154
G1 X92.67057 Y95.48523 E0.04586
G1 X94.02667 Y96.04264 E0.0604
G1 X95.23068 Y96.67155 E0.05596
G1 X96.37074 Y97.40107 E0.05576
G1 X96.97886 Y97.85346 E0.03122
G1 X97.83132 Y98.56861 E0.04584
G1 X98.85864 Y99.58911 E0.05965
G1 X99.75549 Y100.66116 E0.05758
G1 X100.5514 Y101.81009 E0.05758
G1 X101.18669 Y102.92208 E0.05276
G1 X101.51851 Y103.60735 E0.03137
G1 X101.96212 Y104.68443 E0.04799
G1 X102.39053 Y106.03978 E0.05856
G1 X102.68875 Y107.40886 E0.05772
G1 X102.85628 Y108.7356 E0.05509
G1 X102.90704 Y109.88733 E0.04749
G1 X102.89437 Y110.65878 E0.03178
G1 X102.76756 Y112.07625 E0.05863
G1 X102.57097 Y113.20117 E0.04704
G1 X102.38805 Y113.97061 E0.03258
G1 X101.99042 Y115.2377 E0.05471
G1 X101.47532 Y116.48859 E0.05573
M73 P18 R1
G1 X100.83357 Y117.72143 E0.05726
G1 X100.07828 Y118.89905 E0.05763
G1 X99.25296 Y119.96407 E0.05551
G1 X98.47405 Y120.81479 E0.04752
G1 X97.91986 Y121.35107 E0.03177
G1 X96.84955 Y122.24708 E0.0575
G1 X95.71823 Y123.03334 E0.05676
G1 X94.59822 Y123.67606 E0.0532
G1 X93.88696 Y124.02099 E0.03256
G1 X92.82277 Y124.4597 E0.04742
G1 X91.46995 Y124.88773 E0.05845
G1 X90.10185 Y125.18673 E0.05769
G1 X88.76493 Y125.35625 E0.05552
G1 X87.61267 Y125.40704 E0.04751
G1 X86.84121 Y125.39437 E0.03178
G1 X85.42376 Y125.26756 E0.05863
G1 X84.29883 Y125.07097 E0.04704
G1 X83.52895 Y124.88795 E0.0326
G1 X82.24501 Y124.48414 E0.05545
G1 X81.01117 Y123.97521 E0.05498
G1 X79.77901 Y123.33383 E0.05722
G1 X78.60102 Y122.57832 E0.05765
G1 X77.53593 Y121.75295 E0.05551
G1 X76.68521 Y120.97405 E0.04752
G1 X76.14893 Y120.41986 E0.03177
G1 X75.25292 Y119.34955 E0.0575
G1 X74.46666 Y118.21823 E0.05676
G1 X73.82394 Y117.09822 E0.0532
G1 X73.47901 Y116.38696 E0.03256
G1 X73.0403 Y115.32277 E0.04742
G1 X72.61227 Y113.96995 E0.05845
G1 X72.31327 Y112.60185 E0.05769
G1 X72.14374 Y111.26493 E0.05552
G1 X72.09296 Y110.11267 E0.04751
G1 X72.10563 Y109.34121 E0.03178
G1 X72.23244 Y107.92376 E0.05863
G1 X72.42903 Y106.79883 E0.04704
G1 X72.61205 Y106.02895 E0.0326
G1 X73.01586 Y104.74501 E0.05545
G1 X73.52479 Y103.51117 E0.05498
G1 X74.16616 Y102.27901 E0.05722
G1 X74.92168 Y101.10101 E0.05765
G1 X75.74706 Y100.03591 E0.05551
G1 X76.52595 Y99.1852 E0.04752
G1 X77.08025 Y98.64883 E0.03178
G1 X78.10525 Y97.79082 E0.05507
M107
G1 X78.35922 Y98.09409 F3600000
M107
G1 F3000
G1 X78.38482 Y98.07265 E0.00138
G1 X79.49694 Y97.29935 E0.0558
G1 X80.60044 Y96.66732 E0.05239
M73 P19 R1
G1 X81.26386 Y96.34568 E0.03037
G1 X82.32763 Y95.90755 E0.04739
G1 X83.63319 Y95.49476 E0.05641
G1 X84.9675 Y95.20333 E0.05626
G1 X86.26204 Y95.03927 E0.05376
G1 X87.40626 Y94.9892 E0.04718
G1 X88.14497 Y95.00182 E0.03044
G1 X89.46056 Y95.11679 E0.0544
G1 X90.77654 Y95.34974 E0.05506
G1 X91.4953 Y95.53038 E0.03053
G1 X92.54337 Y95.86071 E0.04527
G1 X93.86748 Y96.40572 E0.05899
G1 X95.02448 Y97.01014 E0.05378
G1 X96.1399 Y97.72333 E0.05454
G1 X96.72859 Y98.16086 E0.03022
G1 X97.57017 Y98.86687 E0.04525
G1 X98.57269 Y99.86372 E0.05824
G1 X99.4456 Y100.90843 E0.05608
G1 X100.21157 Y102.01426 E0.05542
G1 X100.83298 Y103.10105 E0.05157
G1 X101.15432 Y103.76386 E0.03034
G1 X101.59245 Y104.82763 E0.04739
G1 X102.00523 Y106.13319 E0.05641
G1 X102.29666 Y107.46745 E0.05626
G1 X102.46067 Y108.76118 E0.05372
G1 X102.51081 Y109.89875 E0.04691
G1 X102.4982 Y110.64493 E0.03074
G1 X102.3757 Y112.0162 E0.05672
G1 X102.18157 Y113.12699 E0.04645
G1 X102.00411 Y113.87196 E0.03155
G1 X101.61487 Y115.11069 E0.05349
G1 X101.11229 Y116.32929 E0.0543
G1 X100.48622 Y117.53033 E0.0558
G1 X99.7595 Y118.66335 E0.05545
G1 X98.9551 Y119.70246 E0.05413
G1 X98.1858 Y120.54269 E0.04693
G1 X97.64946 Y121.0612 E0.03073
G1 X96.61591 Y121.92679 E0.05554
G1 X95.5134 Y122.69392 E0.05533
G1 X94.41893 Y123.32252 E0.05199
G1 X93.73031 Y123.65686 E0.03154
G1 X92.67945 Y124.09008 E0.04683
G1 X91.37632 Y124.50249 E0.05631
G1 X90.04303 Y124.79467 E0.05623
G1 X88.7393 Y124.96065 E0.05414
G1 X87.60125 Y125.01081 E0.04693
G1 X86.85507 Y124.9982 E0.03074
G1 X85.4838 Y124.8757 E0.05672
G1 X84.373 Y124.68157 E0.04645
G1 X83.62766 Y124.50402 E0.03156
G1 X82.37226 Y124.10867 E0.05422
M73 P20 R1
G1 X81.17063 Y123.61225 E0.05356
G1 X79.9701 Y122.98648 E0.05577
G1 X78.8367 Y122.25954 E0.05547
G1 X77.79754 Y121.4551 E0.05414
G1 X76.95731 Y120.6858 E0.04693
G1 X76.4388 Y120.14946 E0.03073
G1 X75.57321 Y119.11591 E0.05554
G1 X74.80608 Y118.01339 E0.05533
G1 X74.17748 Y116.91893 E0.05199
G1 X73.84314 Y116.23031 E0.03154
G1 X73.40992 Y115.17945 E0.04683
G1 X72.99751 Y113.87632 E0.05631
G1 X72.70533 Y112.54303 E0.05623
G1 X72.53935 Y111.2393 E0.05414
G1 X72.48919 Y110.10125 E0.04693
G1 X72.5018 Y109.35507 E0.03074
G1 X72.6243 Y107.9838 E0.05672
G1 X72.81843 Y106.873 E0.04645
G1 X72.99598 Y106.12766 E0.03156
G1 X73.39133 Y104.87226 E0.05422
G1 X73.88775 Y103.67063 E0.05356
G1 X74.51352 Y102.4701 E0.05577
G1 X75.24046 Y101.3367 E0.05547
G1 X76.04492 Y100.29752 E0.05414
G1 X76.8142 Y99.45731 E0.04693
G1 X77.35065 Y98.9387 E0.03074
G1 X78.31322 Y98.13261 E0.05172
M107
G1 X78.56756 Y98.43655 F3600000
M107
G1 F3000
G1 X78.6324 Y98.38229 E0.00348
G1 X79.70154 Y97.63892 E0.05364
G1 X80.77965 Y97.02091 E0.05119
G1 X81.42041 Y96.70985 E0.02934
G1 X82.47084 Y96.27722 E0.0468
G1 X83.72677 Y95.88001 E0.05426
G1 X85.02629 Y95.5954 E0.0548
G1 X86.28757 Y95.43488 E0.05238
G1 X87.41752 Y95.38544 E0.04659
G1 X88.13107 Y95.39798 E0.0294
G1 X89.41723 Y95.51086 E0.05319
G1 X90.68688 Y95.73588 E0.05312
G1 X91.38179 Y95.91017 E0.02951
G1 X92.41613 Y96.23618 E0.04468
G1 X93.70809 Y96.76872 E0.05757
G1 X94.83309 Y97.35733 E0.05231
G1 X95.90916 Y98.04566 E0.05262
G1 X96.47836 Y98.46829 E0.02921
G1 X97.30898 Y99.1651 E0.04466
G1 X98.28664 Y100.13822 E0.05683
G1 X99.12497 Y101.1416 E0.05386
G1 X99.87183 Y102.21856 E0.05399
G1 X100.47936 Y103.28018 E0.05039
G1 X100.79015 Y103.92041 E0.02932
M73 P21 R1
G1 X101.22278 Y104.97084 E0.0468
G1 X101.61999 Y106.22677 E0.05426
G1 X101.9046 Y107.52625 E0.0548
G1 X102.06507 Y108.78681 E0.05235
G1 X102.11458 Y109.91012 E0.04632
G1 X102.10203 Y110.63095 E0.0297
G1 X101.98383 Y111.95618 E0.05481
G1 X101.79219 Y113.05277 E0.04586
G1 X101.62022 Y113.77313 E0.03051
G1 X101.23938 Y114.98351 E0.05227
G1 X100.74932 Y116.16983 E0.05288
G1 X100.14771 Y117.32399 E0.05362
G1 X99.44059 Y118.42784 E0.054
G1 X98.65721 Y119.44088 E0.05276
G1 X97.89758 Y120.27055 E0.04634
G1 X97.37915 Y120.77125 E0.02969
G1 X96.38212 Y121.60661 E0.05358
G1 X95.30841 Y122.35458 E0.05391
G1 X94.23947 Y122.96905 E0.05079
G1 X93.57361 Y123.29275 E0.0305
G1 X92.53612 Y123.72046 E0.04623
G1 X91.28251 Y124.1173 E0.05417
G1 X89.98401 Y124.40264 E0.05477
G1 X88.71362 Y124.56505 E0.05276
G1 X87.58988 Y124.61458 E0.04634
G1 X86.86905 Y124.60203 E0.0297
G1 X85.54383 Y124.48383 E0.05481
G1 X84.44722 Y124.29219 E0.04586
G1 X83.72655 Y124.12014 E0.03052
G1 X82.49967 Y123.73326 E0.053
G1 X81.33025 Y123.24936 E0.05214
G1 X80.17644 Y122.64796 E0.0536
G1 X79.07222 Y121.94064 E0.05402
G1 X78.05912 Y121.15721 E0.05276
G1 X77.22945 Y120.39758 E0.04634
G1 X76.72876 Y119.87915 E0.02969
G1 X75.89339 Y118.88212 E0.05358
G1 X75.14542 Y117.80841 E0.05391
G1 X74.53095 Y116.73947 E0.05079
G1 X74.20725 Y116.07361 E0.0305
G1 X73.77954 Y115.03612 E0.04623
G1 X73.3827 Y113.78251 E0.05417
G1 X73.09736 Y112.48401 E0.05477
G1 X72.93495 Y111.21362 E0.05276
G1 X72.88542 Y110.08988 E0.04634
G1 X72.89797 Y109.36905 E0.0297
G1 X73.01617 Y108.04383 E0.05481
G1 X73.20781 Y106.94722 E0.04586
G1 X73.37986 Y106.22655 E0.03052
G1 X73.76674 Y104.99967 E0.053
G1 X74.25064 Y103.83025 E0.05214
G1 X74.85204 Y102.67644 E0.0536
M73 P22 R1
G1 X75.55936 Y101.57222 E0.05402
G1 X76.34281 Y100.5591 E0.05276
G1 X77.10242 Y99.72945 E0.04634
G1 X77.62091 Y99.2287 E0.02969
G1 X78.52154 Y98.47506 E0.04838
M107
G1 X78.77548 Y98.77839 F3600000
M107
G1 F3000
G1 X78.86608 Y98.70255 E0.00487
G1 X79.90628 Y97.9784 E0.05221
G1 X80.95902 Y97.37441 E0.05
G1 X81.57701 Y97.074 E0.02831
G1 X82.614 Y96.6469 E0.0462
G1 X83.83756 Y96.26067 E0.05286
G1 X85.08524 Y95.98743 E0.05262
G1 X86.31316 Y95.83049 E0.051
G1 X87.42873 Y95.78167 E0.046
G1 X88.11703 Y95.79414 E0.02836
G1 X89.35677 Y95.90267 E0.05127
G1 X90.5974 Y96.12206 E0.0519
G1 X91.26832 Y96.28998 E0.02849
G1 X92.2889 Y96.61164 E0.04408
G1 X93.53251 Y97.12417 E0.05541
G1 X94.62693 Y97.69595 E0.05087
G1 X95.67857 Y98.36811 E0.05142
G1 X96.22817 Y98.77575 E0.02819
G1 X97.0478 Y99.46334 E0.04407
G1 X97.98844 Y100.39946 E0.05467
G1 X98.80447 Y101.37496 E0.05239
G1 X99.53218 Y102.42301 E0.05256
G1 X100.12582 Y103.45949 E0.04921
G1 X100.426 Y104.07701 E0.02829
G1 X100.8531 Y105.114 E0.0462
G1 X101.23933 Y106.33756 E0.05286
G1 X101.51256 Y107.58521 E0.05262
G1 X101.66947 Y108.81249 E0.05097
G1 X101.71834 Y109.92143 E0.04573
G1 X101.70587 Y110.61682 E0.02865
G1 X101.59197 Y111.89616 E0.05291
G1 X101.40281 Y112.9785 E0.04526
G1 X101.23636 Y113.67418 E0.02947
G1 X100.8697 Y114.84034 E0.05036
G1 X100.39368 Y115.99464 E0.05144
G1 X99.80907 Y117.11784 E0.05216
G1 X99.12156 Y118.19249 E0.05256
G1 X98.35928 Y119.17934 E0.05137
G1 X97.6094 Y119.99837 E0.04575
G1 X97.10898 Y120.48116 E0.02865
G1 X96.13442 Y121.29707 E0.05236
G1 X95.10334 Y122.0153 E0.05177
G1 X94.05984 Y122.61568 E0.04959
G1 X93.41687 Y122.92866 E0.02946
G1 X92.39285 Y123.35081 E0.04563
G1 X91.17158 Y123.73669 E0.05276
G1 X89.92482 Y124.01064 E0.05259
G1 X88.68789 Y124.16945 E0.05137
M73 P23 R1
G1 X87.57857 Y124.21834 E0.04574
G1 X86.88318 Y124.20587 E0.02865
G1 X85.60384 Y124.09197 E0.05291
G1 X84.52149 Y123.90281 E0.04526
G1 X83.82557 Y123.7363 E0.02948
G1 X82.64307 Y123.36367 E0.05108
G1 X81.50548 Y122.89374 E0.0507
G1 X80.38258 Y122.30932 E0.05215
G1 X79.30756 Y121.6216 E0.05257
G1 X78.32065 Y120.85928 E0.05137
G1 X77.50163 Y120.1094 E0.04575
G1 X77.01884 Y119.60898 E0.02865
G1 X76.20293 Y118.63442 E0.05236
G1 X75.4847 Y117.60334 E0.05177
G1 X74.88432 Y116.55984 E0.04959
G1 X74.57134 Y115.91687 E0.02946
G1 X74.14919 Y114.89285 E0.04563
G1 X73.76331 Y113.67158 E0.05276
G1 X73.48936 Y112.42482 E0.05259
G1 X73.33055 Y111.18789 E0.05137
G1 X73.28166 Y110.07857 E0.04574
G1 X73.29413 Y109.38318 E0.02865
G1 X73.40803 Y108.10384 E0.05291
G1 X73.59719 Y107.02149 E0.04526
G1 X73.7637 Y106.32557 E0.02948
G1 X74.13633 Y105.14307 E0.05108
G1 X74.60625 Y104.00548 E0.0507
G1 X75.19068 Y102.88258 E0.05215
G1 X75.8784 Y101.80756 E0.05257
G1 X76.64073 Y100.82063 E0.05137
G1 X77.3906 Y100.00163 E0.04575
G1 X77.89108 Y99.51879 E0.02865
G1 X78.72948 Y98.81691 E0.04504
M107
G1 X78.9835 Y99.12019 F3600000
M107
G1 F3000
G1 X79.09992 Y99.02269 E0.00626
G1 X80.11117 Y98.3178 E0.05078
G1 X81.13858 Y97.72781 E0.04881
G1 X81.73366 Y97.43813 E0.02727
G1 X82.75717 Y97.01659 E0.0456
G1 X83.93126 Y96.64588 E0.05072
G1 X85.14441 Y96.37944 E0.05117
G1 X86.33879 Y96.22609 E0.04961
G1 X87.43987 Y96.17791 E0.0454
G1 X88.10279 Y96.19029 E0.02731
G1 X89.31342 Y96.29674 E0.05007
G1 X90.50805 Y96.50827 E0.04998
G1 X91.15491 Y96.6698 E0.02747
G1 X92.16161 Y96.98709 E0.04348
G1 X93.37298 Y97.48711 E0.05399
G1 X94.43554 Y98.04314 E0.0494
G1 X95.44809 Y98.69062 E0.04951
G1 X95.97802 Y99.08325 E0.02717
G1 X96.78657 Y99.76154 E0.04348
G1 X97.70229 Y100.67386 E0.05325
G1 X98.49464 Y101.62229 E0.05091
M73 P24 R1
G1 X99.19258 Y102.62756 E0.05041
G1 X99.77238 Y103.63898 E0.04803
G1 X100.06187 Y104.23366 E0.02725
G1 X100.48341 Y105.25717 E0.0456
G1 X100.85411 Y106.43126 E0.05072
G1 X101.12056 Y107.64439 E0.05117
G1 X101.27387 Y108.83822 E0.04958
G1 X101.3221 Y109.93269 E0.04513
G1 X101.30972 Y110.60254 E0.0276
G1 X101.2001 Y111.83617 E0.05102
G1 X101.01344 Y112.90418 E0.04466
G1 X100.85255 Y113.57503 E0.02842
G1 X100.49423 Y114.71311 E0.04915
G1 X100.03072 Y115.83519 E0.05001
G1 X99.46167 Y116.92684 E0.05071
G1 X98.80243 Y117.95728 E0.05039
G1 X98.06132 Y118.91785 E0.04998
G1 X97.32126 Y119.72615 E0.04515
G1 X96.83892 Y120.19097 E0.0276
G1 X95.90052 Y120.97698 E0.05043
