; generated by SuperSlicer 2.5.59.9 on 2024-05-09 at 19:54:55 UTC


;
;

;
;

;
;

;
;

;
;
; 

; external perimeters extrusion width = 0.42mm
; perimeters extrusion width = 0.45mm
; infill extrusion width = 0.45mm
; solid infill extrusion width = 0.45mm
; top infill extrusion width = 0.42mm

; external perimeters extrusion width = 0.42mm
; perimeters extrusion width = 0.45mm
; infill extrusion width = 0.45mm
; solid infill extrusion width = 0.45mm
; top infill extrusion width = 0.42mm

; external perimeters extrusion width = 0.42mm
; perimeters extrusion width = 0.45mm
; infill extrusion width = 0.45mm
; solid infill extrusion width = 0.45mm
; top infill extrusion width = 0.42mm

; object:{"name":"Z-Axis Stepper Odds and Ends_Z-Axis Stepper Thrust Bearing Shim__Main_2024-05-09 15-54-09","id":"Z-Axis Stepper Odds and Ends_Z-Axis Stepper Thrust Bearing Shim__Main_2024-05-09 15-54-09.stl id:0 copy 0","object_center":[80.745004,117.800000,0.000000],"boundingbox_center":[80.745004,117.800000,1.000000],"boundingbox_size":[9.600000,9.600000,2.000000]}
EXCLUDE_OBJECT_DEFINE NAME=Z_Axis_Stepper_Odds_and_Ends_Z_Axis_Stepper_Thrust_Bearing_Shim__Main_2024_05_09_15_54_09_stl_id_0_copy_0 CENTER=80.745004,117.800000 POLYGON=[[75.94,117.80],[75.95,117.59],[75.96,117.38],[75.99,117.17],[76.02,116.97],[76.06,116.76],[76.11,116.56],[76.17,116.36],[76.23,116.16],[76.31,115.96],[76.39,115.77],[76.49,115.58],[76.59,115.40],[76.70,115.22],[76.81,115.05],[76.94,114.88],[77.07,114.71],[77.21,114.56],[77.35,114.41],[77.50,114.26],[77.66,114.12],[77.82,113.99],[77.99,113.87],[78.17,113.75],[78.34,113.64],[78.53,113.54],[78.72,113.45],[78.91,113.37],[79.10,113.29],[79.30,113.22],[79.50,113.16],[79.71,113.11],[79.91,113.07],[80.12,113.04],[80.33,113.02],[80.54,113.00],[80.74,113.00],[80.95,113.00],[81.16,113.02],[81.37,113.04],[81.58,113.07],[81.78,113.11],[81.99,113.16],[82.19,113.22],[82.39,113.29],[82.58,113.37],[82.77,113.45],[82.96,113.54],[83.15,113.64],[83.32,113.75],[83.50,113.87],[83.67,113.99],[83.83,114.12],[83.99,114.26],[84.14,114.41],[84.28,114.56],[84.42,114.71],[84.55,114.88],[84.68,115.05],[84.79,115.22],[84.90,115.40],[85.00,115.58],[85.10,115.77],[85.18,115.96],[85.26,116.16],[85.32,116.36],[85.38,116.56],[85.43,116.76],[85.47,116.97],[85.50,117.17],[85.53,117.38],[85.54,117.59],[85.55,117.80],[85.54,118.01],[85.53,118.22],[85.50,118.43],[85.47,118.63],[85.43,118.84],[85.38,119.04],[85.32,119.24],[85.26,119.44],[85.18,119.64],[85.10,119.83],[85.00,120.02],[84.90,120.20],[84.79,120.38],[84.68,120.55],[84.55,120.72],[84.42,120.89],[84.28,121.04],[84.14,121.19],[83.99,121.34],[83.83,121.48],[83.67,121.61],[83.50,121.73],[83.32,121.85],[83.15,121.96],[82.96,122.06],[82.77,122.15],[82.58,122.23],[82.39,122.31],[82.19,122.38],[81.99,122.44],[81.78,122.49],[81.58,122.53],[81.37,122.56],[81.16,122.58],[80.95,122.60],[80.74,122.60],[80.54,122.60],[80.33,122.58],[80.12,122.56],[79.91,122.53],[79.71,122.49],[79.50,122.44],[79.30,122.38],[79.10,122.31],[78.91,122.23],[78.72,122.15],[78.53,122.06],[78.34,121.96],[78.17,121.85],[77.99,121.73],[77.82,121.61],[77.66,121.48],[77.50,121.34],[77.35,121.19],[77.21,121.04],[77.07,120.89],[76.94,120.72],[76.81,120.55],[76.70,120.38],[76.59,120.20],[76.49,120.02],[76.39,119.83],[76.31,119.64],[76.23,119.44],[76.17,119.24],[76.11,119.04],[76.06,118.84],[76.02,118.63],[75.99,118.43],[75.96,118.22],[75.95,118.01],[75.94,117.80]]
; object:{"name":"Z-Axis Stepper Odds and Ends_Z-Axis Stepper Thrust Bearing Shim__Main_2024-05-09 15-54-09","id":"Z-Axis Stepper Odds and Ends_Z-Axis Stepper Thrust Bearing Shim__Main_2024-05-09 15-54-09.stl id:1 copy 0","object_center":[80.745004,102.200000,0.000000],"boundingbox_center":[80.745004,102.200000,1.000000],"boundingbox_size":[9.600000,9.600000,2.000000]}
EXCLUDE_OBJECT_DEFINE NAME=Z_Axis_Stepper_Odds_and_Ends_Z_Axis_Stepper_Thrust_Bearing_Shim__Main_2024_05_09_15_54_09_stl_id_1_copy_0 CENTER=80.745004,102.200000 POLYGON=[[75.94,102.20],[75.95,101.99],[75.96,101.78],[75.99,101.57],[76.02,101.37],[76.06,101.16],[76.11,100.96],[76.17,100.76],[76.23,100.56],[76.31,100.36],[76.39,100.17],[76.49,99.98],[76.59,99.80],[76.70,99.62],[76.81,99.45],[76.94,99.28],[77.07,99.11],[77.21,98.96],[77.35,98.81],[77.50,98.66],[77.66,98.52],[77.82,98.39],[77.99,98.27],[78.17,98.15],[78.34,98.04],[78.53,97.94],[78.72,97.85],[78.91,97.77],[79.10,97.69],[79.30,97.62],[79.50,97.56],[79.71,97.51],[79.91,97.47],[80.12,97.44],[80.33,97.42],[80.54,97.40],[80.74,97.40],[80.95,97.40],[81.16,97.42],[81.37,97.44],[81.58,97.47],[81.78,97.51],[81.99,97.56],[82.19,97.62],[82.39,97.69],[82.58,97.77],[82.77,97.85],[82.96,97.94],[83.15,98.04],[83.32,98.15],[83.50,98.27],[83.67,98.39],[83.83,98.52],[83.99,98.66],[84.14,98.81],[84.28,98.96],[84.42,99.11],[84.55,99.28],[84.68,99.45],[84.79,99.62],[84.90,99.80],[85.00,99.98],[85.10,100.17],[85.18,100.36],[85.26,100.56],[85.32,100.76],[85.38,100.96],[85.43,101.16],[85.47,101.37],[85.50,101.57],[85.53,101.78],[85.54,101.99],[85.55,102.20],[85.54,102.41],[85.53,102.62],[85.50,102.83],[85.47,103.03],[85.43,103.24],[85.38,103.44],[85.32,103.64],[85.26,103.84],[85.18,104.04],[85.10,104.23],[85.00,104.42],[84.90,104.60],[84.79,104.78],[84.68,104.95],[84.55,105.12],[84.42,105.29],[84.28,105.44],[84.14,105.59],[83.99,105.74],[83.83,105.88],[83.67,106.01],[83.50,106.13],[83.32,106.25],[83.15,106.36],[82.96,106.46],[82.77,106.55],[82.58,106.63],[82.39,106.71],[82.19,106.78],[81.99,106.84],[81.78,106.89],[81.58,106.93],[81.37,106.96],[81.16,106.98],[80.95,107.00],[80.74,107.00],[80.54,107.00],[80.33,106.98],[80.12,106.96],[79.91,106.93],[79.71,106.89],[79.50,106.84],[79.30,106.78],[79.10,106.71],[78.91,106.63],[78.72,106.55],[78.53,106.46],[78.34,106.36],[78.17,106.25],[77.99,106.13],[77.82,106.01],[77.66,105.88],[77.50,105.74],[77.35,105.59],[77.21,105.44],[77.07,105.29],[76.94,105.12],[76.81,104.95],[76.70,104.78],[76.59,104.60],[76.49,104.42],[76.39,104.23],[76.31,104.04],[76.23,103.84],[76.17,103.64],[76.11,103.44],[76.06,103.24],[76.02,103.03],[75.99,102.83],[75.96,102.62],[75.95,102.41],[75.94,102.20]]
; object:{"name":"Z-Axis Stepper Odds and Ends_Z-Axis Stepper Thrust Bearing Shim__Main_2024-05-09 15-54-09","id":"Z-Axis Stepper Odds and Ends_Z-Axis Stepper Thrust Bearing Shim__Main_2024-05-09 15-54-09.stl id:2 copy 0","object_center":[94.254997,110.000000,0.000000],"boundingbox_center":[94.254997,110.000000,1.000000],"boundingbox_size":[9.600000,9.600000,2.000000]}
EXCLUDE_OBJECT_DEFINE NAME=Z_Axis_Stepper_Odds_and_Ends_Z_Axis_Stepper_Thrust_Bearing_Shim__Main_2024_05_09_15_54_09_stl_id_2_copy_0 CENTER=94.254997,110.000000 POLYGON=[[89.45,110.00],[89.46,109.79],[89.47,109.58],[89.50,109.37],[89.53,109.17],[89.57,108.96],[89.62,108.76],[89.68,108.56],[89.74,108.36],[89.82,108.16],[89.90,107.97],[90.00,107.78],[90.10,107.60],[90.21,107.42],[90.32,107.25],[90.45,107.08],[90.58,106.91],[90.72,106.76],[90.86,106.61],[91.01,106.46],[91.17,106.32],[91.33,106.19],[91.50,106.07],[91.68,105.95],[91.85,105.84],[92.04,105.74],[92.23,105.65],[92.42,105.57],[92.61,105.49],[92.81,105.42],[93.01,105.36],[93.22,105.31],[93.42,105.27],[93.63,105.24],[93.84,105.22],[94.05,105.20],[94.25,105.20],[94.46,105.20],[94.67,105.22],[94.88,105.24],[95.09,105.27],[95.29,105.31],[95.50,105.36],[95.70,105.42],[95.90,105.49],[96.09,105.57],[96.28,105.65],[96.47,105.74],[96.66,105.84],[96.83,105.95],[97.01,106.07],[97.18,106.19],[97.34,106.32],[97.50,106.46],[97.65,106.61],[97.79,106.76],[97.93,106.91],[98.06,107.08],[98.19,107.25],[98.30,107.42],[98.41,107.60],[98.51,107.78],[98.61,107.97],[98.69,108.16],[98.77,108.36],[98.83,108.56],[98.89,108.76],[98.94,108.96],[98.98,109.17],[99.01,109.37],[99.04,109.58],[99.05,109.79],[99.05,110.00],[99.05,110.21],[99.04,110.42],[99.01,110.63],[98.98,110.83],[98.94,111.04],[98.89,111.24],[98.83,111.44],[98.77,111.64],[98.69,111.84],[98.61,112.03],[98.51,112.22],[98.41,112.40],[98.30,112.58],[98.19,112.75],[98.06,112.92],[97.93,113.09],[97.79,113.24],[97.65,113.39],[97.50,113.54],[97.34,113.68],[97.18,113.81],[97.01,113.93],[96.83,114.05],[96.66,114.16],[96.47,114.26],[96.28,114.35],[96.09,114.43],[95.90,114.51],[95.70,114.58],[95.50,114.64],[95.29,114.69],[95.09,114.73],[94.88,114.76],[94.67,114.78],[94.46,114.80],[94.25,114.80],[94.05,114.80],[93.84,114.78],[93.63,114.76],[93.42,114.73],[93.22,114.69],[93.01,114.64],[92.81,114.58],[92.61,114.51],[92.42,114.43],[92.23,114.35],[92.04,114.26],[91.85,114.16],[91.68,114.05],[91.50,113.93],[91.33,113.81],[91.17,113.68],[91.01,113.54],[90.86,113.39],[90.72,113.24],[90.58,113.09],[90.45,112.92],[90.32,112.75],[90.21,112.58],[90.10,112.40],[90.00,112.22],[89.90,112.03],[89.82,111.84],[89.74,111.64],[89.68,111.44],[89.62,111.24],[89.57,111.04],[89.53,110.83],[89.50,110.63],[89.47,110.42],[89.46,110.21],[89.45,110.00]]
; plater:{"center":[87.500000,110.000000,0.000000],"boundingbox_center":[87.500000,110.000000,1.000000],"boundingbox_size":[23.109993,25.200000,2.000000]}

M73 P0 R4
M107
;TYPE:Custom
CALCULATE_PA MATERIAL=ASA BOWDEN_LENGTH=6 LAYER_HEIGHT=0.25 NOZZLE_SIZE=0.4 PRINT_SPEED=95


START_PRINT EXTRUDER=260 BED=105

G21 ; set units to millimeters
G90 ; use absolute coordinates
M83 ; use relative distances for extrusion
ACTIVATE_EXTRUDER EXTRUDER=extruder
; Filament gcode
M104 S260 T0 ; set temperature
M109 S260 T0 ; set temperature and wait for it to be reached
M190 S105 ; set bed temperature and wait for it to be reached
;LAYER_CHANGE
;Z:0.24
;HEIGHT:0.24
;BEFORE_LAYER_CHANGE
G92 E0.0

G1 E-0.4 F3000
M73 P8 R3
G1 Z0.16 F3600000
G1 Z0.24
;AFTER_LAYER_CHANGE
;0.24




CALCULATE_PA MATERIAL=ASA BOWDEN_LENGTH=6.0 LAYER_HEIGHT=0.2 NOZZLE_SIZE=0.4 PRINT_SPEED=95


G92 E0
G1 Z0.4
; printing object Z-Axis Stepper Odds and Ends_Z-Axis Stepper Thrust Bearing Shim__Main_2024-05-09 15-54-09.stl id:0 copy 0
EXCLUDE_OBJECT_START NAME=Z_Axis_Stepper_Odds_and_Ends_Z_Axis_Stepper_Thrust_Bearing_Shim__Main_2024_05_09_15_54_09_stl_id_0_copy_0
G1 X76.19499 Y117.201
G1 Z0.24
G1 E0.4 F3000
;TYPE:External perimeter
;WIDTH:0.419999
M107
G1 X76.1601 Y118.00019 E0.02941
G1 X76.26473 Y118.79501 E0.02948
G1 X76.43288 Y119.37191 E0.02209
G1 X76.64091 Y119.8407 E0.01886
G1 X76.91026 Y120.3125 E0.01998
G1 X77.36249 Y120.90185 E0.02731
G1 X77.79655 Y121.31738 E0.02209
G1 X78.15466 Y121.58354 E0.01641
G1 X78.807 Y121.96018 E0.0277
G1 X79.36325 Y122.17649 E0.02194
G1 X80.146 Y122.35002 E0.02948
G1 X80.94519 Y122.3849 E0.02941
G1 X81.74001 Y122.28028 E0.02948
G1 X82.31692 Y122.11212 E0.02209
G1 X82.78571 Y121.9041 E0.01886
G1 X83.2575 Y121.63474 E0.01998
G1 X83.84686 Y121.18251 E0.02731
G1 X84.26239 Y120.74845 E0.02209
G1 X84.52854 Y120.39035 E0.01641
G1 X84.90518 Y119.738 E0.0277
G1 X85.12149 Y119.18175 E0.02194
G1 X85.29502 Y118.399 E0.02948
G1 X85.32991 Y117.59981 E0.02941
G1 X85.22528 Y116.80499 E0.02948
G1 X85.05713 Y116.22809 E0.02209
G1 X84.8491 Y115.7593 E0.01886
G1 X84.57975 Y115.2875 E0.01998
G1 X84.12752 Y114.69815 E0.02731
G1 X83.69345 Y114.28262 E0.02209
G1 X83.33535 Y114.01646 E0.01641
G1 X82.68301 Y113.63982 E0.0277
G1 X82.12299 Y113.42204 E0.02209
G1 X81.69025 Y113.31318 E0.01641
G1 X80.94118 Y113.21457 E0.02778
G1 X80.39251 Y113.23515 E0.02019
G1 X79.74999 Y113.31972 E0.02383
G1 X79.17309 Y113.48788 E0.02209
G1 X78.7043 Y113.6959 E0.01886
G1 X78.2325 Y113.96525 E0.01998
G1 X77.64315 Y114.41749 E0.02731
G1 X77.22762 Y114.85155 E0.02209
G1 X76.96147 Y115.20965 E0.01641
G1 X76.58482 Y115.862 E0.0277
G1 X76.36851 Y116.41825 E0.02194
G1 X76.20797 Y117.14242 E0.02727
M107
;WIPE_START
G1 X76.51928 Y117.43517 F3600000
;WIPE_END
G1 X76.56292 Y117.43949
G1 X77.35713 Y117.55626
G1 X77.74527 Y117.56472
M107
G1 F3000
G1 X77.90295 Y116.81921 E0.02802
G1 X78.08567 Y116.39229 E0.01707
G1 X78.50607 Y115.78962 E0.02702
G1 X79.00463 Y115.34448 E0.02457
G1 X79.45824 Y115.07848 E0.01933
G1 X79.94467 Y114.89845 E0.01907
G1 X80.59348 Y114.79428 E0.02416
G1 X81.02791 Y114.8044 E0.01598
G1 X81.74848 Y114.96293 E0.02713
G1 X82.15272 Y115.14067 E0.01624
G1 X82.75538 Y115.56106 E0.02702
G1 X83.20052 Y116.05963 E0.02457
G1 X83.46653 Y116.51323 E0.01933
G1 X83.68867 Y117.20647 E0.02677
G1 X83.74473 Y118.03528 E0.03054
G1 X83.58706 Y118.78078 E0.02802
G1 X83.40433 Y119.20771 E0.01707
G1 X82.98394 Y119.81038 E0.02702
G1 X82.48538 Y120.25552 E0.02457
G1 X82.03177 Y120.52152 E0.01933
G1 X81.33853 Y120.74366 E0.02677
G1 X80.50973 Y120.79973 E0.03054
G1 X79.76422 Y120.64206 E0.02802
G1 X79.33729 Y120.45933 E0.01707
G1 X78.73462 Y120.03894 E0.02702
G1 X78.28949 Y119.54037 E0.02457
G1 X78.02348 Y119.08677 E0.01933
G1 X77.80134 Y118.39353 E0.02677
G1 X77.74932 Y117.62459 E0.02834
M107
;WIPE_START
G1 X77.42444 Y117.32583 F3600000
;WIPE_END
G1 E-0.4 F3000
G1 X77.38342 Y117.32043 F3600000
G1 X77.40041 Y117.19143
G1 X77.54661 Y116.64578
G1 X77.72573 Y116.23869
M73 P9 R3
G1 X77.88789 Y115.95783
G1 X78.22613 Y115.51702
G1 X78.45546 Y115.28769
G1 X78.8023 Y115.00933
G1 X79.30766 Y114.71757
G1 X79.84726 Y114.52117
G1 X80.16388 Y114.45098
G1 X80.59671 Y114.40358
G1 X81.03202 Y114.41307
G1 X81.35357 Y114.45541
G1 X81.89923 Y114.60161
G1 X82.30631 Y114.78073
G1 X82.58717 Y114.94289
G1 X83.02798 Y115.28113
G1 X83.25731 Y115.51046
G1 X83.53567 Y115.85729
G1 X83.59 Y115.9514
G1 X84.41259 Y115.76999
G1 X84.6544 Y115.63733
G1 E0.4 F3000
;TYPE:Solid infill
;WIDTH:0.389059
M106 S2.55
G1 F2400
G1 X83.50867 Y114.49802 E0.05555
G1 X83.22302 Y114.27883 E0.01238
G1 X82.56009 Y113.89607 E0.02632
G1 X82.21565 Y113.76213 E0.0127
G1 X84.79501 Y116.34148 E0.1254
G1 X84.94715 Y116.86347 E0.01869
G1 X84.97652 Y117.08655 E0.00774
G1 X81.46072 Y113.57076 E0.17093
G1 X80.82436 Y113.49795 E0.02202
G1 X82.15651 Y114.83011 E0.06477
G1 X82.27997 Y114.88492 E0.00464
G1 X82.93855 Y115.34328 E0.02758
G1 X83.43661 Y115.89922 E0.02566
G1 X83.72917 Y116.40276 E0.02002
G1 X85.04124 Y117.71483 E0.06379
G1 X85.01766 Y118.25481 E0.01858
G1 X83.98737 Y117.22452 E0.05009
G1 X84.01824 Y117.81894 E0.02046
G1 X84.931 Y118.73171 E0.04438
G1 X84.84952 Y119.09926 E0.01294
G1 X84.81745 Y119.18172 E0.00304
G1 X83.97228 Y118.33654 E0.04109
G1 X83.87261 Y118.80043 E0.01631
G1 X84.65966 Y119.58748 E0.03826
G1 X84.64893 Y119.61509 E0.00102
G1 X84.45668 Y119.94806 E0.01322
G1 X83.71553 Y119.20691 E0.03603
G1 X83.66103 Y119.33361 E0.00474
G1 X83.50412 Y119.55906 E0.00944
G1 X84.24746 Y120.3024 E0.03614
G1 X83.99719 Y120.61568 E0.01378
G1 X83.27286 Y119.89135 E0.03521
G1 X83.20173 Y119.99355 E0.00428
G1 X82.9959 Y120.17795 E0.0095
G1 X83.72156 Y120.90361 E0.03528
G1 X83.41279 Y121.15839 E0.01376
G1 X82.69865 Y120.44425 E0.03472
G1 X82.35306 Y120.66222 E0.01405
G1 X83.09391 Y121.40308 E0.03602
G1 X82.73563 Y121.60835 E0.0142
G1 X81.96662 Y120.83934 E0.03739
G1 X81.53781 Y120.97408 E0.01545
G1 X82.35383 Y121.79011 E0.03967
G1 X81.92992 Y121.92975 E0.01534
G1 X81.05886 Y121.0587 E0.04235
G1 X80.51889 Y121.08228 E0.01858
G1 X81.467 Y122.03039 E0.04609
G1 X80.96899 Y122.09594 E0.01727
G1 X79.54686 Y120.67381 E0.06914
M107
G1 E-0.4 F3000
G1 X79.43433 Y120.92955 F3600000
G1 X79.1837 Y120.81927
G1 X78.90284 Y120.65711
G1 X78.46202 Y120.31887
G1 X78.2327 Y120.08954
G1 X77.95434 Y119.74271
G1 X77.66258 Y119.23734
G1 X77.46618 Y118.69774
G1 X77.39598 Y118.38112
G1 X77.34858 Y117.9483
G1 X77.35807 Y117.51298
G1 X77.40041 Y117.19143
G1 X77.54661 Y116.64578
G1 X77.72573 Y116.23869
G1 X77.88789 Y115.95783
G1 X78.22613 Y115.51702
G1 X78.45546 Y115.28769
G1 X78.8023 Y115.00933
G1 X79.30766 Y114.71757
G1 X79.84726 Y114.52117
M73 P10 R3
G1 X80.16388 Y114.45098
G1 X80.59671 Y114.40358
G1 X81.03202 Y114.41307
G1 X81.35357 Y114.45541
G1 X81.64995 Y114.53482
G1 X81.57551 Y114.81266
G1 E0.4 F3000
M106 S2.55
G1 F2400
G1 X80.29647 Y113.53361 E0.06218
G1 X79.7997 Y113.60041 E0.01723
G1 X80.71231 Y114.51302 E0.04437
G1 X80.57403 Y114.51046 E0.00475
G1 X80.20471 Y114.56897 E0.01285
G1 X79.36333 Y113.7276 E0.0409
G1 X79.26724 Y113.75561 E0.00344
G1 X78.95649 Y113.88432 E0.01156
G1 X79.74292 Y114.67074 E0.03823
G1 X79.33333 Y114.8247 E0.01504
G1 X78.5903 Y114.08168 E0.03612
G1 X78.43588 Y114.16639 E0.00605
