; generated by SuperSlicer 2.5.59.9 on 2024-05-08 at 01:13:30 UTC


;
;

;
;

;
;

;
;

;
;
; 

; external perimeters extrusion width = 0.40mm
; perimeters extrusion width = 0.40mm
; infill extrusion width = 0.40mm
; solid infill extrusion width = 0.40mm
; top infill extrusion width = 0.40mm

; object:{"name":"Z-Axis Shim","id":"Z-Axis Shim id:0 copy 0","object_center":[30.802258,129.339569,0.000000],"boundingbox_center":[30.802258,129.339569,1.000000],"boundingbox_size":[23.964800,24.000000,2.000000]}
EXCLUDE_OBJECT_DEFINE NAME=Z_Axis_Shim_id_0_copy_0 CENTER=30.802258,129.339569 POLYGON=[[18.82,128.69],[18.96,127.40],[19.24,126.13],[19.65,124.90],[20.20,123.72],[20.87,122.61],[21.66,121.57],[22.55,120.63],[23.54,119.79],[24.62,119.06],[25.76,118.45],[26.97,117.97],[28.22,117.62],[29.50,117.41],[30.80,117.34],[32.10,117.41],[33.38,117.62],[34.63,117.97],[35.84,118.45],[36.99,119.06],[38.06,119.79],[39.05,120.63],[39.95,121.57],[40.73,122.61],[41.40,123.72],[41.95,124.90],[42.36,126.13],[42.64,127.40],[42.78,128.69],[42.78,129.99],[42.64,131.28],[42.36,132.55],[41.95,133.78],[41.40,134.96],[40.73,136.07],[39.95,137.11],[39.05,138.05],[38.06,138.89],[36.99,139.62],[35.84,140.23],[34.63,140.71],[33.38,141.06],[32.10,141.27],[30.80,141.34],[29.50,141.27],[28.22,141.06],[26.97,140.71],[25.76,140.23],[24.62,139.62],[23.54,138.89],[22.55,138.05],[21.66,137.11],[20.87,136.07],[20.20,134.96],[19.65,133.78],[19.24,132.55],[18.96,131.28],[18.82,129.99],[18.82,128.69]]
; plater:{"center":[30.802258,129.339569,0.000000],"boundingbox_center":[30.802258,129.339569,1.000000],"boundingbox_size":[23.964800,24.000000,2.000000]}

M73 P0 R2
M107
;TYPE:Custom
CALCULATE_PA MATERIAL=ASA BOWDEN_LENGTH=6 LAYER_HEIGHT=0.25 NOZZLE_SIZE=0.4 PRINT_SPEED=95


START_PRINT EXTRUDER=260 BED=105

G21 ; set units to millimeters
G90 ; use absolute coordinates
M83 ; use relative distances for extrusion
ACTIVATE_EXTRUDER EXTRUDER=extruder
; Filament gcode
M104 S260 T0 ; set temperature
M109 S260 T0 ; set temperature and wait for it to be reached
M190 S105 ; set bed temperature and wait for it to be reached
;LAYER_CHANGE
;Z:0.24
;HEIGHT:0.24
;BEFORE_LAYER_CHANGE
G92 E0.0

G1 E-0.4 F3000
M73 P13 R2
G1 Z0.24 F3600000
;AFTER_LAYER_CHANGE
;0.24




CALCULATE_PA MATERIAL=ASA BOWDEN_LENGTH=6.0 LAYER_HEIGHT=0.2 NOZZLE_SIZE=0.4 PRINT_SPEED=95


G92 E0
G1 Z0.4
G1 X27.33848 Y112.9251
M73 P14 R2
G1 Z0.24
G1 E0.4 F3000
;TYPE:Skirt
;WIDTH:0.4
;HEIGHT:0.25
M107
G1 X29.12978 Y112.64728 E0.06526
G1 X30.95162 Y112.56451 E0.06565
G1 X32.73194 Y112.67503 E0.06421
G1 X34.48141 Y112.97209 E0.06388
G1 X36.18976 Y113.4523 E0.06388
G1 X37.85426 Y114.11788 E0.06453
G1 X39.42232 Y114.94773 E0.06387
G1 X40.9088 Y115.9497 E0.06453
G1 X42.26651 Y117.09205 E0.06387
G1 X43.49047 Y118.36535 E0.06358
G1 X44.60721 Y119.80789 E0.06567
G1 X45.55512 Y121.35297 E0.06525
G1 X46.43891 Y123.26264 E0.07575
G1 X46.98623 Y124.92257 E0.06292
G1 X47.35547 Y126.6153 E0.06237
G1 X47.54929 Y128.3559 E0.06305
G1 X47.56076 Y130.09985 E0.06278
G1 X47.37951 Y131.91337 E0.06561
G1 X47.00514 Y133.68689 E0.06525
G1 X46.3328 Y135.68273 E0.07582
G1 X45.5778 Y137.284 E0.06373
G1 X44.65586 Y138.80043 E0.06389
G1 X43.56684 Y140.22518 E0.06456
G1 X42.34698 Y141.51126 E0.06381
G1 X41.01423 Y142.64919 E0.06309
G1 X39.57314 Y143.64011 E0.06296
G1 X37.71372 Y144.62565 E0.07576
G1 X36.02545 Y145.28161 E0.0652
G1 X34.27143 Y145.75284 E0.06538
G1 X32.47665 Y146.0317 E0.06539
G1 X30.66596 Y146.11499 E0.06525
G1 X28.91642 Y146.00912 E0.0631
M73 P15 R2
G1 X27.20579 Y145.72542 E0.06242
G1 X25.51665 Y145.26102 E0.06306
G1 X23.89273 Y144.62629 E0.06277
G1 X22.2754 Y143.7868 E0.0656
G1 X20.76636 Y142.78254 E0.06525
G1 X19.16086 Y141.41893 E0.07583
G1 X17.95248 Y140.12446 E0.06375
G1 X16.88557 Y138.70742 E0.06385
G1 X15.9656 Y137.16926 E0.06452
G1 X15.22161 Y135.55843 E0.06387
G1 X14.65193 Y133.87808 E0.06387
G1 X14.25986 Y132.12882 E0.06453
G1 X14.05776 Y130.36574 E0.06388
G1 X14.0437 Y128.58113 E0.06425
G1 X14.22499 Y126.76585 E0.06567
G1 X14.59937 Y124.99226 E0.06525
G1 X15.27173 Y122.99638 E0.07582
G1 X16.02675 Y121.39507 E0.06373
G1 X16.94865 Y119.8787 E0.06388
G1 X18.03768 Y118.45396 E0.06456
G1 X19.25871 Y117.16675 E0.06387
G1 X20.6236 Y116.00445 E0.06454
G1 X22.08859 Y115.0042 E0.06386
G1 X23.65119 Y114.16416 E0.06387
G1 X25.30862 Y113.48861 E0.06443
G1 X27.28067 Y112.94115 E0.07368
M107
G1 X27.373 Y113.27375 F3600000
M107
G1 F3000
G1 X27.40172 Y113.26578 E0.00107
G1 X29.15508 Y112.99283 E0.06388
G1 X30.93963 Y112.91078 E0.06431
G1 X32.68321 Y113.01806 E0.06289
G1 X34.3967 Y113.30804 E0.06256
G1 X36.0699 Y113.77737 E0.06256
G1 X37.70057 Y114.42839 E0.06321
G1 X39.23653 Y115.24017 E0.06254
G1 X40.69302 Y116.22077 E0.06321
G1 X42.02319 Y117.3387 E0.06255
G1 X43.23433 Y118.59866 E0.06291
G1 X44.32747 Y120.01232 E0.06433
G1 X45.25454 Y121.52534 E0.06388
G1 X46.11315 Y123.38068 E0.0736
G1 X46.64976 Y125.00521 E0.06159
M73 P16 R2
G1 X47.01515 Y126.68028 E0.06172
G1 X47.20406 Y128.38506 E0.06175
G1 X47.21436 Y130.09274 E0.06148
G1 X47.03583 Y131.86939 E0.06428
G1 X46.66839 Y133.6053 E0.06388
G1 X46.01525 Y135.54409 E0.07365
G1 X45.26845 Y137.12797 E0.06304
G1 X44.36481 Y138.61247 E0.06256
G1 X43.29738 Y140.00738 E0.06323
G1 X42.10209 Y141.26617 E0.06249
G1 X40.79636 Y142.3798 E0.06178
G1 X39.38522 Y143.34901 E0.06163
G1 X37.57872 Y144.30653 E0.0736
G1 X35.92636 Y144.9496 E0.06383
G1 X34.2088 Y145.41208 E0.06403
G1 X32.45119 Y145.68616 E0.06404
G1 X30.67749 Y145.76871 E0.06392
G1 X28.96416 Y145.66596 E0.06179
G1 X27.27138 Y145.38521 E0.06177
G1 X25.61735 Y144.92951 E0.06176
G1 X24.02755 Y144.30713 E0.06146
G1 X22.44346 Y143.48381 E0.06427
G1 X20.9668 Y142.4999 E0.06388
G1 X19.4072 Y141.17526 E0.07366
G1 X18.21194 Y139.89485 E0.06306
G1 X17.16791 Y138.50661 E0.06253
G1 X16.26766 Y136.99955 E0.06319
G1 X15.53996 Y135.4217 E0.06255
G1 X14.98296 Y133.77578 E0.06255
G1 X14.59988 Y132.06224 E0.06321
G1 X14.40292 Y130.33563 E0.06256
G1 X14.39011 Y128.5879 E0.06292
G1 X14.56867 Y126.80981 E0.06433
G1 X14.93612 Y125.07384 E0.06388
G1 X15.58927 Y123.13503 E0.07365
G1 X16.3361 Y121.5511 E0.06304
G1 X17.23971 Y120.06665 E0.06256
G1 X18.30714 Y118.67176 E0.06323
G1 X19.50352 Y117.41193 E0.06254
G1 X20.84099 Y116.27423 E0.06321
G1 X22.27615 Y115.29551 E0.06253
M73 P17 R2
G1 X23.80692 Y114.47366 E0.06255
G1 X25.42989 Y113.81319 E0.06308
G1 X27.31519 Y113.2898 E0.07044
M107
G1 X27.40753 Y113.62241 F3600000
M107
G1 F3000
G1 X27.4651 Y113.60643 E0.00215
G1 X29.18056 Y113.33837 E0.0625
G1 X30.92784 Y113.25705 E0.06297
G1 X32.63453 Y113.36109 E0.06155
G1 X34.32982 Y113.648 E0.0619
G1 X35.9673 Y114.10831 E0.06123
G1 X37.56342 Y114.74656 E0.06188
G1 X39.06638 Y115.54199 E0.06121
G1 X40.49179 Y116.50281 E0.06188
G1 X41.79316 Y117.5978 E0.06123
G1 X42.97806 Y118.83183 E0.06159
G1 X44.04762 Y120.2166 E0.06299
G1 X44.95388 Y121.69757 E0.0625
G1 X45.78744 Y123.49885 E0.07145
G1 X46.31334 Y125.08803 E0.06026
G1 X46.67193 Y126.7276 E0.06042
G1 X46.85777 Y128.39623 E0.06044
G1 X46.86797 Y130.08559 E0.06082
G1 X46.69218 Y131.82523 E0.06294
G1 X46.33167 Y133.52358 E0.0625
G1 X45.69765 Y135.40557 E0.07149
G1 X44.9678 Y136.95578 E0.06168
G1 X44.07377 Y138.42448 E0.0619
G1 X43.02804 Y139.78943 E0.0619
G1 X41.85734 Y141.02094 E0.06117
G1 X40.57863 Y142.11029 E0.06047
G1 X39.19743 Y143.05782 E0.0603
G1 X37.44359 Y143.98748 E0.07146
G1 X35.82707 Y144.61766 E0.06246
G1 X34.14597 Y145.07134 E0.06268
G1 X32.42554 Y145.34064 E0.06269
G1 X30.68883 Y145.42242 E0.06259
G1 X29.01185 Y145.32279 E0.06048
G1 X27.33702 Y145.04502 E0.06112
G1 X25.71824 Y144.59806 E0.06045
G1 X24.16255 Y143.98804 E0.06015
G1 X22.61169 Y143.18092 E0.06294
G1 X21.16736 Y142.21735 E0.0625
G1 X19.65344 Y140.9315 E0.0715
M73 P18 R2
G1 X18.48309 Y139.67917 E0.0617
G1 X17.46043 Y138.32092 E0.06121
G1 X16.57823 Y136.84597 E0.06187
G1 X15.86503 Y135.30182 E0.06123
M73 P18 R1
G1 X15.31891 Y133.69104 E0.06123
G1 X14.94295 Y132.01378 E0.06188
G1 X14.74809 Y130.30557 E0.06189
G1 X14.73651 Y128.59486 E0.06158
G1 X14.91232 Y126.85396 E0.06299
G1 X15.27284 Y125.15556 E0.0625
G1 X15.90687 Y123.27355 E0.07149
G1 X16.63683 Y121.72316 E0.06169
G1 X17.52048 Y120.26966 E0.06123
G1 X18.56476 Y118.90344 E0.0619
G1 X19.73509 Y117.66965 E0.06122
G1 X21.0439 Y116.55507 E0.06189
G1 X22.4481 Y115.5963 E0.06121
G1 X23.9626 Y114.78319 E0.06188
G1 X25.55102 Y114.13782 E0.06172
G1 X27.34972 Y113.63846 E0.0672
M107
G1 X27.44206 Y113.97108 F3600000
M107
G1 F3000
G1 X27.52863 Y113.94704 E0.00323
G1 X29.20625 Y113.68389 E0.06113
G1 X30.91625 Y113.60333 E0.06163
G1 X32.58605 Y113.70416 E0.06022
G1 X34.24516 Y113.98397 E0.06057
G1 X35.84745 Y114.43339 E0.05991
G1 X37.40973 Y115.05708 E0.06056
G1 X38.88059 Y115.83444 E0.05989
G1 X40.27589 Y116.7738 E0.06055
G1 X41.56309 Y117.85686 E0.06056
G1 X42.72165 Y119.06486 E0.06025
G1 X43.76765 Y120.42071 E0.06165
G1 X44.65315 Y121.86966 E0.06113
G1 X45.46172 Y123.61702 E0.06931
G1 X45.98168 Y125.18822 E0.05958
G1 X46.33161 Y126.79258 E0.05911
G1 X46.51252 Y128.42535 E0.05914
G1 X46.52157 Y130.07824 E0.0595
G1 X46.34856 Y131.78086 E0.06161
G1 X45.99499 Y133.4417 E0.06113
G1 X45.37999 Y135.26719 E0.06934
G1 X44.66704 Y136.78376 E0.06033
M73 P19 R1
G1 X43.79309 Y138.22135 E0.06056
G1 X42.77054 Y139.55762 E0.06057
G1 X41.62566 Y140.76333 E0.05985
G1 X40.37521 Y141.82983 E0.05916
G1 X39.00963 Y142.76664 E0.05962
G1 X37.30831 Y143.66848 E0.06932
G1 X35.7276 Y144.28577 E0.06109
G1 X34.08294 Y144.73065 E0.06133
G1 X32.39969 Y144.99513 E0.06134
G1 X30.69998 Y145.07613 E0.06126
G1 X29.05936 Y144.97959 E0.05916
G1 X27.42024 Y144.7087 E0.05981
G1 X25.83622 Y144.2723 E0.05915
G1 X24.29759 Y143.66897 E0.0595
G1 X22.78009 Y142.87812 E0.0616
G1 X21.36804 Y141.93488 E0.06113
G1 X19.89958 Y140.68763 E0.06936
G1 X18.75422 Y139.46345 E0.06035
G1 X17.74268 Y138.11999 E0.06054
G1 X16.88029 Y136.67626 E0.06054
G1 X16.18338 Y135.16509 E0.05991
G1 X15.64993 Y133.58874 E0.05991
G1 X15.28297 Y131.94726 E0.06055
G1 X15.09327 Y130.2757 E0.06056
G1 X15.08291 Y128.60201 E0.06025
G1 X15.25595 Y126.89831 E0.06165
G1 X15.60952 Y125.23744 E0.06113
G1 X16.22453 Y123.41193 E0.06935
G1 X16.93758 Y121.89518 E0.06033
G1 X17.81161 Y120.4575 E0.06057
G1 X18.83421 Y119.12124 E0.06057
G1 X19.97989 Y117.91483 E0.05989
G1 X21.26129 Y116.82486 E0.06056
G1 X22.63563 Y115.88764 E0.05988
G1 X24.1181 Y115.0928 E0.06055
G1 X25.67202 Y114.4625 E0.06037
G1 X27.38425 Y113.98713 E0.06397
M107
G1 X27.4766 Y114.31976 F3600000
M107
G1 F3000
G1 X27.59231 Y114.28763 E0.00432
G1 X29.23214 Y114.0294 E0.05976
G1 X30.90486 Y113.94962 E0.06028
G1 X32.53777 Y114.04725 E0.05889
G1 X34.16054 Y114.31995 E0.05924
G1 X35.74499 Y114.76436 E0.05924
M73 P20 R1
G1 X37.27257 Y115.37525 E0.05923
G1 X38.71044 Y116.13625 E0.05856
G1 X40.07462 Y117.05581 E0.05922
G1 X41.33288 Y118.11578 E0.05923
G1 X42.46511 Y119.29773 E0.05892
G1 X43.48756 Y120.62466 E0.0603
G1 X44.35234 Y122.04162 E0.05976
G1 X45.13606 Y123.73533 E0.06718
G1 X45.64527 Y125.2711 E0.05825
G1 X45.98837 Y126.83976 E0.0578
G1 X46.16728 Y128.45441 E0.05848
G1 X46.17518 Y130.07069 E0.05818
G1 X46.00496 Y131.7363 E0.06027
G1 X45.65835 Y133.35967 E0.05976
G1 X45.06227 Y135.12896 E0.06721
G1 X44.36618 Y136.61192 E0.05897
G1 X43.51229 Y138.01839 E0.05923
G1 X42.51291 Y139.32596 E0.05925
G1 X41.39394 Y140.50575 E0.05854
G1 X40.1574 Y141.56038 E0.05851
G1 X38.82196 Y142.47538 E0.05828
G1 X37.17289 Y143.34955 E0.06719
G1 X35.62792 Y143.95394 E0.05972
G1 X34.01971 Y144.38999 E0.05998
G1 X32.37364 Y144.64963 E0.05999
G1 X30.71093 Y144.72983 E0.05993
G1 X29.10666 Y144.63636 E0.05785
G1 X27.50342 Y144.37236 E0.05849
G1 X25.93702 Y143.94082 E0.05849
G1 X24.43282 Y143.34998 E0.05818
G1 X22.94866 Y142.57542 E0.06027
G1 X21.56884 Y141.65251 E0.05976
G1 X20.14561 Y140.44365 E0.06722
G1 X19.02522 Y139.24758 E0.059
G1 X18.03517 Y137.93426 E0.05921
G1 X17.19086 Y136.52267 E0.05921
G1 X16.5085 Y135.04534 E0.05858
G1 X15.98097 Y133.48649 E0.05924
G1 X15.62304 Y131.88094 E0.05922
G1 X15.43847 Y130.24604 E0.05923
G1 X15.42931 Y128.60938 E0.05892
G1 X15.59955 Y126.94286 E0.0603
G1 X15.94616 Y125.31946 E0.05976
G1 X16.54225 Y123.55017 E0.06721
M73 P21 R1
G1 X17.23844 Y122.06702 E0.05898
G1 X18.09241 Y120.66047 E0.05924
G1 X19.09174 Y119.35303 E0.05924
G1 X20.22466 Y118.16005 E0.05923
G1 X21.47852 Y117.09477 E0.05923
G1 X22.82298 Y116.17908 E0.05856
G1 X24.27343 Y115.40251 E0.05923
G1 X25.79287 Y114.78723 E0.05901
G1 X27.41878 Y114.33581 E0.06075
M107
G1 X27.51114 Y114.66845 F3600000
M107
G1 F3000
G1 X27.65616 Y114.62819 E0.00542
G1 X29.25824 Y114.37489 E0.05839
G1 X30.89368 Y114.29591 E0.05894
G1 X32.4897 Y114.39037 E0.05756
G1 X34.07613 Y114.65598 E0.0579
G1 X35.62518 Y115.08946 E0.05791
G1 X37.11874 Y115.6857 E0.05789
G1 X38.54024 Y116.43803 E0.0579
G1 X39.87317 Y117.33771 E0.05789
G1 X41.1025 Y118.37457 E0.05789
G1 X42.20842 Y119.53045 E0.05759
G1 X43.20734 Y120.82844 E0.05896
G1 X44.05145 Y122.21344 E0.05839
G1 X44.81045 Y123.85379 E0.06507
G1 X45.30887 Y125.35402 E0.05691
G1 X45.64806 Y126.90483 E0.05715
G1 X45.82201 Y128.48327 E0.05717
G1 X45.8288 Y130.06293 E0.05687
G1 X45.66139 Y131.69154 E0.05894
G1 X45.32175 Y133.27749 E0.05839
G1 X44.74449 Y134.99087 E0.06509
G1 X44.06522 Y136.44027 E0.05762
G1 X43.23136 Y137.8156 E0.0579
G1 X42.25524 Y139.09434 E0.05791
G1 X41.14898 Y140.26072 E0.05787
G1 X39.93976 Y141.2908 E0.05718
G1 X38.63442 Y142.18403 E0.05694
G1 X37.03733 Y143.03068 E0.06507
G1 X35.52805 Y143.62217 E0.05836
G1 X33.95627 Y144.04937 E0.05863
G1 X32.34738 Y144.30415 E0.05864
G1 X30.72182 Y144.38353 E0.05859
G1 X29.13593 Y144.29113 E0.05719
G1 X27.56892 Y144.03214 E0.05718
G1 X26.03802 Y143.60939 E0.05717
M73 P22 R1
G1 X24.56824 Y143.03106 E0.05686
G1 X23.11742 Y142.27281 E0.05893
G1 X21.76978 Y141.37024 E0.05839
G1 X20.39152 Y140.19956 E0.0651
G1 X19.29609 Y139.03154 E0.05765
G1 X18.32754 Y137.74835 E0.05788
G1 X17.5014 Y136.36903 E0.05788
G1 X16.82681 Y134.90852 E0.05791
G1 X16.31208 Y133.38444 E0.05791
G1 X15.96314 Y131.81482 E0.05788
G1 X15.78369 Y130.21659 E0.0579
G1 X15.7757 Y128.61695 E0.05759
G1 X15.94312 Y126.98762 E0.05896
G1 X16.28277 Y125.40165 E0.05839
G1 X16.86003 Y123.68826 E0.06509
G1 X17.53939 Y122.23868 E0.05763
G1 X18.37333 Y120.86326 E0.0579
G1 X19.3494 Y119.58466 E0.05791
G1 X20.45612 Y118.41786 E0.05789
G1 X21.68114 Y117.37582 E0.0579
G1 X23.01029 Y116.47056 E0.05789
G1 X24.42856 Y115.71231 E0.05789
G1 X25.91357 Y115.11201 E0.05766
G1 X27.45333 Y114.6845 E0.05753
M107
G1 X27.54569 Y115.01716 F3600000
M107
G1 F3000
G1 X27.72016 Y114.96872 E0.00652
G1 X29.28455 Y114.72037 E0.05702
G1 X30.88272 Y114.64221 E0.0576
G1 X32.44184 Y114.73352 E0.05622
G1 X33.99192 Y114.99207 E0.05657
G1 X35.50558 Y115.41464 E0.05657
G1 X36.96511 Y115.99625 E0.05656
G1 X38.35433 Y116.73041 E0.05656
G1 X39.65712 Y117.60856 E0.05656
G1 X40.85868 Y118.62073 E0.05656
G1 X41.9517 Y119.76312 E0.05692
G1 X42.92701 Y121.03205 E0.05761
G1 X43.75048 Y122.38512 E0.05702
G1 X44.48489 Y123.97239 E0.06296
G1 X44.97252 Y125.43715 E0.05557
G1 X45.30483 Y126.95207 E0.05583
G1 X45.47571 Y128.49395 E0.05585
G1 X45.48241 Y130.05512 E0.0562
G1 X45.31784 Y131.64656 E0.0576
G1 X44.98519 Y133.19515 E0.05702
G1 X44.42665 Y134.85292 E0.06297
G1 X43.76416 Y136.2688 E0.05627
M73 P23 R1
G1 X42.9504 Y137.61285 E0.05656
G1 X41.98558 Y138.87678 E0.05724
G1 X40.90416 Y140.01555 E0.05653
G1 X39.72228 Y141.02109 E0.05586
G1 X38.44701 Y141.89261 E0.0556
G1 X36.90161 Y142.71188 E0.06297
G1 X35.42796 Y143.29047 E0.05699
G1 X33.89262 Y143.70879 E0.05729
G1 X32.32091 Y143.95869 E0.05729
G1 X30.7325 Y144.03722 E0.05725
G1 X29.18333 Y143.94792 E0.05586
G1 X27.63448 Y143.69192 E0.05651
G1 X26.13921 Y143.27803 E0.05585
G1 X24.70385 Y142.71223 E0.05554
G1 X23.28636 Y141.97032 E0.0576
G1 X21.97085 Y141.08806 E0.05702
G1 X20.63733 Y139.95536 E0.06299
G1 X19.56683 Y138.81534 E0.0563
G1 X18.6198 Y137.56226 E0.05654
G1 X17.81185 Y136.2152 E0.05655
G1 X17.15192 Y134.78872 E0.05658
G1 X16.64811 Y133.30003 E0.05658
G1 X16.30626 Y131.76675 E0.05655
G1 X16.12999 Y130.20555 E0.05656
G1 X16.12209 Y128.62457 E0.05691
G1 X16.28667 Y127.03259 E0.05761
