; generated by SuperSlicer 2.5.59.9 on 2024-05-17 at 06:21:59 UTC


;
;

;
;

;
;

;
;

;
;
; 

; external perimeters extrusion width = 0.42mm
; perimeters extrusion width = 0.42mm
; infill extrusion width = 0.42mm
; solid infill extrusion width = 0.42mm
; top infill extrusion width = 0.42mm
; first layer extrusion width = 0.42mm

; object:{"name":"Z-Offset Guide_Part 1__Main_2024-05-17 02-18-22","id":"Z-Offset Guide_Part 1__Main_2024-05-17 02-18-22.stl id:0 copy 0","object_center":[62.500000,107.500000,0.000000],"boundingbox_center":[62.500000,107.500000,0.500000],"boundingbox_size":[100.000000,125.000000,1.000000]}
EXCLUDE_OBJECT_DEFINE NAME=Z_Offset_Guide_Part_1__Main_2024_05_17_02_18_22_stl_id_0_copy_0 CENTER=62.500000,107.500000 POLYGON=[[12.50,45.00],[112.50,45.00],[112.50,170.00],[12.50,170.00],[12.50,45.00]]
; plater:{"center":[62.500000,107.500000,0.000000],"boundingbox_center":[62.500000,107.500000,0.500000],"boundingbox_size":[100.000000,125.000000,1.000000]}

M73 P0 R47
M107
;TYPE:Custom
CALCULATE_PA MATERIAL=PLA BOWDEN_LENGTH=6 LAYER_HEIGHT=0.24 NOZZLE_SIZE=0.4 PRINT_SPEED=0
START_PRINT EXTRUDER=210 BED=60
SET_VELOCITY_LIMIT ACCEL=500


M107
G21 ; set units to millimeters
G90 ; use absolute coordinates
M83 ; use relative distances for extrusion
ACTIVATE_EXTRUDER EXTRUDER=extruder
; Filament gcode
M104 S210 T0 ; set temperature
M109 S210 T0 ; set temperature and wait for it to be reached
M190 S60 ; set bed temperature and wait for it to be reached
;LAYER_CHANGE
;Z:0.24
;HEIGHT:0.24
;BEFORE_LAYER_CHANGE
G92 E0.0

G1 E-0.4 F3600
G1 Z0.4 F300000
;AFTER_LAYER_CHANGE
;0.24
SET_VELOCITY_LIMIT ACCEL=3000


CALCULATE_PA MATERIAL=PLA BOWDEN_LENGTH=6.0 LAYER_HEIGHT=0.2 NOZZLE_SIZE=0.4 PRINT_SPEED=80


G92 E0
G1 X11.16818 Y40.56793
G1 Z0.24
G1 E0.4 F3600
;TYPE:Skirt
;WIDTH:0.42
M107
G1 F1799.89978
G1 X12.14015 Y40.39379 E.03268
G1 F1800
G1 X47.79287 Y40.39505 Z.24 E1.17981
G1 F1799.99158
G1 X52.44393 Y40.39522 Z.24 E.15391
G1 X57.09499 Y40.39538 Z.24 E.15391
G1 X61.74604 Y40.39555 Z.24 E.15391
G1 X66.3971 Y40.39571 Z.24 E.15391
G1 X71.04816 Y40.39588 Z.24 E.15391
G1 X75.69922 Y40.39604 Z.24 E.15391
G1 X80.35027 Y40.39621 Z.24 E.15391
G1 X85.00134 Y40.39637 Z.24 E.15391
G1 X89.65239 Y40.39654 Z.24 E.15391
G1 X94.30344 Y40.3967 Z.24 E.15391
G1 X98.95451 Y40.39687 Z.24 E.15391
G1 X103.60556 Y40.39703 Z.24 E.15391
G1 X108.25661 Y40.3972 Z.24 E.15391
G1 X112.90768 Y40.39736 Z.24 E.15391
G1 X113.81968 Y40.56475 E0.03068
G1 X114.69499 Y40.92482 E.03132
G1 X115.38979 Y41.39607 E.02778
G1 X115.99739 Y41.9825 E0.02794
G1 X116.48453 Y42.64758 E.02728
G1 X116.8612 Y43.44477 E.02918
G1 X117.1062 Y44.63115 E.04009
G1 X117.1062 Y170.36782 E4.16085
G1 X116.87203 Y171.52525 E.03908
G1 X116.58695 Y172.17083 E0.02335
G1 X116.22303 Y172.74321 E.02245
G1 X115.53333 Y173.48102 E.03342
G1 X114.73305 Y174.0547 E0.03258
G1 X113.83183 Y174.43207 E.03233
G1 X112.85994 Y174.6062 E0.03267
G1 X108.20882 Y174.6062 Z.24 E.15391
M73 P1 R47
G1 X103.5577 Y174.6062 Z.24 E.15391
G1 X98.90659 Y174.6062 Z.24 E.15391
G1 X94.25547 Y174.6062 Z.24 E.15391
G1 X89.60435 Y174.6062 Z.24 E.15391
G1 X84.95323 Y174.6062 Z.24 E.15391
G1 X80.30212 Y174.6062 Z.24 E.15391
G1 X75.65099 Y174.6062 Z.24 E.15391
G1 X70.99989 Y174.6062 Z.24 E.15391
G1 X66.34876 Y174.6062 Z.24 E.15391
G1 X61.69765 Y174.6062 Z.24 E.15391
G1 X57.04653 Y174.6062 Z.24 E.15391
G1 X52.39541 Y174.6062 Z.24 E.15391
G1 F1800
G1 X12.13218 Y174.6062 Z.24 E1.33238
G1 F1799.81409
G1 X10.97471 Y174.37202 E.03908
G1 X10.32914 Y174.08693 E0.02335
G1 X9.75677 Y173.72301 E.02245
G1 X9.01898 Y173.03333 E.03342
G1 X8.4453 Y172.23304 E0.03258
G1 X8.06793 Y171.33182 E.03233
G1 X7.8938 Y170.35994 E0.03267
G1 X7.8938 Y165.70876 Z.24 E.15392
G1 X7.8938 Y161.05756 Z.24 E.15392
G1 X7.8938 Y156.40637 Z.24 E.15392
G1 X7.8938 Y151.75517 Z.24 E.15392
G1 X7.8938 Y147.10399 Z.24 E.15392
G1 X7.8938 Y142.45279 Z.24 E.15392
M73 P1 R46
G1 X7.8938 Y137.80161 Z.24 E.15392
G1 X7.8938 Y133.15041 Z.24 E.15392
G1 X7.8938 Y128.49922 Z.24 E.15392
G1 X7.8938 Y123.84803 Z.24 E.15392
G1 X7.8938 Y119.19684 Z.24 E.15392
G1 X7.8938 Y114.54565 Z.24 E.15392
G1 X7.8938 Y109.89445 Z.24 E.15392
G1 F1800
G1 X7.8938 Y44.63218 Z.24 E2.15964
G1 F1799.77686
G1 X8.12797 Y43.47474 E.03908
G1 X8.41305 Y42.82917 E0.02335
G1 X8.77697 Y42.25679 E.02245
G1 X9.46667 Y41.51898 E.03342
G1 X10.26695 Y40.9453 E0.03258
G1 X11.11284 Y40.5911 E.03035
M107
G1 X11.25341 Y40.93142 F300000
M107
G1 F1796.59119
G1 X11.29047 Y40.91611 E.00133
G1 X12.15635 Y40.76229 E0.0291
G1 F1799.89551
G1 X16.80774 Y40.76245 Z.24 E.15392
G1 X21.45912 Y40.76262 Z.24 E.15392
G1 X26.11051 Y40.76278 Z.24 E.15392
G1 X30.7619 Y40.76295 Z.24 E.15392
G1 X35.41328 Y40.76311 Z.24 E.15392
G1 X40.06467 Y40.76328 Z.24 E.15392
G1 X44.71605 Y40.76344 Z.24 E.15392
G1 X49.36744 Y40.76361 Z.24 E.15392
G1 X54.01883 Y40.76377 Z.24 E.15392
G1 X58.67022 Y40.76394 Z.24 E.15392
G1 X63.3216 Y40.7641 Z.24 E.15392
G1 X67.97298 Y40.76426 Z.24 E.15392
G1 X72.62437 Y40.76443 Z.24 E.15392
G1 F1800
G1 X112.89062 Y40.76585 Z.24 E1.33248
G1 F1799.82153
G1 X113.73293 Y40.92341 E.02836
G1 X114.5358 Y41.2577 E.02878
G1 X115.16858 Y41.69121 E0.02538
G1 X115.72934 Y42.23585 E.02587
G1 X116.17617 Y42.85009 E.02514
G1 X116.51824 Y43.58129 E0.02671
G1 X116.7377 Y44.64983 E.0361
G1 F1800
G1 X116.7377 Y105.2297 Z.24 E2.00469
G1 F1799.99658
G1 X116.7377 Y109.88111 Z.24 E.15392
G1 X116.7377 Y114.53252 Z.24 E.15392
G1 X116.7377 Y119.18393 Z.24 E.15392
G1 X116.7377 Y123.83534 Z.24 E.15392
G1 X116.7377 Y128.48676 Z.24 E.15392
G1 X116.7377 Y133.13817 Z.24 E.15392
G1 X116.7377 Y137.78958 Z.24 E.15392
G1 X116.7377 Y142.44099 Z.24 E.15392
G1 X116.7377 Y147.09239 Z.24 E.15392
G1 X116.7377 Y151.74382 Z.24 E.15392
G1 X116.7377 Y156.39522 Z.24 E.15392
G1 X116.7377 Y161.04663 Z.24 E.15392
G1 X116.7377 Y165.69804 Z.24 E.15392
G1 X116.7377 Y170.34946 Z.24 E.15392
G1 X116.52659 Y171.39548 E0.03531
G1 X116.26839 Y171.98506 E.0213
G1 X115.92139 Y172.53082 E0.0214
G1 X115.27744 Y173.21526 E.0311
G1 X114.53648 Y173.74231 E0.03009
G1 X113.70955 Y174.08388 E.02961
G1 X112.84373 Y174.2377 E.0291
G1 F1800
G1 X77.269 Y174.2377 Z.24 E1.17723
G1 F1799.99524
G1 X72.61768 Y174.2377 Z.24 E.15392
G1 X67.96637 Y174.2377 Z.24 E.15392
G1 X63.31505 Y174.2377 Z.24 E.15392
G1 X58.66373 Y174.2377 Z.24 E.15392
G1 X54.01241 Y174.2377 Z.24 E.15392
G1 X49.36109 Y174.2377 Z.24 E.15392
G1 X44.70977 Y174.2377 Z.24 E.15392
G1 X40.05845 Y174.2377 Z.24 E.15392
G1 X35.40714 Y174.2377 Z.24 E.15392
G1 X30.75582 Y174.2377 Z.24 E.15392
G1 X26.1045 Y174.2377 Z.24 E.15392
G1 X21.45318 Y174.2377 Z.24 E.15392
G1 X16.80186 Y174.2377 Z.24 E.15392
G1 X12.15054 Y174.2377 Z.24 E.15392
G1 X11.1045 Y174.02658 E0.03531
G1 X10.51491 Y173.76837 E.0213
G1 X9.96916 Y173.42138 E0.0214
G1 X9.28475 Y172.77744 E.0311
G1 X8.75769 Y172.03647 E0.03009
G1 X8.41611 Y171.20953 E.02961
G1 X8.2623 Y170.34373 E.0291
G1 F1800
G1 X8.2623 Y109.77033 Z.24 E2.00448
G1 F1799.99658
G1 X8.2623 Y105.11892 Z.24 E.15392
G1 X8.2623 Y100.46751 Z.24 E.15392
G1 X8.2623 Y95.81609 Z.24 E.15392
G1 X8.2623 Y91.16467 Z.24 E.15392
G1 X8.2623 Y86.51326 Z.24 E.15392
G1 X8.2623 Y81.86185 Z.24 E.15392
G1 X8.2623 Y77.21043 Z.24 E.15392
G1 X8.2623 Y72.55902 Z.24 E.15392
G1 X8.2623 Y67.90761 Z.24 E.15392
G1 X8.2623 Y63.25619 Z.24 E.15392
G1 X8.2623 Y58.60478 Z.24 E.15392
G1 X8.2623 Y53.95336 Z.24 E.15392
G1 X8.2623 Y49.30195 Z.24 E.15392
G1 X8.2623 Y44.65054 Z.24 E.15392
G1 X8.47341 Y43.60452 E0.03531
G1 X8.73161 Y43.01494 E.0213
G1 X9.07861 Y42.46918 E0.0214
G1 X9.72256 Y41.78475 E.0311
G1 X10.46352 Y41.25769 E0.03009
G1 X11.19796 Y40.95432 E.0263
M107
G1 X11.3388 Y41.29066 F300000
M107
G1 F1797.58838
G1 X11.37586 Y41.27514 E.00133
G1 X12.17286 Y41.13079 E0.0268
G1 F1799.67126
G1 X16.8231 Y41.13095 Z.24 E.15388
G1 X21.47335 Y41.13112 Z.24 E.15388
G1 X26.12359 Y41.13128 Z.24 E.15388
G1 X30.77384 Y41.13145 Z.24 E.15388
G1 X35.42408 Y41.13161 Z.24 E.15388
G1 X40.07433 Y41.13177 Z.24 E.15388
G1 X44.72457 Y41.13194 Z.24 E.15388
G1 X49.37481 Y41.13211 Z.24 E.15388
G1 X54.02505 Y41.13227 Z.24 E.15388
G1 X58.6753 Y41.13243 Z.24 E.15388
G1 X63.32554 Y41.1326 Z.24 E.15388
G1 X67.97579 Y41.13276 Z.24 E.15388
G1 X72.62603 Y41.13293 Z.24 E.15388
G1 X112.87321 Y41.13435 Z.24 E1.33185
G1 X113.64473 Y41.28172 E0.02599
G1 X114.37502 Y41.58982 E.02623
G1 X114.94601 Y41.9853 E0.02298
G1 X115.46043 Y42.48829 E.02381
G1 X115.86705 Y43.05145 E.02299
G1 X116.17482 Y43.71662 E0.02425
G1 X116.36921 Y44.6684 E.03215
G1 X116.36921 Y170.33115 E4.1584
M73 P2 R46
G1 X116.18112 Y171.26575 E.03155
G1 X115.93665 Y171.82397 E.02017
G1 X115.62032 Y172.31767 E.0194
G1 X115.04786 Y172.92646 E0.02765
G1 X114.37484 Y173.41051 E.02743
G1 X113.62414 Y173.72485 E.02693
G1 X112.82721 Y173.86921 E0.0268
G1 X108.17603 Y173.86922 Z.24 E.15392
G1 X103.52484 Y173.86922 Z.24 E.15392
G1 X98.87366 Y173.86922 Z.24 E.15392
G1 X94.22247 Y173.86922 Z.24 E.15392
G1 X89.57129 Y173.86922 Z.24 E.15392
G1 X84.9201 Y173.86922 Z.24 E.15392
G1 X80.26892 Y173.86922 Z.24 E.15392
G1 X75.61774 Y173.86922 Z.24 E.15392
G1 X70.96655 Y173.86922 Z.24 E.15392
G1 X66.31537 Y173.86922 Z.24 E.15392
G1 X61.66418 Y173.86922 Z.24 E.15392
G1 X57.013 Y173.86922 Z.24 E.15392
G1 X52.36182 Y173.86922 Z.24 E.15392
G1 F1800
G1 X12.16885 Y173.86922 Z.24 E1.33006
G1 F1799.91321
G1 X11.23423 Y173.68111 E.03155
G1 X10.676 Y173.43665 E.02017
G1 X10.18231 Y173.1203 E.0194
G1 X9.57354 Y172.54786 E0.02765
G1 X9.0895 Y171.87485 E.02743
G1 X8.77513 Y171.12413 E.02693
G1 X8.63079 Y170.32721 E0.0268
G1 X8.63079 Y165.67596 Z.24 E.15392
G1 X8.63079 Y161.0247 Z.24 E.15392
G1 X8.63079 Y156.37346 Z.24 E.15392
G1 X8.63079 Y151.7222 Z.24 E.15392
G1 X8.63079 Y147.07095 Z.24 E.15392
G1 X8.63079 Y142.41971 Z.24 E.15392
G1 X8.63079 Y137.76845 Z.24 E.15392
G1 X8.63079 Y133.1172 Z.24 E.15392
G1 X8.63079 Y128.46596 Z.24 E.15392
G1 X8.63079 Y123.8147 Z.24 E.15392
G1 X8.63079 Y119.16345 Z.24 E.15392
G1 X8.63079 Y114.51219 Z.24 E.15392
G1 X8.63079 Y109.86095 Z.24 E.15392
G1 F1800
G1 X8.63079 Y44.66885 Z.24 E2.15733
G1 F1799.87085
G1 X8.81888 Y43.73425 E.03155
G1 X9.06335 Y43.17602 E.02017
G1 X9.37968 Y42.68232 E.0194
G1 X9.95214 Y42.07354 E0.02765
G1 X10.62516 Y41.5895 E.02743
G1 X11.28346 Y41.31383 E.02362
M107
G1 X11.42612 Y41.64939 F300000
M107
G1 F1797.80627
G1 X11.46278 Y41.6338 E.00132
G1 X12.18972 Y41.49928 E0.02446
G1 F1799.69104
G1 X16.84056 Y41.49944 Z.24 E.1539
G1 X21.4914 Y41.49961 Z.24 E.1539
G1 X26.14224 Y41.49977 Z.24 E.15391
G1 X30.79308 Y41.49994 Z.24 E.1539
G1 X35.44391 Y41.5001 Z.24 E.1539
G1 X40.09475 Y41.50026 Z.24 E.1539
G1 X44.74559 Y41.50043 Z.24 E.15391
G1 X49.39643 Y41.5006 Z.24 E.1539
G1 X54.04727 Y41.50076 Z.24 E.1539
G1 X58.69811 Y41.50092 Z.24 E.1539
G1 X63.34894 Y41.50109 Z.24 E.1539
G1 X67.99979 Y41.50125 Z.24 E.15391
G1 X72.65062 Y41.50142 Z.24 E.1539
G1 F1800
G1 X112.8554 Y41.50284 Z.24 E1.33045
G1 F1799.6908
G1 X113.55489 Y41.63962 E.02359
G1 X114.21247 Y41.92108 E0.02367
G1 X114.72192 Y42.27823 E.02059
G1 X115.1906 Y42.73975 E.02177
G1 X115.5571 Y43.25155 E0.02083
G1 X115.83092 Y43.85065 E.0218
G1 X116.00071 Y44.68687 E.02824
G1 X116.00071 Y170.31288 E4.15719
G1 X115.83527 Y171.13708 E.02782
G1 X115.61838 Y171.63767 E0.01805
G1 X115.31944 Y172.10422 E.01834
G1 X114.79227 Y172.66045 E.02536
G1 X114.21172 Y173.07944 E.02369
G1 X113.53723 Y173.3662 E0.02425
G1 X112.81034 Y173.50072 E.02446
G1 X108.15919 Y173.50072 Z.24 E.15392
G1 X103.50806 Y173.50072 Z.24 E.15392
G1 X98.85691 Y173.50072 Z.24 E.15391
G1 X94.20576 Y173.50072 Z.24 E.15392
G1 X89.55462 Y173.50072 Z.24 E.15392
G1 X84.90348 Y173.50072 Z.24 E.15392
G1 X80.25233 Y173.50072 Z.24 E.15391
G1 X75.60119 Y173.50072 Z.24 E.15392
G1 X70.95005 Y173.50072 Z.24 E.15392
G1 X66.2989 Y173.50072 Z.24 E.15392
G1 X61.64776 Y173.50072 Z.24 E.15392
G1 X56.99662 Y173.50072 Z.24 E.15391
G1 X52.34547 Y173.50072 Z.24 E.15392
G1 F1800
G1 X12.18711 Y173.50072 Z.24 E1.32891
G1 F1799.75488
G1 X11.3629 Y173.33527 E.02782
G1 X10.86231 Y173.11836 E0.01805
G1 X10.39576 Y172.81943 E.01834
G1 X9.83955 Y172.29227 E.02536
G1 X9.42057 Y171.71172 E.02369
G1 X9.1338 Y171.03722 E0.02425
G1 X8.99929 Y170.31033 E.02446
G1 X8.99929 Y165.65913 Z.24 E.15392
G1 X8.99929 Y161.00792 Z.24 E.15392
G1 X8.99929 Y156.35672 Z.24 E.15392
G1 X8.99929 Y151.70551 Z.24 E.15392
G1 X8.99929 Y147.05431 Z.24 E.15392
G1 X8.99929 Y142.40309 Z.24 E.15392
G1 X8.99929 Y137.75189 Z.24 E.15392
G1 X8.99929 Y133.10068 Z.24 E.15392
G1 X8.99929 Y128.44948 Z.24 E.15392
G1 X8.99929 Y123.79827 Z.24 E.15392
G1 X8.99929 Y119.14707 Z.24 E.15392
G1 X8.99929 Y114.49586 Z.24 E.15392
G1 X8.99929 Y109.84466 Z.24 E.15392
G1 F1800
G1 X8.99929 Y44.68712 Z.24 E2.15618
G1 F1799.74121
G1 X9.16473 Y43.86292 E.02782
G1 X9.38162 Y43.36233 E0.01805
G1 X9.68056 Y42.89578 E.01834
G1 X10.20773 Y42.33955 E.02536
G1 X10.78828 Y41.92057 E0.02369
G1 X11.3709 Y41.67286 E.02095
M107
G1 X11.51508 Y42.01198 F300000
M107
G1 F1800
G1 X11.5882 Y41.9809 E0.00263
G1 F1799.30493
G1 X12.20639 Y41.86778 E.0208
G1 X112.83712 Y41.87134 E3.33005
M73 P3 R46
G1 X113.46317 Y41.99705 E.02113
G1 X114.04796 Y42.25137 E0.0211
G1 X114.49618 Y42.56987 E.0182
G1 X114.91979 Y42.99016 E.01975
G1 X115.24624 Y43.45023 E0.01867
G1 X115.48647 Y43.98321 E.01935
G1 X115.63222 Y44.70524 E.02438
G1 X115.63222 Y170.29466 E4.15598
G1 X115.48902 Y171.00957 E.02413
G1 X115.29903 Y171.45322 E.01597
G1 X115.03961 Y171.86379 E0.01607
G1 X114.53654 Y172.39459 E.0242
G1 X114.04843 Y172.74844 E.01995
G1 X113.41181 Y173.0191 E0.02289
G1 X112.79366 Y173.13222 E.0208
G1 X12.20534 Y173.13222 E3.32865
M73 P3 R45
G1 X11.49042 Y172.98901 E.02413
G1 X11.04677 Y172.79903 E.01597
G1 X10.63619 Y172.53959 E0.01607
G1 X10.10541 Y172.03654 E.0242
G1 X9.75156 Y171.54843 E.01995
G1 X9.4809 Y170.9118 E.02289
G1 X9.36778 Y170.29366 E0.02079
G1 X9.36778 Y165.64317 Z.24 E.15389
G1 X9.36778 Y160.99268 Z.24 E.15389
G1 X9.36778 Y156.34219 Z.24 E.15389
G1 X9.36778 Y151.69171 Z.24 E.15389
G1 X9.36778 Y147.04121 Z.24 E.15389
G1 X9.36778 Y142.39073 Z.24 E.15389
G1 X9.36778 Y137.74023 Z.24 E.15389
G1 X9.36778 Y133.08975 Z.24 E.15389
G1 X9.36778 Y128.43927 Z.24 E.15389
G1 X9.36778 Y123.78878 Z.24 E.15389
G1 X9.36778 Y119.13829 Z.24 E.15389
G1 X9.36778 Y114.4878 Z.24 E.15389
G1 X9.36778 Y109.83732 Z.24 E.15389
G1 F1800
G1 X9.36778 Y44.70534 Z.24 E2.15533
G1 F1799.52917
G1 X9.51098 Y43.99044 E.02413
G1 X9.70097 Y43.54679 E.01597
G1 X9.96039 Y43.13621 E0.01607
G1 X10.46346 Y42.60541 E.0242
G1 X10.95157 Y42.25156 E.01995
G1 X11.45986 Y42.03546 E.01828
M107
G1 X11.60483 Y42.37028 F300000
M107
G1 F1799.43518
G1 X11.67653 Y42.33924 E.00259
G1 X12.22353 Y42.23627 E0.01842
G1 X47.70997 Y42.23753 Z.24 E1.17431
G1 X52.36061 Y42.23769 Z.24 E.1539
G1 X57.01125 Y42.23785 Z.24 E.15389
G1 X61.66189 Y42.23802 Z.24 E.1539
G1 X66.31253 Y42.23819 Z.24 E.1539
G1 X70.96317 Y42.23835 Z.24 E.1539
G1 X75.61381 Y42.23851 Z.24 E.15389
G1 X80.26445 Y42.23868 Z.24 E.1539
G1 X84.91508 Y42.23884 Z.24 E.1539
G1 X89.56573 Y42.23901 Z.24 E.15389
G1 X94.21636 Y42.23917 Z.24 E.1539
G1 X98.867 Y42.23934 Z.24 E.1539
G1 X103.51764 Y42.2395 Z.24 E.1539
G1 X108.16828 Y42.23967 Z.24 E.15389
G1 X112.81892 Y42.23983 Z.24 E.1539
G1 X113.33422 Y42.34281 E0.01739
G1 X113.8828 Y42.58137 E.0198
G1 X114.26846 Y42.85996 E0.01574
G1 X114.64794 Y43.23944 E.01776
G1 X114.93436 Y43.64731 E0.01649
G1 X115.14143 Y44.11413 E.0169
G1 X115.26372 Y44.7235 E.02057
G1 X115.26372 Y170.27648 E4.15477
G1 X115.14275 Y170.88208 E.02044
G1 X114.96624 Y171.29427 E.01484
G1 X114.73876 Y171.65024 E0.01398
G1 X114.28161 Y172.12801 E.02188
G1 X113.88329 Y172.4184 E.01631
G1 X113.32347 Y172.66077 E.02019
G1 X112.77651 Y172.76372 E0.01842
G1 X108.12493 Y172.76372 Z.24 E.15393
G1 X103.47336 Y172.76372 Z.24 E.15393
G1 X98.82178 Y172.76372 Z.24 E.15392
G1 X94.1702 Y172.76372 Z.24 E.15393
G1 X89.51862 Y172.76372 Z.24 E.15393
G1 X84.86704 Y172.76372 Z.24 E.15393
G1 X80.21546 Y172.76372 Z.24 E.15392
G1 X75.56388 Y172.76372 Z.24 E.15393
G1 X70.91231 Y172.76372 Z.24 E.15393
G1 X66.26073 Y172.76372 Z.24 E.15393
G1 X61.60915 Y172.76372 Z.24 E.15393
G1 X56.95757 Y172.76372 Z.24 E.15392
